ncols         205
nrows         263
xllcorner     418822.332194
yllcorner     5286157.9304
cellsize      10
NODATA_value  -9999
-9999 -9999 -9999 -9999 -9999 -9999 -9999 -9999 -9999 -9999 -9999 -9999 -9999 -9999 -9999 -9999 -9999 -9999 -9999 -9999 -9999 -9999 -9999 -9999 -9999 -9999 -9999 -9999 -9999 -9999 -9999 -9999 -9999 -9999 -9999 -9999 -9999 -9999 -9999 -9999 -9999 -9999 -9999 -9999 -9999 -9999 -9999 -9999 -9999 -9999 -9999 -9999 -9999 -9999 -9999 -9999 -9999 -9999 -9999 -9999 -9999 -9999 -9999 -9999 -9999 -9999 -9999 -9999 -9999 -9999 -9999 -9999 -9999 -9999 -9999 -9999 -9999 -9999 -9999 -9999 -9999 -9999 -9999 -9999 -9999 -9999 -9999 -9999 -9999 -9999 -9999 -9999 -9999 -9999 -9999 -9999 -9999 -9999 -9999 -9999 -9999 -9999 -9999 -9999 -9999 -9999 -9999 -9999 -9999 -9999 -9999 -9999 -9999 -9999 -9999 -9999 -9999 -9999 -9999 -9999 -9999 -9999 -9999 -9999 -9999 -9999 -9999 -9999 -9999 -9999 -9999 -9999 -9999 -9999 -9999 -9999 -9999 -9999 -9999 -9999 -9999 -9999 -9999 -9999 -9999 -9999 -9999 -9999 -9999 -9999 -9999 -9999 -9999 -9999 -9999 -9999 -9999 -9999 -9999 -9999 -9999 -9999 -9999 -9999 -9999 -9999 -9999 -9999 -9999 -9999 -9999 -9999 -9999 -9999 -9999 -9999 -9999 -9999 -9999 -9999 -9999 -9999 -9999 -9999 -9999 -9999 -9999 -9999 -9999 -9999 -9999 -9999 -9999 -9999 -9999 -9999 -9999 -9999 -9999 -9999 -9999 -9999 -9999 -9999 -9999 
-9999 -9999 -9999 -9999 -9999 -9999 -9999 -9999 -9999 -9999 -9999 -9999 -9999 -9999 -9999 -9999 -9999 -9999 -9999 -9999 -9999 -9999 -9999 -9999 -9999 -9999 -9999 -9999 -9999 -9999 -9999 -9999 -9999 -9999 -9999 -9999 -9999 -9999 -9999 -9999 -9999 -9999 -9999 -9999 -9999 -9999 -9999 -9999 -9999 -9999 -9999 -9999 -9999 -9999 -9999 -9999 -9999 -9999 -9999 -9999 -9999 -9999 -9999 -9999 -9999 -9999 -9999 -9999 -9999 -9999 -9999 -9999 -9999 -9999 -9999 -9999 -9999 -9999 -9999 -9999 -9999 -9999 -9999 -9999 -9999 -9999 -9999 -9999 -9999 -9999 -9999 -9999 -9999 -9999 -9999 -9999 -9999 -9999 -9999 -9999 -9999 -9999 -9999 -9999 -9999 -9999 -9999 -9999 -9999 -9999 -9999 -9999 -9999 -9999 -9999 -9999 -9999 -9999 -9999 -9999 -9999 -9999 -9999 -9999 -9999 -9999 -9999 -9999 -9999 -9999 -9999 -9999 -9999 -9999 -9999 -9999 -9999 -9999 -9999 -9999 -9999 -9999 -9999 -9999 -9999 -9999 -9999 -9999 -9999 -9999 -9999 -9999 -9999 -9999 -9999 -9999 -9999 -9999 -9999 -9999 -9999 -9999 -9999 -9999 -9999 -9999 -9999 -9999 -9999 -9999 -9999 -9999 -9999 -9999 -9999 -9999 -9999 -9999 -9999 -9999 -9999 -9999 -9999 -9999 -9999 -9999 -9999 -9999 -9999 -9999 -9999 -9999 -9999 -9999 -9999 -9999 -9999 -9999 -9999 -9999 -9999 -9999 -9999 -9999 -9999 
-9999 -9999 -9999 -9999 -9999 -9999 -9999 -9999 -9999 -9999 -9999 -9999 -9999 -9999 -9999 -9999 -9999 -9999 -9999 -9999 -9999 -9999 -9999 -9999 -9999 -9999 -9999 -9999 -9999 -9999 -9999 -9999 -9999 -9999 -9999 -9999 -9999 -9999 -9999 -9999 -9999 -9999 -9999 -9999 -9999 -9999 -9999 -9999 -9999 -9999 -9999 -9999 -9999 -9999 -9999 -9999 -9999 -9999 -9999 -9999 -9999 -9999 -9999 -9999 -9999 -9999 -9999 -9999 -9999 -9999 -9999 -9999 -9999 -9999 -9999 -9999 -9999 -9999 -9999 -9999 -9999 -9999 -9999 -9999 -9999 -9999 -9999 -9999 -9999 -9999 -9999 -9999 -9999 -9999 -9999 -9999 -9999 -9999 -9999 -9999 -9999 -9999 -9999 -9999 -9999 -9999 -9999 -9999 -9999 -9999 -9999 -9999 -9999 -9999 -9999 -9999 -9999 -9999 -9999 -9999 -9999 -9999 -9999 -9999 -9999 -9999 -9999 -9999 -9999 -9999 -9999 -9999 -9999 -9999 -9999 -9999 -9999 -9999 -9999 -9999 -9999 -9999 -9999 -9999 -9999 -9999 -9999 -9999 -9999 -9999 -9999 -9999 -9999 -9999 -9999 -9999 -9999 -9999 -9999 -9999 -9999 -9999 -9999 -9999 -9999 -9999 -9999 -9999 -9999 -9999 -9999 -9999 -9999 -9999 -9999 -9999 -9999 -9999 -9999 -9999 -9999 -9999 -9999 -9999 -9999 -9999 -9999 -9999 -9999 -9999 -9999 -9999 -9999 -9999 -9999 -9999 -9999 -9999 -9999 -9999 -9999 -9999 -9999 -9999 -9999 
-9999 -9999 -9999 -9999 -9999 -9999 -9999 -9999 -9999 -9999 -9999 -9999 -9999 -9999 -9999 -9999 -9999 -9999 -9999 -9999 -9999 -9999 -9999 -9999 -9999 -9999 -9999 -9999 -9999 -9999 -9999 -9999 -9999 -9999 -9999 -9999 -9999 -9999 -9999 -9999 -9999 -9999 -9999 -9999 -9999 -9999 -9999 -9999 -9999 -9999 -9999 -9999 -9999 -9999 -9999 -9999 -9999 -9999 -9999 -9999 -9999 -9999 -9999 -9999 -9999 -9999 -9999 -9999 -9999 -9999 -9999 -9999 -9999 -9999 -9999 -9999 -9999 -9999 -9999 -9999 -9999 -9999 -9999 -9999 -9999 -9999 -9999 -9999 -9999 -9999 -9999 -9999 -9999 -9999 -9999 -9999 -9999 -9999 -9999 -9999 -9999 -9999 -9999 -9999 -9999 -9999 -9999 -9999 -9999 -9999 -9999 -9999 -9999 -9999 -9999 -9999 -9999 -9999 -9999 -9999 -9999 -9999 -9999 -9999 -9999 -9999 -9999 -9999 -9999 -9999 -9999 -9999 -9999 -9999 -9999 -9999 -9999 -9999 -9999 -9999 -9999 -9999 -9999 -9999 -9999 -9999 -9999 -9999 -9999 -9999 -9999 -9999 -9999 -9999 -9999 -9999 -9999 -9999 -9999 -9999 -9999 -9999 -9999 -9999 -9999 -9999 -9999 -9999 -9999 -9999 -9999 -9999 -9999 -9999 -9999 -9999 -9999 -9999 -9999 -9999 -9999 -9999 -9999 -9999 -9999 -9999 -9999 -9999 -9999 -9999 -9999 -9999 -9999 -9999 -9999 -9999 -9999 -9999 -9999 -9999 -9999 -9999 -9999 -9999 -9999 
-9999 -9999 -9999 -9999 -9999 -9999 -9999 -9999 -9999 -9999 -9999 -9999 -9999 -9999 -9999 -9999 -9999 -9999 -9999 -9999 -9999 -9999 -9999 -9999 -9999 -9999 -9999 -9999 -9999 -9999 -9999 -9999 -9999 -9999 -9999 -9999 -9999 -9999 -9999 -9999 -9999 -9999 -9999 -9999 -9999 -9999 -9999 -9999 -9999 -9999 -9999 -9999 -9999 -9999 -9999 -9999 -9999 -9999 -9999 -9999 -9999 -9999 -9999 -9999 -9999 -9999 -9999 -9999 -9999 -9999 -9999 -9999 -9999 -9999 -9999 -9999 -9999 -9999 -9999 -9999 -9999 -9999 -9999 -9999 -9999 -9999 -9999 -9999 -9999 -9999 -9999 -9999 -9999 -9999 -9999 -9999 -9999 -9999 -9999 -9999 -9999 -9999 -9999 -9999 -9999 -9999 -9999 -9999 -9999 -9999 -9999 -9999 -9999 -9999 -9999 -9999 -9999 -9999 -9999 -9999 -9999 -9999 -9999 -9999 -9999 -9999 -9999 -9999 -9999 -9999 -9999 -9999 -9999 -9999 -9999 -9999 -9999 -9999 -9999 -9999 -9999 -9999 -9999 -9999 -9999 -9999 -9999 -9999 -9999 -9999 -9999 -9999 -9999 -9999 -9999 -9999 -9999 -9999 -9999 -9999 -9999 -9999 -9999 -9999 -9999 -9999 -9999 -9999 -9999 -9999 -9999 -9999 -9999 -9999 -9999 -9999 -9999 -9999 -9999 -9999 -9999 -9999 -9999 -9999 -9999 -9999 -9999 -9999 -9999 -9999 -9999 -9999 -9999 -9999 -9999 -9999 -9999 -9999 -9999 -9999 -9999 -9999 -9999 -9999 -9999 
-9999 -9999 -9999 -9999 -9999 -9999 -9999 -9999 -9999 -9999 -9999 -9999 -9999 -9999 -9999 -9999 -9999 -9999 -9999 -9999 -9999 -9999 -9999 -9999 -9999 -9999 -9999 -9999 -9999 -9999 -9999 -9999 -9999 -9999 -9999 -9999 -9999 -9999 -9999 -9999 -9999 -9999 -9999 -9999 -9999 -9999 -9999 -9999 -9999 -9999 -9999 -9999 -9999 -9999 -9999 -9999 -9999 -9999 -9999 -9999 -9999 -9999 -9999 -9999 -9999 -9999 -9999 -9999 -9999 -9999 -9999 -9999 -9999 -9999 -9999 -9999 -9999 -9999 -9999 -9999 -9999 -9999 -9999 -9999 -9999 -9999 -9999 -9999 -9999 -9999 -9999 -9999 -9999 -9999 -9999 -9999 -9999 -9999 -9999 -9999 -9999 -9999 -9999 -9999 -9999 -9999 -9999 -9999 -9999 -9999 -9999 -9999 -9999 -9999 -9999 -9999 -9999 -9999 -9999 -9999 -9999 -9999 -9999 -9999 -9999 -9999 -9999 -9999 -9999 -9999 -9999 -9999 -9999 -9999 -9999 -9999 -9999 -9999 -9999 -9999 -9999 -9999 -9999 -9999 -9999 -9999 -9999 -9999 -9999 -9999 -9999 -9999 -9999 -9999 -9999 -9999 -9999 -9999 -9999 -9999 -9999 -9999 -9999 -9999 -9999 -9999 -9999 -9999 -9999 -9999 -9999 -9999 -9999 -9999 -9999 -9999 -9999 -9999 -9999 -9999 -9999 -9999 -9999 -9999 -9999 -9999 -9999 -9999 -9999 -9999 -9999 -9999 -9999 -9999 -9999 -9999 -9999 -9999 -9999 -9999 -9999 -9999 -9999 -9999 -9999 
-9999 -9999 -9999 -9999 -9999 -9999 -9999 -9999 -9999 -9999 -9999 -9999 -9999 -9999 -9999 -9999 -9999 -9999 -9999 -9999 -9999 -9999 -9999 -9999 -9999 -9999 -9999 -9999 -9999 -9999 -9999 -9999 -9999 -9999 -9999 -9999 -9999 -9999 -9999 -9999 -9999 -9999 -9999 -9999 -9999 -9999 -9999 -9999 -9999 -9999 -9999 -9999 -9999 -9999 -9999 -9999 -9999 -9999 -9999 -9999 -9999 -9999 -9999 -9999 -9999 -9999 -9999 -9999 -9999 -9999 -9999 -9999 -9999 -9999 -9999 -9999 -9999 -9999 -9999 -9999 -9999 -9999 -9999 -9999 -9999 -9999 -9999 -9999 -9999 -9999 -9999 -9999 -9999 -9999 -9999 -9999 -9999 -9999 -9999 -9999 -9999 -9999 -9999 -9999 -9999 -9999 -9999 -9999 -9999 -9999 -9999 -9999 -9999 -9999 -9999 -9999 -9999 -9999 -9999 -9999 -9999 -9999 -9999 -9999 -9999 -9999 -9999 -9999 -9999 -9999 -9999 -9999 -9999 -9999 -9999 -9999 -9999 -9999 -9999 -9999 -9999 -9999 -9999 -9999 -9999 -9999 -9999 -9999 -9999 -9999 -9999 -9999 -9999 -9999 -9999 -9999 -9999 -9999 -9999 -9999 -9999 -9999 -9999 -9999 -9999 -9999 -9999 -9999 -9999 -9999 -9999 -9999 -9999 -9999 -9999 -9999 -9999 -9999 -9999 -9999 -9999 -9999 -9999 -9999 -9999 -9999 -9999 -9999 -9999 -9999 -9999 -9999 -9999 -9999 -9999 -9999 -9999 -9999 -9999 -9999 -9999 -9999 -9999 -9999 -9999 
-9999 -9999 -9999 -9999 -9999 -9999 -9999 -9999 -9999 -9999 -9999 -9999 -9999 -9999 -9999 -9999 -9999 -9999 -9999 -9999 -9999 -9999 -9999 -9999 -9999 -9999 -9999 -9999 -9999 -9999 -9999 -9999 -9999 -9999 -9999 -9999 -9999 -9999 -9999 -9999 -9999 -9999 -9999 -9999 -9999 -9999 -9999 -9999 -9999 -9999 -9999 -9999 -9999 -9999 -9999 -9999 -9999 -9999 -9999 -9999 -9999 -9999 -9999 -9999 -9999 -9999 -9999 -9999 -9999 -9999 -9999 -9999 -9999 -9999 -9999 -9999 -9999 -9999 -9999 -9999 -9999 -9999 -9999 -9999 -9999 -9999 -9999 -9999 -9999 -9999 -9999 -9999 -9999 -9999 -9999 -9999 -9999 -9999 -9999 -9999 -9999 -9999 -9999 -9999 -9999 -9999 -9999 -9999 -9999 -9999 -9999 -9999 -9999 -9999 -9999 -9999 -9999 -9999 -9999 -9999 -9999 -9999 -9999 -9999 -9999 -9999 -9999 -9999 -9999 -9999 -9999 -9999 -9999 -9999 -9999 -9999 -9999 -9999 -9999 -9999 -9999 -9999 -9999 -9999 -9999 -9999 -9999 -9999 -9999 -9999 -9999 -9999 -9999 -9999 -9999 -9999 -9999 -9999 -9999 -9999 -9999 -9999 -9999 -9999 -9999 -9999 -9999 -9999 -9999 -9999 -9999 -9999 -9999 -9999 -9999 -9999 -9999 -9999 -9999 -9999 -9999 -9999 -9999 -9999 -9999 -9999 -9999 -9999 -9999 -9999 -9999 -9999 -9999 -9999 -9999 -9999 -9999 -9999 -9999 -9999 -9999 -9999 -9999 -9999 -9999 
-9999 -9999 -9999 -9999 -9999 -9999 -9999 -9999 -9999 -9999 -9999 -9999 -9999 -9999 -9999 -9999 -9999 -9999 -9999 -9999 -9999 -9999 -9999 -9999 -9999 -9999 -9999 -9999 -9999 -9999 -9999 -9999 -9999 -9999 -9999 -9999 -9999 -9999 -9999 -9999 -9999 -9999 -9999 -9999 -9999 -9999 -9999 -9999 -9999 -9999 -9999 -9999 -9999 -9999 -9999 -9999 -9999 -9999 -9999 -9999 -9999 -9999 -9999 -9999 -9999 -9999 -9999 -9999 -9999 -9999 -9999 -9999 -9999 -9999 -9999 -9999 -9999 -9999 -9999 -9999 -9999 -9999 -9999 -9999 -9999 -9999 -9999 -9999 -9999 -9999 -9999 -9999 -9999 -9999 -9999 -9999 -9999 -9999 -9999 -9999 -9999 -9999 -9999 -9999 -9999 -9999 -9999 -9999 -9999 -9999 -9999 -9999 -9999 -9999 -9999 -9999 -9999 -9999 -9999 -9999 852.7755 -9999 -9999 -9999 -9999 -9999 -9999 -9999 -9999 -9999 -9999 -9999 -9999 -9999 -9999 -9999 -9999 -9999 -9999 -9999 -9999 -9999 -9999 -9999 -9999 -9999 -9999 -9999 -9999 -9999 -9999 -9999 -9999 -9999 -9999 -9999 -9999 -9999 -9999 -9999 -9999 -9999 -9999 -9999 -9999 -9999 -9999 -9999 -9999 -9999 -9999 -9999 -9999 -9999 -9999 -9999 -9999 -9999 -9999 -9999 -9999 -9999 -9999 -9999 -9999 -9999 -9999 -9999 -9999 -9999 -9999 -9999 -9999 -9999 -9999 -9999 -9999 -9999 -9999 -9999 -9999 -9999 -9999 -9999 -9999 
-9999 -9999 -9999 -9999 -9999 -9999 -9999 -9999 -9999 -9999 -9999 -9999 -9999 -9999 -9999 -9999 -9999 -9999 -9999 -9999 -9999 -9999 -9999 -9999 -9999 -9999 -9999 -9999 -9999 -9999 -9999 -9999 -9999 -9999 -9999 -9999 -9999 -9999 -9999 -9999 -9999 -9999 -9999 -9999 -9999 -9999 -9999 -9999 -9999 -9999 -9999 -9999 -9999 -9999 -9999 -9999 -9999 -9999 -9999 -9999 -9999 -9999 -9999 -9999 -9999 -9999 -9999 -9999 -9999 -9999 -9999 -9999 -9999 -9999 -9999 -9999 -9999 -9999 -9999 -9999 -9999 -9999 -9999 -9999 -9999 -9999 -9999 -9999 -9999 -9999 -9999 -9999 -9999 -9999 -9999 -9999 -9999 -9999 -9999 -9999 -9999 -9999 -9999 -9999 -9999 -9999 -9999 -9999 -9999 -9999 -9999 -9999 -9999 -9999 -9999 -9999 -9999 -9999 -9999 852.6415 852.6285 851.7286 -9999 -9999 -9999 -9999 -9999 -9999 -9999 -9999 -9999 -9999 -9999 -9999 -9999 -9999 -9999 -9999 -9999 -9999 -9999 -9999 -9999 -9999 -9999 -9999 -9999 -9999 -9999 -9999 -9999 -9999 -9999 -9999 -9999 -9999 -9999 -9999 -9999 -9999 -9999 -9999 -9999 -9999 -9999 -9999 -9999 -9999 -9999 -9999 -9999 -9999 -9999 -9999 -9999 -9999 -9999 -9999 -9999 -9999 -9999 -9999 -9999 -9999 -9999 -9999 -9999 -9999 -9999 -9999 -9999 -9999 -9999 -9999 -9999 -9999 -9999 -9999 -9999 -9999 -9999 -9999 -9999 -9999 -9999 
-9999 -9999 -9999 -9999 -9999 -9999 -9999 -9999 -9999 -9999 -9999 -9999 -9999 -9999 -9999 -9999 -9999 -9999 -9999 -9999 -9999 -9999 -9999 -9999 -9999 -9999 -9999 -9999 -9999 -9999 -9999 -9999 -9999 -9999 -9999 -9999 -9999 -9999 -9999 -9999 -9999 -9999 -9999 -9999 -9999 -9999 -9999 -9999 -9999 -9999 -9999 -9999 -9999 -9999 -9999 -9999 -9999 -9999 -9999 -9999 -9999 -9999 -9999 -9999 -9999 -9999 -9999 -9999 -9999 -9999 -9999 -9999 -9999 -9999 -9999 -9999 -9999 -9999 -9999 -9999 -9999 -9999 -9999 -9999 -9999 -9999 -9999 -9999 -9999 -9999 -9999 -9999 -9999 -9999 -9999 -9999 -9999 -9999 -9999 -9999 -9999 -9999 -9999 -9999 -9999 -9999 -9999 -9999 -9999 -9999 -9999 -9999 -9999 -9999 -9999 -9999 -9999 -9999 851.7522 851.8726 851.826 850.1901 847.4004 846.771 -9999 -9999 -9999 -9999 -9999 -9999 -9999 -9999 -9999 -9999 -9999 -9999 -9999 -9999 -9999 -9999 -9999 -9999 -9999 -9999 -9999 -9999 -9999 -9999 -9999 -9999 -9999 -9999 -9999 -9999 -9999 -9999 -9999 -9999 -9999 -9999 -9999 -9999 -9999 -9999 -9999 -9999 -9999 -9999 -9999 -9999 -9999 -9999 -9999 -9999 -9999 -9999 -9999 -9999 -9999 -9999 -9999 -9999 -9999 -9999 -9999 -9999 -9999 -9999 -9999 -9999 -9999 -9999 -9999 -9999 -9999 -9999 -9999 -9999 -9999 -9999 -9999 -9999 -9999 -9999 -9999 
-9999 -9999 -9999 -9999 -9999 -9999 -9999 -9999 -9999 -9999 -9999 -9999 -9999 -9999 -9999 -9999 -9999 -9999 -9999 -9999 -9999 -9999 -9999 -9999 -9999 -9999 -9999 -9999 -9999 -9999 -9999 -9999 -9999 -9999 -9999 -9999 -9999 -9999 -9999 -9999 -9999 -9999 -9999 -9999 -9999 -9999 -9999 -9999 -9999 -9999 -9999 -9999 -9999 -9999 -9999 -9999 -9999 -9999 -9999 -9999 -9999 -9999 -9999 -9999 -9999 -9999 -9999 -9999 -9999 -9999 -9999 -9999 -9999 -9999 -9999 -9999 -9999 -9999 -9999 -9999 -9999 -9999 -9999 -9999 -9999 -9999 -9999 -9999 -9999 -9999 -9999 -9999 -9999 -9999 -9999 -9999 -9999 -9999 -9999 -9999 -9999 -9999 -9999 -9999 -9999 -9999 -9999 -9999 -9999 -9999 -9999 -9999 -9999 -9999 -9999 -9999 -9999 -9999 850.2244 850.8027 850.6694 846.1926 844.9703 844.1353 843.7238 -9999 -9999 -9999 -9999 -9999 -9999 -9999 -9999 -9999 -9999 -9999 -9999 -9999 -9999 -9999 -9999 -9999 -9999 -9999 -9999 -9999 -9999 -9999 -9999 -9999 -9999 -9999 -9999 -9999 -9999 -9999 -9999 -9999 -9999 -9999 -9999 -9999 -9999 -9999 -9999 -9999 -9999 -9999 -9999 -9999 -9999 -9999 -9999 -9999 -9999 -9999 -9999 -9999 -9999 -9999 -9999 -9999 -9999 -9999 -9999 -9999 -9999 -9999 -9999 -9999 -9999 -9999 -9999 -9999 -9999 -9999 -9999 -9999 -9999 -9999 -9999 -9999 -9999 -9999 -9999 
-9999 -9999 -9999 -9999 -9999 -9999 -9999 -9999 -9999 -9999 -9999 -9999 -9999 -9999 -9999 -9999 -9999 -9999 -9999 -9999 -9999 -9999 -9999 -9999 -9999 -9999 -9999 -9999 -9999 -9999 -9999 -9999 -9999 -9999 -9999 -9999 -9999 -9999 -9999 -9999 -9999 -9999 -9999 -9999 -9999 -9999 -9999 -9999 -9999 -9999 -9999 -9999 -9999 -9999 -9999 -9999 -9999 -9999 -9999 -9999 -9999 -9999 -9999 -9999 -9999 -9999 -9999 -9999 -9999 -9999 -9999 -9999 -9999 -9999 -9999 -9999 -9999 -9999 -9999 -9999 -9999 -9999 -9999 -9999 -9999 -9999 -9999 -9999 -9999 -9999 -9999 -9999 -9999 -9999 -9999 -9999 -9999 -9999 -9999 -9999 -9999 -9999 -9999 -9999 -9999 -9999 -9999 -9999 -9999 -9999 -9999 -9999 -9999 -9999 -9999 -9999 -9999 850.6274 848.2874 848.8535 847.1764 843.8251 842.0139 840.7405 840.6719 840.6864 839.567 -9999 -9999 -9999 -9999 -9999 -9999 -9999 -9999 -9999 -9999 -9999 -9999 -9999 -9999 -9999 -9999 -9999 -9999 -9999 -9999 -9999 -9999 -9999 -9999 -9999 -9999 -9999 -9999 -9999 -9999 -9999 -9999 -9999 -9999 -9999 -9999 -9999 -9999 -9999 -9999 -9999 -9999 -9999 -9999 -9999 -9999 -9999 -9999 -9999 -9999 -9999 -9999 -9999 -9999 -9999 -9999 -9999 -9999 -9999 -9999 -9999 -9999 -9999 -9999 -9999 -9999 -9999 -9999 -9999 -9999 -9999 -9999 -9999 -9999 -9999 -9999 -9999 -9999 
-9999 -9999 -9999 -9999 -9999 -9999 -9999 -9999 -9999 -9999 -9999 -9999 -9999 -9999 -9999 -9999 -9999 -9999 -9999 -9999 -9999 -9999 -9999 -9999 -9999 -9999 -9999 -9999 -9999 -9999 -9999 -9999 -9999 -9999 -9999 -9999 -9999 -9999 -9999 -9999 -9999 -9999 -9999 -9999 -9999 -9999 -9999 -9999 -9999 -9999 -9999 -9999 -9999 -9999 -9999 -9999 -9999 -9999 -9999 -9999 -9999 -9999 -9999 -9999 -9999 -9999 -9999 -9999 -9999 -9999 -9999 -9999 -9999 -9999 -9999 -9999 -9999 -9999 -9999 -9999 -9999 -9999 -9999 -9999 -9999 -9999 -9999 -9999 -9999 -9999 -9999 -9999 -9999 -9999 -9999 -9999 -9999 -9999 -9999 -9999 -9999 -9999 -9999 -9999 -9999 -9999 -9999 -9999 -9999 -9999 -9999 -9999 -9999 -9999 -9999 -9999 850.3562 847.6213 846.6125 845.8543 842.4535 839.9915 838.2678 837.1484 836.4116 836.2371 836.231 836.0024 835.1657 834.0997 -9999 -9999 -9999 -9999 -9999 -9999 -9999 -9999 -9999 -9999 -9999 -9999 -9999 -9999 -9999 -9999 -9999 -9999 -9999 -9999 -9999 -9999 -9999 -9999 -9999 -9999 -9999 -9999 -9999 -9999 -9999 -9999 -9999 -9999 -9999 -9999 -9999 -9999 -9999 -9999 -9999 -9999 -9999 -9999 -9999 -9999 -9999 -9999 -9999 -9999 -9999 -9999 -9999 -9999 -9999 -9999 -9999 -9999 -9999 -9999 -9999 -9999 -9999 -9999 -9999 -9999 -9999 -9999 -9999 -9999 -9999 -9999 -9999 -9999 -9999 
-9999 -9999 -9999 -9999 -9999 -9999 -9999 -9999 -9999 -9999 -9999 -9999 -9999 -9999 -9999 -9999 -9999 -9999 -9999 -9999 -9999 -9999 -9999 -9999 -9999 -9999 -9999 -9999 -9999 -9999 -9999 -9999 -9999 -9999 -9999 -9999 -9999 -9999 -9999 -9999 -9999 -9999 -9999 -9999 -9999 -9999 -9999 -9999 -9999 -9999 -9999 -9999 -9999 -9999 -9999 -9999 -9999 -9999 -9999 -9999 -9999 -9999 -9999 -9999 -9999 -9999 -9999 -9999 -9999 -9999 -9999 -9999 -9999 -9999 -9999 -9999 -9999 -9999 -9999 -9999 -9999 -9999 -9999 -9999 -9999 -9999 -9999 -9999 -9999 -9999 -9999 -9999 -9999 -9999 -9999 -9999 -9999 -9999 -9999 -9999 -9999 -9999 -9999 -9999 -9999 -9999 -9999 -9999 -9999 -9999 -9999 -9999 -9999 -9999 -9999 -9999 847.7357 844.6335 844.6298 840.4205 838.2382 836.0413 833.9298 832.7982 832.3265 831.8701 831.8396 831.6765 830.9732 830.2852 829.677 828.7458 -9999 -9999 -9999 -9999 -9999 -9999 -9999 -9999 -9999 -9999 -9999 -9999 -9999 -9999 -9999 -9999 -9999 -9999 -9999 -9999 -9999 -9999 -9999 -9999 -9999 -9999 -9999 -9999 -9999 -9999 -9999 -9999 -9999 -9999 -9999 -9999 -9999 -9999 -9999 -9999 -9999 -9999 -9999 -9999 -9999 -9999 -9999 -9999 -9999 -9999 -9999 -9999 -9999 -9999 -9999 -9999 -9999 -9999 -9999 -9999 -9999 -9999 -9999 -9999 -9999 -9999 -9999 -9999 -9999 -9999 -9999 -9999 -9999 
-9999 -9999 -9999 -9999 -9999 -9999 -9999 -9999 -9999 -9999 -9999 -9999 -9999 -9999 -9999 -9999 -9999 -9999 -9999 -9999 -9999 -9999 -9999 -9999 -9999 -9999 -9999 -9999 -9999 -9999 -9999 -9999 -9999 -9999 -9999 -9999 -9999 -9999 -9999 -9999 -9999 -9999 -9999 -9999 -9999 -9999 -9999 -9999 -9999 -9999 -9999 -9999 -9999 -9999 -9999 -9999 -9999 -9999 -9999 -9999 -9999 -9999 -9999 -9999 -9999 -9999 -9999 -9999 -9999 -9999 -9999 -9999 -9999 -9999 -9999 -9999 -9999 -9999 -9999 -9999 -9999 -9999 -9999 -9999 -9999 -9999 -9999 -9999 -9999 -9999 -9999 -9999 -9999 -9999 -9999 -9999 -9999 -9999 -9999 -9999 -9999 -9999 -9999 -9999 -9999 -9999 -9999 -9999 -9999 -9999 -9999 -9999 -9999 -9999 -9999 847.0735 845.0306 842.4932 842.0717 836.9008 834.2056 831.624 829.6215 828.5439 827.6745 827.2607 827.5183 827.0504 826.738 826.2953 826.1802 825.6034 825.1104 823.2351 -9999 -9999 -9999 -9999 -9999 -9999 -9999 -9999 -9999 -9999 -9999 -9999 -9999 -9999 -9999 -9999 -9999 -9999 -9999 -9999 -9999 -9999 -9999 -9999 -9999 -9999 -9999 -9999 -9999 -9999 -9999 -9999 -9999 -9999 -9999 -9999 -9999 -9999 -9999 -9999 -9999 -9999 -9999 -9999 -9999 -9999 -9999 -9999 -9999 -9999 -9999 -9999 -9999 -9999 -9999 -9999 -9999 -9999 -9999 -9999 -9999 -9999 -9999 -9999 -9999 -9999 -9999 -9999 -9999 -9999 -9999 
-9999 -9999 -9999 -9999 -9999 -9999 -9999 -9999 -9999 -9999 -9999 -9999 -9999 -9999 -9999 -9999 -9999 -9999 -9999 -9999 -9999 -9999 -9999 -9999 -9999 -9999 -9999 -9999 -9999 -9999 -9999 -9999 -9999 -9999 -9999 -9999 -9999 -9999 -9999 -9999 -9999 -9999 -9999 -9999 -9999 -9999 -9999 -9999 -9999 -9999 -9999 -9999 -9999 -9999 -9999 -9999 -9999 -9999 -9999 -9999 -9999 -9999 -9999 -9999 -9999 -9999 -9999 -9999 -9999 -9999 -9999 -9999 -9999 -9999 -9999 -9999 -9999 -9999 -9999 -9999 -9999 -9999 -9999 -9999 -9999 -9999 -9999 -9999 -9999 -9999 -9999 -9999 -9999 -9999 -9999 -9999 -9999 -9999 -9999 -9999 -9999 -9999 -9999 -9999 -9999 -9999 -9999 -9999 -9999 -9999 -9999 -9999 -9999 -9999 -9999 844.5086 840.2657 840.038 836.7019 833.2318 830.2295 827.4886 824.8741 823.3463 822.768 822.499 822.9395 823.5627 822.6125 822.2354 822.1013 821.974 821.7484 820.8835 819.3824 -9999 -9999 -9999 -9999 -9999 -9999 -9999 -9999 -9999 -9999 -9999 -9999 -9999 -9999 -9999 -9999 -9999 -9999 -9999 -9999 -9999 -9999 -9999 -9999 -9999 -9999 -9999 -9999 -9999 -9999 -9999 -9999 -9999 -9999 -9999 -9999 -9999 -9999 -9999 -9999 -9999 -9999 -9999 -9999 -9999 -9999 -9999 -9999 -9999 -9999 -9999 -9999 -9999 -9999 -9999 -9999 -9999 -9999 -9999 -9999 -9999 -9999 -9999 -9999 -9999 -9999 -9999 -9999 -9999 -9999 
-9999 -9999 -9999 -9999 -9999 -9999 -9999 -9999 -9999 -9999 -9999 -9999 -9999 -9999 -9999 -9999 -9999 -9999 -9999 -9999 -9999 -9999 -9999 -9999 -9999 -9999 -9999 -9999 -9999 -9999 -9999 -9999 -9999 -9999 -9999 -9999 -9999 -9999 -9999 -9999 -9999 -9999 -9999 -9999 -9999 -9999 -9999 -9999 -9999 -9999 -9999 -9999 -9999 -9999 -9999 -9999 -9999 -9999 -9999 -9999 -9999 -9999 -9999 -9999 -9999 -9999 -9999 -9999 -9999 -9999 -9999 -9999 -9999 -9999 -9999 -9999 -9999 -9999 -9999 -9999 -9999 -9999 -9999 -9999 -9999 -9999 -9999 -9999 -9999 -9999 -9999 -9999 -9999 -9999 -9999 -9999 -9999 -9999 -9999 -9999 -9999 -9999 -9999 -9999 -9999 -9999 -9999 -9999 -9999 -9999 -9999 -9999 -9999 -9999 842.0046 839.4139 838.0316 836.9633 832.1345 829.1162 825.9585 823.3212 820.5117 818.4711 817.6008 817.418 817.7654 817.9742 817.2283 817.6489 817.8196 817.5978 817.3951 817.1765 816.5021 816.2064 816.6537 -9999 -9999 -9999 -9999 -9999 -9999 -9999 -9999 -9999 -9999 -9999 -9999 -9999 -9999 -9999 -9999 -9999 -9999 -9999 -9999 -9999 -9999 -9999 -9999 -9999 -9999 -9999 -9999 -9999 -9999 -9999 -9999 -9999 -9999 -9999 -9999 -9999 -9999 -9999 -9999 -9999 -9999 -9999 -9999 -9999 -9999 -9999 -9999 -9999 -9999 -9999 -9999 -9999 -9999 -9999 -9999 -9999 -9999 -9999 -9999 -9999 -9999 -9999 -9999 -9999 -9999 -9999 -9999 
-9999 -9999 -9999 -9999 -9999 -9999 -9999 -9999 -9999 -9999 -9999 -9999 -9999 -9999 -9999 -9999 -9999 -9999 -9999 -9999 -9999 -9999 -9999 -9999 -9999 -9999 -9999 -9999 -9999 -9999 -9999 -9999 -9999 -9999 -9999 -9999 -9999 -9999 -9999 -9999 -9999 -9999 -9999 -9999 -9999 -9999 -9999 -9999 -9999 -9999 -9999 -9999 -9999 -9999 -9999 -9999 -9999 -9999 -9999 -9999 -9999 -9999 -9999 -9999 -9999 -9999 -9999 -9999 -9999 -9999 -9999 -9999 -9999 -9999 -9999 -9999 -9999 -9999 -9999 -9999 -9999 -9999 -9999 -9999 -9999 -9999 -9999 -9999 -9999 -9999 -9999 -9999 -9999 -9999 -9999 -9999 -9999 -9999 -9999 -9999 -9999 -9999 -9999 -9999 -9999 -9999 -9999 -9999 -9999 -9999 -9999 -9999 834.9805 836.9153 836.4398 835.4683 835.9003 832.488 828.5493 825.4753 822.1523 818.7957 815.4269 813.1874 811.908 811.2504 811.4652 811.9186 812.0451 812.6418 812.9991 812.8955 813.3123 813.5051 813.2133 813.3717 814.7928 815.7736 -9999 -9999 -9999 -9999 -9999 -9999 -9999 -9999 -9999 -9999 -9999 -9999 -9999 -9999 -9999 -9999 -9999 -9999 -9999 -9999 -9999 -9999 -9999 -9999 -9999 -9999 -9999 -9999 -9999 -9999 -9999 -9999 -9999 -9999 -9999 -9999 -9999 -9999 -9999 -9999 -9999 -9999 -9999 -9999 -9999 -9999 -9999 -9999 -9999 -9999 -9999 -9999 -9999 -9999 -9999 -9999 -9999 -9999 -9999 -9999 -9999 -9999 -9999 -9999 -9999 -9999 -9999 
-9999 -9999 -9999 -9999 -9999 -9999 -9999 -9999 -9999 -9999 -9999 -9999 -9999 -9999 -9999 -9999 -9999 -9999 -9999 -9999 -9999 -9999 -9999 -9999 -9999 -9999 -9999 -9999 -9999 -9999 -9999 -9999 -9999 -9999 -9999 -9999 -9999 -9999 -9999 -9999 -9999 -9999 -9999 -9999 -9999 -9999 -9999 -9999 -9999 -9999 -9999 -9999 -9999 -9999 -9999 -9999 -9999 -9999 -9999 -9999 -9999 -9999 -9999 -9999 -9999 -9999 -9999 -9999 -9999 -9999 -9999 -9999 -9999 -9999 -9999 -9999 -9999 -9999 -9999 -9999 -9999 -9999 -9999 -9999 -9999 -9999 -9999 -9999 -9999 -9999 -9999 -9999 -9999 -9999 -9999 -9999 -9999 -9999 -9999 -9999 -9999 -9999 -9999 -9999 -9999 -9999 -9999 -9999 -9999 -9999 -9999 -9999 828.2772 830.2958 832.3791 833.4779 831.4076 827.5762 824.8041 821.6852 817.8028 814.2946 811.2062 808.0187 806.8605 805.5103 805.2138 806.8224 807.5539 808.0324 808.2351 808.7586 809.0946 808.9994 809.2715 810.1393 811.5445 812.7942 814.2618 815.2463 -9999 -9999 -9999 -9999 -9999 -9999 -9999 -9999 -9999 -9999 -9999 -9999 -9999 -9999 -9999 -9999 -9999 -9999 -9999 -9999 -9999 -9999 -9999 -9999 -9999 -9999 -9999 -9999 -9999 -9999 -9999 -9999 -9999 -9999 -9999 -9999 -9999 -9999 -9999 -9999 -9999 -9999 -9999 -9999 -9999 -9999 -9999 -9999 -9999 -9999 -9999 -9999 -9999 -9999 -9999 -9999 -9999 -9999 -9999 -9999 -9999 -9999 -9999 -9999 -9999 
-9999 -9999 -9999 -9999 -9999 -9999 -9999 -9999 -9999 -9999 -9999 -9999 -9999 -9999 -9999 -9999 -9999 -9999 -9999 -9999 -9999 -9999 -9999 -9999 -9999 -9999 -9999 -9999 -9999 -9999 -9999 -9999 -9999 -9999 -9999 -9999 -9999 -9999 -9999 -9999 -9999 -9999 -9999 -9999 -9999 -9999 -9999 -9999 -9999 -9999 -9999 -9999 -9999 -9999 -9999 -9999 -9999 -9999 -9999 -9999 -9999 -9999 -9999 -9999 -9999 -9999 -9999 -9999 -9999 -9999 -9999 -9999 -9999 -9999 -9999 -9999 -9999 -9999 -9999 -9999 -9999 -9999 -9999 -9999 -9999 -9999 -9999 -9999 -9999 -9999 -9999 -9999 -9999 -9999 -9999 -9999 -9999 -9999 -9999 -9999 -9999 -9999 -9999 -9999 -9999 -9999 -9999 -9999 -9999 -9999 -9999 825.4464 827.1365 828.6697 828.5485 827.8878 825.8168 823.4599 820.4446 817.6786 813.7535 809.7324 806.6433 803.3096 801.419 800.071 800.3332 801.2917 801.6598 802.751 803.766 804.6689 804.7429 805.1688 806.0969 806.6799 807.4541 808.1635 809.8445 811.8173 812.8284 812.9611 -9999 -9999 -9999 -9999 -9999 -9999 -9999 -9999 -9999 -9999 -9999 -9999 -9999 -9999 -9999 -9999 -9999 -9999 -9999 -9999 -9999 -9999 -9999 -9999 -9999 -9999 -9999 -9999 -9999 -9999 -9999 -9999 -9999 -9999 -9999 -9999 -9999 -9999 -9999 -9999 -9999 -9999 -9999 -9999 -9999 -9999 -9999 -9999 -9999 -9999 -9999 -9999 -9999 -9999 -9999 -9999 -9999 -9999 -9999 -9999 -9999 -9999 -9999 
-9999 -9999 -9999 -9999 -9999 -9999 -9999 -9999 -9999 -9999 -9999 -9999 -9999 -9999 -9999 -9999 -9999 -9999 -9999 -9999 -9999 -9999 -9999 -9999 -9999 -9999 -9999 -9999 -9999 -9999 -9999 -9999 -9999 -9999 -9999 -9999 -9999 -9999 -9999 -9999 -9999 -9999 -9999 -9999 -9999 -9999 -9999 -9999 -9999 -9999 -9999 -9999 -9999 -9999 -9999 -9999 -9999 -9999 -9999 -9999 -9999 -9999 -9999 -9999 -9999 -9999 -9999 -9999 -9999 -9999 -9999 -9999 -9999 -9999 -9999 -9999 -9999 -9999 -9999 -9999 -9999 -9999 -9999 -9999 -9999 -9999 -9999 -9999 -9999 -9999 -9999 -9999 -9999 -9999 -9999 -9999 -9999 -9999 -9999 -9999 -9999 -9999 -9999 -9999 -9999 -9999 -9999 -9999 -9999 820.485 820.7487 820.5963 820.9918 821.6479 821.484 820.9849 820.3456 818.1769 815.8902 813.1988 809.4452 805.3761 801.7025 797.9535 794.7195 792.9357 792.5883 793.0751 794.2737 795.3687 796.5164 798.0739 798.6346 800.2463 801.467 802.623 803.4155 804.2019 805.2519 806.6959 807.6598 808.2527 808.0012 806.1914 804.0494 -9999 -9999 -9999 -9999 -9999 -9999 -9999 -9999 -9999 -9999 -9999 -9999 -9999 -9999 -9999 -9999 -9999 -9999 -9999 -9999 -9999 -9999 -9999 -9999 -9999 -9999 -9999 -9999 -9999 -9999 -9999 -9999 -9999 -9999 -9999 -9999 -9999 -9999 -9999 -9999 -9999 -9999 -9999 -9999 -9999 -9999 -9999 -9999 -9999 -9999 -9999 -9999 -9999 -9999 -9999 -9999 -9999 -9999 -9999 -9999 
-9999 -9999 -9999 -9999 -9999 -9999 -9999 -9999 -9999 -9999 -9999 -9999 -9999 -9999 -9999 -9999 -9999 -9999 -9999 -9999 -9999 -9999 -9999 -9999 -9999 -9999 -9999 -9999 -9999 -9999 -9999 -9999 -9999 -9999 -9999 -9999 -9999 -9999 -9999 -9999 -9999 -9999 -9999 -9999 -9999 -9999 -9999 -9999 -9999 -9999 -9999 -9999 -9999 -9999 -9999 -9999 -9999 -9999 -9999 -9999 -9999 -9999 -9999 -9999 -9999 -9999 -9999 -9999 -9999 -9999 -9999 -9999 -9999 -9999 -9999 -9999 -9999 -9999 -9999 -9999 -9999 -9999 -9999 -9999 -9999 -9999 -9999 -9999 -9999 -9999 -9999 -9999 -9999 -9999 -9999 -9999 -9999 -9999 -9999 -9999 -9999 -9999 -9999 -9999 -9999 -9999 -9999 -9999 -9999 818.5023 818.7576 819.0235 815.3575 816.1797 816.0029 814.7472 813.6774 811.8379 809.9999 808.0873 805.2572 800.1252 794.6807 790.7327 791.2562 790.4318 791.3248 791.8635 792.2332 792.4952 792.6346 792.4769 792.4084 793.4188 796.0225 797.4536 799.322 800.5663 801.4083 802.405 802.6885 802.3357 801.3268 800.4825 799.2984 798.896 797.2197 795.3284 -9999 -9999 -9999 -9999 -9999 -9999 -9999 -9999 -9999 -9999 -9999 -9999 -9999 -9999 -9999 -9999 -9999 -9999 -9999 -9999 -9999 -9999 -9999 -9999 -9999 -9999 -9999 -9999 -9999 -9999 -9999 -9999 -9999 -9999 -9999 -9999 -9999 -9999 -9999 -9999 -9999 -9999 -9999 -9999 -9999 -9999 -9999 -9999 -9999 -9999 -9999 -9999 -9999 -9999 -9999 -9999 -9999 
-9999 -9999 -9999 -9999 -9999 -9999 -9999 -9999 -9999 -9999 -9999 -9999 -9999 -9999 -9999 -9999 -9999 -9999 -9999 -9999 -9999 -9999 -9999 -9999 -9999 -9999 -9999 -9999 -9999 -9999 -9999 -9999 -9999 -9999 -9999 -9999 -9999 -9999 -9999 -9999 -9999 -9999 -9999 -9999 -9999 -9999 -9999 -9999 -9999 -9999 -9999 -9999 -9999 -9999 -9999 -9999 -9999 -9999 -9999 -9999 -9999 -9999 -9999 -9999 -9999 -9999 -9999 -9999 -9999 -9999 -9999 -9999 -9999 -9999 -9999 -9999 -9999 -9999 -9999 -9999 -9999 -9999 -9999 -9999 -9999 -9999 -9999 -9999 -9999 -9999 -9999 -9999 -9999 -9999 -9999 -9999 -9999 -9999 -9999 -9999 -9999 -9999 -9999 -9999 -9999 -9999 -9999 -9999 817.8798 818.1442 815.5526 812.9611 810.9646 810.7147 810.1767 809.116 807.6461 805.9583 801.8046 798.2453 795.7078 792.1707 790.9331 791.1434 785.4604 783.1249 784.9705 786.1523 788.0833 789.4023 790.6855 792.1356 792.1943 792.5341 792.7627 792.6576 792.5532 794.9474 795.9418 797.1099 797.6799 796.5643 795.9227 795.816 794.6913 793.6177 793.9941 793.9171 793.4158 792.6294 791.6174 -9999 -9999 -9999 -9999 -9999 791.7576 792.2667 -9999 -9999 -9999 -9999 -9999 -9999 -9999 -9999 -9999 -9999 -9999 -9999 -9999 -9999 -9999 -9999 -9999 -9999 -9999 -9999 -9999 -9999 -9999 -9999 -9999 -9999 -9999 -9999 -9999 -9999 -9999 -9999 -9999 -9999 -9999 -9999 -9999 -9999 -9999 -9999 -9999 -9999 -9999 -9999 -9999 -9999 -9999 
-9999 -9999 -9999 -9999 -9999 -9999 -9999 -9999 -9999 -9999 -9999 -9999 -9999 -9999 -9999 -9999 -9999 -9999 -9999 -9999 -9999 -9999 -9999 -9999 -9999 -9999 -9999 -9999 -9999 -9999 -9999 -9999 -9999 -9999 -9999 -9999 -9999 -9999 -9999 -9999 -9999 -9999 -9999 -9999 -9999 -9999 -9999 -9999 -9999 -9999 -9999 -9999 -9999 -9999 -9999 -9999 -9999 -9999 -9999 -9999 -9999 -9999 -9999 -9999 -9999 -9999 -9999 -9999 -9999 -9999 -9999 -9999 -9999 -9999 -9999 -9999 -9999 -9999 -9999 -9999 -9999 -9999 -9999 -9999 -9999 -9999 -9999 -9999 -9999 -9999 -9999 -9999 -9999 -9999 -9999 -9999 -9999 -9999 -9999 -9999 -9999 -9999 -9999 -9999 -9999 -9999 -9999 818.1899 817.3471 812.9352 809.6639 807.9578 806.6525 805.7373 804.5668 803.6715 802.4957 799.5323 793.2863 790.2816 790.095 790.7518 790.6832 788.145 781.3442 775.6642 777.6576 779.6083 781.7594 782.7341 784.5956 785.8346 786.8282 788.8102 790.7358 791.6357 792.4008 792.5958 792.5913 792.4846 792.1843 792.0579 791.7714 791.4285 791.3248 791.0749 790.9057 790.8882 790.7808 790.6505 790.5194 790.3411 790.0835 789.9434 790.0995 790.2177 790.2581 791.4985 793.2473 794.0886 795.0167 795.7421 796.1445 -9999 -9999 -9999 -9999 -9999 -9999 -9999 -9999 -9999 -9999 -9999 -9999 -9999 -9999 -9999 -9999 -9999 -9999 -9999 -9999 -9999 -9999 -9999 -9999 -9999 -9999 -9999 -9999 -9999 -9999 -9999 -9999 -9999 -9999 -9999 -9999 -9999 -9999 -9999 -9999 -9999 -9999 
-9999 -9999 -9999 -9999 -9999 -9999 -9999 -9999 -9999 -9999 -9999 -9999 -9999 -9999 -9999 -9999 -9999 -9999 -9999 -9999 -9999 -9999 -9999 -9999 -9999 -9999 -9999 -9999 -9999 -9999 -9999 -9999 -9999 -9999 -9999 -9999 -9999 -9999 -9999 -9999 -9999 -9999 -9999 -9999 -9999 -9999 -9999 -9999 -9999 -9999 -9999 -9999 -9999 -9999 -9999 -9999 -9999 -9999 -9999 -9999 -9999 -9999 -9999 -9999 -9999 -9999 -9999 -9999 -9999 -9999 -9999 -9999 -9999 -9999 -9999 -9999 -9999 -9999 -9999 -9999 -9999 -9999 -9999 -9999 -9999 -9999 -9999 -9999 -9999 -9999 -9999 -9999 -9999 -9999 -9999 -9999 -9999 -9999 -9999 -9999 -9999 -9999 -9999 -9999 -9999 817.0461 815.5358 813.624 810.592 807.2666 805.3152 803.798 801.7749 801.3146 800.4833 798.6492 795.6903 791.3903 789.3284 789.3276 789.4167 790.527 786.675 781.7373 776.3637 770.8879 770.9078 773.7973 776.0186 778.4173 779.3416 780.3772 780.8649 782.3683 784.2009 786.1707 788.6602 791.289 792.6149 793.6581 793.1102 793.0889 792.5067 791.7333 791.3751 791.9763 791.5199 790.9941 791.3873 790.5971 790.3937 789.3764 787.937 786.1623 787.4363 788.654 789.8366 790.4957 790.8615 790.9362 791.9863 793.8669 795.304 797.4147 796.8052 -9999 -9999 -9999 -9999 -9999 -9999 -9999 -9999 -9999 -9999 -9999 -9999 -9999 -9999 -9999 -9999 -9999 -9999 -9999 -9999 -9999 -9999 -9999 -9999 -9999 -9999 -9999 -9999 -9999 -9999 -9999 -9999 -9999 -9999 -9999 -9999 -9999 -9999 -9999 -9999 
-9999 -9999 -9999 -9999 -9999 -9999 -9999 -9999 -9999 -9999 -9999 -9999 -9999 -9999 -9999 -9999 -9999 -9999 -9999 -9999 -9999 -9999 -9999 -9999 -9999 -9999 -9999 -9999 -9999 -9999 -9999 -9999 -9999 -9999 -9999 -9999 -9999 -9999 -9999 -9999 -9999 -9999 -9999 -9999 -9999 -9999 -9999 -9999 -9999 -9999 -9999 -9999 -9999 -9999 -9999 -9999 -9999 -9999 -9999 -9999 -9999 -9999 -9999 -9999 -9999 -9999 -9999 -9999 -9999 -9999 -9999 -9999 -9999 -9999 -9999 -9999 -9999 -9999 -9999 -9999 -9999 -9999 -9999 -9999 -9999 -9999 -9999 -9999 -9999 -9999 -9999 -9999 -9999 -9999 -9999 -9999 -9999 -9999 -9999 -9999 -9999 -9999 -9999 810.656 811.6519 810.0228 808.6039 808.0294 804.5394 802.5171 801.8076 799.9164 797.6776 796.1986 793.873 790.4333 789.0342 789.272 785.7126 781.6207 782.5801 785.1244 781.7511 777.746 772.7328 767.3378 764.8887 769.6573 772.1628 773.686 775.3281 776.0185 777.3276 778.969 780.9837 782.4886 784.114 786.1295 789.1364 792.1356 794.2029 793.6581 793.034 792.0373 790.9103 791.2387 789.179 789.0739 789.064 788.9138 786.6522 785.0368 783.8267 783.4168 785.2052 786.9883 788.8682 789.7155 791.3324 790.8173 791.2205 791.5504 791.5778 791.6913 793.1955 794.337 -9999 -9999 -9999 -9999 -9999 -9999 -9999 -9999 -9999 -9999 -9999 -9999 -9999 -9999 -9999 -9999 -9999 -9999 -9999 -9999 -9999 -9999 -9999 -9999 -9999 -9999 -9999 -9999 -9999 -9999 -9999 -9999 -9999 -9999 -9999 -9999 -9999 -9999 -9999 
-9999 -9999 -9999 -9999 -9999 -9999 -9999 -9999 -9999 -9999 -9999 -9999 -9999 -9999 -9999 -9999 -9999 -9999 -9999 -9999 -9999 -9999 -9999 -9999 -9999 -9999 -9999 -9999 -9999 -9999 -9999 -9999 -9999 -9999 -9999 -9999 -9999 -9999 -9999 -9999 -9999 -9999 -9999 -9999 -9999 -9999 -9999 -9999 -9999 -9999 -9999 -9999 -9999 -9999 -9999 -9999 -9999 -9999 -9999 -9999 -9999 -9999 -9999 -9999 -9999 -9999 -9999 -9999 -9999 -9999 -9999 -9999 -9999 -9999 -9999 -9999 -9999 -9999 -9999 -9999 -9999 -9999 -9999 -9999 -9999 -9999 -9999 -9999 -9999 -9999 -9999 -9999 -9999 -9999 -9999 -9999 -9999 -9999 -9999 -9999 -9999 814.4028 811.4531 808.3502 804.928 803.3895 802.5536 801.608 799.6619 798.6675 796.6938 794.8132 791.0688 788.5542 788.779 788.8308 788.2319 786.4983 781.5941 774.8595 776.1351 780.3162 777.5913 773.7462 769.6978 765.6294 759.762 763.809 767.2693 769.3533 770.7775 772.684 773.5969 775.1361 776.9611 778.8029 780.6713 782.8674 785.3858 787.4097 789.6545 790.0264 788.824 789.3939 787.9926 786.6842 784.8074 784.2222 784.3738 783.7498 782.3546 780.8275 780.9555 782.7203 784.1193 785.6982 786.8778 787.1948 789.6165 789.8305 791.1633 791.5695 790.9911 791.3431 791.8582 791.9368 791.7035 -9999 -9999 -9999 -9999 -9999 -9999 -9999 -9999 -9999 -9999 -9999 -9999 -9999 -9999 -9999 -9999 -9999 -9999 -9999 -9999 -9999 -9999 -9999 -9999 -9999 -9999 -9999 -9999 -9999 -9999 -9999 -9999 -9999 -9999 -9999 -9999 -9999 -9999 
-9999 -9999 -9999 -9999 -9999 -9999 -9999 -9999 -9999 -9999 -9999 -9999 -9999 -9999 -9999 -9999 -9999 -9999 -9999 -9999 -9999 -9999 -9999 -9999 -9999 -9999 -9999 -9999 -9999 -9999 -9999 -9999 -9999 -9999 -9999 -9999 -9999 -9999 -9999 -9999 -9999 -9999 -9999 -9999 -9999 -9999 -9999 -9999 -9999 -9999 -9999 -9999 -9999 -9999 -9999 -9999 -9999 -9999 -9999 -9999 -9999 -9999 -9999 -9999 -9999 -9999 -9999 -9999 -9999 -9999 -9999 -9999 -9999 -9999 -9999 -9999 -9999 -9999 -9999 -9999 -9999 -9999 -9999 -9999 -9999 -9999 -9999 -9999 -9999 -9999 -9999 -9999 -9999 -9999 -9999 -9999 -9999 -9999 -9999 814.0591 812.3804 810.1828 807.1425 803.6487 799.9674 797.4924 796.3403 795.5966 793.5476 791.8361 789.2682 788.3233 788.6273 788.5732 787.1948 785.7028 783.381 780.624 775.127 769.1788 772.0873 775.5682 773.6205 770.8438 767.8004 764.2524 758.5184 757.521 761.6304 764.1808 765.589 767.4643 768.8671 770.6487 773.0635 775.5453 777.4122 779.5779 781.1902 782.632 784.1117 783.9258 783.3856 782.2159 782.1206 780.1653 779.6144 779.3126 779.4727 778.7351 777.5471 777.5654 778.2961 780.3566 781.687 783.5623 785.0612 783.9837 785.561 786.9265 788.9443 789.8473 789.6957 790.1795 791.0017 791.0924 791.5306 792.2842 -9999 -9999 -9999 -9999 -9999 -9999 -9999 -9999 -9999 -9999 -9999 -9999 -9999 -9999 -9999 -9999 -9999 -9999 -9999 -9999 -9999 -9999 -9999 -9999 -9999 -9999 -9999 -9999 -9999 -9999 -9999 -9999 -9999 -9999 -9999 -9999 -9999 
-9999 -9999 -9999 -9999 -9999 -9999 -9999 -9999 -9999 -9999 -9999 -9999 -9999 -9999 -9999 -9999 -9999 -9999 -9999 -9999 -9999 -9999 -9999 -9999 -9999 -9999 -9999 -9999 -9999 -9999 -9999 -9999 -9999 -9999 -9999 -9999 -9999 -9999 -9999 -9999 -9999 -9999 -9999 -9999 -9999 -9999 -9999 -9999 -9999 -9999 -9999 -9999 -9999 -9999 -9999 -9999 -9999 -9999 -9999 -9999 -9999 -9999 -9999 -9999 -9999 -9999 -9999 -9999 -9999 -9999 -9999 -9999 -9999 -9999 -9999 -9999 -9999 -9999 -9999 -9999 -9999 -9999 -9999 -9999 -9999 -9999 -9999 -9999 -9999 -9999 -9999 -9999 -9999 -9999 -9999 -9999 -9999 809.4711 809.4177 808.3472 806.4132 803.9869 801.4587 798.022 795.2964 793.069 789.576 787.748 788.1008 788.2646 788.3469 788.2463 787.1232 783.5433 781.239 779.1519 776.1412 773.1649 769.4547 762.5829 767.1885 770.1816 769.4395 767.9025 766.7556 763.159 757.5324 751.4006 755.6724 758.3774 760.4135 762.4084 763.5797 765.6005 768.2834 770.9733 773.5207 776.062 777.6172 778.2489 779.2052 779.7355 778.5011 777.1036 775.8013 774.4686 774.5669 774.688 774.3345 774.2964 773.6182 773.2075 773.8331 775.0355 776.9604 779.3469 780.4755 780.8976 781.9111 783.5776 785.3865 786.6187 787.764 787.6292 786.9777 788.2296 789.8359 791.6639 793.1688 -9999 -9999 -9999 -9999 -9999 -9999 -9999 -9999 -9999 -9999 -9999 -9999 -9999 -9999 -9999 -9999 -9999 -9999 -9999 -9999 -9999 -9999 -9999 -9999 -9999 -9999 -9999 -9999 -9999 -9999 -9999 -9999 -9999 -9999 -9999 -9999 
-9999 -9999 -9999 -9999 -9999 -9999 -9999 -9999 -9999 -9999 -9999 -9999 -9999 -9999 -9999 -9999 -9999 -9999 -9999 -9999 -9999 -9999 -9999 -9999 -9999 -9999 -9999 -9999 -9999 -9999 -9999 -9999 -9999 -9999 -9999 -9999 -9999 -9999 -9999 -9999 -9999 -9999 -9999 -9999 -9999 -9999 -9999 -9999 -9999 -9999 -9999 -9999 -9999 -9999 -9999 -9999 -9999 -9999 -9999 -9999 -9999 -9999 -9999 -9999 -9999 -9999 -9999 -9999 -9999 -9999 -9999 -9999 -9999 -9999 -9999 -9999 -9999 -9999 -9999 -9999 -9999 -9999 -9999 -9999 -9999 -9999 -9999 -9999 -9999 -9999 -9999 -9999 -9999 -9999 -9999 803.2112 804.1363 804.0151 803.5816 801.9601 799.4119 796.1658 792.5753 789.3604 787.2199 787.7906 787.8684 787.5842 786.4701 786.192 785.8133 783.3116 780.6873 777.3909 775.1057 773.145 770.2449 768.0328 764.5047 757.6871 763.6368 768.0823 768.1539 766.4577 763.265 758.6929 753.7064 746.8949 748.8334 752.5703 754.3351 756.2599 758.2411 761.1382 763.4501 766.2748 768.7979 771.6774 773.4887 774.0754 773.9718 773.904 772.2299 771.6904 771.0358 770.11 768.81 769.4135 769.86 769.745 769.4432 768.5288 768.2941 770.0787 772.6017 774.7772 775.8181 777.0526 778.764 781.1095 782.5786 783.6819 783.9563 784.1727 784.1537 784.9842 787.9415 790.7549 792.8191 -9999 -9999 -9999 -9999 -9999 -9999 -9999 -9999 -9999 -9999 -9999 -9999 -9999 -9999 -9999 -9999 -9999 -9999 -9999 -9999 -9999 -9999 -9999 -9999 -9999 -9999 -9999 -9999 -9999 -9999 -9999 -9999 -9999 -9999 -9999 -9999 
-9999 -9999 -9999 -9999 -9999 -9999 -9999 -9999 -9999 -9999 -9999 -9999 -9999 -9999 -9999 -9999 -9999 -9999 -9999 -9999 -9999 -9999 -9999 -9999 -9999 -9999 -9999 -9999 -9999 -9999 -9999 -9999 -9999 -9999 -9999 -9999 -9999 -9999 -9999 -9999 -9999 -9999 -9999 -9999 -9999 -9999 -9999 -9999 -9999 -9999 -9999 -9999 -9999 -9999 -9999 -9999 -9999 -9999 -9999 -9999 -9999 -9999 -9999 -9999 -9999 -9999 -9999 -9999 -9999 -9999 -9999 -9999 -9999 -9999 -9999 -9999 -9999 -9999 -9999 -9999 -9999 -9999 -9999 -9999 -9999 -9999 -9999 -9999 -9999 -9999 -9999 -9999 795.1547 797.4208 798.9402 798.9425 797.4155 796.7297 794.177 790.4287 787.9316 787.0089 787.2573 787.0668 786.3802 785.2067 783.6614 781.1186 779.8804 779.3644 777.8793 776.4955 774.3695 771.6066 769.05 766.3876 764.0308 762.3986 760.1895 752.7653 758.7836 763.735 763.1217 760.7938 757.7739 753.6508 749.4011 745.1926 745.0341 748.1461 750.618 751.7839 754.4821 757.2223 759.8984 762.1089 764.4742 766.9972 768.0557 768.8222 768.3429 767.7234 766.5544 765.877 765.9136 764.9749 764.8408 765.3398 765.1874 765.0724 764.7615 764.1686 764.9604 767.19 768.7902 770.6243 772.2855 773.6967 775.0477 777.2972 778.0241 778.8524 778.8661 779.1846 779.9436 782.7996 786.326 789.8199 792.5928 794.6982 -9999 -9999 -9999 -9999 -9999 -9999 -9999 -9999 -9999 -9999 -9999 -9999 -9999 -9999 -9999 -9999 -9999 -9999 -9999 -9999 -9999 -9999 -9999 -9999 -9999 -9999 -9999 -9999 -9999 -9999 -9999 -9999 -9999 -9999 -9999 
-9999 -9999 -9999 -9999 -9999 -9999 -9999 -9999 -9999 -9999 -9999 -9999 -9999 -9999 -9999 -9999 -9999 -9999 -9999 -9999 -9999 -9999 -9999 -9999 -9999 -9999 -9999 -9999 -9999 -9999 -9999 -9999 -9999 -9999 -9999 -9999 -9999 -9999 -9999 -9999 -9999 -9999 -9999 -9999 -9999 -9999 -9999 -9999 -9999 -9999 -9999 -9999 -9999 -9999 -9999 -9999 -9999 -9999 -9999 -9999 -9999 -9999 -9999 -9999 -9999 -9999 -9999 -9999 -9999 -9999 -9999 -9999 -9999 -9999 -9999 -9999 -9999 -9999 -9999 -9999 -9999 -9999 -9999 -9999 -9999 -9999 -9999 -9999 -9999 -9999 -9999 789.0236 790.3586 790.1514 789.6179 787.8334 786.9418 787.0508 787.2238 787.0995 786.6934 784.8295 782.3401 780.3307 778.6078 777.9791 776.7097 774.3398 774.1059 773.0529 771.666 769.2367 767.347 765.1738 762.1494 759.9121 757.2512 755.5482 752.3386 745.4402 752.2776 757.2215 756.8306 754.8326 752.2129 748.9081 746.2465 742.5195 740.126 743.4606 747.074 747.8138 749.5299 753.202 756.3498 758.392 759.9479 761.5764 763.1392 763.556 763.3411 762.5067 762.221 760.9424 761.0247 760.8631 760.8943 760.6414 760.4113 760.447 759.8618 759.7285 760.4356 761.8469 763.2832 765.2134 767.1923 769.1689 770.7851 772.0302 772.796 772.9835 773.7843 774.5517 776.8818 779.7188 784.178 788.7081 791.9039 795.3359 798.0494 -9999 -9999 -9999 -9999 -9999 -9999 -9999 -9999 -9999 -9999 -9999 -9999 -9999 -9999 -9999 -9999 -9999 -9999 -9999 -9999 -9999 -9999 -9999 -9999 -9999 -9999 -9999 -9999 -9999 -9999 -9999 -9999 -9999 -9999 
-9999 -9999 -9999 -9999 -9999 -9999 -9999 -9999 -9999 -9999 -9999 -9999 -9999 -9999 -9999 -9999 -9999 -9999 -9999 -9999 -9999 -9999 -9999 -9999 -9999 -9999 -9999 -9999 -9999 -9999 -9999 -9999 -9999 -9999 -9999 -9999 -9999 -9999 -9999 -9999 -9999 -9999 -9999 -9999 -9999 -9999 -9999 -9999 -9999 -9999 -9999 -9999 -9999 -9999 -9999 -9999 -9999 -9999 -9999 -9999 -9999 -9999 -9999 -9999 -9999 -9999 -9999 -9999 -9999 -9999 -9999 -9999 -9999 -9999 -9999 -9999 -9999 -9999 -9999 -9999 -9999 -9999 -9999 -9999 -9999 -9999 -9999 -9999 -9999 -9999 788.0383 787.9575 787.8844 787.7167 787.3952 787.1429 786.7505 786.592 785.0604 782.1923 779.7653 777.0869 774.1569 772.4638 771.2919 770.6724 770.3279 768.7079 766.8616 766.7968 765.6561 762.6005 760.9241 759.3666 757.6223 756.2492 753.0366 749.6366 745.7184 741.0565 748.3442 751.9355 751.1514 749.9566 748.4806 745.4745 741.6485 737.978 732.615 736.9432 740.395 743.0369 745.7504 749.0452 752.0818 754.2421 755.9657 756.7979 758.0216 758.8041 757.4166 753.9601 756.0884 755.7897 755.4818 754.0341 751.39 749.9901 751.9683 753.2111 754.3404 754.204 755.5703 757.1484 758.3553 760.6711 763.2283 765.0259 766.0844 767.5016 767.1603 768.1951 768.5357 768.4518 773.0787 777.8755 782.5336 787.8821 791.7493 795.9464 798.9936 -9999 -9999 -9999 -9999 -9999 -9999 -9999 -9999 -9999 -9999 -9999 -9999 -9999 -9999 -9999 -9999 -9999 -9999 -9999 -9999 -9999 -9999 -9999 -9999 -9999 -9999 -9999 -9999 -9999 -9999 -9999 -9999 -9999 -9999 
-9999 -9999 -9999 -9999 -9999 -9999 -9999 -9999 -9999 -9999 -9999 -9999 -9999 -9999 -9999 -9999 -9999 -9999 -9999 -9999 -9999 -9999 -9999 -9999 -9999 -9999 -9999 -9999 -9999 -9999 -9999 -9999 -9999 -9999 -9999 -9999 -9999 -9999 -9999 -9999 -9999 -9999 -9999 -9999 -9999 -9999 -9999 -9999 -9999 -9999 -9999 -9999 -9999 -9999 -9999 -9999 -9999 -9999 -9999 -9999 -9999 -9999 -9999 -9999 -9999 -9999 -9999 -9999 -9999 -9999 -9999 -9999 -9999 -9999 -9999 -9999 -9999 -9999 -9999 -9999 -9999 -9999 -9999 -9999 -9999 -9999 -9999 -9999 -9999 -9999 788.5511 786.9166 786.4526 786.1119 784.1392 782.3394 780.8405 780.3771 778.6101 775.1376 773.2867 770.414 767.9878 765.8572 764.7455 764.4263 764.1085 763.0341 761.2228 760.2931 759.4618 756.0557 754.0165 753.6485 751.38 749.8956 746.8842 743.4225 739.1598 736.1507 743.5101 747.1882 747.3338 746.0818 743.9094 740.4339 736.0356 731.3066 724.5454 730.2109 733.9393 737.2312 741.1822 745.0364 748.1628 750.3071 752.459 753.09 754.3518 752.6145 748.4989 745.4448 746.459 746.603 748.252 744.4969 740.9475 738.6599 741.743 746.3745 748.3061 749.4651 749.6312 751.3968 752.8636 755.1679 757.3624 759.0351 760.2009 761.2517 761.1984 761.5794 761.7181 764.9833 771.112 776.6525 781.9507 787.7998 791.177 795.9761 798.0693 -9999 -9999 -9999 -9999 -9999 -9999 -9999 -9999 -9999 -9999 -9999 -9999 -9999 -9999 -9999 -9999 -9999 -9999 -9999 -9999 -9999 -9999 -9999 -9999 -9999 -9999 -9999 -9999 -9999 -9999 -9999 -9999 -9999 -9999 
-9999 -9999 -9999 -9999 -9999 -9999 -9999 -9999 -9999 -9999 -9999 -9999 -9999 -9999 -9999 -9999 -9999 -9999 -9999 -9999 -9999 -9999 -9999 -9999 -9999 -9999 -9999 -9999 -9999 -9999 -9999 -9999 -9999 -9999 -9999 -9999 -9999 -9999 -9999 -9999 -9999 -9999 -9999 -9999 -9999 -9999 -9999 -9999 -9999 -9999 -9999 -9999 -9999 -9999 -9999 -9999 -9999 -9999 -9999 -9999 -9999 -9999 -9999 -9999 -9999 -9999 -9999 -9999 -9999 -9999 -9999 -9999 -9999 -9999 -9999 -9999 -9999 -9999 -9999 -9999 -9999 -9999 -9999 -9999 -9999 -9999 -9999 -9999 -9999 790.3571 788.9474 785.7615 783.1981 780.2415 777.2248 776.1496 775.111 774.269 773.321 771.3657 767.9048 762.8832 759.2621 758.7021 758.6251 758.139 757.8639 757.1034 754.7313 753.602 752.3866 749.4194 747.0679 747.0008 745.3762 743.5764 742.1385 737.046 729.4946 731.0918 737.2122 741.423 743.1893 740.3409 737.6533 733.9043 729.951 725.7768 719.4415 725.4941 728.5063 732.5769 737.0399 741.7133 744.0534 747.3033 749.1915 749.2563 750.144 745.3114 740.6655 737.0377 736.201 738.8306 741.2813 734.0811 732.0031 729.0823 732.3932 735.5479 741.064 743.4651 743.9635 745.2192 747.8024 749.3927 751.6978 753.205 754.0638 753.8199 753.3369 754.2344 758.7485 765.8817 771.6538 776.3568 781.6581 786.925 790.5483 795.653 796.5941 -9999 -9999 -9999 -9999 -9999 -9999 -9999 -9999 -9999 -9999 -9999 -9999 -9999 -9999 -9999 -9999 -9999 -9999 -9999 -9999 -9999 -9999 -9999 -9999 -9999 -9999 -9999 -9999 -9999 -9999 -9999 -9999 -9999 -9999 
-9999 -9999 -9999 -9999 -9999 -9999 -9999 -9999 -9999 -9999 -9999 -9999 -9999 -9999 -9999 -9999 -9999 -9999 -9999 -9999 -9999 -9999 -9999 -9999 -9999 -9999 -9999 -9999 -9999 -9999 -9999 -9999 -9999 -9999 -9999 -9999 -9999 -9999 -9999 -9999 -9999 -9999 -9999 -9999 -9999 -9999 -9999 -9999 -9999 -9999 -9999 -9999 -9999 -9999 -9999 -9999 -9999 -9999 -9999 -9999 -9999 -9999 -9999 -9999 -9999 -9999 -9999 -9999 -9999 -9999 -9999 -9999 -9999 -9999 -9999 -9999 -9999 -9999 -9999 -9999 -9999 -9999 -9999 -9999 -9999 -9999 -9999 790.7389 788.0787 787.7449 786.4031 781.5323 778.738 775.7542 773.0833 772.1833 771.5944 770.6281 769.1339 766.29 762.4008 757.6078 751.9377 750.3086 751.5294 751.3754 751.1423 750.7125 748.3549 747.2385 746.184 743.334 739.9607 737.8065 735.9008 733.5896 731.9041 728.7334 721.7054 726.5715 730.5043 734.7326 736.5035 734.0331 732.2043 729.6272 725.5649 720.9327 714.5533 720.7941 724.8983 729.3948 732.8215 737.251 740.9642 744.6576 746.9863 746.4247 743.9238 739.4707 735.7887 728.6183 725.8934 731.4888 734.0674 730.0989 722.8218 720.3658 723.4268 726.4977 732.3079 736.9264 738.2134 740.5969 742.4372 744.3338 747.1921 748.364 747.2408 745.8204 746.7189 752.8514 759.5228 766.1148 771.7399 777.3787 781.4988 786.7878 789.9258 793.7381 795.5745 -9999 -9999 -9999 -9999 -9999 -9999 -9999 -9999 -9999 -9999 -9999 -9999 -9999 -9999 -9999 -9999 -9999 -9999 -9999 -9999 -9999 -9999 -9999 -9999 -9999 -9999 -9999 -9999 -9999 -9999 -9999 -9999 -9999 -9999 
-9999 -9999 -9999 -9999 -9999 -9999 -9999 -9999 -9999 -9999 -9999 -9999 -9999 -9999 -9999 -9999 -9999 -9999 -9999 -9999 -9999 -9999 -9999 -9999 -9999 -9999 -9999 -9999 -9999 -9999 -9999 -9999 -9999 -9999 -9999 -9999 -9999 -9999 -9999 -9999 -9999 -9999 -9999 -9999 -9999 -9999 -9999 -9999 -9999 -9999 -9999 -9999 -9999 -9999 -9999 -9999 -9999 -9999 -9999 -9999 -9999 -9999 -9999 -9999 -9999 -9999 -9999 -9999 -9999 -9999 -9999 -9999 -9999 -9999 -9999 -9999 -9999 -9999 -9999 -9999 -9999 -9999 -9999 -9999 -9999 -9999 792.0602 789.3231 786.8877 783.1646 780.4739 777.381 775.6177 771.3398 769.3114 768.9441 767.798 766.1301 763.492 761.1154 757.8471 754.5149 747.2538 744.3613 745.2573 744.7979 744.2942 743.3333 742.0005 740.094 739.316 736.3793 732.6379 730.3931 729.359 726.9747 725.5978 722.7128 714.1723 720.7286 726.3041 731.1345 732.4504 730.0044 727.5934 724.8121 721.0273 717.2226 710.799 713.6366 718.9279 724.7443 729.3887 733.4197 738.1807 741.7491 744.2058 741.7986 737.507 732.5121 727.7786 721.947 716.994 723.423 724.3984 721.7977 714.7247 710.975 713.6336 717.2523 722.9163 733.0273 732.7796 734.0925 736.1133 737.3303 739.6726 739.8654 739.4143 739.9218 746.7074 754.0203 761.0803 766.4303 772.7366 777.2484 781.1483 784.8593 788.8864 790.3129 793.8973 793.825 -9999 -9999 -9999 -9999 -9999 -9999 -9999 -9999 -9999 -9999 -9999 -9999 -9999 -9999 -9999 -9999 -9999 -9999 -9999 -9999 -9999 -9999 -9999 -9999 -9999 -9999 -9999 -9999 -9999 -9999 -9999 -9999 -9999 
-9999 -9999 -9999 -9999 -9999 -9999 -9999 -9999 -9999 -9999 -9999 -9999 -9999 -9999 -9999 -9999 -9999 -9999 -9999 -9999 -9999 -9999 -9999 -9999 -9999 -9999 -9999 -9999 -9999 -9999 -9999 -9999 -9999 -9999 -9999 -9999 -9999 -9999 -9999 -9999 -9999 -9999 -9999 -9999 -9999 -9999 -9999 -9999 -9999 -9999 -9999 -9999 -9999 -9999 -9999 -9999 -9999 -9999 -9999 -9999 -9999 -9999 -9999 -9999 -9999 -9999 -9999 -9999 -9999 -9999 -9999 -9999 -9999 -9999 -9999 -9999 -9999 -9999 -9999 -9999 -9999 -9999 -9999 -9999 -9999 794.7584 792.2514 789.0731 784.8684 780.4145 776.4261 772.5209 769.6727 767.1725 765.3414 765.0739 763.7183 761.078 758.5215 756.7399 753.7079 750.1174 742.2277 737.4628 740.0613 738.9351 737.2152 737.0018 735.4542 733.3435 732.0145 730.076 726.2379 724.611 723.6067 721.7054 720.9305 716.5879 708.6493 714.285 719.9666 725.2015 726.2843 723.7643 721.1721 718.9493 716.0735 713.1619 707.4751 707.8187 713.6504 719.4758 724.6666 729.6204 734.3188 737.3638 738.1395 736.1293 729.7034 723.8619 719.8301 714.3971 708.9206 714.34 718.3969 715.0654 708.2036 702.3209 705.7705 710.0042 715.3085 722.0049 724.2985 726.3064 728.7379 729.4024 730.5842 731.0948 734.3333 740.3417 747.1868 754.0318 760.681 766.9873 772.2794 775.9187 779.782 783.355 787.8257 788.6997 790.5728 790.7838 -9999 -9999 -9999 -9999 -9999 -9999 -9999 -9999 -9999 -9999 -9999 -9999 -9999 -9999 -9999 -9999 -9999 -9999 -9999 -9999 -9999 -9999 -9999 -9999 -9999 -9999 -9999 -9999 -9999 -9999 -9999 -9999 -9999 
-9999 -9999 -9999 -9999 -9999 -9999 -9999 -9999 -9999 -9999 -9999 -9999 -9999 -9999 -9999 -9999 -9999 -9999 -9999 -9999 -9999 -9999 -9999 -9999 -9999 -9999 -9999 -9999 -9999 -9999 -9999 -9999 -9999 -9999 -9999 -9999 -9999 -9999 -9999 -9999 -9999 -9999 -9999 -9999 -9999 -9999 -9999 -9999 -9999 -9999 -9999 -9999 -9999 -9999 -9999 -9999 -9999 -9999 -9999 -9999 -9999 -9999 -9999 -9999 -9999 -9999 -9999 -9999 -9999 -9999 -9999 -9999 -9999 -9999 -9999 -9999 -9999 -9999 -9999 -9999 -9999 -9999 -9999 -9999 797.7919 795.2018 791.5702 787.8166 783.1386 778.2771 773.6663 766.7725 764.7772 762.1196 759.455 758.8751 757.9896 755.9711 753.7247 752.6823 750.5616 746.8834 740.8804 731.5962 732.9861 733.2894 731.027 729.7194 728.5543 726.7217 726.0093 724.4387 721.0151 717.7896 716.7867 715.7321 715.5142 710.77 701.5247 708.9724 715.3511 720.298 720.0199 718.6567 716.1253 714.516 712.3511 710.2229 706.0182 703.0281 709.8502 716.213 720.8726 725.9879 730.7382 733.3991 732.4298 728.5741 721.2971 715.134 711.4893 705.4337 702.7012 705.8802 708.1632 707.8157 702.641 695.2968 698.7585 703.3108 708.6212 714.1921 716.837 718.5157 720.1784 721.6354 724.2094 730.2658 737.437 742.7885 748.0768 753.7955 760.524 766.1628 771.2119 774.9777 778.3891 782.2593 785.6441 786.8687 789.5341 790.1948 -9999 -9999 -9999 -9999 -9999 -9999 -9999 -9999 -9999 -9999 -9999 -9999 -9999 -9999 -9999 -9999 -9999 -9999 -9999 -9999 -9999 -9999 -9999 -9999 -9999 -9999 -9999 -9999 -9999 -9999 -9999 -9999 -9999 
-9999 -9999 -9999 -9999 -9999 -9999 -9999 -9999 -9999 -9999 -9999 -9999 -9999 -9999 -9999 -9999 -9999 -9999 -9999 -9999 -9999 -9999 -9999 -9999 -9999 -9999 -9999 -9999 -9999 -9999 -9999 -9999 -9999 -9999 -9999 -9999 -9999 -9999 -9999 -9999 -9999 -9999 -9999 -9999 -9999 -9999 -9999 -9999 -9999 -9999 -9999 -9999 -9999 -9999 -9999 -9999 -9999 -9999 -9999 -9999 -9999 -9999 -9999 -9999 -9999 -9999 -9999 -9999 -9999 -9999 -9999 -9999 -9999 -9999 -9999 -9999 -9999 -9999 -9999 -9999 -9999 -9999 -9999 -9999 796.8935 794.2189 790.0553 786.3726 781.8806 777.637 773.4125 766.2908 760.4531 756.1524 753.3003 751.4821 751.1248 750.6302 748.9271 748.0851 745.6467 742.2391 737.1885 729.2004 723.9023 726.7377 725.8636 724.5873 722.9277 720.9449 719.4697 718.4958 714.5663 710.9932 708.5397 704.5528 706.5233 702.6584 696.4756 703.2316 710.1207 714.9854 714.4192 713.0133 711.3347 710.3737 708.132 706.0463 703.2902 698.1825 705.5503 712.5264 718.1858 722.6465 726.3879 728.5154 725.4415 720.1669 714.1807 708.8116 704.5704 699.9816 693.1594 696.3994 698.226 702.7957 697.8876 688.5638 690.6783 696.7385 701.2762 705.8711 708.8627 709.4944 710.9239 718.505 726.2104 733.0341 739.4311 745.7991 750.1959 755.001 759.6675 765.0823 769.1674 773.1283 776.8073 780.2758 784.1925 784.5164 786.8046 788.9573 789.3795 -9999 -9999 -9999 -9999 -9999 -9999 -9999 -9999 -9999 -9999 -9999 -9999 -9999 -9999 -9999 -9999 -9999 -9999 -9999 -9999 -9999 -9999 -9999 -9999 -9999 -9999 -9999 -9999 -9999 -9999 -9999 -9999 
-9999 -9999 -9999 -9999 -9999 -9999 -9999 -9999 -9999 -9999 -9999 -9999 -9999 -9999 -9999 -9999 -9999 -9999 -9999 -9999 -9999 -9999 -9999 -9999 -9999 -9999 -9999 -9999 -9999 -9999 -9999 -9999 -9999 -9999 -9999 -9999 -9999 -9999 -9999 -9999 -9999 -9999 -9999 -9999 -9999 -9999 -9999 -9999 -9999 -9999 -9999 -9999 -9999 -9999 -9999 -9999 -9999 -9999 -9999 -9999 -9999 -9999 -9999 -9999 -9999 -9999 -9999 -9999 -9999 -9999 -9999 -9999 -9999 -9999 -9999 -9999 -9999 -9999 -9999 -9999 -9999 -9999 796.4821 795.5295 794.5916 792.6857 789.5753 785.3949 780.9434 776.4269 771.7765 766.3647 760.4136 753.5769 748.3907 745.8639 744.6081 743.7692 743.5543 742.6863 740.3219 737.5497 734.0781 729.0191 723.9198 718.9729 719.216 718.5272 717.0397 715.3763 713.802 712.4548 709.0577 704.0979 700.1622 694.1881 697.3633 697.1241 691.6469 699.6242 706.6712 709.7893 709.358 708.6768 705.769 704.0126 701.9354 700.5203 699.0718 693.103 699.5724 707.6664 713.6039 718.0555 721.8259 722.267 717.7994 711.6326 706.0067 701.2214 697.4716 693.7842 685.2856 686.0941 689.7609 695.866 692.4111 683.1262 682.163 688.5844 692.8074 697.8571 700.3862 702.3781 711.5678 719.5337 727.0074 734.2312 740.7029 746.0925 751.5347 755.459 758.7051 762.6371 766.3708 770.446 775.2085 778.4874 782.6327 783.4221 782.8461 784.4104 785.7897 -9999 -9999 -9999 -9999 -9999 -9999 -9999 -9999 -9999 -9999 -9999 -9999 -9999 -9999 -9999 -9999 -9999 -9999 -9999 -9999 -9999 -9999 -9999 -9999 -9999 -9999 -9999 -9999 -9999 -9999 -9999 -9999 
-9999 -9999 -9999 -9999 -9999 -9999 -9999 -9999 -9999 -9999 -9999 -9999 -9999 -9999 -9999 -9999 -9999 -9999 -9999 -9999 -9999 -9999 -9999 -9999 -9999 -9999 -9999 -9999 -9999 -9999 -9999 -9999 -9999 -9999 -9999 -9999 -9999 -9999 -9999 -9999 -9999 -9999 -9999 -9999 -9999 -9999 -9999 -9999 -9999 -9999 -9999 -9999 -9999 -9999 -9999 -9999 -9999 -9999 -9999 -9999 -9999 -9999 -9999 -9999 -9999 -9999 -9999 -9999 -9999 -9999 -9999 -9999 -9999 -9999 -9999 -9999 -9999 -9999 -9999 -9999 -9999 794.5549 793.066 791.8917 791.0665 789.3764 786.6233 782.3698 778.697 773.6616 769.1217 764.4529 758.68 752.0148 745.2437 740.1375 739.6163 739.3846 738.9769 738.762 736.3236 732.452 730.4456 727.6406 724.185 715.9729 710.0857 708.5838 708.657 708.0992 707.4995 706.153 704.28 698.8165 691.5325 685.97 690.4673 688.2872 686.3372 698.0438 703.9935 705.3621 704.9361 703.6438 701.1208 699.183 697.9951 695.3105 692.866 688.8328 693.5389 702.0718 708.3483 713.6777 716.5734 715.6658 708.4824 703.0585 697.8046 692.2877 690.1244 687.9374 680.223 678.4398 682.483 688.4076 687.9382 678.5084 674.0629 680.2115 684.5259 688.4944 693.4833 702.4725 710.3783 718.1477 725.3882 731.8889 738.2874 743.6921 749.0331 753.3002 755.7913 759.9007 764.1031 768.6256 773.5618 777.3657 781.6428 782.3828 782.241 781.2047 781.0287 782.212 -9999 -9999 -9999 -9999 -9999 -9999 -9999 -9999 -9999 -9999 -9999 -9999 -9999 -9999 -9999 -9999 -9999 -9999 -9999 -9999 -9999 -9999 -9999 -9999 -9999 -9999 -9999 -9999 -9999 -9999 -9999 
-9999 -9999 -9999 -9999 -9999 -9999 -9999 -9999 -9999 -9999 -9999 -9999 -9999 -9999 -9999 -9999 -9999 -9999 -9999 -9999 -9999 -9999 -9999 -9999 -9999 -9999 -9999 -9999 -9999 -9999 -9999 -9999 -9999 -9999 -9999 -9999 -9999 -9999 -9999 -9999 -9999 -9999 -9999 -9999 -9999 -9999 -9999 -9999 -9999 -9999 -9999 -9999 -9999 -9999 -9999 -9999 -9999 -9999 -9999 -9999 -9999 -9999 -9999 -9999 -9999 -9999 -9999 -9999 -9999 -9999 -9999 -9999 -9999 -9999 -9999 -9999 -9999 -9999 -9999 -9999 797.2989 793.924 790.892 788.6502 787.4105 785.5687 783.2042 779.9268 775.463 770.1732 766.0585 761.7539 756.4176 750.2218 742.0204 735.2988 733.1354 732.2958 732.4626 732.519 730.7626 728.2899 726.4862 723.4268 719.9346 717.3376 713.783 706.8107 700.7589 699.9146 699.6371 698.8165 697.214 691.5905 684.1511 679.0739 682.4426 679.2925 686.5468 694.707 697.7184 698.0674 699.2104 697.2689 695.5002 694.1081 693.0261 689.7578 685.8267 681.974 690.4368 697.8129 703.678 708.5305 712.3282 708.3758 701.847 696.4863 691.6133 685.9532 682.7421 681.209 676.2026 670.7543 676.2438 680.879 680.8989 674.7944 667.3337 675.2882 676.9707 684.1259 693.2996 701.7197 709.3915 716.5627 722.4621 727.5127 734.3326 741.157 746.7996 750.7117 754.0096 758.3538 762.1555 765.7841 769.6954 773.894 778.3129 780.9715 781.3731 779.2692 776.9565 777.6942 -9999 -9999 -9999 -9999 -9999 -9999 -9999 -9999 -9999 -9999 -9999 -9999 -9999 -9999 -9999 -9999 -9999 -9999 -9999 -9999 -9999 -9999 -9999 -9999 -9999 -9999 -9999 -9999 -9999 -9999 -9999 
-9999 -9999 -9999 -9999 -9999 -9999 -9999 -9999 -9999 -9999 -9999 -9999 -9999 -9999 -9999 -9999 -9999 -9999 -9999 -9999 -9999 -9999 -9999 -9999 -9999 -9999 -9999 -9999 -9999 -9999 -9999 -9999 -9999 -9999 -9999 -9999 -9999 -9999 -9999 -9999 -9999 -9999 -9999 -9999 -9999 -9999 -9999 -9999 -9999 -9999 -9999 -9999 -9999 -9999 -9999 -9999 -9999 -9999 -9999 -9999 -9999 -9999 -9999 -9999 -9999 -9999 -9999 -9999 -9999 -9999 -9999 -9999 -9999 -9999 -9999 -9999 -9999 -9999 -9999 -9999 799.3174 795.4473 790.9606 787.7662 784.444 782.177 779.2174 775.9324 772.204 766.5355 762.4816 758.0201 753.0183 747.7598 741.5137 735.5853 729.5526 727.6018 727.9028 727.9165 727.1873 725.0544 722.1161 718.5889 714.8528 712.3268 709.0974 705.5785 703.0242 699.3781 694.1271 691.7619 687.3248 682.1082 677.6398 671.463 673.7299 676.3741 683.6664 687.4033 690.0649 690.5762 692.6511 691.7329 689.6222 688.3672 686.7236 683.5704 678.6029 681.0299 688.2498 693.9534 698.2381 702.945 705.0146 699.9557 694.7581 688.8381 684.1541 679.864 675.7172 675.1655 671.2313 664.6141 669.9192 673.9181 673.4099 667.7269 660.9314 668.5895 673.624 681.9915 690.1647 699.5328 706.7001 713.3699 718.1187 723.8696 730.918 737.0521 743.4926 747.1288 751.4448 755.8773 758.9619 760.4196 764.0985 768.7376 773.8994 778.1041 779.715 777.4427 774.9685 773.8339 774.1288 -9999 -9999 -9999 -9999 -9999 -9999 -9999 -9999 -9999 -9999 -9999 -9999 -9999 -9999 -9999 -9999 -9999 -9999 -9999 -9999 -9999 -9999 -9999 -9999 -9999 -9999 -9999 -9999 -9999 -9999 
-9999 -9999 -9999 -9999 -9999 -9999 -9999 -9999 -9999 -9999 -9999 -9999 -9999 -9999 -9999 -9999 -9999 -9999 -9999 -9999 -9999 -9999 -9999 -9999 -9999 -9999 -9999 -9999 -9999 -9999 -9999 -9999 -9999 -9999 -9999 -9999 -9999 -9999 -9999 -9999 -9999 -9999 -9999 -9999 -9999 -9999 -9999 -9999 -9999 -9999 -9999 -9999 -9999 -9999 -9999 -9999 -9999 -9999 -9999 -9999 -9999 -9999 -9999 -9999 -9999 -9999 -9999 -9999 -9999 -9999 -9999 -9999 -9999 -9999 -9999 -9999 -9999 -9999 -9999 804.9105 802.2481 797.9215 793.1613 788.987 784.1415 780.2872 776.4376 771.7483 767.2144 762.394 758.0536 754.2794 749.9216 744.8489 740.0034 735.916 730.8967 723.5068 726.4161 726.5487 726.0717 722.9871 716.8919 713.043 709.0494 706.4921 703.979 700.7169 698.0248 695.9422 693.4642 691.3527 685.1599 678.6273 668.5666 664.5897 667.7894 673.5859 677.4005 681.244 685.1081 684.1716 685.0472 685.08 683.8363 681.8719 680.6191 677.514 670.1165 677.0118 684.5359 689.5391 693.7842 697.9981 697.4525 692.0995 686.9658 682.0959 678.3049 672.3164 669.1176 668.5095 665.8889 660.0002 662.8577 666.619 666.3636 660.161 657.3942 663.6037 670.7375 679.4625 686.7083 694.1424 702.0931 709.8053 713.36 718.5591 723.3407 727.7649 737.2609 742.627 747.5701 751.8707 753.7506 754.3571 758.8568 763.6825 768.4236 772.7572 776.7942 775.4424 772.0127 770.8666 770.0239 -9999 -9999 -9999 -9999 -9999 -9999 -9999 -9999 -9999 -9999 -9999 -9999 -9999 -9999 -9999 -9999 -9999 -9999 -9999 -9999 -9999 -9999 -9999 -9999 -9999 -9999 -9999 -9999 -9999 -9999 
-9999 -9999 -9999 -9999 -9999 -9999 -9999 -9999 -9999 -9999 -9999 -9999 -9999 -9999 -9999 -9999 -9999 -9999 -9999 -9999 -9999 -9999 -9999 -9999 -9999 -9999 -9999 -9999 -9999 -9999 -9999 -9999 -9999 -9999 -9999 -9999 -9999 -9999 -9999 -9999 -9999 -9999 -9999 -9999 -9999 -9999 -9999 -9999 -9999 -9999 -9999 -9999 -9999 -9999 -9999 -9999 -9999 -9999 -9999 -9999 -9999 -9999 -9999 -9999 -9999 -9999 -9999 -9999 -9999 -9999 -9999 -9999 -9999 -9999 -9999 -9999 -9999 -9999 -9999 807.7551 804.4297 799.9545 795.6194 790.4691 784.9598 779.6898 774.3101 767.8598 762.4579 757.8692 753.4108 749.8293 745.5446 741.077 736.9653 733.476 729.7971 721.8365 721.1606 723.2805 722.8805 721.1705 713.2145 706.6491 704.7891 700.8853 698.6092 695.6489 692.9628 691.1949 688.3649 685.6689 683.4874 675.1884 664.6926 657.1534 663.3256 666.2075 669.8018 674.3289 678.558 676.5197 676.5021 679.1988 677.3357 675.4719 674.7129 671.0759 663.4719 672.7355 678.4017 683.2015 689.4934 693.4764 690.4924 684.7835 679.7825 675.6822 669.9916 665.3914 663.3751 662.9651 661.2743 654.6099 657.0604 659.5682 659.2877 650.319 653.7861 659.2054 669.1016 677.0728 682.9197 689.9019 697.1721 703.9448 706.8899 709.4753 714.6219 721.0593 730.3519 737.5505 742.4745 744.6653 746.2837 748.3404 753.0831 757.9523 762.0823 767.7767 772.3777 771.9594 768.6569 767.2708 766.4257 -9999 -9999 -9999 -9999 -9999 -9999 -9999 -9999 -9999 -9999 -9999 -9999 -9999 -9999 -9999 -9999 -9999 -9999 -9999 -9999 -9999 -9999 -9999 -9999 -9999 -9999 -9999 -9999 -9999 -9999 
-9999 -9999 -9999 -9999 -9999 -9999 -9999 -9999 -9999 -9999 -9999 -9999 -9999 -9999 -9999 -9999 -9999 -9999 -9999 -9999 -9999 -9999 -9999 -9999 -9999 -9999 -9999 -9999 -9999 -9999 -9999 -9999 -9999 -9999 -9999 -9999 -9999 -9999 -9999 -9999 -9999 -9999 -9999 -9999 -9999 -9999 -9999 -9999 -9999 -9999 -9999 -9999 -9999 -9999 -9999 -9999 -9999 -9999 -9999 -9999 -9999 -9999 -9999 -9999 -9999 -9999 -9999 -9999 -9999 -9999 -9999 -9999 -9999 -9999 -9999 -9999 -9999 -9999 810.6652 808.9514 805.7266 800.7866 796.9735 791.6548 786.7604 781.0401 775.236 769.2383 764.11 760.4745 756.064 750.439 744.5205 739.4844 733.5416 730.0524 725.5063 721.4929 714.045 715.8022 718.6658 717.6676 711.6905 705.5244 699.3598 695.3288 692.4736 689.6116 687.1091 684.7888 683.1696 679.448 676.7063 671.2085 663.1641 651.779 651.6578 656.4112 662.0538 667.368 670.4647 667.7513 666.6723 671.4188 669.8057 668.0576 667.3566 664.3138 659.3944 667.8115 673.4701 677.8896 683.9286 688.2734 683.9666 679.2864 673.5257 669.1282 663.7843 659.1232 657.7249 657.8148 654.6106 649.3756 650.2108 652.5128 651.8644 644.2718 648.6563 657.3889 667.9692 675.9336 681.3743 685.9646 690.7408 693.6547 696.9854 701.85 708.0222 715.8922 723.9053 731.7981 735.1609 736.9127 738.4055 742.2017 747.4915 751.8395 757.2771 762.192 766.998 766.9377 764.1641 763.8639 763.8159 -9999 -9999 -9999 -9999 -9999 -9999 -9999 -9999 -9999 -9999 -9999 -9999 -9999 -9999 -9999 -9999 -9999 -9999 -9999 -9999 -9999 -9999 -9999 -9999 -9999 -9999 -9999 -9999 -9999 -9999 
-9999 -9999 -9999 -9999 -9999 -9999 -9999 -9999 -9999 -9999 -9999 -9999 -9999 -9999 -9999 -9999 -9999 -9999 -9999 -9999 -9999 -9999 -9999 -9999 -9999 -9999 -9999 -9999 -9999 -9999 -9999 -9999 -9999 -9999 -9999 -9999 -9999 -9999 -9999 -9999 -9999 -9999 -9999 -9999 -9999 -9999 -9999 -9999 -9999 -9999 -9999 -9999 -9999 -9999 -9999 -9999 -9999 -9999 -9999 -9999 -9999 -9999 -9999 -9999 -9999 -9999 -9999 -9999 -9999 -9999 -9999 -9999 -9999 -9999 -9999 -9999 -9999 812.3934 811.1117 808.9933 805.0583 801.1318 796.9316 791.9047 787.3326 782.8354 777.093 773.2928 768.7742 763.87 758.869 753.3116 747.1426 740.4987 733.8944 725.5414 719.5482 716.2236 711.6257 708.4169 713.2998 714.0603 712.0684 705.9176 698.8187 692.3181 687.2927 684.5046 680.498 677.6809 675.8651 671.3136 666.7393 663.1298 658.6758 648.9916 645.4193 648.8811 654.4391 660.1343 661.2888 659.1902 657.7272 662.8029 662.6139 660.6472 659.7236 657.0711 653.5369 663.1183 669.8094 674.7601 680.2237 683.2869 677.5796 672.4658 666.8978 662.6154 659.0751 652.6118 649.9776 651.3264 648.8506 644.6329 640.8603 644.7899 645.0955 637.2759 644.7785 654.7592 665.021 670.9212 674.7556 678.449 681.0551 685.0038 690.7035 695.277 702.3537 710.9026 717.6333 723.9945 727.6475 729.5632 731.9871 737.0178 742.3846 747.9907 753.1204 758.3988 761.4498 762.1616 760.0256 760.4211 -9999 -9999 -9999 -9999 -9999 -9999 -9999 -9999 -9999 -9999 -9999 -9999 -9999 -9999 -9999 -9999 -9999 -9999 -9999 -9999 -9999 -9999 -9999 -9999 -9999 -9999 -9999 -9999 -9999 -9999 -9999 
-9999 -9999 -9999 -9999 -9999 -9999 -9999 -9999 -9999 -9999 -9999 -9999 -9999 -9999 -9999 -9999 -9999 -9999 -9999 -9999 -9999 -9999 -9999 -9999 -9999 -9999 -9999 -9999 -9999 -9999 -9999 -9999 -9999 -9999 -9999 -9999 -9999 -9999 -9999 -9999 -9999 -9999 -9999 -9999 -9999 -9999 -9999 -9999 -9999 -9999 -9999 -9999 -9999 -9999 -9999 -9999 -9999 -9999 -9999 -9999 -9999 -9999 -9999 -9999 -9999 -9999 -9999 -9999 -9999 -9999 -9999 -9999 -9999 -9999 -9999 -9999 813.0609 812.4894 811.0248 808.2649 805.2039 801.5143 796.1323 791.5352 786.717 782.4635 778.1719 773.7356 769.2756 764.7935 760.6383 755.2213 749.2761 743.142 736.0143 726.6379 722.4202 717.5709 710.1536 704.5985 704.9833 709.3192 708.6509 704.2328 698.0507 693.3164 688.2391 683.0858 676.2186 669.9276 667.9631 663.1343 659.2428 654.3774 652.3741 645.2845 639.3683 641.777 647.7488 651.9497 652.4282 650.6741 649.4183 653.9545 656.4958 652.8793 651.8536 646.6508 651.8613 660.7599 667.6248 672.4658 676.6286 677.1392 672.2608 666.9885 661.0182 657.0803 654.3051 648.3074 642.5428 643.3734 644.175 640.1509 634.538 635.9866 635.3586 631.0541 637.5753 651.1321 658.6896 662.7228 665.2985 668.5605 672.7858 678.0208 684.6959 690.6821 697.8793 705.1884 713.0369 718.5165 720.8558 723.1289 728.0079 732.9069 738.2333 743.0978 747.0709 750.2286 755.5565 758.4529 756.3955 757.8578 -9999 -9999 -9999 -9999 -9999 -9999 -9999 -9999 -9999 -9999 -9999 -9999 -9999 -9999 -9999 -9999 -9999 -9999 -9999 -9999 -9999 -9999 -9999 -9999 -9999 -9999 -9999 -9999 -9999 -9999 -9999 
-9999 -9999 -9999 -9999 -9999 -9999 -9999 -9999 -9999 -9999 -9999 -9999 -9999 -9999 -9999 -9999 -9999 -9999 -9999 -9999 -9999 -9999 -9999 -9999 -9999 -9999 -9999 -9999 -9999 -9999 -9999 -9999 -9999 -9999 -9999 -9999 -9999 -9999 -9999 -9999 -9999 -9999 -9999 -9999 -9999 -9999 -9999 -9999 -9999 -9999 -9999 -9999 -9999 -9999 -9999 -9999 -9999 -9999 -9999 -9999 -9999 -9999 -9999 -9999 -9999 -9999 -9999 -9999 -9999 -9999 -9999 -9999 813.0129 813.7208 813.7841 813.5912 812.6783 811.463 809.4261 806.7584 805.8143 801.877 795.554 790.9263 786.6019 782.0878 777.653 773.2296 768.5951 764.3196 759.2736 753.9785 748.4921 742.8715 736.2528 731.0818 725.3851 719.0225 713.7281 705.5449 697.4853 699.7217 702.1784 701.2633 699.0748 693.9465 689.1124 682.8404 677.0538 670.7162 665.1864 660.1603 654.4985 648.3965 642.6784 637.5944 631.0076 633.859 638.2725 643.9784 643.397 641.6619 641.9363 648.6106 648.9901 644.857 640.9288 640.1044 651.3904 659.7747 664.65 669.2898 672.2661 673.4907 668.0485 661.9875 656.4523 652.1219 649.2987 643.8389 637.4808 636.8888 636.2807 636.539 630.2472 625.967 626.4044 625.3201 635.4348 645.7981 651.6289 653.9545 657.3416 661.5676 667.2842 675.6144 680.3563 685.0989 692.2305 700.9501 708.9922 713.0316 715.0227 718.7153 723.775 729.4626 733.1278 736.9097 739.9538 741.9091 748.4791 752.2822 752.1824 755.9604 -9999 -9999 -9999 -9999 -9999 -9999 -9999 -9999 -9999 -9999 -9999 -9999 -9999 -9999 -9999 -9999 -9999 -9999 -9999 -9999 -9999 -9999 -9999 -9999 -9999 -9999 -9999 -9999 -9999 -9999 -9999 
-9999 -9999 -9999 -9999 -9999 -9999 -9999 -9999 -9999 -9999 -9999 -9999 -9999 -9999 -9999 -9999 -9999 -9999 -9999 -9999 -9999 -9999 -9999 -9999 -9999 -9999 -9999 -9999 -9999 -9999 -9999 -9999 -9999 -9999 -9999 -9999 -9999 -9999 -9999 -9999 -9999 -9999 -9999 -9999 -9999 -9999 -9999 -9999 -9999 -9999 -9999 -9999 -9999 -9999 -9999 -9999 -9999 -9999 -9999 -9999 -9999 -9999 -9999 807.24 806.7592 806.1823 806.5511 807.6454 808.0499 808.5171 809.644 810.5889 812.3949 813.2034 813.278 813.1165 809.6281 807.9738 806.1076 804.4968 802.8691 800.9908 796.5026 790.6755 785.7126 781.0912 776.856 772.1682 766.8776 761.9939 756.6653 751.8494 746.7104 740.9086 734.6343 728.3936 722.8607 717.9099 712.806 706.3504 697.9791 690.5663 694.5211 695.0363 694.3176 691.1973 686.9392 683.5598 676.9913 672.6761 667.7947 662.5941 657.4856 650.5027 643.813 635.3937 626.425 625.4557 631.7803 635.1819 634.8146 633.0109 633.5466 640.2781 640.8496 635.9781 632.1804 642.6578 649.9288 656.4478 660.8475 664.6903 667.4304 667.4487 663.1396 657.7622 652.3246 647.5796 643.8565 637.4991 632.7427 628.858 629.3808 629.0569 625.5433 617.4494 618.075 622.9236 633.6007 641.066 643.0259 646.1981 651.1572 656.6786 665.7975 671.6938 675.1732 679.1531 686.7952 695.9719 703.4594 707.0918 711.1807 716.405 721.2124 724.1614 727.153 728.6176 730.8418 734.901 739.5385 744.397 748.1804 752.1237 -9999 -9999 -9999 -9999 -9999 -9999 -9999 -9999 -9999 -9999 -9999 -9999 -9999 -9999 -9999 -9999 -9999 -9999 -9999 -9999 -9999 -9999 -9999 -9999 -9999 -9999 -9999 -9999 -9999 -9999 -9999 
-9999 -9999 -9999 -9999 -9999 -9999 -9999 -9999 -9999 -9999 -9999 -9999 -9999 -9999 -9999 -9999 -9999 -9999 -9999 -9999 -9999 -9999 -9999 -9999 -9999 -9999 -9999 -9999 -9999 -9999 -9999 -9999 -9999 -9999 -9999 -9999 -9999 -9999 -9999 -9999 -9999 -9999 -9999 -9999 -9999 -9999 -9999 -9999 -9999 -9999 -9999 -9999 -9999 -9999 -9999 -9999 -9999 -9999 -9999 -9999 -9999 -9999 807.2766 806.9832 804.5966 803.987 804.1782 804.6995 805.687 807.1089 807.1729 807.5021 809.7531 811.7197 811.8973 810.8602 807.3406 804.3702 802.8668 800.7805 799.6694 798.9235 795.3444 790.0219 784.6497 779.6365 775.5743 770.9283 765.9792 759.8047 755.1664 748.6513 743.2015 736.4928 729.7293 723.6249 717.4711 712.0174 706.6506 701.4469 695.4119 685.2902 685.3291 685.8823 686.8264 684.4993 680.719 678.574 675.5793 672.4818 668.1925 663.1488 657.4239 650.5735 641.8585 634.2454 623.6833 615.475 621.584 626.9431 626.0699 621.9825 625.9297 631.314 633.6518 626.3259 633.2769 640.6927 647.4661 652.4838 656.9835 660.0223 660.9527 661.2979 657.4917 653.2733 649.189 643.8793 638.8661 631.0396 626.8181 620.7176 621.2167 621.1915 620.9599 611.2985 610.5936 620.3015 628.8412 634.6508 636.35 639.3896 645.1054 654.2205 661.7612 665.1407 668.9629 674.9141 682.3306 692.2847 698.0812 701.8211 707.0613 712.2635 715.4631 716.9765 717.1921 718.5508 722.7654 727.4044 732.3712 739.0455 746.4202 750.538 -9999 -9999 -9999 -9999 -9999 -9999 -9999 -9999 -9999 -9999 -9999 -9999 -9999 -9999 -9999 -9999 -9999 -9999 -9999 -9999 -9999 -9999 -9999 -9999 -9999 -9999 -9999 -9999 -9999 -9999 -9999 
-9999 -9999 -9999 -9999 -9999 -9999 -9999 -9999 -9999 -9999 -9999 -9999 -9999 -9999 -9999 -9999 -9999 -9999 -9999 -9999 -9999 -9999 -9999 -9999 -9999 -9999 -9999 -9999 -9999 -9999 -9999 -9999 -9999 -9999 -9999 -9999 -9999 -9999 -9999 -9999 -9999 -9999 -9999 -9999 -9999 -9999 -9999 -9999 -9999 -9999 -9999 -9999 -9999 -9999 -9999 -9999 -9999 -9999 -9999 -9999 804.9014 805.8455 805.8005 803.3179 800.9359 799.4363 799.2534 800.0771 801.1439 803.18 804.1561 804.3748 805.7533 808.0363 809.7279 808.7434 805.2648 801.7742 799.1613 796.5659 795.8945 795.7246 792.7977 789.0419 783.3002 778.7503 774.4557 769.5667 764.2449 756.7933 749.8445 741.9716 736.2383 729.7766 723.4542 717.359 711.561 705.2066 699.5747 694.2369 689.0995 682.2247 674.1985 673.0472 678.3499 676.9379 673.1074 672.0375 671.4036 668.6923 664.6606 660.2608 654.875 647.921 640.4771 630.9063 619.5334 609.1031 612.8743 618.0841 618.6495 612.9756 617.3503 622.9914 625.5928 620.3869 630.3759 637.2866 643.8488 648.491 652.4054 655.3231 655.8229 654.8026 652.1661 648.4696 645.4003 640.3673 634.1471 628.2332 620.8174 615.1824 614.0897 614.4471 611.1842 605.4966 609.5436 618.9612 625.4207 627.1398 630.2 635.7686 642.5618 651.9603 656.6306 658.9197 663.6654 671.5986 679.4754 687.769 692.53 696.2897 699.673 703.5264 705.8353 706.9227 708.756 711.6288 716.1573 722.9788 729.9351 737.9581 743.5673 746.0285 -9999 -9999 -9999 -9999 -9999 -9999 -9999 -9999 -9999 -9999 -9999 -9999 -9999 -9999 -9999 -9999 -9999 -9999 -9999 -9999 -9999 -9999 -9999 -9999 -9999 -9999 -9999 -9999 -9999 -9999 -9999 
-9999 -9999 -9999 -9999 -9999 -9999 -9999 -9999 -9999 -9999 -9999 -9999 -9999 -9999 -9999 -9999 -9999 -9999 -9999 -9999 -9999 -9999 -9999 -9999 -9999 -9999 -9999 -9999 -9999 -9999 -9999 -9999 -9999 -9999 -9999 -9999 -9999 -9999 -9999 -9999 -9999 -9999 -9999 -9999 -9999 -9999 -9999 -9999 -9999 -9999 -9999 -9999 -9999 -9999 -9999 -9999 -9999 798.8389 800.3621 801.0151 801.2827 801.605 800.7203 799.3037 796.4965 794.0756 793.6664 794.6532 796.479 799.0363 799.9338 799.9545 801.5524 804.5577 806.9832 806.574 803.8475 800.2365 796.252 792.5569 791.241 790.7441 789.6035 787.2802 781.7228 777.259 772.7442 768.442 760.7198 752.4727 746.6884 739.8479 733.6643 725.5917 718.595 711.4969 705.6273 698.3745 691.7817 684.958 679.9304 676.6278 672.2471 661.5272 667.2263 667.9822 665.572 664.5798 664.8588 661.9845 659.2664 656.1514 651.9443 645.417 637.6195 626.6673 614.9767 603.946 603.7494 609.4468 609.9216 605.0341 611.015 616.5814 616.3002 617.7435 625.3582 631.439 638.5797 642.8156 646.5784 649.7551 650.0012 647.6032 645.35 641.4287 639.35 636.302 629.6238 623.556 616.8284 610.0099 607.1974 608.0387 604.8138 599.2841 607.2012 615.3867 618.558 621.7844 626.4296 633.7638 642.11 649.7582 651.9222 654.478 660.8925 668.255 675.3454 680.6458 685.6934 687.1176 689.6055 693.9991 695.9407 697.9272 701.6511 705.5007 710.9216 720.1601 726.7369 734.7715 740.642 742.6323 -9999 -9999 -9999 -9999 -9999 -9999 -9999 -9999 -9999 -9999 -9999 -9999 -9999 -9999 -9999 -9999 -9999 -9999 -9999 -9999 -9999 -9999 -9999 -9999 -9999 -9999 -9999 -9999 -9999 -9999 -9999 
-9999 -9999 -9999 -9999 -9999 -9999 -9999 -9999 -9999 -9999 -9999 -9999 -9999 -9999 -9999 -9999 -9999 -9999 -9999 -9999 -9999 -9999 -9999 -9999 -9999 -9999 -9999 -9999 -9999 -9999 -9999 -9999 -9999 -9999 -9999 -9999 -9999 -9999 -9999 -9999 -9999 -9999 -9999 -9999 -9999 -9999 -9999 -9999 -9999 -9999 785.6502 785.75 786.4473 788.1899 790.367 793.6741 796.2991 797.4802 795.5311 794.2037 794.3332 795.0884 795.1097 794.5908 791.2974 787.7678 787.7998 789.1592 792.5059 795.2111 795.3383 794.9649 797.3469 800.8315 803.5389 805.0964 802.8882 799.1354 794.6327 790.0058 785.4681 785.7157 785.5801 783.5265 779.2456 773.9162 769.4851 765.797 760.9888 755.4468 749.8568 744.6584 736.6079 727.6757 721.7557 715.2133 709.7771 704.4545 698.8958 690.2532 680.0142 666.8948 660.9382 652.3086 656.1338 658.2446 657.1267 656.4303 656.9401 654.4734 651.6982 649.8184 646.08 641.4585 634.7452 625.6234 615.8674 604.9267 594.6595 600.4034 601.0626 597.7227 602.9393 610.2904 606.8477 612.4613 618.4811 626.6611 633.001 637.5739 641.2161 644.3243 644.1125 641.6162 637.9358 634.0945 631.7133 630.3622 625.3658 619.2111 611.5774 604.9412 600.7776 600.7098 598.1433 595.2744 606.1398 608.9241 612.7897 617.8685 627.1207 635.588 641.287 646.2651 648.1481 652.557 659.6535 664.9897 669.6898 673.8183 676.7627 678.9999 682.9151 685.8396 688.1295 691.288 695.1703 698.9948 705.724 714.4611 721.8289 729.2851 735.2195 738.8032 -9999 -9999 -9999 -9999 -9999 -9999 -9999 -9999 -9999 -9999 -9999 -9999 -9999 -9999 -9999 -9999 -9999 -9999 -9999 -9999 -9999 -9999 -9999 -9999 -9999 -9999 -9999 -9999 -9999 -9999 -9999 
-9999 -9999 -9999 -9999 -9999 -9999 -9999 -9999 -9999 -9999 -9999 -9999 -9999 -9999 -9999 -9999 -9999 -9999 -9999 -9999 -9999 -9999 -9999 -9999 -9999 -9999 -9999 -9999 -9999 -9999 -9999 -9999 -9999 -9999 -9999 -9999 -9999 -9999 -9999 -9999 -9999 -9999 -9999 -9999 -9999 -9999 -9999 -9999 -9999 787.1171 785.5931 785.0146 785.2753 785.2357 786.1287 788.8621 791.7904 792.0723 790.3327 788.3926 787.7914 788.4788 789.1173 788.4521 785.7744 781.9758 781.1384 783.4762 787.082 789.7414 790.1277 788.3545 791.8666 796.7106 800.6624 803.5245 800.4284 795.8015 792.605 787.1368 781.6093 779.9901 780.5494 779.0231 776.8148 771.762 767.4071 762.8793 759.3986 754.1133 748.9233 744.3673 738.8489 733.4486 726.3392 719.8203 713.2892 707.1558 700.528 691.5485 681.385 670.9219 662.6832 650.034 643.2621 646.4823 645.8842 645.6342 647.4547 645.6121 643.5197 641.8806 639.0673 635.6299 630.6205 624.6099 617.678 605.7405 593.2025 591.3836 594.2594 590.1744 597.2442 599.1796 601.0298 606.0316 612.309 621.235 626.1636 630.8781 636.2334 639.5093 638.7335 635.7046 632.6398 627.84 624.0841 621.7592 616.8809 611.1804 604.9518 600.0796 596.4654 597.0476 591.8218 593.0638 600.3547 603.3379 608.9211 616.9259 625.0412 633.1473 638.5027 642.8629 644.8357 650.8791 655.5219 659.0927 662.3647 665.9446 669.8757 672.8087 676.2819 679.6057 681.9352 685.9692 690.2706 693.9999 701.2915 709.7573 716.5955 722.7844 728.0331 732.8665 734.8043 -9999 -9999 -9999 -9999 -9999 -9999 -9999 -9999 -9999 -9999 -9999 -9999 -9999 -9999 -9999 -9999 -9999 -9999 -9999 -9999 -9999 -9999 -9999 -9999 -9999 -9999 -9999 -9999 -9999 -9999 
-9999 -9999 -9999 -9999 -9999 -9999 -9999 -9999 -9999 -9999 -9999 -9999 -9999 -9999 -9999 -9999 -9999 -9999 -9999 -9999 -9999 -9999 -9999 -9999 -9999 -9999 -9999 -9999 -9999 -9999 -9999 -9999 -9999 -9999 -9999 -9999 -9999 -9999 -9999 -9999 -9999 -9999 -9999 -9999 -9999 790.8737 789.7543 789.2675 787.8151 786.1127 785.1191 780.9152 780.576 780.2522 780.7124 783.9814 786.65 787.54 784.9789 782.0429 780.7765 781.5011 782.8102 782.4681 780.8443 776.0894 774.8717 778.588 782.2014 783.7795 783.9776 782.6296 786.797 792.3604 797.5237 800.7683 798.3215 794.4917 790.7625 785.8141 781.0104 775.511 774 773.3355 772.7831 771.096 768.0716 763.6733 758.9246 754.3312 750.8169 746.5543 741.5944 734.9193 727.0798 718.505 711.8307 704.5811 697.7352 689.5315 680.7502 671.5011 662.844 652.0457 640.525 635.0577 633.7943 631.7109 635.8959 636.2144 635.0051 634.2621 632.6254 630.6617 626.7275 621.6968 615.3226 607.3178 597.1596 582.7174 583.993 584.0128 588.4149 591.9902 594.488 598.9495 607.5015 614.4082 619.3628 625.9083 631.6454 634.7338 632.7534 630.1329 626.9042 622.1517 617.1926 611.665 608.6224 606.1215 599.4258 593.5896 592.3872 592.9907 585.6183 591.4979 595.6234 600.4019 607.3445 614.6246 622.7887 629.937 635.3807 638.5126 641.46 646.0731 648.9238 652.8709 657.2426 661.0457 665.002 667.733 671.2214 674.9659 678.2333 681.6631 685.1599 689.9681 697.2102 704.517 710.5742 715.7779 721.8556 728.5284 731.4834 -9999 -9999 -9999 -9999 -9999 -9999 -9999 -9999 -9999 -9999 -9999 -9999 -9999 -9999 -9999 -9999 -9999 -9999 -9999 -9999 -9999 -9999 -9999 -9999 -9999 -9999 -9999 -9999 -9999 -9999 
-9999 -9999 -9999 -9999 -9999 -9999 -9999 -9999 -9999 -9999 -9999 -9999 -9999 -9999 -9999 -9999 -9999 -9999 -9999 -9999 -9999 -9999 -9999 -9999 -9999 -9999 -9999 -9999 -9999 -9999 -9999 -9999 -9999 -9999 -9999 -9999 -9999 -9999 -9999 -9999 -9999 -9999 -9999 794.5945 792.3146 790.4119 788.8879 786.6957 784.8875 783.2202 780.5699 776.9253 775.7404 775.3944 774.5699 777.9479 781.1339 781.7252 780.3315 776.545 774.6713 774.3079 775.9789 776.3926 774.8992 770.6243 768.4069 772.8494 776.545 777.9274 776.7904 776.9847 781.9926 787.9034 793.7884 798.1874 796.8569 792.8655 788.7744 784.0652 779.9398 775.0905 769.9332 767.4986 768.1737 767.4666 765.1052 763.0569 758.4521 754.5446 751.0044 748.0135 741.7186 733.9889 725.8858 718.4342 710.802 704.0895 696.6288 688.72 680.4554 672.2829 665.2054 652.7513 642.6075 634.2317 626.1591 622.6957 625.2736 626.9149 626.7244 626.0707 625.5814 623.8319 621.3081 616.5944 612.3592 607.615 597.6945 587.4327 576.3326 577.1304 583.1411 584.6772 588.0789 595.66 603.9033 609.2609 615.7875 622.5129 627.8256 628.8215 626.6795 623.6086 621.0003 616.3064 610.4427 604.2874 600.9666 599.918 594.4926 589.0443 587.7299 586.6653 583.0192 589.058 592.7179 600.2068 606.1733 612.8568 620.2947 625.8763 630.7211 633.3416 635.6086 639.2677 644.2504 649.5029 653.7495 657.6868 661.4426 665.8432 669.3354 671.7281 675.3058 677.4995 681.9954 687.3232 693.1 699.295 705.1746 710.4255 717.6455 725.693 729.6371 -9999 -9999 -9999 -9999 -9999 -9999 -9999 -9999 -9999 -9999 -9999 -9999 -9999 -9999 -9999 -9999 -9999 -9999 -9999 -9999 -9999 -9999 -9999 -9999 -9999 -9999 -9999 -9999 -9999 -9999 
-9999 -9999 -9999 -9999 -9999 -9999 -9999 -9999 -9999 -9999 -9999 -9999 -9999 -9999 -9999 -9999 -9999 -9999 -9999 -9999 -9999 -9999 -9999 -9999 -9999 -9999 -9999 -9999 -9999 -9999 -9999 -9999 -9999 -9999 -9999 -9999 -9999 -9999 -9999 -9999 -9999 796.6177 795.4488 794.4727 792.608 790.7845 787.6375 784.5323 781.8425 779.2761 776.6929 773.5207 771.0693 769.6246 769.4188 773.1283 776.0513 777.2522 775.655 771.4046 767.9725 767.7478 769.0066 769.9111 768.8748 764.7722 763.1781 766.6573 770.2959 771.0632 769.639 771.269 777.506 783.131 789.5944 795.3848 793.9225 790.0355 785.5687 782.449 778.2649 772.9629 767.8964 761.981 761.6799 762.621 762.0168 759.0099 755.9847 751.6101 747.2271 743.1146 737.9863 732.4359 727.1469 720.7125 714.1837 705.9686 699.4954 692.6946 682.7101 675.497 667.8221 652.9403 644.1658 636.411 626.7114 619.7598 614.3518 616.4123 616.6493 618.011 617.1217 615.8111 614.745 611.7443 609.1542 604.7292 598.6462 589.2272 577.3757 570.7853 574.9763 577.8093 581.3222 592.1174 599.2635 605.8327 612.3904 617.95 622.0458 622.4961 620.7762 616.3399 613.8779 610.8077 604.3621 598.9541 595.2363 590.5302 587.9142 584.5035 584.1119 581.1096 579.3227 583.8482 591.2038 599.806 605.441 611.6955 616.0602 620.8037 625.1052 629.156 632.9378 636.6038 640.9213 646.6393 650.5415 655.2507 658.3558 662.9484 666.0269 669.4642 672.4536 673.4625 678.4025 684.5564 690.4733 696.4901 701.3601 707.9582 715.8876 724.0455 727.7961 -9999 -9999 -9999 -9999 -9999 -9999 -9999 -9999 -9999 -9999 -9999 -9999 -9999 -9999 -9999 -9999 -9999 -9999 -9999 -9999 -9999 -9999 -9999 -9999 -9999 -9999 -9999 -9999 -9999 -9999 
-9999 -9999 -9999 -9999 -9999 -9999 -9999 -9999 -9999 -9999 -9999 -9999 -9999 -9999 -9999 -9999 -9999 -9999 -9999 -9999 -9999 -9999 -9999 -9999 -9999 -9999 -9999 -9999 -9999 -9999 -9999 -9999 -9999 -9999 -9999 -9999 -9999 -9999 797.1335 796.9964 797.193 796.8082 794.9908 793.6215 792.512 789.0587 785.3362 781.6703 777.9205 775.0844 772.9965 770.0483 766.6642 763.9957 764.7714 767.6799 770.9634 772.0409 771.416 767.2136 763.0371 761.0178 762.064 764.203 764.2921 760.8829 756.7673 759.4427 763.114 763.7709 762.8588 767.5017 772.969 778.9194 785.5107 791.8621 790.8615 786.3893 780.8527 775.7777 772.4226 767.7006 763.0668 756.8763 754.1606 755.3676 755.0193 752.7554 751.9927 747.2759 742.7725 736.1157 731.1611 725.7433 723.5114 719.7875 713.3981 706.9539 701.101 693.1594 681.897 675.023 666.2136 654.6449 647.6794 640.0419 631.1281 621.9993 613.9152 606.5794 604.8657 606.9254 607.5236 607.1738 606.3151 605.5568 603.1611 599.3945 595.5137 589.4421 581.1096 567.2747 567.8561 571.5145 577.2142 586.3376 592.3605 600.3364 608.1728 612.7806 615.3782 616.0298 614.3023 608.9729 605.7862 603.7463 601.1548 594.4781 590.0676 584.2757 581.329 579.1177 581.2559 578.5698 575.0159 582.1756 589.359 597.1292 603.2159 607.7621 612.424 615.6594 620.252 626.5591 629.8707 633.6 639.0033 644.1201 649.2247 652.1089 656.4005 660.3454 663.4171 666.5107 668.4973 670.1828 675.8369 682.0959 687.1579 693.5457 699.0009 705.6318 713.9048 721.5096 724.8914 725.3021 -9999 -9999 -9999 -9999 -9999 -9999 -9999 -9999 -9999 -9999 -9999 -9999 -9999 -9999 -9999 -9999 -9999 -9999 -9999 -9999 -9999 -9999 -9999 -9999 -9999 -9999 -9999 -9999 -9999 
-9999 -9999 -9999 -9999 -9999 -9999 -9999 -9999 -9999 -9999 -9999 -9999 -9999 -9999 -9999 -9999 -9999 -9999 -9999 -9999 -9999 -9999 -9999 -9999 -9999 -9999 -9999 -9999 -9999 -9999 -9999 -9999 -9999 -9999 -9999 799.0127 800.1518 799.322 797.5176 795.6553 794.8788 794.305 792.4815 790.1948 788.3743 785.7531 781.1178 777.5989 773.6769 769.585 766.8448 764.6304 762.1036 758.5451 758.9847 762.2012 764.568 767.0795 766.6177 764.0651 758.9802 755.1976 755.6746 758.3691 758.8857 756.6736 751.233 752.3683 756.3612 755.5535 757.1659 762.7239 769.2535 776.0779 782.4117 788.5557 788.2044 783.0731 776.9847 770.7538 765.605 760.5438 755.9193 750.9861 746.1451 747.093 747.1746 745.2307 743.5253 739.8182 734.5962 729.0884 722.7501 717.17 714.1289 711.0328 706.6461 701.4995 695.9521 687.6647 680.7769 673.9189 666.4871 658.8595 650.8867 642.6884 635.4524 627.2632 618.1191 611.0814 603.4651 596.0273 596.6513 597.8987 597.4468 596.1073 594.0286 591.6282 589.0999 585.3844 579.5079 569.39 564.0995 567.351 572.0646 578.72 587.022 594.1322 601.5837 606.0803 608.9736 609.1954 607.2142 602.8479 598.8329 597.325 592.6364 586.8665 583.1068 580.7529 573.3791 573.3204 578.2468 572.675 572.5698 578.7352 587.1149 595.4283 600.325 603.3859 606.8728 610.5853 615.6876 621.5833 627.1161 632.3213 638.0546 642.2814 645.2372 649.2369 653.3685 657.0665 659.1498 661.7018 663.5969 666.5321 672.7302 677.6108 682.9402 689.7914 696.6151 704.008 712.0349 717.8147 721.7824 723.8314 724.4205 -9999 -9999 -9999 -9999 -9999 -9999 -9999 -9999 -9999 -9999 -9999 -9999 -9999 -9999 -9999 -9999 -9999 -9999 -9999 -9999 -9999 -9999 -9999 -9999 -9999 -9999 -9999 -9999 
-9999 -9999 -9999 -9999 -9999 -9999 -9999 -9999 -9999 -9999 -9999 -9999 -9999 -9999 -9999 -9999 -9999 -9999 -9999 -9999 -9999 -9999 -9999 -9999 -9999 -9999 -9999 -9999 -9999 -9999 -9999 -9999 -9999 794.7294 795.4495 795.4731 795.9456 795.1326 791.9329 789.6309 788.7097 788.9908 787.6284 784.5613 782.7234 780.9441 777.1371 772.6055 768.0366 763.7076 760.1003 758.4293 755.3439 752.7615 753.3741 755.6251 758.126 761.1024 761.651 759.5288 755.5032 750.1669 749.9314 752.3896 753.2637 751.7297 747.7673 746.0582 747.852 749.1862 754.0981 760.4913 766.9827 774.3253 781.4348 785.1061 783.6249 780.1462 773.5222 767.2822 760.9111 755.5397 749.9612 745.5179 739.5057 738.6013 738.6462 737.1474 735.7682 731.7037 725.7319 720.8078 715.6339 709.64 704.8066 702.6364 699.5289 695.7662 690.0352 684.5298 678.7371 673.2399 666.2266 659.364 651.5314 645.6738 638.4828 631.0518 624.728 618.4362 610.7057 601.7072 591.2671 586.7514 587.2079 586.183 582.7487 580.8787 579.6504 576.2595 572.3161 567.8866 558.1672 560.371 565.2767 572.3771 580.7781 586.74 594.9849 599.8769 603.3196 603.3082 600.8553 597.546 593.6666 590.6529 586.0511 580.0336 575.6682 572.5759 566.1828 569.3687 572.9082 566.7116 571.4276 578.4037 585.8081 593.1797 596.2375 599.0258 602.1995 606.1824 612.2159 618.8499 624.4087 630.0369 634.4519 638.3358 641.7313 645.3431 649.5624 651.9451 653.5415 656.7114 658.7772 663.699 669.3286 674.8668 680.6497 687.4581 695.3821 703.1226 708.9031 713.8164 717.9892 720.9008 722.7219 -9999 -9999 -9999 -9999 -9999 -9999 -9999 -9999 -9999 -9999 -9999 -9999 -9999 -9999 -9999 -9999 -9999 -9999 -9999 -9999 -9999 -9999 -9999 -9999 -9999 -9999 -9999 -9999 
-9999 -9999 -9999 -9999 -9999 -9999 -9999 -9999 -9999 -9999 -9999 -9999 -9999 -9999 -9999 -9999 -9999 -9999 -9999 -9999 -9999 -9999 -9999 -9999 -9999 -9999 -9999 -9999 -9999 -9999 -9999 -9999 788.5854 788.968 788.2455 787.8273 788.4574 789.1211 785.4818 782.6502 782.0185 783.1212 780.9456 777.8008 775.4943 774.5303 772.5164 767.9283 763.0645 757.71 754.05 751.4189 748.5454 746.3013 746.3851 748.7153 751.556 754.0988 755.6007 753.9647 751.4105 745.6566 743.1992 745.5972 747.2721 746.4841 743.8378 739.3442 741.0168 747.0145 753.4084 760.4341 766.9751 773.2441 779.2875 780.938 778.5667 774.9791 771.2606 765.9434 759.903 753.2896 746.6625 740.9284 734.5078 730.2772 730.1263 729.1166 727.5027 724.9135 718.6414 713.7731 708.868 702.9268 697.9798 694.4716 692.2419 689.6558 685.4876 679.8541 674.5071 669.6479 663.5953 658.0137 651.8651 646.4755 640.3147 634.1714 629.1255 623.2916 616.6195 609.1215 598.5403 588.3326 582.3456 577.3979 573.6953 569.8107 566.8953 564.7914 561.2389 556.7424 551.4724 554.15 559.0337 566.6689 573.8835 580.0801 588.6077 592.7118 595.0542 595.359 594.3486 590.899 587.1309 584.0516 579.0179 572.9661 568.6311 564.9979 559.0947 563.8107 563.4792 561.4271 569.9509 577.6821 586.3712 589.6334 591.4675 594.5665 597.7303 603.8522 610.7872 617.4844 622.2576 626.4669 630.8073 634.6302 638.0241 641.8821 643.8672 646.0213 649.7048 651.8925 655.0678 660.5229 665.6573 671.4607 678.6219 686.501 694.1462 700.2628 704.5071 709.4037 714.215 718.8548 720.2729 -9999 -9999 -9999 -9999 -9999 -9999 -9999 -9999 -9999 -9999 -9999 -9999 -9999 -9999 -9999 -9999 -9999 -9999 -9999 -9999 -9999 -9999 -9999 -9999 -9999 -9999 -9999 -9999 
-9999 -9999 -9999 -9999 -9999 -9999 -9999 -9999 -9999 -9999 -9999 -9999 -9999 -9999 -9999 -9999 -9999 -9999 -9999 -9999 -9999 -9999 -9999 -9999 -9999 -9999 -9999 -9999 -9999 -9999 -9999 -9999 783.3871 782.7714 781.2893 778.5979 777.6965 779.843 777.9327 775.0333 774.7064 776.4437 775.5804 771.8253 768.2751 767.984 767.283 763.6604 757.79 751.6444 748.7526 744.4786 741.7255 738.535 739.6536 740.9299 743.1466 746.6091 748.3892 747.4572 745.8975 741.2073 736.4333 739.5057 741.042 740.2136 737.9802 733.6002 740.0277 746.7303 752.8256 758.1992 764.1344 769.5773 774.8999 776.6571 773.5009 769.6741 765.8603 762.1577 757.6665 752.3493 745.9073 738.5106 730.4349 724.5279 722.7601 720.948 719.5627 717.7461 713.5308 708.4596 702.9458 697.1614 692.0545 687.1099 684.9565 684.001 682.2963 674.7921 669.6631 665.0774 660.0909 655.032 649.8748 644.889 639.545 634.2736 631.0579 626.2908 619.0259 611.985 604.2408 597.1909 592.7087 590.2681 584.0326 576.7403 572.3854 569.1706 565.8368 559.0024 553.5473 547.369 552.4645 561.9377 568.7523 576.2625 582.7784 586.6478 589.0671 589.4078 588.5932 584.9935 580.7918 578.4312 573.5468 567.8226 562.58 558.4378 552.3822 555.3632 556.103 562.9618 570.7502 578.3085 583.103 586.0687 589.4177 593.3961 598.2828 603.2808 608.8776 614.6239 619.7803 623.6147 627.8248 631.1006 634.4641 636.9253 638.5629 640.8908 644.5103 647.8075 650.6809 655.5837 661.0098 668.5453 677.146 685.4365 691.3215 695.6923 700.1454 705.5785 711.7408 715.9645 718.6041 -9999 -9999 -9999 -9999 -9999 -9999 -9999 -9999 -9999 -9999 -9999 -9999 -9999 -9999 -9999 -9999 -9999 -9999 -9999 -9999 -9999 -9999 -9999 -9999 -9999 -9999 -9999 -9999 
-9999 -9999 -9999 -9999 -9999 -9999 -9999 -9999 -9999 -9999 -9999 -9999 -9999 -9999 -9999 -9999 -9999 -9999 -9999 -9999 -9999 -9999 -9999 -9999 -9999 -9999 -9999 -9999 -9999 -9999 -9999 -9999 780.0716 778.2939 774.8397 771.1173 768.5852 770.1763 771.0693 768.0389 766.8677 769.5255 770.4674 766.3731 761.2167 760.0615 760.8257 758.1039 752.6099 746.4255 741.0983 736.8715 734.5482 731.8507 732.0054 732.7773 736.2604 738.8428 740.7974 739.9393 738.9716 735.1829 730.5347 732.7163 733.8274 732.8116 729.3483 728.2762 736.3084 743.7136 748.8228 754.252 759.794 764.9116 770.8384 771.9899 768.3376 765.2743 759.9792 755.5687 752.3104 748.364 743.1222 738.3704 732.4649 725.661 717.1045 713.0918 711.6394 710.6344 707.4545 702.8376 697.896 691.7878 686.1772 679.9425 677.3083 677.8432 675.2776 670.7635 665.6603 660.5229 655.8748 651.0848 646.4999 641.1605 636.3355 632.3579 628.0404 623.6063 618.9825 614.0729 608.7664 603.0483 598.2828 594.3646 588.9727 585.3387 580.9351 577.4672 573.6107 567.245 557.0471 543.0378 547.5168 556.6517 563.1949 570.1833 574.8574 579.7715 582.3219 583.2661 582.7471 579.6283 575.5524 572.9014 569.2117 562.4772 555.5277 549.7327 548.5592 554.1013 561.9681 568.1122 572.6217 577.2729 580.743 583.4542 587.8723 593.1019 597.7128 601.8291 606.1398 611.7359 616.6119 618.9033 621.84 625.3056 628.7048 630.6937 632.8654 636.9497 639.1686 643.2087 646.804 652.4633 658.7025 667.0441 675.5701 682.2148 686.5605 692.1818 697.8175 703.4022 709.1904 713.376 716.3448 -9999 -9999 -9999 -9999 -9999 -9999 -9999 -9999 -9999 -9999 -9999 -9999 -9999 -9999 -9999 -9999 -9999 -9999 -9999 -9999 -9999 -9999 -9999 -9999 -9999 -9999 -9999 -9999 
-9999 -9999 -9999 -9999 -9999 -9999 -9999 -9999 -9999 -9999 -9999 -9999 -9999 -9999 -9999 -9999 -9999 -9999 -9999 -9999 -9999 -9999 -9999 -9999 -9999 -9999 -9999 -9999 -9999 -9999 -9999 -9999 774.131 773.2517 770.2685 764.7463 760.3137 761.603 764.3599 761.6274 759.0153 761.6007 764.408 761.3127 755.3241 752.5123 754.0493 752.9901 748.3839 741.1479 734.901 728.9536 726.2287 724.236 723.8985 725.0956 728.4233 731.424 733.4402 732.2965 731.056 729.9045 725.5436 725.0568 725.914 724.9736 720.1441 723.5785 731.4834 738.8779 743.9071 749.4308 754.9012 760.4738 766.3868 767.7607 763.5423 758.9932 754.2908 748.9393 745.963 742.7648 737.6671 733.0661 728.8385 723.9945 718.7336 711.1563 703.8701 702.8086 700.9547 697.3047 692.4797 686.7258 680.7647 674.7358 668.7769 666.6761 665.8311 663.7599 659.5605 654.7493 649.8732 645.4727 641.8699 636.6487 632.1232 627.235 622.362 618.0338 614.7031 610.2744 604.8192 599.6086 593.6262 588.8157 584.7261 580.0908 575.8945 572.3001 569.1721 565.3964 554.3383 543.7617 541.0474 549.0767 556.1206 564.5902 569.8251 573.7144 576.1932 577.1685 576.2625 573.3067 569.4532 566.0159 560.5059 553.0375 546.6085 545.0784 552.9415 558.1581 562.5389 566.8838 573.2534 576.9658 578.4731 581.2125 586.0596 590.4266 595.2759 598.9435 603.3287 607.8352 611.4639 612.2007 615.2244 617.2276 619.3452 622.1692 626.4829 631.4108 637.5898 641.0447 644.5537 651.0749 656.8638 664.6133 672.7333 679.0251 684.6585 691.0304 696.3011 701.501 706.9349 711.423 714.0481 -9999 -9999 -9999 -9999 -9999 -9999 -9999 -9999 -9999 -9999 -9999 -9999 -9999 -9999 -9999 -9999 -9999 -9999 -9999 -9999 -9999 -9999 -9999 -9999 -9999 -9999 -9999 -9999 
-9999 -9999 -9999 -9999 -9999 -9999 -9999 -9999 -9999 -9999 -9999 -9999 -9999 -9999 -9999 -9999 -9999 -9999 -9999 -9999 -9999 -9999 -9999 -9999 -9999 -9999 -9999 -9999 -9999 -9999 -9999 -9999 767.9055 766.0462 763.9286 759.1722 753.3986 753.9152 756.4016 755.811 750.9061 753.3665 757.0211 757.5964 751.3594 745.1918 745.8723 746.2007 743.0422 736.4258 728.8797 722.0057 716.3257 715.7512 714.6196 715.803 720.5015 723.7476 726.2607 725.2549 723.5677 724.3062 721.4594 717.2097 717.3826 716.5992 712.5462 718.7504 726.6859 734.3311 738.7316 743.9193 749.4567 755.1093 760.8304 762.7194 758.9512 753.98 747.3757 741.6013 737.7021 735.5312 730.7877 725.9398 721.1637 716.924 713.5079 709.5592 704.6168 698.882 693.9984 690.9481 686.7472 681.6174 676.5486 671.4279 665.6992 657.2913 655.0883 653.4508 650.8912 648.7158 645.3538 640.5106 636.8598 632.6558 627.6975 622.1029 616.1318 610.6013 607.4062 602.9066 597.6213 592.3254 586.5853 581.7748 577.7134 573.2297 569.4601 565.9207 562.6646 560.0228 553.0787 541.1785 538.103 543.3052 550.3728 556.4124 563.8975 568.1799 570.3852 570.7807 569.5272 566.9486 562.5869 559.5442 553.6326 545.384 540.3662 547.5016 553.9473 558.2297 560.4137 566.182 571.1388 574.5251 575.1987 577.9237 582.373 587.4784 592.4725 596.2582 599.4951 602.6536 605.0051 603.2023 605.7953 609.011 611.5058 617.2718 625.1121 631.8268 637.6813 642.3668 646.8656 649.2515 653.4973 661.2141 669.9649 676.1043 681.5153 687.0535 693.7317 699.3073 704.1429 707.9574 711.3087 712.4814 -9999 -9999 -9999 -9999 -9999 -9999 -9999 -9999 -9999 -9999 -9999 -9999 -9999 -9999 -9999 -9999 -9999 -9999 -9999 -9999 -9999 -9999 -9999 -9999 -9999 -9999 -9999 
-9999 -9999 -9999 -9999 -9999 -9999 -9999 -9999 -9999 -9999 -9999 -9999 -9999 -9999 -9999 -9999 -9999 -9999 -9999 -9999 -9999 -9999 -9999 -9999 -9999 -9999 -9999 -9999 -9999 -9999 -9999 -9999 759.3726 757.8616 757.5217 753.8329 748.3557 746.1184 747.6089 746.4164 743.6572 744.7651 747.9091 750.6782 748.3175 740.488 737.1733 738.3826 736.633 732.8032 726.1251 718.8617 711.3156 708.3986 706.4175 705.7629 712.8427 715.7504 718.3214 718.7214 715.9623 717.2805 717.8489 712.1691 709.1782 707.2549 704.8203 712.7131 721.0433 727.6201 732.6516 737.7265 743.7051 750.7742 755.7806 757.3625 753.8573 747.6416 740.6991 733.9379 729.1609 725.9239 722.2274 717.1449 712.9676 709.3915 706.0944 703.4967 700.1013 696.4719 693.5389 689.2397 685.2895 681.7698 678.1221 670.9814 665.703 657.113 647.8882 642.7043 641.0836 640.9913 639.2662 634.2759 629.4089 625.8268 620.8532 615.8065 609.8629 603.7585 599.6871 595.8047 591.0347 586.3758 580.9595 575.4982 571.0108 566.4396 562.6143 559.4596 555.6313 552.1437 550.1236 542.938 533.3291 538.8613 544.2737 550.8376 558.3129 562.0748 564.8569 564.7799 563.5181 561.3014 557.2148 552.0195 543.626 537.9072 541.923 550.3667 553.0596 555.6436 559.2875 564.9293 568.5557 570.6832 571.7347 575.845 579.8469 584.2864 589.2676 592.4283 594.0834 595.3682 594.8561 596.8586 598.2264 601.2287 606.2998 615.2548 624.8857 632.5301 637.9883 641.4637 644.4752 645.8597 649.2614 658.0305 665.7747 671.7053 677.3571 684.1846 691.8579 697.6362 701.4446 703.5759 706.8899 710.5178 -9999 -9999 -9999 -9999 -9999 -9999 -9999 -9999 -9999 -9999 -9999 -9999 -9999 -9999 -9999 -9999 -9999 -9999 -9999 -9999 -9999 -9999 -9999 -9999 -9999 -9999 -9999 
-9999 -9999 -9999 -9999 -9999 -9999 -9999 -9999 -9999 -9999 -9999 -9999 -9999 -9999 -9999 -9999 -9999 -9999 -9999 -9999 -9999 -9999 -9999 -9999 -9999 -9999 -9999 -9999 -9999 -9999 -9999 -9999 756.0754 754.5706 750.2385 746.5269 741.5898 738.157 738.964 738.0145 734.0293 735.3132 737.8392 740.9452 740.1611 735.6364 731.2876 730.1362 729.0626 726.7842 723.516 716.8226 709.1202 701.6633 698.293 700.6003 704.2389 707.45 710.2434 711.7888 709.1362 709.9676 711.9953 709.0707 704.0118 698.4142 698.6534 706.3824 715.4152 721.678 727.3519 732.6889 738.8146 745.5271 750.6554 754.2687 749.5276 743.0559 736.3907 728.5261 721.9363 717.0755 713.4995 708.6966 704.6603 700.3322 697.2864 694.7482 692.0263 688.8838 686.498 683.6779 680.6146 677.4097 672.4833 668.0835 663.2036 656.3137 646.6729 637.4328 631.8611 631.858 631.0632 626.5667 621.6907 618.2114 613.4085 608.6041 602.7603 597.1848 592.9465 588.7106 583.9412 579.9582 574.6227 569.496 565.3766 560.1142 555.8485 552.5285 548.4655 546.4218 544.8917 539.8602 532.6273 534.0965 537.6763 547.2684 553.7896 556.2264 558.5125 558.959 558.0576 555.6184 551.6545 543.7556 536.2217 535.9641 544.5206 549.5559 551.0136 552.8463 557.0715 561.6093 564.3792 566.8495 568.8566 573.3539 578.3725 582.9209 583.2889 584.899 585.6603 588.6145 588.7578 589.644 591.9071 598.3179 606.5292 616.9114 624.5291 629.5347 632.1971 633.4644 637.4739 642.4437 649.3132 656.3472 662.252 669.7028 676.2072 682.8525 689.3425 693.2539 696.8749 700.1698 704.0515 707.7487 710.1032 -9999 -9999 -9999 -9999 -9999 -9999 -9999 -9999 -9999 -9999 -9999 -9999 -9999 -9999 -9999 -9999 -9999 -9999 -9999 -9999 -9999 -9999 -9999 -9999 -9999 -9999 
-9999 -9999 -9999 -9999 -9999 -9999 -9999 -9999 -9999 -9999 -9999 -9999 -9999 -9999 -9999 -9999 -9999 -9999 -9999 -9999 -9999 -9999 -9999 -9999 -9999 -9999 -9999 -9999 -9999 -9999 -9999 -9999 754.1377 748.8928 743.6869 739.0036 734.5421 730.742 730.0554 729.2211 727.2894 724.9706 727.3252 729.9229 732.1266 730.3862 726.2836 722.6381 720.6912 717.9602 716.2244 712.9951 707.5604 699.6486 691.9257 693.2798 695.8477 699.9877 701.5765 704.152 701.5688 701.8569 704.4995 702.3339 697.0388 692.9963 692.4156 700.6384 708.8474 716.5414 722.5399 728.7029 735.6249 742.54 749.4476 750.8413 745.7001 738.7544 732.0732 724.3275 716.6153 710.2244 705.4764 701.1193 696.1716 692.4081 688.2224 685.928 683.5064 680.2983 677.181 673.7314 671.9521 670.4267 667.0731 663.4612 659.5011 651.8636 644.62 635.716 626.6848 623.3762 622.8138 618.3241 614.012 610.109 605.6719 601.2629 596.2947 591.1428 585.7021 581.4426 576.6854 572.9143 567.7654 562.7423 559.3652 554.2963 549.863 546.1924 543.0706 539.8854 539.0983 536.2095 530.7391 529.8072 532.8445 543.9705 548.3741 550.7904 552.0987 553.2524 551.7772 549.4478 545.7612 538.1617 532.7455 539.2994 545.973 548.3413 549.8104 554.3428 557.5577 559.4269 559.3895 561.3228 565.8064 570.5894 575.7299 577.6501 576.4255 576.7083 579.2488 582.4111 582.8759 584.204 588.5421 596.9836 606.2853 613.6759 619.4473 623.5736 626.5104 630.0848 636.3576 641.9164 648.4529 655.326 662.1353 669.0558 675.2455 679.9844 684.4833 688.7162 693.0352 697.2422 701.4781 706.0928 707.9803 -9999 -9999 -9999 -9999 -9999 -9999 -9999 -9999 -9999 -9999 -9999 -9999 -9999 -9999 -9999 -9999 -9999 -9999 -9999 -9999 -9999 -9999 -9999 -9999 -9999 -9999 
-9999 -9999 -9999 -9999 -9999 -9999 -9999 -9999 -9999 -9999 -9999 -9999 -9999 -9999 -9999 -9999 -9999 -9999 -9999 -9999 -9999 -9999 -9999 -9999 -9999 -9999 -9999 -9999 -9999 -9999 -9999 -9999 750.1943 745.1027 739.6018 733.9927 728.6801 724.0433 721.6034 719.2892 718.4136 715.9592 714.6318 718.6193 719.8226 720.8193 722.3463 716.7205 713.5528 709.5904 707.8455 705.702 703.6552 696.8757 688.9151 684.9664 688.1256 689.8607 691.4106 696.6981 694.7116 695.3882 697.7207 695.2168 691.3588 685.3497 687.4131 695.277 703.0555 711.244 718.4738 725.2381 732.9069 740.168 745.9721 748.2078 742.969 736.0859 728.5642 721.0897 713.251 705.9633 698.6885 693.9122 689.5056 684.1145 679.2666 676.2735 673.8008 670.4084 667.5836 664.9654 662.5148 662.4653 660.5671 657.9984 654.385 649.5639 643.7277 636.2959 628.1547 619.4603 613.855 610.5655 606.5856 602.5949 597.9924 593.9242 589.7148 584.5134 579.5155 574.4711 570.4454 567.3974 563.0601 559.9473 557.9075 555.8028 554.6812 551.752 547.2394 542.2224 536.7993 533.7772 528.1415 524.0457 531.5636 538.2387 542.1447 544.1686 545.6133 546.6504 545.3733 543.021 536.1729 529.4147 533.8984 540.6329 544.6227 545.2499 550.0482 554.4175 556.1861 555.8439 554.1211 557.3367 561.834 565.4269 569.4022 571.0977 570.7532 572.5256 575.2963 577.4786 579.3204 580.8871 586.1075 594.6808 602.1614 608.6041 613.4214 616.8641 620.9553 627.142 632.8341 639.6807 647.1217 653.5728 659.4988 665.1597 670.1302 674.8729 679.6743 684.9786 689.738 694.8785 698.2206 702.1121 704.9254 706.5881 -9999 -9999 -9999 -9999 -9999 -9999 -9999 -9999 -9999 -9999 -9999 -9999 -9999 -9999 -9999 -9999 -9999 -9999 -9999 -9999 -9999 -9999 -9999 -9999 -9999 
-9999 -9999 -9999 -9999 -9999 -9999 -9999 -9999 -9999 -9999 -9999 -9999 -9999 -9999 -9999 -9999 -9999 -9999 -9999 -9999 -9999 -9999 -9999 -9999 -9999 -9999 -9999 -9999 -9999 -9999 -9999 -9999 749.0712 744.2813 737.9117 731.1634 724.915 719.0072 714.6181 710.5589 708.6867 705.3209 704.9681 707.5642 707.7601 708.2897 712.0981 714.9724 707.642 701.3661 698.9232 697.147 696.2295 693.26 685.3665 677.6039 680.6763 681.276 683.5529 688.3215 687.5724 686.6839 690.5092 687.9672 684.9526 679.1835 684.2386 691.8624 700.0365 707.4377 715.0692 722.901 729.9351 736.8593 743.0239 745.8143 741.5182 735.1258 727.8235 719.7106 711.2043 702.7568 694.4258 687.1365 682.0739 675.923 670.2949 667.496 665.005 661.467 658.4351 655.8024 654.0139 652.6805 653.3137 651.0353 647.8456 643.3833 638.3929 633.4811 627.312 621.9543 615.9658 610.2622 606.2914 600.2099 596.8358 591.9886 588.712 585.5779 582.0499 579.3349 576.0004 572.4883 568.8269 566.7718 564.1726 563.5074 561.8752 557.8389 552.0149 546.8424 538.7256 532.8057 526.4193 520.4148 527.0388 532.8864 536.8892 537.5468 538.9474 539.5753 537.6656 533.2827 529.2258 527.1973 535.7256 541.0139 541.9847 542.7703 546.2527 549.0576 551.483 549.7654 550.4665 553.7271 556.9031 560.2605 563.7726 565.8041 568.0764 571.1578 572.3618 573.9354 576.914 577.8893 583.5396 591.2297 597.5962 602.6559 607.2264 612.2701 618.3371 623.6726 629.4501 637.0533 644.1971 649.8992 655.5281 660.8895 666.2981 672.0192 677.7746 683.4523 688.4083 693.0649 697.304 700.8655 703.4205 -9999 -9999 -9999 -9999 -9999 -9999 -9999 -9999 -9999 -9999 -9999 -9999 -9999 -9999 -9999 -9999 -9999 -9999 -9999 -9999 -9999 -9999 -9999 -9999 -9999 -9999 
-9999 -9999 -9999 -9999 -9999 -9999 -9999 -9999 -9999 -9999 -9999 -9999 -9999 -9999 -9999 -9999 -9999 -9999 -9999 -9999 -9999 -9999 -9999 -9999 -9999 -9999 -9999 -9999 -9999 -9999 -9999 747.1212 746.0582 741.7484 735.5312 728.6686 722.7189 716.9125 710.3585 704.8096 700.7146 696.0161 694.1317 694.9478 696.1046 697.2696 700.9623 705.6448 704.2595 696.3446 691.0845 688.5752 688.4464 688.1409 683.2283 674.4599 671.3121 672.5618 676.6644 680.1978 679.9174 679.9128 682.7932 680.5513 675.7835 671.7579 680.5102 689.4226 697.4015 705.5343 711.9092 718.3282 724.6536 731.4521 738.5334 743.2761 738.9587 732.6661 724.7214 717.4443 709.179 700.4883 691.3024 683.1223 676.3207 671.8029 664.8153 660.0627 657.2189 652.7056 650.1361 647.3098 644.828 643.8138 643.5859 641.2474 639.478 635.4485 630.955 626.5202 621.8339 617.4029 614.0226 609.7349 606.6084 602.1271 599.1743 595.3757 592.1373 587.7428 583.6638 579.0773 576.0735 573.8462 572.3946 570.2107 568.5701 568.3331 565.4421 561.8043 554.4373 547.9161 539.5364 530.4038 523.6289 518.4808 522.6307 528.2893 531.2481 532.3027 532.7797 532.046 527.7985 525.8776 522.8196 529.7622 533.5471 537.9468 538.593 539.1074 541.3378 542.1729 544.7996 546.287 548.2461 552.338 555.0095 557.8267 560.1965 563.3604 566.3786 568.7629 568.6532 570.8149 572.6636 577.2737 582.9666 587.5264 592.8672 598.0671 604.1906 611.5873 617.6681 622.9388 629.098 636.1733 643 649.0282 654.6014 660.654 666.6327 672.9062 678.7401 683.4568 687.7934 692.0637 696.3979 700.1851 703.2833 -9999 -9999 -9999 -9999 -9999 -9999 -9999 -9999 -9999 -9999 -9999 -9999 -9999 -9999 -9999 -9999 -9999 -9999 -9999 -9999 -9999 -9999 -9999 -9999 -9999 -9999 
-9999 -9999 -9999 -9999 -9999 -9999 -9999 -9999 -9999 -9999 -9999 -9999 -9999 -9999 -9999 -9999 -9999 -9999 -9999 -9999 -9999 -9999 -9999 -9999 -9999 -9999 -9999 -9999 -9999 -9999 -9999 -9999 742.5515 738.3994 732.4199 726.4954 720.8802 715.1019 707.5422 699.7316 693.4612 690.5465 685.9272 685.5051 686.1536 688.0304 692.072 698.0713 699.8734 694.0936 686.6855 682.0792 680.7761 679.9464 677.8325 672.7805 664.5601 663.7782 668.7418 671.4409 673.4556 672.4528 674.5483 672.2357 668.7259 668.5826 677.6649 687.0443 693.8902 699.9892 706.5295 713.7189 720.6691 728.4728 736.7207 741.4466 738.0526 731.8804 725.0278 717.3033 709.5447 701.386 692.7167 684.644 676.9433 670.371 663.5481 655.1699 648.8293 645.3226 643.9022 640.1745 637.4084 635.1285 633.5291 632.0341 630.4399 627.5779 622.8641 619.1799 615.2838 610.8611 606.3151 602.678 598.4794 595.2744 592.1807 588.7623 587.0844 582.3684 577.9991 573.2846 570.1398 567.7601 567.5521 565.7812 563.7322 562.5206 560.5912 558.2305 554.1569 546.6139 537.9911 527.8275 519.0142 515.7415 519.8776 522.9134 525.9553 527.4846 526.8118 523.5009 521.0937 520.7759 525.3701 530.4709 533.2689 535.0558 534.3883 534.0393 535.6677 538.4414 540.4226 543.5933 545.1143 545.9844 546.892 548.9897 552.9377 558.3281 562.3362 564.5452 565.961 567.9963 571.1365 577.2531 584.358 590.3405 596.6467 602.9553 608.6063 614.252 620.5842 626.6124 632.3945 639.5208 646.2179 652.4336 656.5895 661.5082 667.3139 673.374 679.2621 683.7746 687.7317 691.0167 695.7853 700.0388 -9999 -9999 -9999 -9999 -9999 -9999 -9999 -9999 -9999 -9999 -9999 -9999 -9999 -9999 -9999 -9999 -9999 -9999 -9999 -9999 -9999 -9999 -9999 -9999 -9999 -9999 -9999 
-9999 -9999 -9999 -9999 -9999 -9999 -9999 -9999 -9999 -9999 -9999 -9999 -9999 -9999 -9999 -9999 -9999 -9999 -9999 -9999 -9999 -9999 -9999 -9999 -9999 -9999 -9999 -9999 -9999 -9999 -9999 -9999 741.5205 737.3127 731.2091 724.9127 719.0468 714.4001 706.6087 698.8919 691.9227 685.2278 678.8392 676.8503 678.2486 678.4414 684.0482 688.6567 691.3665 690.4406 683.6177 676.3619 673.9151 672.4406 671.3632 668.7175 662.9202 655.9402 659.1338 662.9903 665.9218 664.0236 665.0156 661.778 659.0515 666.1785 675.785 682.6491 689.7327 696.9481 704.3768 711.9557 719.9543 728.1779 735.8749 739.0676 737.0132 732.0321 725.2983 717.7339 709.8502 700.9059 693.4078 685.9562 678.6243 672.452 665.5491 659.1978 652.9014 645.9337 639.0345 634.7544 631.2728 627.8248 625.7026 623.0333 621.0049 618.2693 614.4021 610.7018 608.0326 603.5269 599.1202 595.1875 591.408 588.7181 585.5749 581.6605 579.5818 577.3179 572.4845 567.098 563.8907 561.2687 559.6418 558.1833 557.1889 555.5848 554.3847 552.7007 550.0474 545.5912 539.9425 530.4114 521.2972 511.7912 516.713 518.9182 521.5074 523.6144 521.7711 518.4686 517.8209 521.9578 527.9974 530.2454 530.8999 530.0587 530.0548 530.0121 531.2824 533.7086 536.0434 536.6689 537.8196 540.162 545.5425 551.7505 556.9633 557.086 558.2892 562.5648 567.2991 570.687 574.5419 577.5419 582.4218 590.4685 598.4443 605.7549 613.9343 620.4821 625.9861 631.5982 637.6934 645.2151 650.1582 655.5676 659.2703 663.891 668.7502 673.624 678.8704 683.5627 687.8422 691.3314 694.8564 699.7089 -9999 -9999 -9999 -9999 -9999 -9999 -9999 -9999 -9999 -9999 -9999 -9999 -9999 -9999 -9999 -9999 -9999 -9999 -9999 -9999 -9999 -9999 -9999 -9999 -9999 -9999 -9999 
-9999 -9999 -9999 -9999 -9999 -9999 -9999 -9999 -9999 -9999 -9999 -9999 -9999 -9999 -9999 -9999 -9999 -9999 -9999 -9999 -9999 -9999 -9999 -9999 -9999 -9999 -9999 -9999 -9999 -9999 -9999 -9999 738.5479 734.6617 729.4367 722.6168 716.9696 711.3293 705.3987 698.2069 692.4408 684.513 676.3649 669.4849 669.3538 672.0695 675.6997 677.78 682.2232 683.4789 681.4124 674.5125 666.3751 665.4135 663.3911 661.464 659.2931 652.9608 650.3762 653.9713 658.3795 659.3289 655.7231 651.27 653.9438 665.0431 673.3596 680.6184 688.9349 696.9603 704.8469 712.3694 719.8918 726.6981 732.2782 735.33 733.9386 730.0562 723.5526 716.056 708.5899 700.3931 693.532 687.1503 681.401 676.1165 670.2727 664.1744 656.8006 649.3429 641.5232 634.1516 626.7953 621.7958 618.8492 615.3272 612.472 609.9749 605.8563 602.1378 599.5332 596.3184 592.9907 588.7761 584.5203 582.0118 578.3268 574.8323 572.5585 570.1794 566.1912 561.4058 557.1889 553.8307 552.6695 551.7124 549.5338 548.6995 547.183 546.4546 544.5618 542.1676 538.401 530.1752 519.9362 509.887 514.5786 516.6863 517.4849 519.5834 519.0652 515.0624 518.7955 523.0932 526.6167 527.8641 527.5997 527.4731 526.891 526.7919 527.9342 529.6319 530.9655 535.3599 540.2382 545.1988 550.1298 555.9521 560.5013 564.2542 565.7317 572.2521 576.5856 579.9719 582.5993 582.5216 583.17 587.3633 593.4601 601.3186 611.5828 620.5278 627.5764 635.6498 640.1653 645.6944 650.5438 655.4099 658.5555 663.2029 667.2438 672.5107 677.9087 682.5158 687.6532 690.7332 694.3085 -9999 -9999 -9999 -9999 -9999 -9999 -9999 -9999 -9999 -9999 -9999 -9999 -9999 -9999 -9999 -9999 -9999 -9999 -9999 -9999 -9999 -9999 -9999 -9999 -9999 -9999 -9999 -9999 
-9999 -9999 -9999 -9999 -9999 -9999 -9999 -9999 -9999 -9999 -9999 -9999 -9999 -9999 -9999 -9999 -9999 -9999 -9999 -9999 -9999 -9999 -9999 -9999 -9999 -9999 -9999 -9999 -9999 -9999 -9999 737.3546 735.468 731.2244 725.5688 719.571 714.4261 708.8765 700.2376 693.4962 688.278 681.731 674.2915 664.8976 659.1544 664.3528 666.084 667.4465 671.3266 672.9253 677.7388 672.0017 663.8041 657.7866 654.603 653.2985 652.2636 650.7549 644.0927 644.9255 651.6814 652.6682 645.6343 644.2413 652.7285 661.8892 670.7216 679.7032 688.1614 696.404 704.5795 711.6768 717.3773 722.6999 727.5286 730.6696 731.5833 727.1903 721.2795 714.3247 707.5048 700.6659 694.5425 688.9303 683.2664 677.927 672.7797 667.7474 659.8204 651.7759 644.1849 635.3907 627.7889 620.156 612.1694 609.5977 605.7458 602.3267 598.9008 595.4047 592.1403 588.8805 585.7372 582.3036 578.3108 575.1317 571.7088 567.6679 565.4033 563.2933 559.6837 555.5956 551.4594 547.4445 545.9783 544.7629 543.4531 541.6844 541.0383 539.5966 538.0421 535.9581 533.8557 529.3347 515.7429 507.4311 512.0983 514.9429 514.1443 515.2896 515.4945 512.5403 518.3795 522.3228 524.3871 525.8135 524.6553 522.13 521.4518 522.5164 524.2964 527.7582 532.8026 537.5354 541.1442 544.9123 550.6349 556.4688 561.1932 567.0172 571.4878 576.2427 584.6994 588.5292 591.6069 591.5528 590.3953 591.4454 592.663 598.3247 606.1603 615.0087 623.2954 630.7089 636.1793 641.0995 645.0909 650.1468 653.4531 658.7483 664.1028 668.876 674.6223 679.8054 684.3903 688.5188 -9999 -9999 -9999 -9999 -9999 -9999 -9999 -9999 -9999 -9999 -9999 -9999 -9999 -9999 -9999 -9999 -9999 -9999 -9999 -9999 -9999 -9999 -9999 -9999 -9999 -9999 -9999 -9999 -9999 
-9999 -9999 -9999 -9999 -9999 -9999 -9999 -9999 -9999 -9999 -9999 -9999 -9999 -9999 -9999 -9999 -9999 -9999 -9999 -9999 -9999 -9999 -9999 -9999 -9999 -9999 -9999 -9999 -9999 -9999 -9999 734.5969 733.4639 728.4339 723.1266 716.9376 710.5985 704.4629 696.8986 689.2046 681.9946 676.4846 669.8673 661.3901 653.6802 655.6606 656.1796 657.0505 659.5164 663.5153 669.3911 668.9529 662.3266 655.8542 649.8199 646.2797 645.5847 645.2487 640.7414 639.0079 645.5565 645.2784 641.0325 640.9708 648.939 658.8374 669.3378 679.0045 687.4322 694.0418 700.3253 706.64 713.1406 718.0829 722.7357 726.1174 727.8114 725.3569 719.6564 713.3517 706.816 700.662 695.0667 689.4546 684.4033 678.8536 673.8122 669.7827 662.3297 654.2311 646.0616 637.7323 629.1873 622.4968 613.1326 604.1974 599.537 596.5508 592.5411 588.8766 586.0786 582.7433 578.9363 576.4073 571.7141 568.8696 564.8394 560.2476 556.8757 554.8404 551.5074 549.7571 545.8922 541.91 539.6294 538.3294 536.2057 535.3172 533.9091 532.2349 530.7841 529.593 528.3533 523.9146 514.1679 505.9048 508.6442 511.795 512.0206 514.4734 511.2494 512.4092 516.492 519.6215 521.9716 522.3632 520.1846 516.8372 521.3162 526.7318 529.926 531.7106 536.5258 541.0337 545.1409 548.1257 550.1663 553.5869 559.6639 563.5889 569.5691 575.6392 584.8472 593.1263 598.3057 600.421 600.5749 599.3214 599.1972 602.0295 606.9711 613.0702 620.1431 627.4651 633.2357 637.4968 642.4193 646.8596 651.2189 656.9964 662.1917 667.4053 673.3703 678.4916 682.2948 -9999 -9999 -9999 -9999 -9999 -9999 -9999 -9999 -9999 -9999 -9999 -9999 -9999 -9999 -9999 -9999 -9999 -9999 -9999 -9999 -9999 -9999 -9999 -9999 -9999 -9999 -9999 -9999 -9999 -9999 
-9999 -9999 -9999 -9999 -9999 -9999 -9999 -9999 -9999 -9999 -9999 -9999 -9999 -9999 -9999 -9999 -9999 -9999 -9999 -9999 -9999 -9999 -9999 -9999 -9999 -9999 -9999 -9999 -9999 -9999 -9999 -9999 731.2937 728.1848 721.2521 715.7207 708.8063 702.3842 694.2864 686.8881 678.7675 670.9707 665.8608 658.9502 650.2946 646.2842 646.5768 647.6383 650.1826 655.9372 660.4132 663.603 662.687 657.161 651.5664 644.8928 639.2449 639.0254 637.9396 633.1108 638.2466 638.1003 633.7318 640.3543 649.9624 658.9212 668.5864 677.1125 683.4226 688.5745 694.243 700.7596 707.5284 712.3748 717.2554 720.9389 723.0946 723.1776 718.0669 712.4639 706.1896 700.371 695.2999 690.9587 686.6024 680.7327 674.7769 669.7439 663.7081 655.608 647.1674 639.0101 630.4872 622.029 612.8393 604.4916 596.6521 588.7288 584.3108 579.8577 578.3557 574.1731 570.9514 569.115 565.0489 562.5801 558.6329 552.3143 547.8087 544.3065 541.5161 540.1041 538.4581 537.0767 534.5064 532.3583 530.3337 529.209 527.3162 525.3281 524.749 523.2753 521 520.8453 514.8568 503.1311 505.4148 507.9766 510.0096 512.6226 509.5685 505.2662 512.8237 515.576 518.4199 518.4297 514.4628 517.0787 526.5763 534.2458 537.6451 540.0096 543.021 545.9768 552.3311 555.2999 557.4343 560.3146 565.8276 569.5371 571.2013 575.7192 584.5881 593.6826 600.7311 605.2627 607.7072 608.2208 608.8853 610.154 613.0259 616.9655 623.3602 627.1717 633.3591 638.0698 642.254 646.8694 651.9512 657.9291 663.3728 668.6779 673.0045 676.6293 681.1884 -9999 -9999 -9999 -9999 -9999 -9999 -9999 -9999 -9999 -9999 -9999 -9999 -9999 -9999 -9999 -9999 -9999 -9999 -9999 -9999 -9999 -9999 -9999 -9999 -9999 -9999 -9999 -9999 -9999 -9999 
-9999 -9999 -9999 -9999 -9999 -9999 -9999 -9999 -9999 -9999 -9999 -9999 -9999 -9999 -9999 -9999 -9999 -9999 -9999 -9999 -9999 -9999 -9999 -9999 -9999 -9999 -9999 -9999 -9999 -9999 -9999 -9999 730.3801 727.6155 721.0265 715.291 708.996 702.753 694.342 685.467 676.3695 666.7797 661.957 656.3327 649.5959 640.5082 637.8344 638.569 641.7541 647.5651 652.0685 654.4604 656.5407 654.8948 654.0757 646.8138 639.7919 632.4242 632.601 628.8115 631.3276 630.7158 629.0417 638.9081 647.9705 657.1168 665.7373 671.86 676.9562 682.2438 689.0179 695.9864 702.3827 706.9455 710.9399 714.4321 717.7324 719.232 716.6984 711.324 706.2856 701.908 697.6743 692.8874 688.1934 681.8132 675.6433 669.452 662.463 655.2552 646.8618 638.6414 630.6541 622.3773 614.6749 605.2939 600.2556 596.5264 591.1398 585.757 579.8104 572.0609 566.3306 559.3057 557.022 554.067 550.6357 545.9258 542.7733 539.669 534.5667 530.9791 530.5829 531.6345 530.2743 528.3647 525.636 522.777 520.9131 519.9248 518.4877 516.87 514.6823 513.9736 513.447 501.3023 502.6419 504.5088 507.7785 509.7971 509.6012 501.7252 509.1722 514.1298 515.3962 512.6652 510.3427 520.9093 533.3474 541.3317 546.1368 548.3116 549.5042 552.5879 556.5602 560.8701 563.5958 566.7459 571.4436 574.8544 579.04 577.8772 585.171 593.7314 601.4154 607.2835 612.0224 615.0674 616.7201 618.4963 621.2015 623.2216 629.0135 633.142 637.3215 641.9103 645.734 648.6235 653.5262 658.4107 664.1371 668.5125 670.9646 675.4147 -9999 -9999 -9999 -9999 -9999 -9999 -9999 -9999 -9999 -9999 -9999 -9999 -9999 -9999 -9999 -9999 -9999 -9999 -9999 -9999 -9999 -9999 -9999 -9999 -9999 -9999 -9999 -9999 -9999 -9999 -9999 
-9999 -9999 -9999 -9999 -9999 -9999 -9999 -9999 -9999 -9999 -9999 -9999 -9999 -9999 -9999 -9999 -9999 -9999 -9999 -9999 -9999 -9999 -9999 -9999 -9999 -9999 -9999 -9999 -9999 -9999 -9999 -9999 728.5475 725.4651 719.5086 713.1627 707.4103 701.36 693.785 684.817 676.9707 668.1765 661.0251 654.6746 649.0724 642.459 632.2383 630.4895 634.4244 640.1135 643.381 646.2614 647.8973 645.9108 645.965 646.6073 640.3825 633.5764 626.6002 624.4019 623.726 625.9312 626.0729 636.0056 645.6251 654.3416 660.6555 665.479 669.7256 676.1737 684.3804 691.2788 697.3016 700.9676 704.7867 707.3851 710.1353 714.1349 715.2231 710.9147 706.6384 702.8201 698.9994 694.7322 689.6062 682.6019 675.9405 669.6388 662.5438 654.782 645.2685 636.9504 628.0701 619.9351 614.9196 611.4647 607.4855 603.1885 598.231 592.3217 583.8825 576.8066 570.738 565.2798 561.7007 557.3779 555.0225 553.241 550.7302 544.7073 539.7886 534.2839 528.1864 524.8496 524.9852 522.0393 519.6307 516.0341 513.0668 511.3866 510.5057 509.9906 507.1704 506.1471 507.5987 502.0308 498.6635 502.6731 505.2456 507.3518 504.4798 499.4102 508.4194 512.1615 511.2266 506.8672 512.131 525.1521 536.6591 542.6301 547.9573 552.4226 555.3189 559.0109 561.5917 565.2844 567.6085 570.6565 573.9407 579.9468 584.1569 582.943 585.2755 591.6907 600.5353 607.4542 613.5045 618.9391 622.7156 626.6978 628.2378 629.8463 633.5672 637.8641 641.6208 645.4445 649.3079 651.9809 654.7698 659.1056 662.3068 666.0178 670.6812 -9999 -9999 -9999 -9999 -9999 -9999 -9999 -9999 -9999 -9999 -9999 -9999 -9999 -9999 -9999 -9999 -9999 -9999 -9999 -9999 -9999 -9999 -9999 -9999 -9999 -9999 -9999 -9999 -9999 -9999 -9999 -9999 
-9999 -9999 -9999 -9999 -9999 -9999 -9999 -9999 -9999 -9999 -9999 -9999 -9999 -9999 -9999 -9999 -9999 -9999 -9999 -9999 -9999 -9999 -9999 -9999 -9999 -9999 -9999 -9999 -9999 -9999 -9999 -9999 -9999 721.4365 716.6595 710.6801 704.8051 699.4642 692.5109 685.6125 678.6326 669.654 661.4366 654.02 646.9075 640.8717 633.0574 623.3038 625.9144 631.3696 635.6254 637.8039 639.0414 637.4069 637.2804 640.5037 641.9194 636.1367 628.2462 620.6177 618.7204 618.7303 624.03 635.2787 643.2446 649.0777 654.9489 659.6741 664.7695 672.3575 680.3914 686.9163 691.4579 693.0885 696.8483 700.0662 703.6232 707.8096 711.2249 710.4233 706.9966 703.4998 699.1418 694.6003 689.7053 683.4667 677.3403 670.8275 662.9758 652.986 642.1991 634.4671 628.7003 624.8324 621.6396 617.2772 613.9625 609.9589 604.6333 596.1012 588.0643 581.4235 576.3768 572.1813 569.8754 566.1042 563.0334 560.816 555.3319 546.4318 539.2682 533.8024 531.1018 525.6017 521.7887 518.0724 516.0759 515.2156 512.1966 507.7153 505.7417 503.8664 503.029 500.2881 500.1829 500.0892 494.9785 498.5217 501.8768 504.8022 499.3805 498.7084 507.6154 509.0251 507.2527 504.556 514.808 525.364 532.926 539.2766 544.4848 549.3083 555.4164 561.168 567.0972 570.6984 573.5734 576.2396 579.3425 586.0511 589.8612 588.0948 589.9709 595.5952 602.6559 609.3653 615.5367 620.9736 626.617 630.5237 632.153 635.159 638.9949 641.5453 645.161 648.9367 652.7018 654.856 656.9781 658.9616 -9999 -9999 -9999 -9999 -9999 -9999 -9999 -9999 -9999 -9999 -9999 -9999 -9999 -9999 -9999 -9999 -9999 -9999 -9999 -9999 -9999 -9999 -9999 -9999 -9999 -9999 -9999 -9999 -9999 -9999 -9999 -9999 -9999 -9999 -9999 
-9999 -9999 -9999 -9999 -9999 -9999 -9999 -9999 -9999 -9999 -9999 -9999 -9999 -9999 -9999 -9999 -9999 -9999 -9999 -9999 -9999 -9999 -9999 -9999 -9999 -9999 -9999 -9999 -9999 -9999 -9999 -9999 -9999 718.009 714.5967 708.0077 702.4147 697.057 690.6814 683.9385 677.2344 669.2189 661.8184 653.6505 645.9565 639.6 632.4935 622.4511 618.2883 622.3765 627.1938 630.0437 631.3802 629.969 629.8799 633.8735 636.2479 632.5294 627.6701 620.8068 613.173 615.0262 624.2129 632.3732 638.7175 643.6508 649.4991 655.8885 662.495 670.4861 677.8516 681.7203 684.0908 685.6248 689.2557 692.9491 696.9504 701.3318 705.3689 708.2318 707.3417 704.2313 699.9595 695.1901 690.119 684.0855 677.1086 670.5287 662.825 654.491 645.8811 641.2299 635.6177 631.7773 627.4735 623.5995 619.4481 615.1367 608.6277 599.822 592.6097 586.663 583.9503 581.4213 577.9207 574.7758 571.9747 564.815 555.8135 547.8262 540.7891 536.7726 534.3297 531.4668 528.2573 526.2258 521.7742 522.793 518.4054 513.2535 510.6048 508.0894 504.5682 500.253 495.3244 496.8073 493.3196 493.5665 498.8167 501.8463 495.7869 495.8723 502.9703 506.0938 501.5423 504.425 512.5281 519.0127 526.3477 533.9829 539.7719 546.1696 553.1381 560.0693 567.7914 574.5092 580.1129 583.7933 587.6208 591.3288 592.9427 594.1139 595.0504 598.58 606.6373 612.6251 617.774 622.1006 627.888 632.364 634.6865 638.0013 641.633 644.793 649.0145 650.9103 652.938 655.8489 -9999 -9999 -9999 -9999 -9999 -9999 -9999 -9999 -9999 -9999 -9999 -9999 -9999 -9999 -9999 -9999 -9999 -9999 -9999 -9999 -9999 -9999 -9999 -9999 -9999 -9999 -9999 -9999 -9999 -9999 -9999 -9999 -9999 -9999 -9999 -9999 -9999 
-9999 -9999 -9999 -9999 -9999 -9999 -9999 -9999 -9999 -9999 -9999 -9999 -9999 -9999 -9999 -9999 -9999 -9999 -9999 -9999 -9999 -9999 -9999 -9999 -9999 -9999 -9999 -9999 -9999 -9999 -9999 -9999 -9999 -9999 710.504 704.8851 699.8604 694.4144 687.9512 681.5778 675.1289 668.3319 661.0175 653.6055 646.7673 639.3455 632.1933 622.9426 612.8743 614.7275 619.8474 621.8507 624.0818 621.8857 623.0234 627.8743 628.9182 625.9693 622.0923 616.8032 609.7136 612.6016 622.7574 628.8192 634.839 640.9159 647.7701 654.5923 662.021 668.4028 672.6593 674.7579 676.2575 678.1762 681.4025 685.6682 690.2539 694.1752 699.1205 703.646 705.8109 703.9204 700.6011 696.6242 690.9572 685.0868 678.7134 671.6497 665.1985 659.1345 652.9159 647.2261 642.6776 638.3922 634.3665 629.6681 624.3995 618.6168 612.3036 605.0875 599.5309 595.4542 591.3608 589.6234 584.9897 579.5521 574.7789 567.0271 558.2679 548.9113 542.7977 538.8323 537.5598 536.0891 533.6553 530.4449 529.6213 526.9329 521.7795 516.857 516.7678 513.9119 511.0155 504.902 498.5537 492.4814 492.5949 490.7158 496.2883 499.7912 493.1862 492.2337 494.6538 498.4966 499.7356 505.6487 508.9703 513.3754 520.51 528.6909 535.2266 543.2809 551.0144 558.9712 565.7911 572.6422 580.3781 585.5505 592.7598 596.8396 598.0709 599.1141 599.627 601.5251 608.4593 614.7145 619.9998 624.5078 629.6368 634.3429 636.5557 640.0008 643.1455 648.0056 650.5057 650.8448 652.3467 -9999 -9999 -9999 -9999 -9999 -9999 -9999 -9999 -9999 -9999 -9999 -9999 -9999 -9999 -9999 -9999 -9999 -9999 -9999 -9999 -9999 -9999 -9999 -9999 -9999 -9999 -9999 -9999 -9999 -9999 -9999 -9999 -9999 -9999 -9999 -9999 -9999 -9999 
-9999 -9999 -9999 -9999 -9999 -9999 -9999 -9999 -9999 -9999 -9999 -9999 -9999 -9999 -9999 -9999 -9999 -9999 -9999 -9999 -9999 -9999 -9999 -9999 -9999 -9999 -9999 -9999 -9999 -9999 -9999 -9999 -9999 -9999 708.1677 703.9996 698.533 692.3425 686.7281 679.8991 673.7657 667.134 659.8409 653.0409 645.2898 637.3124 630.3691 622.2439 612.3455 606.4347 611.1628 613.1045 615.8621 615.0475 616.2347 620.4615 620.8304 617.9462 613.6782 609.1855 603.7798 610.8123 619.6393 627.0696 633.113 640.2926 647.3427 652.9761 657.9138 661.4084 665.0827 667.0327 668.9209 671.2572 673.7413 679.0175 684.004 688.1577 693.7256 698.5002 702.1959 702.8893 701.0515 697.3832 693.3095 687.8414 681.6517 675.3301 669.3599 663.9946 658.2148 653.3015 647.3297 642.9725 639.3203 634.0648 628.0884 621.2891 615.507 610.5159 605.8921 601.7255 597.6595 593.995 587.9181 581.5934 573.5696 566.0182 558.4728 550.0863 544.7157 543.3845 541.8971 540.5316 539.006 537.5537 535.9938 529.177 522.6886 520.5054 520.7074 518.9235 516.111 509.2675 501.9134 494.5715 487.3516 488.2629 494.2462 496.6564 493.0247 487.2647 493.4583 502.5482 507.6277 512.6736 516.1514 518.5837 518.8123 522.9751 529.9017 538.5969 545.3954 552.8851 559.561 566.4167 573.2907 580.9236 588.8744 600.0667 601.1868 602.2383 604.6036 606.3988 610.1486 616.2119 622.4031 626.2436 630.9725 635.3876 639.9596 642.8719 646.2568 650.1628 650.415 650.5621 -9999 -9999 -9999 -9999 -9999 -9999 -9999 -9999 -9999 -9999 -9999 -9999 -9999 -9999 -9999 -9999 -9999 -9999 -9999 -9999 -9999 -9999 -9999 -9999 -9999 -9999 -9999 -9999 -9999 -9999 -9999 -9999 -9999 -9999 -9999 -9999 -9999 -9999 -9999 
-9999 -9999 -9999 -9999 -9999 -9999 -9999 -9999 -9999 -9999 -9999 -9999 -9999 -9999 -9999 -9999 -9999 -9999 -9999 -9999 -9999 -9999 -9999 -9999 -9999 -9999 -9999 -9999 -9999 -9999 -9999 -9999 -9999 -9999 -9999 702.945 697.8488 691.7848 685.7794 679.4343 673.0616 666.3668 659.2778 652.3947 644.9416 638.4021 631.1685 624.2335 616.6035 606.7745 600.5398 602.0037 605.9111 607.6744 610.3224 612.1619 611.6102 609.5345 605.2231 602.0997 597.0697 607.8131 617.4829 626.1697 632.3815 636.8743 642.2494 647.6528 651.2501 654.2997 657.1716 658.9006 661.4465 663.894 667.4069 672.6692 677.418 682.2026 687.2341 692.4195 696.6707 700.2346 701.4598 698.9423 695.1002 689.8965 684.7583 679.3885 673.6949 668.8097 663.0764 658.1798 651.9741 646.7147 642.8986 638.0866 630.6686 623.3579 617.3373 612.1938 607.9846 604.4131 600.4072 596.4502 591.1665 582.2968 574.0885 566.3298 558.8653 552.5392 549.5811 549.1963 548.4587 546.9408 546.0645 543.2778 535.1503 528.6314 526.1557 526.8613 526.8834 526.2075 521.1059 513.5065 507.9614 499.8804 490.3158 484.0796 488.9701 493.5627 489.364 485.6981 496.4331 508.7448 515.5364 519.9888 524.1051 525.5697 527.2674 528.3182 529.3461 535.4825 541.3332 547.9519 553.5504 562.0093 570.3486 579.8828 590.2025 596.899 601.8207 605.7336 608.8975 610.7895 612.9048 617.5439 623.7321 627.7881 631.6165 636.6945 641.3602 646.4199 650.0797 649.5966 -9999 -9999 -9999 -9999 -9999 -9999 -9999 -9999 -9999 -9999 -9999 -9999 -9999 -9999 -9999 -9999 -9999 -9999 -9999 -9999 -9999 -9999 -9999 -9999 -9999 -9999 -9999 -9999 -9999 -9999 -9999 -9999 -9999 -9999 -9999 -9999 -9999 -9999 -9999 -9999 -9999 
-9999 -9999 -9999 -9999 -9999 -9999 -9999 -9999 -9999 -9999 -9999 -9999 -9999 -9999 -9999 -9999 -9999 -9999 -9999 -9999 -9999 -9999 -9999 -9999 -9999 -9999 -9999 -9999 -9999 -9999 -9999 -9999 -9999 -9999 -9999 702.5244 697.6711 692.0149 686.1299 679.88 673.3284 667.0426 660.811 654.734 648.798 642.4605 636.6815 629.697 620.265 610.8581 601.2432 593.8083 593.9348 599.0654 603.4865 604.1342 604.0481 602.9882 598.1921 593.374 592.4749 603.1215 613.2371 620.6612 627.712 631.9464 636.1862 640.8207 643.7871 646.1753 648.6624 650.6246 652.797 654.7576 660.731 665.7373 670.4976 676.4053 681.9207 687.1564 692.514 697.1462 700.4678 698.7183 694.4075 689.7563 685.403 680.482 676.4259 671.7167 666.9535 660.2822 654.2555 648.7432 644.6428 639.5245 632.5286 625.4405 618.8728 613.1669 609.3204 604.9792 602.4753 599.4029 594.9727 586.3194 577.8582 569.5112 561.7388 556.7294 554.9311 554.5287 555.7906 554.4861 550.5328 542.5181 534.4523 531.934 532.9725 533.6461 533.6919 533.2271 526.8964 519.8478 511.286 501.143 492.3404 484.459 483.9675 491.0557 486.3473 485.0778 498.0302 508.606 519.3884 525.1125 529.1145 532.0825 531.8738 533.4374 534.4424 536.0007 539.592 546.0339 553.8177 561.36 571.8657 582.3851 591.1177 594.6846 598.8992 604.9091 610.474 613.9731 616.9297 620.6544 625.3726 628.5205 632.588 637.3445 642.558 647.0211 647.7061 -9999 -9999 -9999 -9999 -9999 -9999 -9999 -9999 -9999 -9999 -9999 -9999 -9999 -9999 -9999 -9999 -9999 -9999 -9999 -9999 -9999 -9999 -9999 -9999 -9999 -9999 -9999 -9999 -9999 -9999 -9999 -9999 -9999 -9999 -9999 -9999 -9999 -9999 -9999 -9999 -9999 -9999 
-9999 -9999 -9999 -9999 -9999 -9999 -9999 -9999 -9999 -9999 -9999 -9999 -9999 -9999 -9999 -9999 -9999 -9999 -9999 -9999 -9999 -9999 -9999 -9999 -9999 -9999 -9999 -9999 -9999 -9999 -9999 -9999 -9999 -9999 -9999 -9999 698.5178 693.4993 688.2186 681.9412 675.4703 669.9466 664.2346 658.9822 653.082 647.5507 641.4706 633.1298 624.3097 615.7501 606.4514 597.0864 588.3882 590.8129 594.6587 595.34 595.8276 596.4921 591.2084 586.2005 589.2013 597.6541 605.6185 613.2126 621.1877 626.4189 630.1367 632.7313 635.5629 638.748 640.4587 642.2631 644.6696 647.8875 653.5088 659.3145 665.1011 670.3809 676.6804 682.6941 687.6083 692.4309 696.5206 695.3464 691.9105 686.6733 681.0002 676.653 672.6441 667.7094 664.4846 659.9659 654.7546 647.7198 643.8809 639.5177 634.7963 627.2136 621.0171 615.2975 611.5515 607.983 605.95 602.0958 597.5406 590.8548 582.9224 573.6405 566.4982 562.4017 562.1495 562.3042 564.3052 558.8851 552.7122 545.4694 540.8554 539.6393 539.9791 539.557 538.2997 534.6108 528.8577 520.3599 510.5872 500.7072 493.5977 485.1837 480.2833 486.2993 482.9251 484.3043 496.0437 506.7498 516.7389 521.8938 525.908 530.8245 535.7028 537.9964 538.7447 542.7802 546.0675 548.6156 555.2572 563.9699 573.0834 582.1642 586.4474 589.0458 594.1931 603.0065 609.8484 615.2891 619.1669 622.6264 625.8253 629.4272 634.6119 639.6578 642.6243 644.2855 -9999 -9999 -9999 -9999 -9999 -9999 -9999 -9999 -9999 -9999 -9999 -9999 -9999 -9999 -9999 -9999 -9999 -9999 -9999 -9999 -9999 -9999 -9999 -9999 -9999 -9999 -9999 -9999 -9999 -9999 -9999 -9999 -9999 -9999 -9999 -9999 -9999 -9999 -9999 -9999 -9999 -9999 -9999 
-9999 -9999 -9999 -9999 -9999 -9999 -9999 -9999 -9999 -9999 -9999 -9999 -9999 -9999 -9999 -9999 -9999 -9999 -9999 -9999 -9999 -9999 -9999 -9999 -9999 -9999 -9999 -9999 -9999 -9999 -9999 -9999 -9999 -9999 -9999 -9999 699.084 694.8419 689.1094 683.5422 677.8569 672.4696 667.3932 661.9456 655.9547 650.4493 644.9705 636.1161 627.9444 620.0333 610.5327 601.4116 591.802 582.9056 582.85 583.5145 587.3892 589.269 585.6709 577.8757 584.4357 589.8299 598.4771 607.1654 615.1367 620.2756 622.061 624.9657 627.2525 629.1506 631.2317 634.0686 635.6543 640.8298 647.4851 653.2763 658.9304 664.9814 671.034 676.7109 682.4038 688.3954 691.2811 689.8005 687.0101 682.4015 676.3901 671.1978 666.1549 661.6987 658.0358 654.8049 651.0376 646.717 643.8 639.8194 635.3762 629.7419 622.5982 617.9431 614.3221 611.4067 608.0036 603.0582 597.6633 591.3235 585.0552 578.2993 570.8553 569.3824 570.0271 570.5978 567.2153 563.496 557.7253 552.2275 548.7216 546.668 544.7028 541.8033 538.766 535.9664 530.4077 522.9606 512.733 503.698 493.379 484.9856 478.4476 481.088 479.5114 483.1613 494.0838 503.6462 509.5464 514.5451 519.2253 525.7411 533.0015 540.4066 543.7761 547.881 553.6646 556.7477 561.7906 568.8459 573.5048 576.085 578.931 584.736 593.6765 601.5259 607.6295 611.9668 616.378 621.3615 625.0443 629.2802 635.1598 639.9634 641.7107 -9999 -9999 -9999 -9999 -9999 -9999 -9999 -9999 -9999 -9999 -9999 -9999 -9999 -9999 -9999 -9999 -9999 -9999 -9999 -9999 -9999 -9999 -9999 -9999 -9999 -9999 -9999 -9999 -9999 -9999 -9999 -9999 -9999 -9999 -9999 -9999 -9999 -9999 -9999 -9999 -9999 -9999 -9999 -9999 
-9999 -9999 -9999 -9999 -9999 -9999 -9999 -9999 -9999 -9999 -9999 -9999 -9999 -9999 -9999 -9999 -9999 -9999 -9999 -9999 -9999 -9999 -9999 -9999 -9999 -9999 -9999 -9999 -9999 -9999 -9999 -9999 -9999 -9999 -9999 -9999 -9999 695.3578 691.0891 684.8741 679.909 674.2473 668.7312 663.2708 656.8074 650.4676 643.6172 637.1585 629.191 621.4545 613.9564 605.1942 595.6211 586.3483 578.5721 573.165 574.9961 578.7307 581.1355 573.709 574.4878 583.215 592.263 601.4657 608.7885 614.0699 615.6312 617.2642 619.6218 620.2695 622.6774 625.4001 627.8309 634.8512 640.967 646.6797 652.2804 658.9403 664.9601 671.684 677.5582 683.4325 685.7825 683.8478 681.6807 676.9311 671.3632 665.8707 660.6228 655 651.3104 647.9812 643.7757 641.2306 639.6442 637.6744 636.0406 631.1235 625.3711 620.063 616.429 613.6097 608.0204 603.8096 599.6871 595.3033 589.6127 584.4937 579.8782 577.833 576.1025 572.4708 568.6417 564.4218 559.5762 554.973 550.7347 546.8379 543.5788 541.3477 539.5181 537.2466 531.985 523.6235 513.1034 503.7963 494.3079 484.0879 479.9716 476.3003 476.5381 481.7631 490.0993 496.0986 501.636 506.7468 513.2032 521.1401 529.3576 536.6842 544.494 550.8156 557.2095 562.7157 562.817 563.1866 565.2798 571.4299 578.55 586.6127 593.6262 599.5668 603.3905 607.0999 612.2411 618.5154 623.4768 628.6759 636.2418 640.6477 641.2398 -9999 -9999 -9999 -9999 -9999 -9999 -9999 -9999 -9999 -9999 -9999 -9999 -9999 -9999 -9999 -9999 -9999 -9999 -9999 -9999 -9999 -9999 -9999 -9999 -9999 -9999 -9999 -9999 -9999 -9999 -9999 -9999 -9999 -9999 -9999 -9999 -9999 -9999 -9999 -9999 -9999 -9999 -9999 -9999 
-9999 -9999 -9999 -9999 -9999 -9999 -9999 -9999 -9999 -9999 -9999 -9999 -9999 -9999 -9999 -9999 -9999 -9999 -9999 -9999 -9999 -9999 -9999 -9999 -9999 -9999 -9999 -9999 -9999 -9999 -9999 -9999 -9999 -9999 -9999 -9999 -9999 694.9288 690.9061 685.541 680.3403 674.229 668.735 663.1617 657.2037 651.1061 645.2517 638.86 631.8215 625.3932 618.9871 610.1075 601.0573 592.0527 584.6301 577.4261 569.4563 565.8635 569.8663 565.7126 563.7718 576.4248 587.0303 595.8832 601.6775 606.6678 607.887 609.6176 611.1072 611.6437 613.3399 616.996 622.4329 628.9967 635.0242 639.1382 645.7089 653.9218 660.0749 666.4109 673.5562 678.6189 679.3794 677.479 675.9276 673.4091 667.3749 660.9688 655.4114 649.6965 644.6635 639.6099 635.7175 633.408 631.2675 630.8469 631.0031 628.9503 626.2253 624.0094 618.6914 613.7994 609.9376 603.8972 600.5955 596.4769 591.7791 588.1543 584.4609 579.9582 575.2803 571.4086 566.9456 561.8782 557.1385 552.3357 547.8193 543.5056 539.0868 537.034 537.5483 535.1335 529.4117 521.653 512.8123 503.519 494.3498 482.3125 476.3285 473.6699 474.6917 480.2993 487.1969 494.1349 500.1044 504.9408 508.3394 517.1115 526.1915 534.287 542.9623 550.9123 556.3453 556.8475 554.5745 554.0579 561.5834 571.7149 578.7169 586.3461 591.4065 594.5497 599.6445 604.0945 609.3889 615.853 621.9269 628.3551 635.8661 640.1805 640.8146 -9999 -9999 -9999 -9999 -9999 -9999 -9999 -9999 -9999 -9999 -9999 -9999 -9999 -9999 -9999 -9999 -9999 -9999 -9999 -9999 -9999 -9999 -9999 -9999 -9999 -9999 -9999 -9999 -9999 -9999 -9999 -9999 -9999 -9999 -9999 -9999 -9999 -9999 -9999 -9999 -9999 -9999 -9999 -9999 
-9999 -9999 -9999 -9999 -9999 -9999 -9999 -9999 -9999 -9999 -9999 -9999 -9999 -9999 -9999 -9999 -9999 -9999 -9999 -9999 -9999 -9999 -9999 -9999 -9999 -9999 -9999 -9999 -9999 -9999 -9999 -9999 -9999 -9999 -9999 -9999 -9999 -9999 689.7914 685.3116 680.0713 674.2991 669.1526 664.2834 659.0797 653.7907 648.9276 642.4087 636.949 631.5296 624.536 616.2744 606.3897 598.3605 590.1378 582.2053 574.9061 565.0359 558.1117 557.2186 558.5087 568.3232 576.8439 586.519 594.0331 598.8489 600.5955 601.538 602.614 603.4994 605.3435 611.5919 616.6454 622.3087 628.0594 632.8571 641.6299 648.8834 655.3025 661.5958 668.5811 673.6576 672.798 669.577 668.575 667.7345 663.6227 657.2524 651.1161 645.0208 638.6528 632.5164 627.5733 624.667 622.4062 622.3384 623.6345 624.3218 623.6696 623.3373 619.0686 614.4402 610.1852 605.9142 601.8947 597.3059 593.1888 587.3748 581.7817 577.3484 571.9473 567.8607 562.3849 557.214 552.149 547.3354 542.6842 538.0497 533.4106 530.1904 531.2382 530.7795 523.7668 516.8364 509.1501 500.7567 491.3795 480.316 473.5647 471.4723 474.0105 481.5992 491.9663 500.9777 507.0135 510.6193 511.7264 514.0002 522.748 530.9258 539.099 547.0208 550.3705 548.7291 546.8592 552.3037 561.8896 572.7772 579.4979 583.5991 587.2391 591.0087 596.694 602.2703 607.9854 614.6909 621.571 628.3414 635.8113 639.6602 640.8382 -9999 -9999 -9999 -9999 -9999 -9999 -9999 -9999 -9999 -9999 -9999 -9999 -9999 -9999 -9999 -9999 -9999 -9999 -9999 -9999 -9999 -9999 -9999 -9999 -9999 -9999 -9999 -9999 -9999 -9999 -9999 -9999 -9999 -9999 -9999 -9999 -9999 -9999 -9999 -9999 -9999 -9999 -9999 -9999 
-9999 -9999 -9999 -9999 -9999 -9999 -9999 -9999 -9999 -9999 -9999 -9999 -9999 -9999 -9999 -9999 -9999 -9999 -9999 -9999 -9999 -9999 -9999 -9999 -9999 -9999 -9999 -9999 -9999 -9999 -9999 -9999 -9999 -9999 -9999 -9999 -9999 -9999 688.7429 684.6227 680.2169 675.049 670.3192 665.908 661.3885 656.6436 651.2433 645.92 640.1074 634.1052 627.7006 618.9559 610.727 603.1123 594.6176 586.5693 579.4789 570.6268 563.1988 555.482 553.0977 558.0217 567.1505 574.6173 585.1635 590.6864 592.2683 593.3077 594.6077 595.5121 599.2604 605.4357 610.5091 615.5649 622.4832 628.9152 634.4771 642.6891 650.9476 658.1829 664.019 668.2092 665.8173 661.8869 659.4097 658.7261 658.0334 653.495 648.3354 642.5093 634.8984 627.2395 618.882 615.6495 613.0519 614.4608 615.8789 618.0582 620.2634 621.1694 618.3683 614.7466 610.8779 607.4047 603.2891 597.6481 592.0298 585.2092 578.7458 573.488 567.4134 561.9537 557.022 551.3779 546.1719 541.5214 536.621 532.4559 528.0211 523.3759 523.5748 523.7455 519.5019 512.3177 504.2855 496.2571 487.7676 476.996 469.7738 469.7654 474.2993 484.3508 495.5316 506.9022 513.207 517.4209 517.3797 515.6629 517.4232 525.0477 533.5997 539.5128 541.1206 540.2831 544.8087 555.7968 564.4973 572.5958 576.6923 579.3151 583.1045 589.292 595.8604 602.505 608.6399 614.822 621.837 627.4849 634.243 638.1719 639.9817 -9999 -9999 -9999 -9999 -9999 -9999 -9999 -9999 -9999 -9999 -9999 -9999 -9999 -9999 -9999 -9999 -9999 -9999 -9999 -9999 -9999 -9999 -9999 -9999 -9999 -9999 -9999 -9999 -9999 -9999 -9999 -9999 -9999 -9999 -9999 -9999 -9999 -9999 -9999 -9999 -9999 -9999 -9999 -9999 
-9999 -9999 -9999 -9999 -9999 -9999 -9999 -9999 -9999 -9999 -9999 -9999 -9999 -9999 -9999 -9999 -9999 -9999 -9999 -9999 -9999 -9999 -9999 -9999 -9999 -9999 -9999 -9999 -9999 -9999 -9999 -9999 -9999 -9999 -9999 -9999 -9999 -9999 687.7111 685.5859 680.8851 675.2974 670.3885 665.2915 659.9766 655.813 650.4752 645.4475 639.9283 634.2744 627.6815 621.3653 613.9823 607.2653 600.3204 591.251 584.361 577.0946 568.1053 558.3121 550.2844 552.3472 560.2399 566.8061 578.8807 581.9668 583.1068 583.833 585.8058 588.4225 593.1035 599.4136 604.7125 610.5273 616.1982 623.441 632.8768 640.666 646.7589 652.6583 659.767 662.7259 659.2382 655.301 650.3328 648.4293 648.7676 647.6901 646.1935 640.6416 632.972 625.301 616.3208 608.3823 604.6646 605.9858 607.0435 610.093 615.1177 618.4125 617.3221 614.8372 613.1722 608.4402 601.5449 596.073 590.2978 583.7461 576.9026 569.8967 564.2343 558.1391 552.4149 546.479 541.4711 536.288 531.2024 526.6418 522.3975 518.2278 515.5395 515.1653 511.2952 505.5977 498.5865 490.6846 482.6569 473.5731 467.3468 468.2772 476.093 484.6 497.6439 509.5082 517.6799 521.4595 523.6823 523.981 524.6035 525.3746 527.8069 531.4508 535.1427 538.4727 546.3997 553.2448 559.7317 566.5638 570.2785 575.3755 581.3717 589.0283 595.7468 600.8354 606.8339 613.0701 619.9083 625.9304 631.2713 634.6096 635.8989 -9999 -9999 -9999 -9999 -9999 -9999 -9999 -9999 -9999 -9999 -9999 -9999 -9999 -9999 -9999 -9999 -9999 -9999 -9999 -9999 -9999 -9999 -9999 -9999 -9999 -9999 -9999 -9999 -9999 -9999 -9999 -9999 -9999 -9999 -9999 -9999 -9999 -9999 -9999 -9999 -9999 -9999 -9999 -9999 
-9999 -9999 -9999 -9999 -9999 -9999 -9999 -9999 -9999 -9999 -9999 -9999 -9999 -9999 -9999 -9999 -9999 -9999 -9999 -9999 -9999 -9999 -9999 -9999 -9999 -9999 -9999 -9999 -9999 -9999 -9999 -9999 -9999 -9999 -9999 -9999 -9999 -9999 -9999 685.1256 679.9319 674.2145 668.9103 663.4368 657.5588 651.9504 646.829 641.4196 636.571 631.0313 625.1707 619.1318 612.376 606.696 600.3768 593.5736 585.7799 577.3263 569.5531 561.7738 550.7858 546.9987 554.5097 562.2539 571.0794 570.5498 574.1617 576.3151 578.5402 583.3011 587.7435 593.4083 599.3344 606.7875 613.5579 622.2233 631.1685 636.2258 641.5887 647.7107 653.9004 656.7472 652.9327 647.2642 641.9225 638.6162 638.2009 637.061 638.3777 638.3213 632.5172 625.8497 617.7016 609.3386 601.2813 596.0867 598.0763 601.8451 606.0514 606.9696 608.3397 608.7336 611.6049 606.6503 601.4702 595.7354 589.4459 583.0732 576.4484 569.931 563.07 557.0517 550.3256 544.4978 538.4094 532.606 526.5847 521.5403 517.2578 511.6663 508.9886 507.1369 503.5647 499.0308 493.1725 485.4656 477.9226 470.4299 465.5462 468.7207 478.5954 488.3346 497.5151 508.1229 518.3017 524.4191 527.7033 531.0743 532.8727 533.8519 534.9301 536.4572 540.1932 545.4259 547.4879 550.417 554.7589 560.5432 567.7388 574.2745 580.1708 586.7042 592.1456 598.6569 603.9399 610.0626 616.1326 622.2721 627.7128 631.733 633.2738 -9999 -9999 -9999 -9999 -9999 -9999 -9999 -9999 -9999 -9999 -9999 -9999 -9999 -9999 -9999 -9999 -9999 -9999 -9999 -9999 -9999 -9999 -9999 -9999 -9999 -9999 -9999 -9999 -9999 -9999 -9999 -9999 -9999 -9999 -9999 -9999 -9999 -9999 -9999 -9999 -9999 -9999 -9999 -9999 
-9999 -9999 -9999 -9999 -9999 -9999 -9999 -9999 -9999 -9999 -9999 -9999 -9999 -9999 -9999 -9999 -9999 -9999 -9999 -9999 -9999 -9999 -9999 -9999 -9999 -9999 -9999 -9999 -9999 -9999 -9999 -9999 -9999 -9999 -9999 -9999 -9999 -9999 -9999 683.7654 679.064 673.4487 667.7635 661.4617 655.6972 649.778 643.314 637.0046 631.3224 627.0414 619.4885 614.265 608.7572 602.249 595.8093 590.5073 584.4921 578.2064 570.533 560.8739 547.164 541.9801 549.5316 558.4584 559.5732 560.6934 565.0078 575.0479 579.4766 584.8076 589.1578 594.802 601.0245 606.6785 614.5972 620.1506 627.2753 631.794 636.7333 642.0864 648.0566 650.9133 646.6758 641.4722 634.8557 629.7076 628.256 626.5941 627.3051 630.7173 628.5327 623.9622 616.6005 608.7397 600.1428 589.9191 589.0961 593.3268 596.1248 597.7014 598.9983 601.8246 604.4504 603.1946 599.0288 593.9424 588.738 582.3562 575.9448 569.8008 563.4769 557.8968 552.3113 545.9814 540.0309 533.0403 526.7074 521.2545 515.1753 509.349 505.0026 501.3488 498.0158 492.2947 487.571 479.6683 471.5889 466.2404 462.4837 468.7588 478.2899 487.0224 497.0374 507.6124 516.9187 524.2773 529.8209 533.2377 537.7449 540.3616 541.971 544.0261 547.7935 551.6492 553.0886 554.7322 558.0034 562.6532 567.2107 572.0959 577.4871 582.4263 588.6069 594.5711 601.2416 607.5289 613.2874 619.2454 624.3645 629.0493 630.8506 -9999 -9999 -9999 -9999 -9999 -9999 -9999 -9999 -9999 -9999 -9999 -9999 -9999 -9999 -9999 -9999 -9999 -9999 -9999 -9999 -9999 -9999 -9999 -9999 -9999 -9999 -9999 -9999 -9999 -9999 -9999 -9999 -9999 -9999 -9999 -9999 -9999 -9999 -9999 -9999 -9999 -9999 -9999 -9999 
-9999 -9999 -9999 -9999 -9999 -9999 -9999 -9999 -9999 -9999 -9999 -9999 -9999 -9999 -9999 -9999 -9999 -9999 -9999 -9999 -9999 -9999 -9999 -9999 -9999 -9999 -9999 -9999 -9999 -9999 -9999 -9999 -9999 -9999 -9999 -9999 -9999 -9999 -9999 682.6438 677.4683 672.1907 665.879 660.2784 653.5811 647.4036 640.8481 634.2713 626.399 619.9304 613.4329 607.5997 603.2373 597.5551 591.6183 587.1637 581.7085 575.0563 569.5226 557.704 543.8066 535.9138 543.9431 547.4749 550.4528 563.8183 574.0824 579.9536 584.8502 587.9485 595.3917 600.3608 604.5914 611.1652 615.9627 619.6805 622.8634 626.9233 632.1194 638.0447 644.5172 645.8278 640.9617 634.6843 628.8618 622.8558 620.2886 619.4305 618.2601 619.493 620.3495 617.2147 613.2728 604.9747 596.8045 587.6727 580.311 583.6478 586.996 588.4362 590.3054 594.8896 596.4905 595.4047 593.7352 589.9861 586.5282 581.6094 576.6496 569.3992 562.5168 555.4797 549.7068 544.1213 539.1409 534.258 528.697 523.0703 517.3485 512.1798 505.9733 501.1819 495.4524 489.9424 483.0059 476.9221 469.8873 464.2935 460.85 467.5106 476.3963 485.3033 495.1476 507.1781 516.5323 522.6315 527.131 530.0884 533.5775 537.895 543.4302 547.609 551.5478 552.386 554.5562 556.8163 560.1058 564.5757 568.1205 571.4299 575.7961 580.977 586.5381 592.3422 598.6996 604.8406 610.4755 615.9909 622.0618 626.4227 629.3518 -9999 -9999 -9999 -9999 -9999 -9999 -9999 -9999 -9999 -9999 -9999 -9999 -9999 -9999 -9999 -9999 -9999 -9999 -9999 -9999 -9999 -9999 -9999 -9999 -9999 -9999 -9999 -9999 -9999 -9999 -9999 -9999 -9999 -9999 -9999 -9999 -9999 -9999 -9999 -9999 -9999 -9999 -9999 -9999 
-9999 -9999 -9999 -9999 -9999 -9999 -9999 -9999 -9999 -9999 -9999 -9999 -9999 -9999 -9999 -9999 -9999 -9999 -9999 -9999 -9999 -9999 -9999 -9999 -9999 -9999 -9999 -9999 -9999 -9999 -9999 -9999 -9999 -9999 -9999 -9999 -9999 -9999 -9999 679.899 675.958 670.3695 664.1592 658.2872 651.5809 645.5176 638.7914 629.1027 622.2263 617.0813 613.9663 609.7311 604.5319 597.549 590.0159 583.6707 576.0918 569.9745 563.0891 552.6016 543.3418 533.3954 535.7066 541.6426 556.151 566.2673 575.0708 581.0608 585.5818 590.0867 595.8901 602.2437 606.5802 610.2507 613.4656 615.1123 616.9998 621.1337 627.8636 635.4585 642.3249 644.0211 637.1943 629.9927 623.6855 617.0714 612.584 611.3016 610.0763 610.7095 610.7803 608.3534 605.9691 600.7319 593.1309 585.1855 574.724 574.3743 578.4243 580.0245 582.754 588.5086 588.0834 586.2958 586.1327 584.3542 582.6389 579.6595 574.1541 567.9918 560.4624 552.828 545.9227 540.591 535.8849 532.5999 528.8737 523.9207 519.5438 515.1097 508.2593 501.729 497.8596 494.2416 487.2716 479.0801 472.0834 463.3372 460.7105 466.834 474.7207 485.711 500.5517 507.3747 513.0089 516.7587 519.6947 523.4087 528.2009 533.208 538.2501 543.0957 546.3906 547.4185 549.3533 551.7352 554.9204 559.7774 564.9666 571.5442 577.2119 582.1238 587.4426 593.0059 597.7951 602.9744 608.7847 613.7766 619.1281 624.1481 -9999 -9999 -9999 -9999 -9999 -9999 -9999 -9999 -9999 -9999 -9999 -9999 -9999 -9999 -9999 -9999 -9999 -9999 -9999 -9999 -9999 -9999 -9999 -9999 -9999 -9999 -9999 -9999 -9999 -9999 -9999 -9999 -9999 -9999 -9999 -9999 -9999 -9999 -9999 -9999 -9999 -9999 -9999 -9999 -9999 
-9999 -9999 -9999 -9999 -9999 -9999 -9999 -9999 -9999 -9999 -9999 -9999 -9999 -9999 -9999 -9999 -9999 -9999 -9999 -9999 -9999 -9999 -9999 -9999 -9999 -9999 -9999 -9999 -9999 -9999 -9999 -9999 -9999 -9999 -9999 -9999 -9999 -9999 -9999 -9999 675.1937 670.3032 663.8727 657.6251 651.5352 645.408 637.3536 630.6487 626.2032 622.2188 620.5873 616.8306 607.6074 598.4398 590.2162 582.8226 576.767 568.7324 560.0547 551.4366 543.082 532.4703 534.0797 546.447 557.2049 566.2598 571.9915 577.0352 582.1916 587.9181 594.8423 599.8159 603.2784 606.11 608.502 610.2249 612.9407 617.9203 624.8796 632.082 639.1138 641.316 634.2789 626.7191 619.0435 611.7885 606.6282 604.2165 602.1934 601.9633 601.2104 599.2543 597.3768 594.9727 589.2097 581.5333 572.2445 565.6288 569.9493 572.1569 575.4236 580.5335 579.4675 577.388 577.3179 578.7222 578.2513 575.3611 569.8389 564.1589 558.2222 550.8178 544.3636 538.734 532.7546 528.7845 526.2448 524.6423 521.442 517.0162 510.5004 504.1392 500.4229 496.4552 490.1123 481.9132 472.2587 462.8091 458.948 466.5833 477.8578 486.8205 495.9873 501.7663 505.251 508.2952 512.2941 517.0155 522.873 528.3007 533.5013 536.5593 538.7965 540.655 542.5105 545.7391 547.7126 553.532 560.6003 567.1665 574.071 581.3107 587.9089 594.9185 600.7578 605.2101 609.3028 614.7161 619.7712 623.2985 -9999 -9999 -9999 -9999 -9999 -9999 -9999 -9999 -9999 -9999 -9999 -9999 -9999 -9999 -9999 -9999 -9999 -9999 -9999 -9999 -9999 -9999 -9999 -9999 -9999 -9999 -9999 -9999 -9999 -9999 -9999 -9999 -9999 -9999 -9999 -9999 -9999 -9999 -9999 -9999 -9999 -9999 -9999 -9999 -9999 
-9999 -9999 -9999 -9999 -9999 -9999 -9999 -9999 -9999 -9999 -9999 -9999 -9999 -9999 -9999 -9999 -9999 -9999 -9999 -9999 -9999 -9999 -9999 -9999 -9999 -9999 -9999 -9999 -9999 -9999 -9999 -9999 -9999 -9999 -9999 -9999 -9999 -9999 -9999 -9999 673.9684 669.6814 663.7195 658.1348 652.0411 645.8743 639.5352 634.7026 630.7531 627.4857 625.4968 619.49 610.5975 599.169 589.0077 580.6966 573.1855 565.8026 557.7894 548.8861 540.1674 528.1871 529.7546 541.9062 553.2707 560.9364 566.1508 571.9664 579.0758 586.2668 592.5716 595.5769 597.8865 600.7365 603.2823 604.9426 608.5842 613.9442 620.9774 628.2157 633.9124 638.1895 632.8882 625.1639 616.7689 609.1207 602.089 597.6434 595.1198 593.6453 592.6105 590.6255 588.6115 587.0471 581.9173 577.5838 570.4081 560.1172 559.8292 564.2983 567.9811 571.1777 571.42 569.198 570.0987 571.9458 572.5333 571.1038 566.47 560.6964 555.5521 549.5674 544.593 539.0114 532.5573 526.9588 525.3731 523.7112 521.8146 518.1349 511.9817 506.3208 501.8448 497.2263 489.9409 479.3986 469.6389 462.883 456.1606 467.0298 476.0687 482.7163 488.1791 492.7366 497.8954 501.7366 506.9083 512.3513 518.3483 524.1951 527.6599 528.9362 530.3795 530.7993 532.814 537.9461 544.9527 551.2384 557.6354 563.2354 570.575 579.4255 588.9163 596.5309 603.3272 608.0082 612.603 617.38 620.7427 -9999 -9999 -9999 -9999 -9999 -9999 -9999 -9999 -9999 -9999 -9999 -9999 -9999 -9999 -9999 -9999 -9999 -9999 -9999 -9999 -9999 -9999 -9999 -9999 -9999 -9999 -9999 -9999 -9999 -9999 -9999 -9999 -9999 -9999 -9999 -9999 -9999 -9999 -9999 -9999 -9999 -9999 -9999 -9999 -9999 -9999 
-9999 -9999 -9999 -9999 -9999 -9999 -9999 -9999 -9999 -9999 -9999 -9999 -9999 -9999 -9999 -9999 -9999 -9999 -9999 -9999 -9999 -9999 -9999 -9999 -9999 -9999 -9999 -9999 -9999 -9999 -9999 -9999 -9999 -9999 -9999 -9999 -9999 -9999 -9999 -9999 -9999 668.2694 663.6121 658.3139 653.1796 647.5339 642.6205 638.0995 633.5062 628.9518 623.4318 614.6765 604.8542 595.4931 586.9153 579.5338 571.91 562.8665 554.3055 544.545 535.244 525.255 525.1453 537.3571 546.3029 554.5928 561.8752 569.1218 576.5947 583.4962 589.0336 590.5424 592.871 595.0511 596.4898 599.3732 603.7105 609.2754 616.5761 623.457 629.1461 635.1819 631.9358 623.9584 615.424 607.1791 599.1888 592.9861 589.1967 586.3964 584.7093 582.6839 580.9861 579.6404 575.6316 571.7629 566.7177 557.691 550.004 556.1175 559.1785 563.0944 563.3565 562.0474 563.6583 566.8122 567.5658 567.5536 564.5719 558.3243 551.7558 547.0878 542.1439 537.2664 533.0724 528.9255 526.7028 524.5974 523.1442 518.7018 513.6749 508.094 503.8359 497.8565 488.804 478.6869 469.9673 462.1751 452.9252 459.1675 469.427 476.4093 480.9515 486.5782 491.4771 496.9413 502.9558 509.3459 514.8491 519.5019 520.379 520.4056 520.4247 522.4752 530.3207 538.1846 546.5201 553.3796 559.9237 565.343 571.8993 579.2983 589.103 596.6498 602.9729 608.8273 614.0326 618.4727 620.9188 -9999 -9999 -9999 -9999 -9999 -9999 -9999 -9999 -9999 -9999 -9999 -9999 -9999 -9999 -9999 -9999 -9999 -9999 -9999 -9999 -9999 -9999 -9999 -9999 -9999 -9999 -9999 -9999 -9999 -9999 -9999 -9999 -9999 -9999 -9999 -9999 -9999 -9999 -9999 -9999 -9999 -9999 -9999 -9999 -9999 -9999 
-9999 -9999 -9999 -9999 -9999 -9999 -9999 -9999 -9999 -9999 -9999 -9999 -9999 -9999 -9999 -9999 -9999 -9999 -9999 -9999 -9999 -9999 -9999 -9999 -9999 -9999 -9999 -9999 -9999 -9999 -9999 -9999 -9999 -9999 -9999 -9999 -9999 -9999 -9999 -9999 -9999 666.6494 662.0576 657.9794 653.4081 648.8445 644.3914 638.9164 633.1107 625.9875 619.5403 610.2621 600.7189 591.9468 585.2206 579.3623 571.1899 560.592 550.625 542.1043 531.8715 522.5049 520.7958 531.6901 541.5748 549.7936 559.0184 566.0327 572.7184 578.8106 583.8193 585.5497 587.0463 589.0656 591.0903 594.1505 599.6575 604.8512 612.3661 619.4176 625.4679 631.3521 629.7465 623.4791 615.1626 606.7349 598.0458 590.6849 584.7153 580.2546 577.042 574.6776 573.0027 571.7324 569.5813 564.6176 560.976 554.3002 543.3944 547.7759 551.8983 554.5668 555.6298 555.264 558.0637 561.3486 563.8861 564.0751 561.8272 556.1617 549.0469 542.5287 538.3492 536.3322 533.7528 531.0332 529.3279 527.4396 524.6987 520.542 516.2322 509.5768 503.8512 496.808 488.1098 479.2706 470.8002 463.6221 452.0756 450.9486 462.3809 467.452 475.11 480.6932 486.1774 493.4042 499.9619 507.2451 511.8141 512.4458 512.3536 511.7036 519.3845 526.8879 534.7145 541.2455 547.3408 553.7073 559.3225 565.9229 572.4875 579.2587 587.3237 594.7349 601.6653 607.1883 613.1761 617.8654 -9999 -9999 -9999 -9999 -9999 -9999 -9999 -9999 -9999 -9999 -9999 -9999 -9999 -9999 -9999 -9999 -9999 -9999 -9999 -9999 -9999 -9999 -9999 -9999 -9999 -9999 -9999 -9999 -9999 -9999 -9999 -9999 -9999 -9999 -9999 -9999 -9999 -9999 -9999 -9999 -9999 -9999 -9999 -9999 -9999 -9999 -9999 
-9999 -9999 -9999 -9999 -9999 -9999 -9999 -9999 -9999 -9999 -9999 -9999 -9999 -9999 -9999 -9999 -9999 -9999 -9999 -9999 -9999 -9999 -9999 -9999 -9999 -9999 -9999 -9999 -9999 -9999 -9999 -9999 -9999 -9999 -9999 -9999 -9999 -9999 -9999 -9999 666.7028 664.7757 661.0494 657.5275 653.6253 649.9235 644.5408 637.8138 631.2545 624.4514 618.0353 607.7377 598.6226 590.2025 583.7568 577.4802 569.4144 559.958 549.86 540.6497 530.5417 520.6792 517.3035 528.252 536.8039 546.2702 554.5455 562.1708 567.4187 573.6732 578.1035 580.2386 581.992 583.5922 585.8302 590.0852 595.6775 601.7011 608.2719 615.6274 622.0404 627.4102 628.2994 623.3861 615.1969 606.901 598.2881 590.0295 582.5597 575.579 570.9399 567.7936 565.199 563.8739 563.134 558.8371 554.0578 549.0629 541.2928 537.1117 543.5186 545.7665 547.6205 550.1625 552.5574 557.163 561.4591 563.1348 560.5074 556.0131 548.035 540.5757 536.1821 535.8932 534.8798 532.5374 531.1956 528.4523 525.1567 521.333 516.2001 508.9207 502.4582 494.919 487.8964 480.2703 471.8274 463.8286 453.4586 448.8813 453.8655 461.6074 469.6259 476.6142 484.6404 491.3963 499.6571 504.7 505.5916 502.8476 506.5022 514.0772 520.9573 527.4206 533.2567 539.2224 545.1851 551.166 558.0766 564.5787 571.5472 578.5698 586.9328 593.3503 599.7992 606.4827 611.012 616.4237 -9999 -9999 -9999 -9999 -9999 -9999 -9999 -9999 -9999 -9999 -9999 -9999 -9999 -9999 -9999 -9999 -9999 -9999 -9999 -9999 -9999 -9999 -9999 -9999 -9999 -9999 -9999 -9999 -9999 -9999 -9999 -9999 -9999 -9999 -9999 -9999 -9999 -9999 -9999 -9999 -9999 -9999 -9999 -9999 -9999 -9999 -9999 
-9999 -9999 -9999 -9999 -9999 -9999 -9999 -9999 -9999 -9999 -9999 -9999 -9999 -9999 -9999 -9999 -9999 -9999 -9999 -9999 -9999 -9999 -9999 -9999 -9999 -9999 -9999 -9999 -9999 -9999 -9999 -9999 -9999 -9999 -9999 -9999 -9999 -9999 -9999 -9999 663.1663 661.1615 658.3032 656.2367 653.9004 650.2824 643.2119 636.0162 629.3464 623.0973 616.1616 607.9907 598.5053 588.6359 581.0052 573.7815 566.6064 558.1368 548.2582 538.1686 529.3096 519.2078 513.13 526.2083 537.3015 544.9489 550.8498 556.4124 562.7614 568.4116 571.7446 573.1086 575.7025 578.483 581.5287 586.2607 592.1373 598.2379 605.0912 612.0125 618.3714 622.9556 623.8654 621.1519 615.0385 606.949 598.455 590.2124 582.2892 573.8295 567.0751 561.5688 557.9867 555.8242 555.8196 554.1714 548.6499 542.8092 535.952 528.1796 536.0281 537.2969 538.0894 540.9202 548.3017 552.8386 558.4485 561.4104 559.6281 555.9293 549.4531 541.113 537.0607 535.0665 534.764 532.9474 530.6827 528.5499 524.8115 519.9987 513.4135 506.1745 500.2621 492.7549 485.5518 479.5937 472.2556 462.5066 454.0865 447.339 450.9516 457.4103 466.3356 475.0514 483.063 489.6299 497.8238 498.7831 497.0351 499.11 507.0043 512.0068 517.5961 524.3772 530.9083 537.6489 543.652 550.4238 556.5465 563.2483 570.0644 577.231 585.2244 592.6074 599.2535 605.0707 610.0504 614.5576 -9999 -9999 -9999 -9999 -9999 -9999 -9999 -9999 -9999 -9999 -9999 -9999 -9999 -9999 -9999 -9999 -9999 -9999 -9999 -9999 -9999 -9999 -9999 -9999 -9999 -9999 -9999 -9999 -9999 -9999 -9999 -9999 -9999 -9999 -9999 -9999 -9999 -9999 -9999 -9999 -9999 -9999 -9999 -9999 -9999 -9999 -9999 
-9999 -9999 -9999 -9999 -9999 -9999 -9999 -9999 -9999 -9999 -9999 -9999 -9999 -9999 -9999 -9999 -9999 -9999 -9999 -9999 -9999 -9999 -9999 -9999 -9999 -9999 -9999 -9999 -9999 -9999 -9999 -9999 -9999 -9999 -9999 -9999 -9999 -9999 -9999 -9999 659.7975 656.6733 653.2695 651.7828 648.7455 645.2433 638.9492 632.585 625.9464 618.9879 611.7161 603.3989 595.3323 585.453 575.9044 566.8876 561.0347 551.3901 542.9844 535.6281 525.7343 515.8367 511.6007 522.745 534.3662 541.3583 545.3215 551.5425 557.6918 561.8744 563.7291 564.3189 565.3057 570.2137 576.2534 581.0737 587.8457 595.4375 601.8672 608.4319 614.095 617.793 617.7823 615.3737 612.1215 606.0757 598.5739 591.1276 582.6793 574.6874 566.7413 558.8036 551.5211 548.8541 548.2118 546.7258 544.6738 538.1519 529.2174 521.8245 527.573 527.6027 528.0957 533.7162 544.2471 549.5178 555.7655 558.0713 558.1772 556.1907 549.6877 542.3634 538.2288 536.1112 535.6182 533.048 529.9855 526.8049 523.0627 517.6891 510.9477 503.4252 497.298 490.9284 484.3074 477.5309 470.3117 460.8858 452.8231 446.5152 447.1081 455.8025 464.1472 473.6287 480.2025 487.8217 493.392 490.6404 490.3531 498.7343 506.8565 511.8697 518.2461 524.765 531.9613 538.9413 545.3002 551.3077 556.6022 562.7599 569.0426 575.7344 582.7898 590.63 597.4347 603.6922 608.3267 612.0521 -9999 -9999 -9999 -9999 -9999 -9999 -9999 -9999 -9999 -9999 -9999 -9999 -9999 -9999 -9999 -9999 -9999 -9999 -9999 -9999 -9999 -9999 -9999 -9999 -9999 -9999 -9999 -9999 -9999 -9999 -9999 -9999 -9999 -9999 -9999 -9999 -9999 -9999 -9999 -9999 -9999 -9999 -9999 -9999 -9999 -9999 -9999 
-9999 -9999 -9999 -9999 -9999 -9999 -9999 -9999 -9999 -9999 -9999 -9999 -9999 -9999 -9999 -9999 -9999 -9999 -9999 -9999 -9999 -9999 -9999 -9999 -9999 -9999 -9999 -9999 -9999 -9999 -9999 -9999 -9999 -9999 -9999 -9999 -9999 -9999 -9999 -9999 655.9745 651.8247 647.0782 644.6886 641.0584 637.8954 633.9139 629.2245 622.4778 615.0864 607.1327 600.0483 591.2328 581.4974 572.3596 563.8267 555.1117 546.6862 538.6288 530.067 521.0137 510.9873 509.0899 517.6152 526.6693 534.2839 540.572 546.2969 551.3428 552.4271 554.1599 554.8587 559.9725 565.3095 570.7677 576.8584 586.0908 593.2025 598.74 603.9688 609.2053 613.2523 611.3663 609.0674 606.4575 602.7633 596.8655 590.2383 582.2594 574.1182 566.4365 557.7056 550.3362 543.2786 540.0873 541.2021 539.2789 534.2115 526.2029 515.3375 518.24 517.2555 522.4806 536.8831 541.827 547.7607 551.2354 553.8582 555.7061 555.5224 552.0789 546.7739 542.6164 540.8158 538.8742 534.9819 530.5997 526.158 520.4163 514.3378 506.903 500.525 495.7267 490.2327 483.966 476.6874 468.0486 459.9158 452.3568 444.4357 444.3969 453.0799 463.1208 472.8134 481.6229 487.5627 487.3044 482.2477 488.7247 496.5832 503.9609 509.9403 515.986 522.9804 531.3822 538.6662 546.9651 552.5902 558.7114 564.7327 570.4225 576.4644 583.2272 589.5274 597.0537 602.3206 605.614 609.0323 -9999 -9999 -9999 -9999 -9999 -9999 -9999 -9999 -9999 -9999 -9999 -9999 -9999 -9999 -9999 -9999 -9999 -9999 -9999 -9999 -9999 -9999 -9999 -9999 -9999 -9999 -9999 -9999 -9999 -9999 -9999 -9999 -9999 -9999 -9999 -9999 -9999 -9999 -9999 -9999 -9999 -9999 -9999 -9999 -9999 -9999 -9999 
-9999 -9999 -9999 -9999 -9999 -9999 -9999 -9999 -9999 -9999 -9999 -9999 -9999 -9999 -9999 -9999 -9999 -9999 -9999 -9999 -9999 -9999 -9999 -9999 -9999 -9999 -9999 -9999 -9999 -9999 -9999 -9999 -9999 -9999 -9999 -9999 -9999 -9999 -9999 -9999 652.9387 646.5494 641.3793 637.2355 633.7973 630.84 627.7988 624.8042 618.7524 612.5367 604.6821 596.5211 586.7019 577.4741 569.009 561.168 551.9021 542.8214 535.0231 525.9568 517.03 508.9932 502.5436 509.458 517.2395 526.5428 534.8372 540.8112 544.3827 543.5026 546.4279 550.5046 555.5445 562.798 569.1828 576.8485 584.4959 589.7529 593.8868 598.5495 604.4672 608.0562 606.0201 602.3816 599.1339 597.0087 592.3903 586.2142 580.1434 572.8137 565.561 558.402 550.4025 542.957 535.6296 533.2156 534.1681 529.8666 522.7007 512.1219 506.9418 510.3442 520.7219 527.6774 535.9771 541.827 546.0728 548.7726 550.3766 552.197 551.7993 550.1091 546.3601 543.1453 539.5547 535.2623 530.2294 524.9456 518.301 510.6444 505.0559 498.9622 493.4087 488.2363 482.1548 476.0656 467.9122 459.6933 451.7586 443.0131 443.1479 452.516 462.4464 471.1141 478.4431 483.5682 481.2152 477.8632 484.8918 492.931 499.3965 506.2499 513.8349 521.6401 529.0947 537.2238 545.7352 553.3621 559.9077 567.011 572.6255 578.198 584.3229 590.1416 596.9455 601.4428 604.17 -9999 -9999 -9999 -9999 -9999 -9999 -9999 -9999 -9999 -9999 -9999 -9999 -9999 -9999 -9999 -9999 -9999 -9999 -9999 -9999 -9999 -9999 -9999 -9999 -9999 -9999 -9999 -9999 -9999 -9999 -9999 -9999 -9999 -9999 -9999 -9999 -9999 -9999 -9999 -9999 -9999 -9999 -9999 -9999 -9999 -9999 -9999 -9999 
-9999 -9999 -9999 -9999 -9999 -9999 -9999 -9999 -9999 -9999 -9999 -9999 -9999 -9999 -9999 -9999 -9999 -9999 -9999 -9999 -9999 -9999 -9999 -9999 -9999 -9999 -9999 -9999 -9999 -9999 -9999 -9999 -9999 -9999 -9999 -9999 -9999 -9999 -9999 652.6469 648.6647 642.2045 636.3051 630.635 627.4857 624.5657 621.2388 618.7607 614.9196 608.0211 600.8591 592.1494 582.1589 574.4337 566.9029 558.8676 550.0908 540.703 532.0444 522.5385 514.3843 508.3447 499.1687 503.1463 512.9007 522.1072 528.4714 534.9034 536.9532 537.5255 544.2981 549.4774 555.1924 561.5186 568.4261 575.6605 579.9224 583.7484 588.3372 593.9005 599.3328 602.7603 600.8995 596.4144 592.5084 588.8546 586.3376 581.4532 575.8671 569.1759 562.3918 554.9936 547.9832 541.273 532.6411 526.3355 527.0403 524.5776 517.7006 508.5413 500.4473 506.013 513.8273 517.5009 527.5623 536.7391 539.3231 542.6499 544.2676 546.2656 547.625 549.5514 548.0205 544.2386 539.2255 533.8641 528.9492 522.9263 515.9883 508.9977 503.3788 496.9002 490.3447 484.3973 477.9363 472.0514 465.8578 457.0339 448.3814 441.5904 442.5087 448.8447 457.738 464.17 470.7103 475.3874 473.6744 473.9998 482.4367 489.3518 496.8926 504.7282 512.97 520.5389 527.8381 535.8613 542.8275 551.2239 559.3873 566.4175 572.4753 578.2582 584.8152 590.438 595.7294 599.8068 601.4497 -9999 -9999 -9999 -9999 -9999 -9999 -9999 -9999 -9999 -9999 -9999 -9999 -9999 -9999 -9999 -9999 -9999 -9999 -9999 -9999 -9999 -9999 -9999 -9999 -9999 -9999 -9999 -9999 -9999 -9999 -9999 -9999 -9999 -9999 -9999 -9999 -9999 -9999 -9999 -9999 -9999 -9999 -9999 -9999 -9999 -9999 -9999 -9999 
-9999 -9999 -9999 -9999 -9999 -9999 -9999 -9999 -9999 -9999 -9999 -9999 -9999 -9999 -9999 -9999 -9999 -9999 -9999 -9999 -9999 -9999 -9999 -9999 -9999 -9999 -9999 -9999 -9999 -9999 -9999 -9999 -9999 -9999 -9999 -9999 -9999 -9999 -9999 -9999 644.95 638.3358 631.5052 625.938 621.6968 617.9096 614.3618 612.2754 610.1837 603.488 595.4847 586.4786 577.2333 570.3555 561.5627 553.1617 545.8442 537.5788 529.702 521.4412 513.0919 504.3929 496.8872 499.5161 507.7214 515.8336 521.8839 527.9479 527.3779 534.8768 541.8171 547.9268 553.9451 560.1599 566.0814 571.3735 574.4711 578.8083 583.7804 589.1823 593.8281 596.9691 595.6432 590.9623 585.8645 582.4065 578.8899 575.3192 570.6298 565.5839 558.4934 551.3359 543.4653 536.6035 528.4326 522.0234 518.2408 517.3599 512.4458 504.0325 494.8725 499.9871 505.6815 510.9858 519.463 527.6614 533.7505 536.3695 537.777 540.1719 542.7185 545.2263 546.0325 543.8554 538.1724 533.3825 527.6835 521.3314 514.7043 508.2822 501.8204 495.0699 488.8123 482.1898 475.0788 466.8195 458.9762 452.0839 445.2884 440.3766 440.7019 444.2628 452.433 458.2531 464.2173 466.1725 465.7138 472.616 481.0941 489.14 496.6007 504.2063 512.416 519.7374 526.5306 533.8184 540.863 549.1117 557.6506 564.9064 571.4253 576.5414 582.69 588.3829 592.0977 596.14 598.6021 -9999 -9999 -9999 -9999 -9999 -9999 -9999 -9999 -9999 -9999 -9999 -9999 -9999 -9999 -9999 -9999 -9999 -9999 -9999 -9999 -9999 -9999 -9999 -9999 -9999 -9999 -9999 -9999 -9999 -9999 -9999 -9999 -9999 -9999 -9999 -9999 -9999 -9999 -9999 -9999 -9999 -9999 -9999 -9999 -9999 -9999 -9999 -9999 
-9999 -9999 -9999 -9999 -9999 -9999 -9999 -9999 -9999 -9999 -9999 -9999 -9999 -9999 -9999 -9999 -9999 -9999 -9999 -9999 -9999 -9999 -9999 -9999 -9999 -9999 -9999 -9999 -9999 -9999 -9999 -9999 -9999 -9999 -9999 -9999 -9999 -9999 -9999 -9999 641.2482 634.647 627.7455 621.6769 616.4984 611.8044 607.951 605.0402 604.1197 598.548 588.3349 578.9394 571.7773 564.7441 554.3771 545.6385 538.5961 532.212 525.5034 517.8872 510.3983 502.667 497.3673 493.0178 500.554 509.9731 517.6632 519.415 523.0414 531.2915 538.5382 544.5313 551.4266 557.2117 561.8097 565.0344 568.3651 573.2382 578.7253 583.7736 587.6932 591.2724 590.0029 586.4207 580.8643 576.565 572.0144 567.8378 565.132 561.2725 555.7037 549.178 542.195 532.667 523.9017 517.8224 511.507 509.8939 506.9647 501.1499 490.6693 494.4176 498.8144 506.5631 512.7658 520.4338 526.7889 529.6982 530.8793 533.5562 537.2527 540.0111 542.4907 542.4229 537.6192 531.1361 526.161 519.7953 512.6035 505.6845 499.3028 493.504 486.8052 480.5751 474.0364 466.7905 456.7581 448.3966 442.2572 439.0606 438.4784 441.5592 448.0819 453.2094 457.3905 458.7895 463.8454 473.4763 481.4659 489.9279 497.2538 504.4356 511.7211 519.5842 526.8903 533.5951 541.1038 547.9648 555.7563 563.0875 570.1871 574.6242 579.5101 584.6613 589.8878 593.2422 -9999 -9999 -9999 -9999 -9999 -9999 -9999 -9999 -9999 -9999 -9999 -9999 -9999 -9999 -9999 -9999 -9999 -9999 -9999 -9999 -9999 -9999 -9999 -9999 -9999 -9999 -9999 -9999 -9999 -9999 -9999 -9999 -9999 -9999 -9999 -9999 -9999 -9999 -9999 -9999 -9999 -9999 -9999 -9999 -9999 -9999 -9999 -9999 -9999 
-9999 -9999 -9999 -9999 -9999 -9999 -9999 -9999 -9999 -9999 -9999 -9999 -9999 -9999 -9999 -9999 -9999 -9999 -9999 -9999 -9999 -9999 -9999 -9999 -9999 -9999 -9999 -9999 -9999 -9999 -9999 -9999 -9999 -9999 -9999 -9999 -9999 -9999 -9999 -9999 637.3079 632.1011 625.7849 618.7341 612.5931 606.9528 601.6044 597.3608 596.9805 593.4631 581.1012 571.1251 563.1599 555.386 548.1935 540.6215 532.0711 525.9271 519.713 512.2209 507.0683 501.5118 495.6719 490.0422 495.9767 505.0284 511.3424 512.8016 521.1006 528.6352 534.5057 540.4752 546.6077 550.0581 554.1325 558.4043 563.1226 568.4459 574.1556 577.5762 581.7413 585.3738 584.5157 580.2844 575.5333 570.8112 566.8183 561.3502 558.3289 555.3471 549.3951 544.2234 537.4325 528.3456 519.8677 513.1826 505.0071 498.7176 498.7138 493.139 485.0968 487.6503 493.2533 498.3579 506.2713 513.8425 520.8019 523.2212 523.8353 528.2253 532.4475 535.3591 538.6586 539.9441 535.7683 530.4648 524.8381 517.9642 511.1572 504.6612 497.5212 490.4491 483.8738 478.2982 471.918 465.0631 456.1965 447.131 441.5013 437.1388 437.0192 438.5737 443.8056 448.7068 449.3019 458.5602 466.9765 475.3036 483.665 489.377 495.6642 503.2888 510.8501 518.0922 525.53 533.2347 539.9052 547.1572 554.275 560.0913 567.0674 572.7855 577.3034 583.0039 587.4471 590.8533 -9999 -9999 -9999 -9999 -9999 -9999 -9999 -9999 -9999 -9999 -9999 -9999 -9999 -9999 -9999 -9999 -9999 -9999 -9999 -9999 -9999 -9999 -9999 -9999 -9999 -9999 -9999 -9999 -9999 -9999 -9999 -9999 -9999 -9999 -9999 -9999 -9999 -9999 -9999 -9999 -9999 -9999 -9999 -9999 -9999 -9999 -9999 -9999 -9999 
-9999 -9999 -9999 -9999 -9999 -9999 -9999 -9999 -9999 -9999 -9999 -9999 -9999 -9999 -9999 -9999 -9999 -9999 -9999 -9999 -9999 -9999 -9999 -9999 -9999 -9999 -9999 -9999 -9999 -9999 -9999 -9999 -9999 -9999 -9999 -9999 -9999 -9999 -9999 -9999 633.3782 629.5416 623.3267 616.3627 610.1387 603.2617 596.6323 591.0438 589.34 585.6412 578.038 570.405 560.3024 550.5709 542.2606 534.303 526.9161 521.0236 514.2555 508.6144 503.1814 498.5675 493.2883 486.6642 490.52 497.791 501.0081 508.8568 517.1283 524.7551 530.0792 535.9946 541.7607 543.5277 547.6722 553.2844 558.0309 563.784 567.597 571.1457 575.64 579.1597 579.5879 575.947 570.8798 565.4086 559.5602 553.5153 549.7952 547.9214 542.8069 536.7787 531.399 524.1181 516.8517 509.829 502.1702 493.4849 488.3521 485.3414 479.5075 482.6051 487.5139 491.8207 499.5146 508.0178 512.9175 515.3193 517.9908 522.0188 526.3256 530.6255 534.252 537.4478 535.1686 529.3622 523.0391 516.7183 509.7887 502.9947 495.329 488.5799 481.7364 476.1974 469.0857 463.0491 454.933 446.4695 439.7136 435.7413 435.2658 436.8691 439.1665 445.1093 453.1705 460.9353 468.4532 475.1215 481.8347 488.1319 495.0265 502.2586 509.2507 516.3655 524.5402 532.062 538.6685 546.1483 552.1399 557.736 564.5872 571.7225 576.4202 580.8856 585.5079 588.187 -9999 -9999 -9999 -9999 -9999 -9999 -9999 -9999 -9999 -9999 -9999 -9999 -9999 -9999 -9999 -9999 -9999 -9999 -9999 -9999 -9999 -9999 -9999 -9999 -9999 -9999 -9999 -9999 -9999 -9999 -9999 -9999 -9999 -9999 -9999 -9999 -9999 -9999 -9999 -9999 -9999 -9999 -9999 -9999 -9999 -9999 -9999 -9999 -9999 
-9999 -9999 -9999 -9999 -9999 -9999 -9999 -9999 -9999 -9999 -9999 -9999 -9999 -9999 -9999 -9999 -9999 -9999 -9999 -9999 -9999 -9999 -9999 -9999 -9999 -9999 -9999 -9999 -9999 -9999 -9999 -9999 -9999 -9999 -9999 -9999 -9999 -9999 -9999 -9999 -9999 625.5075 621.6107 615.286 609.4621 602.348 595.3384 587.7794 581.7307 578.7466 572.9402 567.6664 562.0169 551.9714 542.5173 533.0853 524.2415 517.3896 511.5687 505.5131 500.9624 497.2744 491.2782 483.8746 483.9256 489.2977 495.8555 504.6787 511.3348 519.3053 523.9901 529.8872 533.9281 537.4782 542.4594 548.2567 553.0215 558.1185 561.325 565.1921 568.9755 572.8533 575.4281 571.5168 566.2681 559.8178 553.5663 545.8191 541.0093 540.165 539.3703 532.417 526.3507 519.6451 513.4364 506.5098 499.6853 490.869 482.7034 477.9096 474.8891 476.8154 481.1527 485.8123 494.0884 501.7412 504.9904 507.6619 510.5918 515.9426 521.1805 526.6884 531.9225 535.308 533.6057 528.2786 521.7391 514.7264 507.9157 501.3564 493.9627 487.1108 480.8098 473.9114 467.1815 461.1403 451.9209 443.0558 436.8257 434.4307 434.3751 435.9432 436.7182 442.4332 451.2274 461.1876 469.0933 476.1304 482.4413 489.7267 497.1425 504.3586 510.6672 517.3142 524.2385 532.0353 537.4158 543.3091 549.4851 555.5247 562.4337 568.8528 574.4764 578.3367 582.3349 584.6239 -9999 -9999 -9999 -9999 -9999 -9999 -9999 -9999 -9999 -9999 -9999 -9999 -9999 -9999 -9999 -9999 -9999 -9999 -9999 -9999 -9999 -9999 -9999 -9999 -9999 -9999 -9999 -9999 -9999 -9999 -9999 -9999 -9999 -9999 -9999 -9999 -9999 -9999 -9999 -9999 -9999 -9999 -9999 -9999 -9999 -9999 -9999 -9999 -9999 
-9999 -9999 -9999 -9999 -9999 -9999 -9999 -9999 -9999 -9999 -9999 -9999 -9999 -9999 -9999 -9999 -9999 -9999 -9999 -9999 -9999 -9999 -9999 -9999 -9999 -9999 -9999 -9999 -9999 -9999 -9999 -9999 -9999 -9999 -9999 -9999 -9999 -9999 -9999 -9999 -9999 623.7397 617.851 612.0948 606.1421 599.4273 592.9831 584.7542 577.0657 571.9771 567.0134 561.8463 558.2176 552.6016 545.6362 535.5892 526.1016 518.1531 510.6962 504.9492 500.6584 496.2586 491.3338 484.8629 478.0666 484.5306 491.5441 497.3216 505.0627 512.0404 517.3515 522.9918 526.8826 530.7322 536.2209 542.0167 547.2227 551.6263 555.684 558.9446 562.8612 568.4109 571.561 568.945 562.8437 556.4078 549.5986 542.5844 537.021 531.271 532.0795 530.8145 526.5367 519.2778 512.6202 506.221 497.964 491.4504 484.7608 477.5713 469.9193 472.2183 475.3912 481.0323 489.3031 494.6081 497.2401 499.4407 505.5146 512.4572 519.0569 524.3086 530.0898 532.8643 531.879 527.3002 521.1166 513.8875 506.6005 499.3851 492.6056 485.2835 478.7715 472.1314 465.3564 458.7354 449.5861 440.7545 434.8963 433.9049 432.6133 434.3232 435.6651 442.7296 453.2155 461.3621 469.6557 478.1756 485.7994 493.5833 499.2022 506.08 512.3856 519.0005 524.2736 529.6967 534.5369 539.8762 546.7777 553.4086 558.8226 564.802 570.9232 575.5653 578.6224 580.4078 -9999 -9999 -9999 -9999 -9999 -9999 -9999 -9999 -9999 -9999 -9999 -9999 -9999 -9999 -9999 -9999 -9999 -9999 -9999 -9999 -9999 -9999 -9999 -9999 -9999 -9999 -9999 -9999 -9999 -9999 -9999 -9999 -9999 -9999 -9999 -9999 -9999 -9999 -9999 -9999 -9999 -9999 -9999 -9999 -9999 -9999 -9999 -9999 -9999 
-9999 -9999 -9999 -9999 -9999 -9999 -9999 -9999 -9999 -9999 -9999 -9999 -9999 -9999 -9999 -9999 -9999 -9999 -9999 -9999 -9999 -9999 -9999 -9999 -9999 -9999 -9999 -9999 -9999 -9999 -9999 -9999 -9999 -9999 -9999 -9999 -9999 -9999 -9999 -9999 -9999 621.8004 616.4832 610.2988 603.5741 596.4921 589.5861 582.9453 576.1376 569.416 562.8536 556.7249 552.8935 548.0731 542.2385 536.118 528.1354 520.4833 511.017 503.7826 498.4539 493.8941 490.0971 484.0414 476.0085 480.3648 484.2434 491.7948 499.3523 505.2601 510.6101 515.5859 519.4447 525.1453 530.003 536.3924 541.0009 544.382 548.8374 552.8036 558.114 564.8431 568.068 566.2224 560.7078 553.6563 546.3312 539.0815 532.1838 523.1245 521.7239 522.2397 521.6888 519.3228 514.1892 509.0046 502.491 495.6841 487.6671 478.536 466.8515 464.6973 469.4621 477.6963 484.5108 487.9345 490.424 496.8903 503.5707 509.5814 516.2146 521.8771 526.3073 529.8262 530.08 525.847 519.8387 512.1882 504.4608 497.3422 490.4613 483.9538 476.6028 469.9498 463.9087 456.5363 449.106 440.4436 433.3471 431.3232 431.0451 432.6118 433.4317 442.1429 453.3016 460.93 469.3364 477.0577 483.8951 492.0204 497.9259 504.1384 510.2649 516.8616 522.5331 527.6492 532.3332 537.9521 543.6131 549.7838 555.7022 560.576 566.5043 572.2308 575.6598 577.4307 -9999 -9999 -9999 -9999 -9999 -9999 -9999 -9999 -9999 -9999 -9999 -9999 -9999 -9999 -9999 -9999 -9999 -9999 -9999 -9999 -9999 -9999 -9999 -9999 -9999 -9999 -9999 -9999 -9999 -9999 -9999 -9999 -9999 -9999 -9999 -9999 -9999 -9999 -9999 -9999 -9999 -9999 -9999 -9999 -9999 -9999 -9999 -9999 -9999 
-9999 -9999 -9999 -9999 -9999 -9999 -9999 -9999 -9999 -9999 -9999 -9999 -9999 -9999 -9999 -9999 -9999 -9999 -9999 -9999 -9999 -9999 -9999 -9999 -9999 -9999 -9999 -9999 -9999 -9999 -9999 -9999 -9999 -9999 -9999 -9999 -9999 -9999 -9999 -9999 -9999 618.7988 615.5467 610.2919 603.7029 595.6768 588.0179 581.0563 575.3458 569.4746 562.3278 555.2458 548.3322 542.1882 535.9603 530.2468 523.9185 518.0746 512.5631 503.045 494.6172 489.8951 485.1844 482.1143 475.0087 475.0628 479.3193 487.9185 494.8443 499.1664 504.9827 508.7981 514.0543 519.3823 523.8696 528.4729 533.448 537.8608 543.2694 549.9857 557.2529 564.1033 566.4091 562.6768 556.8978 550.5046 543.4386 536.7955 528.3228 519.4645 512.7247 512.0754 512.6926 513.0074 511.4887 506.6439 500.4626 494.6165 488.2172 479.8268 466.613 458.8337 463.0331 471.0684 476.9663 481.4293 487.4011 493.5421 499.2708 505.3843 512.4374 517.9535 522.4981 526.1473 527.317 523.9474 518.2484 510.5233 502.7783 496.2464 489.3892 482.5837 475.8858 469.363 462.3107 454.2655 446.3476 438.3489 433.1002 430.8432 429.6187 430.9331 434.4215 443.359 451.5132 458.8696 467.0778 475.3752 483.4684 489.2604 494.3841 499.8255 506.557 513.3549 519.5323 527.0625 531.8074 536.3398 540.921 546.2352 552.4973 557.7512 563.752 569.2208 572.9203 574.8337 -9999 -9999 -9999 -9999 -9999 -9999 -9999 -9999 -9999 -9999 -9999 -9999 -9999 -9999 -9999 -9999 -9999 -9999 -9999 -9999 -9999 -9999 -9999 -9999 -9999 -9999 -9999 -9999 -9999 -9999 -9999 -9999 -9999 -9999 -9999 -9999 -9999 -9999 -9999 -9999 -9999 -9999 -9999 -9999 -9999 -9999 -9999 -9999 -9999 
-9999 -9999 -9999 -9999 -9999 -9999 -9999 -9999 -9999 -9999 -9999 -9999 -9999 -9999 -9999 -9999 -9999 -9999 -9999 -9999 -9999 -9999 -9999 -9999 -9999 -9999 -9999 -9999 -9999 -9999 -9999 -9999 -9999 -9999 -9999 -9999 -9999 -9999 -9999 -9999 617.0508 614.4387 610.1433 606.632 599.8853 592.519 585.6199 579.5673 574.3994 568.2379 561.1871 553.5267 545.8961 539.4708 533.2491 526.7318 520.5847 513.9622 506.9731 500.8558 493.2914 485.6279 480.7527 478.1855 472.4499 470.8154 476.5159 485.234 489.1446 493.539 498.8083 501.6406 506.8725 512.7833 517.5801 523.4323 529.1953 536.022 543.3853 550.7965 558.6558 565.0954 565.6753 560.7612 554.4076 547.8384 540.1871 533.9136 527.0388 518.9441 510.1407 503.4047 502.3569 504.0478 504.2375 501.982 496.7722 491.0701 484.8073 479.2995 468.4144 459.2025 455.6318 461.5449 469.4636 477.6719 483.1141 489.4105 495.5637 501.3823 507.6886 514.1168 519.3678 523.7081 525.2397 520.9977 515.9357 508.9033 500.8466 494.7072 488.1349 480.7649 473.9061 467.5838 460.3577 452.8558 444.0113 436.1033 432.0449 429.6728 428.183 428.4551 432.5097 440.5435 448.4439 456.9417 466.1383 474.5942 480.8037 485.727 491.3765 495.9942 501.5819 508.2974 515.3536 521.9959 528.7998 533.9647 538.8704 544.0703 550.1678 556.2516 560.6986 566.0707 570.5353 572.5958 -9999 -9999 -9999 -9999 -9999 -9999 -9999 -9999 -9999 -9999 -9999 -9999 -9999 -9999 -9999 -9999 -9999 -9999 -9999 -9999 -9999 -9999 -9999 -9999 -9999 -9999 -9999 -9999 -9999 -9999 -9999 -9999 -9999 -9999 -9999 -9999 -9999 -9999 -9999 -9999 -9999 -9999 -9999 -9999 -9999 -9999 -9999 -9999 -9999 
-9999 -9999 -9999 -9999 -9999 -9999 -9999 -9999 -9999 -9999 -9999 -9999 -9999 -9999 -9999 -9999 -9999 -9999 -9999 -9999 -9999 -9999 -9999 -9999 -9999 -9999 -9999 -9999 -9999 -9999 -9999 -9999 -9999 -9999 -9999 -9999 -9999 -9999 -9999 -9999 613.9754 610.6805 605.8594 601.9747 596.4197 589.3491 582.8698 577.0482 569.9425 563.3123 556.004 548.2659 541.6433 533.275 526.9406 521.381 516.095 509.0922 501.7945 494.631 488.6051 481.5162 476.3536 473.8726 469.7105 467.1228 471.9211 479.0816 483.6559 488.5487 492.6795 496.9879 501.8212 508.0841 514.3469 521.2896 528.7221 536.6469 543.6763 551.64 558.3867 562.6928 563.5317 558.4279 552.9575 545.8419 537.9408 530.688 523.9215 516.0988 509.2903 500.0717 492.8144 495.0691 495.9835 496.6244 493.3828 487.6922 482.2568 476.6333 470.0389 458.4962 452.6707 453.9181 464.4222 472.5032 477.7191 484.648 490.8019 498.1224 505.1214 511.971 517.9222 522.4211 521.6172 517.891 512.7955 505.9497 498.4486 492.124 485.8954 479.0016 472.4583 465.7375 459.3008 451.8874 443.2996 434.5313 429.6385 429.2049 427.7335 426.4327 429.1698 438.0425 445.6808 454.3531 463.3737 470.4306 475.1039 480.1354 485.4725 489.7145 495.6391 503.0145 509.9456 516.1712 523.4361 530.0663 536.2529 541.7286 547.0208 553.3187 559.2607 563.2064 568.4825 570.8005 -9999 -9999 -9999 -9999 -9999 -9999 -9999 -9999 -9999 -9999 -9999 -9999 -9999 -9999 -9999 -9999 -9999 -9999 -9999 -9999 -9999 -9999 -9999 -9999 -9999 -9999 -9999 -9999 -9999 -9999 -9999 -9999 -9999 -9999 -9999 -9999 -9999 -9999 -9999 -9999 -9999 -9999 -9999 -9999 -9999 -9999 -9999 -9999 -9999 
-9999 -9999 -9999 -9999 -9999 -9999 -9999 -9999 -9999 -9999 -9999 -9999 -9999 -9999 -9999 -9999 -9999 -9999 -9999 -9999 -9999 -9999 -9999 -9999 -9999 -9999 -9999 -9999 -9999 -9999 -9999 -9999 -9999 -9999 -9999 -9999 -9999 -9999 -9999 -9999 612.0239 607.8977 602.7192 597.7601 593.0509 587.1545 579.9354 572.848 565.3118 558.6801 551.6552 543.732 537.024 527.9471 521.903 515.3871 510.6985 504.3998 498.2954 490.8255 484.0956 477.8784 474.8045 472.1588 467.5853 462.5805 466.9628 473.2134 478.5291 482.6821 487.507 492.918 499.8446 507.1186 513.8425 521.6248 529.4734 535.8605 542.5493 548.3916 552.8813 558.6207 560.5394 556.1533 549.6291 543.5491 536.6599 529.2814 522.2924 515.0045 507.9005 500.0137 490.0498 485.7682 487.7051 488.2721 489.4883 484.946 479.1441 473.6287 468.4913 459.0074 446.1297 450.595 460.5193 467.8787 473.4809 479.9731 487.3356 495.0806 503.4366 510.495 515.2065 517.8918 517.9992 512.5303 507.1285 502.2045 495.3038 489.4829 484.4689 477.7733 470.7339 464.6341 458.2935 451.9894 442.8378 433.6923 427.9263 426.5196 425.4353 425.7629 426.5112 435.2079 442.8713 451.4393 458.2554 462.6917 466.8401 472.0902 478.0194 483.566 490.5367 497.3787 503.4465 510.6665 517.6891 524.4191 531.2283 537.1232 543.3937 549.1475 556.6799 561.6808 565.1868 567.6557 -9999 -9999 -9999 -9999 -9999 -9999 -9999 -9999 -9999 -9999 -9999 -9999 -9999 -9999 -9999 -9999 -9999 -9999 -9999 -9999 -9999 -9999 -9999 -9999 -9999 -9999 -9999 -9999 -9999 -9999 -9999 -9999 -9999 -9999 -9999 -9999 -9999 -9999 -9999 -9999 -9999 -9999 -9999 -9999 -9999 -9999 -9999 -9999 -9999 
-9999 -9999 -9999 -9999 -9999 -9999 -9999 -9999 -9999 -9999 -9999 -9999 -9999 -9999 -9999 -9999 -9999 -9999 -9999 -9999 -9999 -9999 -9999 -9999 -9999 -9999 -9999 -9999 -9999 -9999 -9999 -9999 -9999 -9999 -9999 -9999 -9999 -9999 -9999 -9999 609.1672 605.3397 600.1832 595.4557 589.8901 583.5731 577.0626 569.3154 561.6215 554.8808 548.1668 542.5333 537.0889 531.7609 526.5016 518.4618 510.028 503.3612 496.2578 491.4732 489.409 483.7252 478.8378 473.4474 466.8629 459.7017 460.8705 464.3376 470.7682 476.2736 483.1735 491.3132 500.0564 509.1631 516.7709 523.7158 530.5997 535.9474 538.9984 542.4952 547.4871 554.3573 558.7167 554.1699 547.801 541.4193 534.386 527.6035 520.2936 513.2291 506.2241 499.0208 490.7623 481.1481 476.8901 479.0664 482.1616 480.6018 475.6709 470.615 465.774 457.4195 446.0603 444.9783 452.9038 463.264 470.6066 478.2526 485.6927 493.158 500.189 505.9254 511.5016 514.9581 514.2098 508.6937 503.0922 497.7262 492.3564 487.3752 480.5766 474.534 468.5851 462.5309 456.1317 449.6425 443.4497 433.4012 425.2661 424.5552 422.5435 424.6108 425.0078 432.1835 439.5369 447.2071 451.2739 455.4893 459.7618 465.4121 471.8449 478.0453 484.7555 491.2104 498.4311 505.5961 512.7635 520.1717 526.84 533.5311 540.3533 546.8896 554.3505 560.3512 562.5701 565.4886 -9999 -9999 -9999 -9999 -9999 -9999 -9999 -9999 -9999 -9999 -9999 -9999 -9999 -9999 -9999 -9999 -9999 -9999 -9999 -9999 -9999 -9999 -9999 -9999 -9999 -9999 -9999 -9999 -9999 -9999 -9999 -9999 -9999 -9999 -9999 -9999 -9999 -9999 -9999 -9999 -9999 -9999 -9999 -9999 -9999 -9999 -9999 -9999 -9999 
-9999 -9999 -9999 -9999 -9999 -9999 -9999 -9999 -9999 -9999 -9999 -9999 -9999 -9999 -9999 -9999 -9999 -9999 -9999 -9999 -9999 -9999 -9999 -9999 -9999 -9999 -9999 -9999 -9999 -9999 -9999 -9999 -9999 -9999 -9999 -9999 -9999 -9999 -9999 609.6572 606.6755 602.175 597.4011 592.1494 587.1134 581.5782 575.5958 569.2095 562.1472 555.8082 550.4353 544.4612 540.2397 535.894 530.2111 521.983 514.6533 508.4636 502.8743 497.9746 492.2993 487.8621 483.2871 477.9958 470.4801 460.5391 453.643 458.452 465.4075 473.1685 481.9696 490.8217 502.3302 510.4524 519.0134 527.9136 532.6906 531.6025 532.6495 537.514 542.6224 549.6916 555.1345 552.8661 546.2435 539.6415 532.4696 525.4996 517.6647 510.6665 503.6134 496.8194 490.4262 481.8698 472.6564 469.1809 474.4684 473.6554 472.0461 467.6783 462.3115 453.3382 441.5439 442.8622 453.7611 460.9887 468.707 475.0026 482.567 488.6394 494.4961 500.6729 506.7552 510.8441 510.8661 505.1245 499.4224 494.0229 488.8154 483.2886 477.0989 471.6589 465.7123 459.4662 453.7161 447.691 440.1221 431.6334 424.6504 423.0152 421.1513 422.289 424.2092 429.3405 436.1932 440.5983 444.2498 449.1952 455.1312 459.9706 466.3646 472.331 478.9642 486.9066 495.4471 504.0028 511.5161 519.2565 525.0348 531.764 539.8785 545.1607 551.6857 558.0614 560.8365 563.7611 -9999 -9999 -9999 -9999 -9999 -9999 -9999 -9999 -9999 -9999 -9999 -9999 -9999 -9999 -9999 -9999 -9999 -9999 -9999 -9999 -9999 -9999 -9999 -9999 -9999 -9999 -9999 -9999 -9999 -9999 -9999 -9999 -9999 -9999 -9999 -9999 -9999 -9999 -9999 -9999 -9999 -9999 -9999 -9999 -9999 -9999 -9999 -9999 -9999 
-9999 -9999 -9999 -9999 -9999 -9999 -9999 -9999 -9999 -9999 -9999 -9999 -9999 -9999 -9999 -9999 -9999 -9999 -9999 -9999 -9999 -9999 -9999 -9999 -9999 -9999 -9999 -9999 -9999 -9999 -9999 -9999 -9999 -9999 -9999 -9999 -9999 -9999 -9999 -9999 604.3689 600.0803 594.5917 589.6493 584.4929 579.056 573.0575 566.6819 559.8741 551.704 546.3975 542.2263 536.112 531.7876 527.1951 521.288 516.4371 512.5593 508.0871 501.6764 495.7382 490.7387 485.919 480.6833 473.5129 463.77 451.4789 453.2711 461.6798 470.1761 479.82 489.1217 498.127 505.7699 513.1758 521.7795 525.5621 524.4572 525.4752 531.6474 539.0823 545.5592 549.5613 550.5694 545.15 538.4346 531.3327 524.8771 517.5367 510.489 504.2398 497.6637 490.5375 483.2733 475.1687 466.1345 463.437 465.8152 465.1012 463.6016 459.7878 449.7781 437.5191 443.1464 452.3766 457.4195 464.3026 470.4962 476.644 483.5401 489.9904 497.1852 503.2355 507.601 506.9114 501.604 496.0757 490.6853 485.0107 479.8223 474.3663 468.7466 462.6559 457.0407 451.1985 444.1812 436.0027 428.2402 423.134 421.1079 419.5633 421.3167 422.2006 426.8427 431.5336 435.672 441.8617 447.6384 454.5696 460.5497 465.4296 470.5739 478.3943 485.7971 494.0244 502.3432 509.8672 518.6652 525.2878 532.2684 538.5542 543.6725 548.9509 554.2552 558.5292 563.214 -9999 -9999 -9999 -9999 -9999 -9999 -9999 -9999 -9999 -9999 -9999 -9999 -9999 -9999 -9999 -9999 -9999 -9999 -9999 -9999 -9999 -9999 -9999 -9999 -9999 -9999 -9999 -9999 -9999 -9999 -9999 -9999 -9999 -9999 -9999 -9999 -9999 -9999 -9999 -9999 -9999 -9999 -9999 -9999 -9999 -9999 -9999 -9999 -9999 
-9999 -9999 -9999 -9999 -9999 -9999 -9999 -9999 -9999 -9999 -9999 -9999 -9999 -9999 -9999 -9999 -9999 -9999 -9999 -9999 -9999 -9999 -9999 -9999 -9999 -9999 -9999 -9999 -9999 -9999 -9999 -9999 -9999 -9999 -9999 -9999 -9999 -9999 -9999 -9999 603.8279 599.1141 594.1794 588.6099 582.6862 576.8835 570.9926 564.6603 557.2742 548.9532 542.0701 536.3665 531.6985 526.2646 521.1051 515.81 512.3116 509.618 506.2957 502.4156 496.8918 492.3648 486.5164 479.0351 469.3806 459.0242 450.723 448.1696 456.8427 467.1754 477.6102 486.185 493.0765 500.5037 508.2525 513.3815 516.4173 516.4539 519.2687 526.8415 534.5453 539.6431 543.8097 548.2514 544.5801 538.0162 530.4488 524.1059 516.5331 510.966 505.4605 498.2825 492.5111 485.3041 477.5599 467.9175 458.1266 454.0689 457.7944 458.3499 456.6735 447.9851 434.1876 441.2491 448.0377 452.2546 459.7596 465.9547 472.9147 479.9937 487.3508 494.493 501.3152 505.3447 503.4694 498.0554 493.3447 487.5131 481.7867 476.7339 470.7164 465.326 459.8952 453.7649 447.6567 440.4756 432.2384 424.7548 420.8998 419.6875 419.2532 419.2852 420.1897 425.9763 431.4627 438.406 446.5892 452.8589 459.5104 465.4334 469.978 475.0666 481.168 486.6254 493.6487 500.4001 508.4628 514.875 522.2024 529.5413 536.3802 542.2682 547.2639 552.3129 556.9473 560.803 -9999 -9999 -9999 -9999 -9999 -9999 -9999 -9999 -9999 -9999 -9999 -9999 -9999 -9999 -9999 -9999 -9999 -9999 -9999 -9999 -9999 -9999 -9999 -9999 -9999 -9999 -9999 -9999 -9999 -9999 -9999 -9999 -9999 -9999 -9999 -9999 -9999 -9999 -9999 -9999 -9999 -9999 -9999 -9999 -9999 -9999 -9999 -9999 -9999 
-9999 -9999 -9999 -9999 -9999 -9999 -9999 -9999 -9999 -9999 -9999 -9999 -9999 -9999 -9999 -9999 -9999 -9999 -9999 -9999 -9999 -9999 -9999 -9999 -9999 -9999 -9999 -9999 -9999 -9999 -9999 -9999 -9999 -9999 -9999 -9999 -9999 -9999 -9999 -9999 603.3981 599.0212 593.6026 588.1635 582.5566 576.1322 570.8615 564.5902 557.2803 550.3232 542.9525 535.8788 529.084 522.3403 516.383 510.1826 505.4125 503.0526 500.2812 497.7521 493.9894 490.1443 485.3879 477.4966 468.3709 456.614 447.1957 446.0237 458.4367 467.6508 475.4682 481.7951 487.4971 494.9434 501.8273 506.522 507.2276 508.6556 512.9335 520.1146 527.416 533.1577 539.0784 544.5359 542.9204 536.656 529.5877 522.0782 514.251 507.5019 502.0788 497.3544 492.7351 486.9538 480.3183 471.6239 463.4187 455.3651 449.3903 452.1921 451.6336 445.5818 432.6971 437.6067 443.2569 447.6217 455.3666 462.1446 469.6701 477.5911 484.3028 491.0755 497.7803 501.3693 499.7767 494.4816 489.2162 484.187 478.6671 473.7026 467.8177 462.8411 457.0682 450.8175 444.9409 437.0664 429.2323 421.5658 417.371 414.8694 417.2521 417.2453 420.5341 426.7893 434.8559 443.7583 449.8276 455.8299 462.5836 468.3671 474.0661 479.7963 485.8512 491.714 496.7791 503.3742 509.5639 514.7043 520.2258 526.8499 533.2225 539.4351 545.5242 550.4886 554.8297 -9999 -9999 -9999 -9999 -9999 -9999 -9999 -9999 -9999 -9999 -9999 -9999 -9999 -9999 -9999 -9999 -9999 -9999 -9999 -9999 -9999 -9999 -9999 -9999 -9999 -9999 -9999 -9999 -9999 -9999 -9999 -9999 -9999 -9999 -9999 -9999 -9999 -9999 -9999 -9999 -9999 -9999 -9999 -9999 -9999 -9999 -9999 -9999 -9999 -9999 
-9999 -9999 -9999 -9999 -9999 -9999 -9999 -9999 -9999 -9999 -9999 -9999 -9999 -9999 -9999 -9999 -9999 -9999 -9999 -9999 -9999 -9999 -9999 -9999 -9999 -9999 -9999 -9999 -9999 -9999 -9999 -9999 -9999 -9999 -9999 -9999 -9999 -9999 -9999 -9999 603.0278 599.0608 594.2076 589.0588 582.6899 576.6839 570.1726 564.2999 557.5615 550.8551 543.6161 536.7574 530.2926 523.2776 516.498 509.9975 503.2698 498.156 493.5398 491.1082 489.0608 485.6211 481.2617 475.4499 464.7385 454.9628 444.2597 442.7616 455.4474 463.4286 469.8317 476.788 482.6074 489.5995 495.8677 497.9785 498.8578 502.1374 508.0345 514.9985 521.8915 528.5491 534.9842 540.7366 540.1902 535.3279 528.7914 520.9467 513.4371 505.065 496.8903 492.0729 488.5129 484.027 478.9224 473.3499 466.7189 456.9653 446.9892 444.6445 446.5533 444.0486 432.3413 431.6829 437.7035 444.0364 451.2663 458.0184 465.7054 472.8035 480.5378 487.7729 493.8354 498.0844 496.3302 491.5342 484.8317 480.0974 475.1253 469.7943 464.881 460.3112 453.6598 448.2488 441.9646 434.3865 426.7284 418.7876 414.9288 413.2966 415.5849 416.2722 420.3185 427.1185 435.1653 443.1099 448.946 454.8401 460.0179 465.9767 472.0323 479.0085 485.3246 492.7816 499.1717 505.696 512.5715 517.7104 522.7373 528.1719 533.1554 539.032 544.3728 549.1475 552.1742 -9999 -9999 -9999 -9999 -9999 -9999 -9999 -9999 -9999 -9999 -9999 -9999 -9999 -9999 -9999 -9999 -9999 -9999 -9999 -9999 -9999 -9999 -9999 -9999 -9999 -9999 -9999 -9999 -9999 -9999 -9999 -9999 -9999 -9999 -9999 -9999 -9999 -9999 -9999 -9999 -9999 -9999 -9999 -9999 -9999 -9999 -9999 -9999 -9999 -9999 
-9999 -9999 -9999 -9999 -9999 -9999 -9999 -9999 -9999 -9999 -9999 -9999 -9999 -9999 -9999 -9999 -9999 -9999 -9999 -9999 -9999 -9999 -9999 -9999 -9999 -9999 -9999 -9999 -9999 -9999 -9999 -9999 -9999 -9999 -9999 -9999 -9999 -9999 -9999 -9999 603.4019 599.3694 594.949 589.2546 583.5198 577.9534 571.4665 565.8589 559.5237 552.6252 545.9958 539.2925 533.0685 526.0063 518.5784 511.7363 504.3655 496.6815 490.1215 484.8972 482.1563 478.363 474.5637 468.7496 461.0717 452.1998 442.8363 439.1642 450.4159 458.2226 463.1543 470.3514 478.0232 484.2098 488.3536 489.8753 491.4763 496.5886 502.7501 510.5948 517.9482 524.634 529.9779 534.7739 537.1514 533.5173 527.1364 519.5629 511.3576 503.2469 493.6617 487.4697 483.3793 478.8507 475.0834 471.2772 466.5178 458.6912 450.1119 440.596 440.9557 441.6148 437.7721 427.005 430.8699 440.7888 447.3214 454.5086 461.5007 469.4774 476.0968 483.2269 489.441 495.3419 493.2304 487.7943 482.5579 476.8025 471.7237 466.994 461.3331 456.0814 450.5096 444.8968 439.2572 432.8038 424.5056 417.704 413.3759 411.6896 413.1663 414.7642 419.9588 426.765 433.2793 437.9587 444.6841 450.5066 455.3118 461.5175 468.166 474.649 481.7615 489.1431 495.8792 503.4519 511.0201 517.3088 523.5253 529.6334 534.9423 540.8821 545.5623 549.162 -9999 -9999 -9999 -9999 -9999 -9999 -9999 -9999 -9999 -9999 -9999 -9999 -9999 -9999 -9999 -9999 -9999 -9999 -9999 -9999 -9999 -9999 -9999 -9999 -9999 -9999 -9999 -9999 -9999 -9999 -9999 -9999 -9999 -9999 -9999 -9999 -9999 -9999 -9999 -9999 -9999 -9999 -9999 -9999 -9999 -9999 -9999 -9999 -9999 -9999 -9999 
-9999 -9999 -9999 -9999 -9999 -9999 -9999 -9999 -9999 -9999 -9999 -9999 -9999 -9999 -9999 -9999 -9999 -9999 -9999 -9999 -9999 -9999 -9999 -9999 -9999 -9999 -9999 -9999 -9999 -9999 -9999 -9999 -9999 -9999 -9999 -9999 -9999 -9999 -9999 -9999 603.8728 599.595 595.884 590.4967 585.8713 580.042 573.2419 567.501 560.9211 553.8102 546.9011 539.893 532.9215 525.7716 518.733 512.0167 504.9233 497.7841 491.3612 485.6241 478.9025 473.1959 468.6064 465.073 457.3326 448.677 440.519 436.8074 444.9897 452.2661 458.3186 464.5609 472.3768 476.5609 480.7344 482.4527 485.8436 493.9597 499.6724 506.621 514.2296 519.6132 524.1836 528.4073 531.9926 531.8684 524.493 516.7137 508.5794 501.1689 493.1336 486.3054 479.9206 474.3823 470.3178 466.6244 462.9203 458.948 452.9541 444.0677 434.8483 437.6776 434.8033 426.0548 427.2161 436.9689 444.7383 450.9295 458.343 464.9069 472.9124 479.929 486.55 492.9728 490.6419 485.4055 479.9465 473.6241 468.8853 462.7177 457.6214 452.3293 446.9763 441.9828 436.882 430.1642 422.7561 416.02 411.8397 410.4574 412.9186 416.2257 419.8773 423.7993 427.5902 432.5691 438.9806 444.7482 450.8731 456.8701 463.6671 470.6981 478.5116 486.505 494.461 502.2456 510.162 516.668 522.1895 529.6418 536.4091 541.7051 546.4111 549.082 -9999 -9999 -9999 -9999 -9999 -9999 -9999 -9999 -9999 -9999 -9999 -9999 -9999 -9999 -9999 -9999 -9999 -9999 -9999 -9999 -9999 -9999 -9999 -9999 -9999 -9999 -9999 -9999 -9999 -9999 -9999 -9999 -9999 -9999 -9999 -9999 -9999 -9999 -9999 -9999 -9999 -9999 -9999 -9999 -9999 -9999 -9999 -9999 -9999 -9999 -9999 
-9999 -9999 -9999 -9999 -9999 -9999 -9999 -9999 -9999 -9999 -9999 -9999 -9999 -9999 -9999 -9999 -9999 -9999 -9999 -9999 -9999 -9999 -9999 -9999 -9999 -9999 -9999 -9999 -9999 -9999 -9999 -9999 -9999 -9999 -9999 -9999 -9999 -9999 -9999 -9999 604.4207 600.8225 597.1779 592.2356 587.2818 580.9526 574.5046 567.1635 561.0332 554.0114 546.8737 539.7719 533.2545 527.2369 520.9131 514.2982 506.7186 501.505 495.4593 489.0234 482.4702 475.4514 468.5934 462.9958 455.2318 448.9811 441.1538 433.1345 438.2544 445.8622 452.4596 459.3709 466.4469 471.1865 473.1342 476.4352 482.8893 490.0155 497.1837 504.7976 511.0132 514.7424 517.3256 522.0332 527.6005 528.5369 522.5034 514.8705 506.9083 498.8791 491.3605 484.1321 476.8009 470.375 463.9742 459.6041 456.9569 452.4002 449.5754 445.0034 436.6557 431.8041 432.4967 425.4772 424.0759 434.3073 440.9374 448.5985 455.6425 463.6214 472.1421 478.9757 484.8416 490.075 488.2919 482.852 477.4646 471.3587 466.0735 460.5482 454.376 449.5313 444.4426 438.8114 433.2153 426.3763 419.6669 413.3721 410.3888 409.8333 415.3632 418.4233 417.4975 418.3868 422.4985 427.2679 434.5991 441.1751 448.3852 455.0565 462.9348 470.4725 477.899 485.9899 494.4824 502.1725 509.4671 516.716 521.2347 527.6896 534.7023 540.0096 544.4071 -9999 -9999 -9999 -9999 -9999 -9999 -9999 -9999 -9999 -9999 -9999 -9999 -9999 -9999 -9999 -9999 -9999 -9999 -9999 -9999 -9999 -9999 -9999 -9999 -9999 -9999 -9999 -9999 -9999 -9999 -9999 -9999 -9999 -9999 -9999 -9999 -9999 -9999 -9999 -9999 -9999 -9999 -9999 -9999 -9999 -9999 -9999 -9999 -9999 -9999 -9999 -9999 
-9999 -9999 -9999 -9999 -9999 -9999 -9999 -9999 -9999 -9999 -9999 -9999 -9999 -9999 -9999 -9999 -9999 -9999 -9999 -9999 -9999 -9999 -9999 -9999 -9999 -9999 -9999 -9999 -9999 -9999 -9999 -9999 -9999 -9999 -9999 -9999 -9999 -9999 -9999 -9999 -9999 601.2767 597.5139 592.7971 588.0118 582.693 575.6887 569.2483 562.199 554.5943 548.1021 542.3047 537.5933 531.3723 525.0264 517.9222 512.1082 505.0086 498.713 492.5561 485.8024 479.0945 473.4527 466.7052 459.5813 452.295 444.5363 435.1729 430.3929 437.7507 445.4629 453.5523 460.0659 463.69 466.8721 473.2721 481.8354 489.0905 496.2997 501.7907 505.078 507.2703 510.9218 516.111 522.6078 525.7952 519.5164 511.9192 505.3371 497.2949 490.8774 483.5378 476.4672 468.8258 462.3504 454.5277 450.2391 446.5374 443.7743 442.7083 438.8465 429.7954 429.7642 423.7101 422.6951 431.7523 439.3204 446.5846 455.583 462.6963 470.4466 476.6615 482.6089 487.4285 486.6475 481.7501 476.6737 470.2325 463.5916 458.0839 452.1823 446.6006 440.5869 435.1752 428.337 421.8401 414.4998 410.0787 408.9837 408.4892 413.3035 413.6334 414.6857 418.9583 423.5966 429.5188 436.0286 442.2663 448.5902 456.2597 463.834 471.1187 478.1817 485.1418 492.8121 500.3048 507.9286 514.1396 519.0584 524.5113 530.7368 535.7424 539.2506 -9999 -9999 -9999 -9999 -9999 -9999 -9999 -9999 -9999 -9999 -9999 -9999 -9999 -9999 -9999 -9999 -9999 -9999 -9999 -9999 -9999 -9999 -9999 -9999 -9999 -9999 -9999 -9999 -9999 -9999 -9999 -9999 -9999 -9999 -9999 -9999 -9999 -9999 -9999 -9999 -9999 -9999 -9999 -9999 -9999 -9999 -9999 -9999 -9999 -9999 -9999 -9999 
-9999 -9999 -9999 -9999 -9999 -9999 -9999 -9999 -9999 -9999 -9999 -9999 -9999 -9999 -9999 -9999 -9999 -9999 -9999 -9999 -9999 -9999 -9999 -9999 -9999 -9999 -9999 -9999 -9999 -9999 -9999 -9999 -9999 -9999 -9999 -9999 -9999 -9999 -9999 -9999 -9999 601.2318 597.9849 594.0072 589.7781 584.6963 578.6453 571.6555 563.8892 556.7195 551.8244 546.7 540.9651 535.0917 528.0508 520.8872 515.5494 508.7097 502.8506 496.1755 490.4941 483.3054 477.4974 469.5338 462.5226 454.8987 445.5506 436.946 428.0002 430.4835 439.9407 448.3075 453.3664 456.9966 463.0796 471.0318 478.7776 487.1634 492.1149 495.0135 498.2939 501.1141 505.5184 512.1752 518.6088 523.2113 518.3551 511.1306 504.3678 497.8596 490.3043 484.2022 476.724 469.123 461.3788 453.425 447.3961 442.8683 438.6301 438.1919 437.2257 432.5584 424.1383 420.637 421.4911 430.0637 438.3817 446.0733 452.7225 460.3196 468.0334 474.1774 480.0653 485.1136 483.438 478.7829 473.9282 468.089 461.6028 455.6219 448.9156 443.5914 437.244 430.8721 423.8625 417.8092 411.7817 408.144 407.6601 407.8773 409.7228 412.5331 416.9572 420.9684 425.4604 430.3426 437.052 442.3852 447.8899 453.9767 461.8939 467.8497 475.5871 482.3003 490.1634 498.0325 504.918 511.3134 516.3838 520.9733 526.1846 530.8557 533.9288 -9999 -9999 -9999 -9999 -9999 -9999 -9999 -9999 -9999 -9999 -9999 -9999 -9999 -9999 -9999 -9999 -9999 -9999 -9999 -9999 -9999 -9999 -9999 -9999 -9999 -9999 -9999 -9999 -9999 -9999 -9999 -9999 -9999 -9999 -9999 -9999 -9999 -9999 -9999 -9999 -9999 -9999 -9999 -9999 -9999 -9999 -9999 -9999 -9999 -9999 -9999 -9999 
-9999 -9999 -9999 -9999 -9999 -9999 -9999 -9999 -9999 -9999 -9999 -9999 -9999 -9999 -9999 -9999 -9999 -9999 -9999 -9999 -9999 -9999 -9999 -9999 -9999 -9999 -9999 -9999 -9999 -9999 -9999 -9999 -9999 -9999 -9999 -9999 -9999 -9999 -9999 -9999 -9999 600.994 597.9041 593.0615 589.5449 585.3387 579.4218 572.5737 565.6989 560.3885 555.7784 550.1168 543.7747 537.6992 530.9944 524.8831 519.2146 513.9904 507.3853 501.3899 494.2972 487.3066 478.5634 470.4024 461.4101 453.8937 445.7891 436.962 427.0286 425.4581 432.8351 441.0197 446.1289 452.612 459.9044 468.6224 477.0951 481.395 484.8309 488.1364 491.1616 495.2863 501.1499 508.2776 514.9039 519.9896 519.015 512.4953 506.6447 500.1463 493.2304 485.7415 478.1017 470.8672 464.2127 457.9338 450.9105 444.355 437.0741 431.7492 432.1195 430.1536 425.087 417.8648 418.4066 427.8325 436.6443 443.9313 450.9486 458.2828 465.0646 471.6559 478.075 482.0305 480.7656 475.3127 469.9772 464.8505 458.7651 453.4967 447.2864 441.4921 433.946 426.7947 420.1081 413.7439 409.0508 406.2123 405.5273 406.2298 409.3799 412.7251 413.9474 416.337 419.881 424.0522 430.5864 437.7469 443.4855 449.9427 457.2755 464.2775 472.0278 479.8718 487.1321 494.4115 500.6721 507.22 512.6965 517.5801 522.9827 526.43 528.863 -9999 -9999 -9999 -9999 -9999 -9999 -9999 -9999 -9999 -9999 -9999 -9999 -9999 -9999 -9999 -9999 -9999 -9999 -9999 -9999 -9999 -9999 -9999 -9999 -9999 -9999 -9999 -9999 -9999 -9999 -9999 -9999 -9999 -9999 -9999 -9999 -9999 -9999 -9999 -9999 -9999 -9999 -9999 -9999 -9999 -9999 -9999 -9999 -9999 -9999 -9999 -9999 
-9999 -9999 -9999 -9999 -9999 -9999 -9999 -9999 -9999 -9999 -9999 -9999 -9999 -9999 -9999 -9999 -9999 -9999 -9999 -9999 -9999 -9999 -9999 -9999 -9999 -9999 -9999 -9999 -9999 -9999 -9999 -9999 -9999 -9999 -9999 -9999 -9999 -9999 -9999 -9999 -9999 597.9254 593.899 589.9663 585.7601 581.4738 576.4073 571.4147 566.2834 562.1343 558.2869 552.5376 546.9606 540.8082 536.4023 529.369 522.5751 516.0378 508.9352 501.6391 494.3338 486.4235 478.3341 469.9833 461.4497 453.7093 445.9156 436.9811 428.1213 423.39 427.4492 435.2445 442.1589 449.5457 457.8561 467.0024 472.3188 474.6696 477.566 481.4804 484.3752 490.5261 496.6975 504.1918 510.3167 516.7511 518.6751 514.1039 507.9523 501.3823 495.5568 487.8956 481.1855 474.9569 468.2597 460.6801 453.5394 446.2592 439.6763 431.6722 427.8417 426.7352 423.2887 417.7246 414.5333 425.9085 434.2912 441.7634 449.215 455.4771 462.8601 469.1687 474.6605 477.172 475.9025 470.5015 465.092 459.9462 453.9661 449.5907 443.2356 436.9887 430.3098 422.7126 416.8971 410.9276 407.3256 405.0426 405.5555 405.0769 408.323 409.2595 410.2151 413.0741 417.7932 421.9583 426.6118 433.1498 439.7487 446.5015 453.1904 459.8685 467.2546 474.4715 481.0559 489.7702 496.9558 503.461 510.1956 516.6071 521.6462 522.9149 524.941 -9999 -9999 -9999 -9999 -9999 -9999 -9999 -9999 -9999 -9999 -9999 -9999 -9999 -9999 -9999 -9999 -9999 -9999 -9999 -9999 -9999 -9999 -9999 -9999 -9999 -9999 -9999 -9999 -9999 -9999 -9999 -9999 -9999 -9999 -9999 -9999 -9999 -9999 -9999 -9999 -9999 -9999 -9999 -9999 -9999 -9999 -9999 -9999 -9999 -9999 -9999 -9999 
-9999 -9999 -9999 -9999 -9999 -9999 -9999 -9999 -9999 -9999 -9999 -9999 -9999 -9999 -9999 -9999 -9999 -9999 -9999 -9999 -9999 -9999 -9999 -9999 -9999 -9999 -9999 -9999 -9999 -9999 -9999 -9999 -9999 -9999 -9999 -9999 -9999 -9999 -9999 -9999 -9999 595.2256 590.6437 586.4291 581.4609 576.3074 572.0418 567.5109 562.3682 558.8508 556.433 553.4353 549.6497 543.2557 537.303 530.6766 523.4224 515.8199 508.1169 500.1677 493.1672 485.6508 478.9071 470.311 462.3877 454.677 445.9818 437.2943 427.5049 421.3327 422.2874 431.5381 439.6588 448.5467 457.0087 462.1149 464.407 466.8172 471.374 474.7298 478.6953 485.692 493.9467 500.5517 507.38 513.4493 515.3467 513.3998 508.5116 501.284 496.3782 489.0836 482.8337 475.8355 468.5805 461.9282 455.2638 448.2389 440.388 433.0202 424.623 422.8612 420.4922 415.1894 413.4505 424.0484 431.1647 438.7772 445.8203 452.6486 460.0026 466.3844 470.9488 471.4243 469.2998 464.724 458.9747 455.2607 449.2348 444.6948 438.9691 433.5978 427.767 420.6568 413.7942 408.1013 405.2964 404.4543 403.8188 403.7831 406.2771 407.5527 411.4663 416.2821 420.7604 425.8765 430.3265 433.9422 438.5844 443.7233 449.2501 455.5632 462.5043 469.9445 477.2078 486.3115 494.3574 500.9518 509.0876 514.9436 519.4211 521.7361 522.274 -9999 -9999 -9999 -9999 -9999 -9999 -9999 -9999 -9999 -9999 -9999 -9999 -9999 -9999 -9999 -9999 -9999 -9999 -9999 -9999 -9999 -9999 -9999 -9999 -9999 -9999 -9999 -9999 -9999 -9999 -9999 -9999 -9999 -9999 -9999 -9999 -9999 -9999 -9999 -9999 -9999 -9999 -9999 -9999 -9999 -9999 -9999 -9999 -9999 -9999 -9999 -9999 
-9999 -9999 -9999 -9999 -9999 -9999 -9999 -9999 -9999 -9999 -9999 -9999 -9999 -9999 -9999 -9999 -9999 -9999 -9999 -9999 -9999 -9999 -9999 -9999 -9999 -9999 -9999 -9999 -9999 -9999 -9999 -9999 -9999 -9999 -9999 -9999 -9999 -9999 -9999 -9999 -9999 593.0364 587.9044 582.6382 577.2965 571.0733 566.1127 561.5559 556.4299 552.6459 551.4099 550.1229 549.4462 544.3385 537.5963 530.1432 522.9583 515.2073 507.8166 499.9315 492.3701 484.5025 477.7214 470.7042 462.3633 454.5482 446.7134 438.8815 429.3192 420.6172 417.4548 427.3342 436.7228 445.1787 451.0857 454.8233 457.2739 460.2259 464.8543 468.6178 475.0605 483.1812 491.0572 497.6332 504.3587 509.141 511.9368 511.0947 506.2073 501.1659 494.5769 488.1334 480.4707 474.4677 466.8911 460.9391 454.0888 447.1614 440.2646 432.5546 424.6093 419.5968 417.8358 413.2471 413.2806 420.9418 428.1777 436.1376 443.0329 450.3908 457.0598 462.8388 465.5561 464.8993 463.4629 458.8391 453.9867 449.5732 444.5028 439.4378 434.9229 429.3337 424.306 417.5844 411.1386 406.0439 404.225 403.7152 401.1275 403.0675 406.0728 410.8407 416.5877 422.3195 427.5475 432.2574 436.4012 440.4147 444.3778 447.8701 452.09 457.3974 462.6247 469.3516 476.0275 483.4837 491.2081 498.5042 505.3843 512.0831 515.9205 520.859 -9999 -9999 -9999 -9999 -9999 -9999 -9999 -9999 -9999 -9999 -9999 -9999 -9999 -9999 -9999 -9999 -9999 -9999 -9999 -9999 -9999 -9999 -9999 -9999 -9999 -9999 -9999 -9999 -9999 -9999 -9999 -9999 -9999 -9999 -9999 -9999 -9999 -9999 -9999 -9999 -9999 -9999 -9999 -9999 -9999 -9999 -9999 -9999 -9999 -9999 -9999 -9999 -9999 
-9999 -9999 -9999 -9999 -9999 -9999 -9999 -9999 -9999 -9999 -9999 -9999 -9999 -9999 -9999 -9999 -9999 -9999 -9999 -9999 -9999 -9999 -9999 -9999 -9999 -9999 -9999 -9999 -9999 -9999 -9999 -9999 -9999 -9999 -9999 -9999 -9999 -9999 -9999 -9999 -9999 589.9587 585.0598 578.9554 573.3395 566.8434 560.7847 555.4843 550.8757 546.5468 544.3583 544.6929 545.778 544.8307 537.7441 530.9578 524.0084 515.733 508.5695 500.6561 492.9264 485.2896 477.7534 470.0488 463.0575 455.3819 448.5345 440.3621 432.3779 421.799 415.0065 421.9796 433.2983 439.7647 445.7753 447.723 450.2757 454.3684 459.2376 466.363 473.9069 481.8492 488.9144 496.9315 502.11 506.7178 509.8527 507.7747 503.4542 497.7399 491.9457 485.916 478.5627 471.0562 464.7804 457.0819 450.9897 444.7855 438.5013 431.798 424.2519 417.4914 415.0431 410.8948 410.8628 417.6141 425.7622 433.7213 441.3047 447.7215 453.1683 459.0562 460.565 457.9696 456.3191 453.6598 449.2706 443.9366 438.3496 434.1708 429.4929 425.0474 419.7225 413.1534 407.3987 403.0325 402.7559 399.7193 401.1473 403.402 407.4079 414.3291 421.098 428.1838 434.4718 439.9369 443.8894 447.9554 450.9501 455.1426 458.5274 462.9798 467.1876 472.9902 478.6838 484.8012 492.2612 499.4201 506.698 511.4483 516.9058 520.5649 -9999 -9999 -9999 -9999 -9999 -9999 -9999 -9999 -9999 -9999 -9999 -9999 -9999 -9999 -9999 -9999 -9999 -9999 -9999 -9999 -9999 -9999 -9999 -9999 -9999 -9999 -9999 -9999 -9999 -9999 -9999 -9999 -9999 -9999 -9999 -9999 -9999 -9999 -9999 -9999 -9999 -9999 -9999 -9999 -9999 -9999 -9999 -9999 -9999 -9999 -9999 -9999 -9999 
-9999 -9999 -9999 -9999 -9999 -9999 -9999 -9999 -9999 -9999 -9999 -9999 -9999 -9999 -9999 -9999 -9999 -9999 -9999 -9999 -9999 -9999 -9999 -9999 -9999 -9999 -9999 -9999 -9999 -9999 -9999 -9999 -9999 -9999 -9999 -9999 -9999 -9999 -9999 -9999 590.4441 587.2307 582.6763 575.6864 569.7299 563.0738 557.0281 551.3519 545.3832 540.1719 537.412 538.2654 540.6177 542.1325 535.7805 530.1021 523.6655 516.4448 508.7897 501.0325 493.4057 486.0493 477.9637 472.1382 464.6699 458.1906 451.2411 442.6664 433.5308 423.0792 413.7393 417.6263 425.1046 432.5859 437.6204 440.2791 444.2818 449.7446 456.8556 465.6331 473.8139 481.0978 487.1192 492.3107 498.9127 504.6863 507.8296 505.1047 500.4412 494.7445 489.3404 483.8578 476.6287 469.6122 462.5965 455.1091 448.2054 440.8993 435.4213 429.3573 422.9771 416.2783 412.479 409.7594 407.9359 414.4046 422.8666 430.8744 437.3591 443.958 449.3461 454.6191 453.8495 451.088 449.5297 446.9336 443.8947 438.2407 432.9296 428.8932 424.3853 419.4444 414.0228 408.5234 403.6451 401.3744 400.5842 397.8615 399.6119 402.704 409.7015 416.5732 423.0998 430.6207 437.5976 444.6034 450.7634 455.7491 458.7575 463.1078 466.0499 469.5025 473.3102 477.9927 483.0257 489.3473 496.568 503.4427 508.5695 514.2913 518.9777 -9999 -9999 -9999 -9999 -9999 -9999 -9999 -9999 -9999 -9999 -9999 -9999 -9999 -9999 -9999 -9999 -9999 -9999 -9999 -9999 -9999 -9999 -9999 -9999 -9999 -9999 -9999 -9999 -9999 -9999 -9999 -9999 -9999 -9999 -9999 -9999 -9999 -9999 -9999 -9999 -9999 -9999 -9999 -9999 -9999 -9999 -9999 -9999 -9999 -9999 -9999 -9999 -9999 -9999 
-9999 -9999 -9999 -9999 -9999 -9999 -9999 -9999 -9999 -9999 -9999 -9999 -9999 -9999 -9999 -9999 -9999 -9999 -9999 -9999 -9999 -9999 -9999 -9999 -9999 -9999 -9999 -9999 -9999 -9999 -9999 -9999 -9999 -9999 -9999 -9999 -9999 -9999 -9999 -9999 588.1436 584.4669 579.312 573.7769 567.4088 559.4261 552.6459 546.7876 540.3883 534.7533 531.1544 532.113 536.2522 536.7124 532.5847 527.2209 521.3231 515.0815 508.1755 502.0833 494.5327 487.4682 481.2396 474.489 467.4245 460.6808 452.8878 443.8909 434.3972 425.0261 413.5694 410.2456 417.2491 424.5369 429.8625 434.481 439.975 447.4182 456.3755 464.119 471.7275 477.0875 482.029 487.4712 494.5876 500.9053 504.7915 503.1075 498.8806 492.4456 486.598 480.8289 474.9165 467.9922 460.7951 453.3389 446.1876 438.2338 432.2247 425.8567 419.798 414.8877 409.0736 406.3784 402.1775 411.4564 419.1579 427.4005 434.3751 440.8277 447.2399 449.7431 447.6216 443.9214 442.5986 440.7553 438.3641 433.6595 428.3636 423.4846 419.004 413.8986 407.8422 403.0272 399.797 400.3319 398.8232 396.8024 397.2413 406.223 414.3253 418.9697 424.9072 431.737 439.248 446.263 453.9699 460.5375 466.674 471.188 474.1736 477.1751 480.726 484.8827 489.1842 494.522 500.0374 505.6761 510.2573 515.6675 519.7465 -9999 -9999 -9999 -9999 -9999 -9999 -9999 -9999 -9999 -9999 -9999 -9999 -9999 -9999 -9999 -9999 -9999 -9999 -9999 -9999 -9999 -9999 -9999 -9999 -9999 -9999 -9999 -9999 -9999 -9999 -9999 -9999 -9999 -9999 -9999 -9999 -9999 -9999 -9999 -9999 -9999 -9999 -9999 -9999 -9999 -9999 -9999 -9999 -9999 -9999 -9999 -9999 -9999 -9999 
-9999 -9999 -9999 -9999 -9999 -9999 -9999 -9999 -9999 -9999 -9999 -9999 -9999 -9999 -9999 -9999 -9999 -9999 -9999 -9999 -9999 -9999 -9999 -9999 -9999 -9999 -9999 -9999 -9999 -9999 -9999 -9999 -9999 -9999 -9999 -9999 -9999 -9999 -9999 -9999 583.9663 579.4523 575.5813 569.774 564.053 556.8483 549.3387 542.5151 536.2362 529.1335 524.5494 525.3792 528.6756 529.9954 527.7803 522.8044 518.8275 512.6561 506.1357 499.9726 493.7463 487.8819 481.6396 475.3806 468.3694 461.0298 453.4289 443.3552 434.7614 425.5267 415.085 407.606 411.7985 418.7982 424.6534 430.7144 437.644 445.4881 452.5137 459.6277 465.2178 470.4428 476.967 483.5149 490.3828 496.7036 501.2436 500.4275 495.8433 490.8271 484.4179 478.4255 472.4453 465.7923 458.5907 451.5879 444.3359 437.5046 430.8493 423.0144 416.4856 410.254 406.9126 401.4399 399.8351 409.6192 416.958 425.2158 432.1736 439.418 443.5434 443.1594 440.7263 438.0921 435.8122 434.1602 431.9511 429.0944 423.5829 418.431 413.1488 407.004 402.1196 397.178 396.5547 397.4371 397.3586 395.894 396.5974 406.1849 414.6057 423.1714 428.8414 435.025 441.3504 448.975 456.2696 463.1177 470.468 477.6414 482.458 485.3429 488.964 492.0798 495.9805 499.907 504.649 509.1013 513.4272 518.5738 -9999 -9999 -9999 -9999 -9999 -9999 -9999 -9999 -9999 -9999 -9999 -9999 -9999 -9999 -9999 -9999 -9999 -9999 -9999 -9999 -9999 -9999 -9999 -9999 -9999 -9999 -9999 -9999 -9999 -9999 -9999 -9999 -9999 -9999 -9999 -9999 -9999 -9999 -9999 -9999 -9999 -9999 -9999 -9999 -9999 -9999 -9999 -9999 -9999 -9999 -9999 -9999 -9999 -9999 -9999 
-9999 -9999 -9999 -9999 -9999 -9999 -9999 -9999 -9999 -9999 -9999 -9999 -9999 -9999 -9999 -9999 -9999 -9999 -9999 -9999 -9999 -9999 -9999 -9999 -9999 -9999 -9999 -9999 -9999 -9999 -9999 -9999 -9999 -9999 -9999 -9999 -9999 -9999 -9999 582.9704 579.3905 573.9773 569.6308 564.2244 560.0731 554.1607 547.5961 540.3555 532.9116 525.0592 518.0579 518.1044 521.1852 523.6152 522.2557 517.0901 513.8463 510.0714 503.6698 497.3467 491.0518 484.9665 479.1852 473.1631 466.1627 458.17 449.8726 441.4982 433.1826 424.6687 415.5841 406.1833 407.084 413.9717 420.5204 425.7911 432.941 440.3796 447.3763 453.6803 460.4621 466.5962 474.3038 481.6069 486.396 490.1801 494.8672 495.4684 492.6269 487.6617 481.8042 476.5487 470.375 463.5886 456.092 448.9727 441.9524 434.865 429.1432 420.9029 413.609 406.8935 404.5435 400.274 397.05 407.2311 414.9387 422.3164 429.0136 435.595 438.7002 436.8813 433.988 430.3936 428.6875 426.259 425.2715 422.9207 417.4396 411.6697 406.8204 401.5207 396.698 394.2344 393.8161 393.9868 393.7658 394.2054 401.4048 408.6865 416.6075 424.5056 432.3024 439.0804 445.0515 452.122 458.9671 465.9264 473.4855 481.2373 487.6274 492.6711 496.8667 500.1418 502.9093 506.256 508.5954 512.6188 516.735 520.5275 -9999 -9999 -9999 -9999 -9999 -9999 -9999 -9999 -9999 -9999 -9999 -9999 -9999 -9999 -9999 -9999 -9999 -9999 -9999 -9999 -9999 -9999 -9999 -9999 -9999 -9999 -9999 -9999 -9999 -9999 -9999 -9999 -9999 -9999 -9999 -9999 -9999 -9999 -9999 -9999 -9999 -9999 -9999 -9999 -9999 -9999 -9999 -9999 -9999 -9999 -9999 -9999 -9999 -9999 -9999 
-9999 -9999 -9999 -9999 -9999 -9999 -9999 -9999 -9999 -9999 -9999 -9999 -9999 -9999 -9999 -9999 -9999 -9999 -9999 -9999 -9999 -9999 -9999 -9999 -9999 -9999 -9999 -9999 -9999 -9999 -9999 -9999 -9999 -9999 -9999 -9999 -9999 -9999 -9999 580.9374 575.9539 571.3842 565.1396 559.1183 554.2247 549.9057 544.1046 537.3868 530.0792 521.9434 514.318 511.4399 512.3787 513.812 515.3444 512.045 507.5065 505.2136 501.1202 495.1209 488.7293 481.8972 475.3905 469.1474 461.8848 454.8774 447.6559 439.9369 432.2681 424.7678 415.5651 406.9065 402.6202 409.4988 415.8508 422.3416 429.4373 436.3921 443.3499 450.4456 458.0229 463.7113 469.9909 475.4941 478.8705 482.599 487.76 489.886 487.4697 483.5469 478.5657 473.0024 466.6267 459.3862 453.0981 446.4154 439.1398 431.5465 426.2018 418.594 411.9738 404.2684 402.5471 401.7142 392.7066 402.5227 411.3771 418.7823 425.5282 432.4571 434.3941 431.1884 428.087 424.3967 421.9072 420.0083 418.6687 416.1815 412.037 406.7411 401.0642 397.1148 391.857 391.5446 392.4011 392.3195 393.4107 396.1158 404.8003 412.9857 420.7162 428.0726 435.4899 443.2051 449.0207 455.5266 462.707 469.3371 476.3712 483.1362 489.8174 496.9863 502.9977 507.0287 510.0546 512.4214 514.9924 516.7061 520.1321 -9999 -9999 -9999 -9999 -9999 -9999 -9999 -9999 -9999 -9999 -9999 -9999 -9999 -9999 -9999 -9999 -9999 -9999 -9999 -9999 -9999 -9999 -9999 -9999 -9999 -9999 -9999 -9999 -9999 -9999 -9999 -9999 -9999 -9999 -9999 -9999 -9999 -9999 -9999 -9999 -9999 -9999 -9999 -9999 -9999 -9999 -9999 -9999 -9999 -9999 -9999 -9999 -9999 -9999 -9999 -9999 
-9999 -9999 -9999 -9999 -9999 -9999 -9999 -9999 -9999 -9999 -9999 -9999 -9999 -9999 -9999 -9999 -9999 -9999 -9999 -9999 -9999 -9999 -9999 -9999 -9999 -9999 -9999 -9999 -9999 -9999 -9999 -9999 -9999 -9999 -9999 -9999 -9999 -9999 -9999 577.6616 572.1401 566.7078 560.9989 554.6103 548.0159 542.9783 538.7797 533.912 527.6408 520.2532 512.1417 505.8697 504.4295 504.7404 506.8702 504.9683 501.5126 498.5865 496.4521 493.4735 487.888 481.2312 474.7146 468.0699 460.3364 453.4289 446.641 439.2145 431.8193 423.7177 414.5791 404.0398 401.0711 406.3068 413.3888 419.75 425.5565 434.2806 442.1901 447.7832 454.1756 459.1431 464.3796 468.1301 470.6958 476.1784 482.2134 483.9561 481.2122 478.088 473.6211 468.6353 462.4365 456.054 449.5709 444.1957 436.9209 429.8122 423.2887 416.9771 410.4338 402.6515 400.1071 400.5605 391.8654 397.1597 406.479 416.1457 423.4853 428.4513 427.6771 424.7495 421.5018 417.7216 415.434 413.766 411.4106 409.0218 405.3398 400.2573 395.9116 392.3302 389.5184 391.7816 391.9789 390.7269 392.4727 396.1326 404.9931 414.8503 422.8932 431.4094 438.7611 446.2516 453.5333 460.5071 467.8566 474.8106 481.0148 486.7466 493.2022 498.6101 505.6328 511.1595 514.9947 517.424 519.0447 520.603 -9999 -9999 -9999 -9999 -9999 -9999 -9999 -9999 -9999 -9999 -9999 -9999 -9999 -9999 -9999 -9999 -9999 -9999 -9999 -9999 -9999 -9999 -9999 -9999 -9999 -9999 -9999 -9999 -9999 -9999 -9999 -9999 -9999 -9999 -9999 -9999 -9999 -9999 -9999 -9999 -9999 -9999 -9999 -9999 -9999 -9999 -9999 -9999 -9999 -9999 -9999 -9999 -9999 -9999 -9999 -9999 -9999 
-9999 -9999 -9999 -9999 -9999 -9999 -9999 -9999 -9999 -9999 -9999 -9999 -9999 -9999 -9999 -9999 -9999 -9999 -9999 -9999 -9999 -9999 -9999 -9999 -9999 -9999 -9999 -9999 -9999 -9999 -9999 -9999 -9999 -9999 -9999 -9999 -9999 -9999 -9999 575.118 569.6453 562.7408 555.9224 549.7015 543.8737 537.8029 532.5344 528.6885 523.6022 517.2205 510.2162 503.0313 497.9914 496.6205 497.7133 498.9317 496.1512 492.0036 490.3439 488.6272 485.7849 481.5612 475.8964 467.9869 460.1443 452.8871 445.0712 437.1967 429.9425 422.5534 412.6855 403.9202 399.4442 404.1991 410.5465 417.4922 423.9639 431.5587 438.8312 443.8185 448.7266 453.6179 457.4797 460.5581 464.7324 470.6615 475.2 478.3394 475.965 472.5764 467.855 464.5655 459.7748 453.9188 447.8693 441.2933 434.6959 428.3095 422.0482 414.5387 407.5527 400.0485 397.5171 398.5413 391.8654 392.0901 404.2715 412.7 420.0601 422.7226 421.9346 418.2709 415.2763 412.0538 409.4508 407.609 403.9896 400.8577 397.9271 394.2352 390.8252 389.0658 388.54 390.9548 391.5872 389.939 393.0769 397.8852 407.1938 416.4292 424.8005 433.3814 440.2181 447.6948 455.7911 463.2228 471.4136 479.234 485.6546 490.5581 496.555 502.3424 507.4074 512.7407 517.1839 519.9027 520.555 -9999 -9999 -9999 -9999 -9999 -9999 -9999 -9999 -9999 -9999 -9999 -9999 -9999 -9999 -9999 -9999 -9999 -9999 -9999 -9999 -9999 -9999 -9999 -9999 -9999 -9999 -9999 -9999 -9999 -9999 -9999 -9999 -9999 -9999 -9999 -9999 -9999 -9999 -9999 -9999 -9999 -9999 -9999 -9999 -9999 -9999 -9999 -9999 -9999 -9999 -9999 -9999 -9999 -9999 -9999 -9999 -9999 -9999 
-9999 -9999 -9999 -9999 -9999 -9999 -9999 -9999 -9999 -9999 -9999 -9999 -9999 -9999 -9999 -9999 -9999 -9999 -9999 -9999 -9999 -9999 -9999 -9999 -9999 -9999 -9999 -9999 -9999 -9999 -9999 -9999 -9999 -9999 -9999 -9999 -9999 -9999 -9999 573.9902 567.8652 560.9272 553.017 545.4564 538.2265 532.3858 526.3675 520.3347 517.8712 513.1224 505.8933 499.5314 493.491 489.0036 488.9762 489.4456 488.6249 485.2591 483.3777 482.0237 479.8337 476.3285 471.7222 466.9559 460.4156 452.833 444.0677 435.1797 427.7715 420.8793 411.9258 403.8875 398.1069 401.2113 408.0297 414.5653 422.0436 428.5206 434.3088 438.1104 443.3095 446.9976 449.3575 453.8068 458.2881 463.2648 467.0877 472.3798 470.7674 466.7174 462.4174 459.0181 455.8711 451.0339 445.2907 439.5384 432.5234 425.5267 419.0688 412.5651 406.4036 400.3297 394.4059 395.8537 393.3734 389.6655 402.2133 410.814 416.2357 418.0629 415.2069 412.0576 408.2735 405.7985 403.0454 400.937 398.2105 394.4608 391.1674 388.7389 387.7117 386.7097 387.4839 389.4125 389.7264 388.9324 394.239 401.9596 411.3261 420.3001 426.8336 434.2889 441.6865 450.0425 459.105 466.5955 474.7359 482.8261 490.5345 495.6262 500.8923 505.7371 510.1895 516.3853 519.0592 520.7288 -9999 -9999 -9999 -9999 -9999 -9999 -9999 -9999 -9999 -9999 -9999 -9999 -9999 -9999 -9999 -9999 -9999 -9999 -9999 -9999 -9999 -9999 -9999 -9999 -9999 -9999 -9999 -9999 -9999 -9999 -9999 -9999 -9999 -9999 -9999 -9999 -9999 -9999 -9999 -9999 -9999 -9999 -9999 -9999 -9999 -9999 -9999 -9999 -9999 -9999 -9999 -9999 -9999 -9999 -9999 -9999 -9999 -9999 -9999 
-9999 -9999 -9999 -9999 -9999 -9999 -9999 -9999 -9999 -9999 -9999 -9999 -9999 -9999 -9999 -9999 -9999 -9999 -9999 -9999 -9999 -9999 -9999 -9999 -9999 -9999 -9999 -9999 -9999 -9999 -9999 -9999 -9999 -9999 -9999 -9999 -9999 -9999 -9999 574.6624 568.3674 560.7848 552.197 543.8653 535.3058 527.381 519.8143 512.5639 510.4524 506.4831 500.7452 495.2185 489.6673 483.9614 481.6282 481.7029 481.0765 479.0069 476.8848 474.5279 472.7791 469.3166 465.4715 460.7494 456.4113 450.0182 442.274 433.9971 426.0715 417.2842 408.9448 400.953 391.9484 396.7307 404.3187 410.2654 416.8673 423.3284 428.1541 432.1287 436.1719 439.0286 442.2351 446.8658 452.0024 456.5721 461.9884 467.0435 465.0417 461.3681 457.328 452.5373 450.2719 447.9051 443.0634 437.5061 431.4132 424.6519 417.3916 411.1417 404.1137 397.162 392.2776 392.8651 391.8707 384.842 401.3027 407.4292 411.7375 411.6431 408.2392 404.9649 402.429 399.1387 397.4333 395.4079 391.9179 387.733 385.1971 385.2337 385.6048 385.5476 387.8085 388.1095 388.5743 388.1057 399.9106 407.145 414.8862 422.4962 430.4012 437.5648 444.9775 452.6234 461.4055 469.1429 477.0135 485.1433 492.825 499.9718 505.3066 509.9571 513.793 519.0538 520.8514 -9999 -9999 -9999 -9999 -9999 -9999 -9999 -9999 -9999 -9999 -9999 -9999 -9999 -9999 -9999 -9999 -9999 -9999 -9999 -9999 -9999 -9999 -9999 -9999 -9999 -9999 -9999 -9999 -9999 -9999 -9999 -9999 -9999 -9999 -9999 -9999 -9999 -9999 -9999 -9999 -9999 -9999 -9999 -9999 -9999 -9999 -9999 -9999 -9999 -9999 -9999 -9999 -9999 -9999 -9999 -9999 -9999 -9999 -9999 -9999 
-9999 -9999 -9999 -9999 -9999 -9999 -9999 -9999 -9999 -9999 -9999 -9999 -9999 -9999 -9999 -9999 -9999 -9999 -9999 -9999 -9999 -9999 -9999 -9999 -9999 -9999 -9999 -9999 -9999 -9999 -9999 -9999 -9999 -9999 -9999 -9999 -9999 -9999 -9999 571.8772 565.6425 557.9211 551.3885 543.3868 534.9263 526.6578 517.2928 508.2258 502.4963 500.5197 495.748 489.2208 484.0308 478.7867 475.0735 474.6742 474.1758 471.8357 469.251 467.6036 465.4982 463.8515 459.563 454.6412 449.9321 444.944 438.9173 431.3034 422.3354 414.381 405.5798 398.3165 390.6157 392.6136 400.7434 405.8046 412.0515 418.024 421.8699 424.9293 428.6898 432.416 435.6133 440.6768 445.1452 449.9496 456.4921 461.1525 459.611 456.0623 451.7448 446.6966 444.6384 443.0725 439.8264 435.1317 429.3855 422.5694 415.6253 408.8549 401.1458 394.2184 389.9383 390.653 386.9482 382.3373 397.7221 404.0939 406.5103 404.8704 402.096 398.1854 395.3271 393.2309 390.9845 389.9139 386.9139 383.8537 383.4049 383.6136 383.2151 384.9792 384.6888 384.6172 385.1522 394.9469 404.7378 411.778 418.9484 425.3096 432.403 438.6064 445.1734 453.1088 460.9247 468.6026 476.4237 484.1504 492.2048 499.4156 505.8667 512.1028 518.0914 520.6754 520.9001 -9999 -9999 -9999 -9999 -9999 -9999 -9999 -9999 -9999 -9999 -9999 -9999 -9999 -9999 -9999 -9999 -9999 -9999 -9999 -9999 -9999 -9999 -9999 -9999 -9999 -9999 -9999 -9999 -9999 -9999 -9999 -9999 -9999 -9999 -9999 -9999 -9999 -9999 -9999 -9999 -9999 -9999 -9999 -9999 -9999 -9999 -9999 -9999 -9999 -9999 -9999 -9999 -9999 -9999 -9999 -9999 -9999 -9999 -9999 -9999 
-9999 -9999 -9999 -9999 -9999 -9999 -9999 -9999 -9999 -9999 -9999 -9999 -9999 -9999 -9999 -9999 -9999 -9999 -9999 -9999 -9999 -9999 -9999 -9999 -9999 -9999 -9999 -9999 -9999 -9999 -9999 -9999 -9999 -9999 -9999 -9999 -9999 -9999 -9999 569.7397 563.5493 556.9893 549.4988 541.7112 534.0469 525.9309 517.3858 509.381 500.6988 493.3645 489.5789 484.5215 478.3257 473.5007 469.1771 467.2973 466.5962 465.6292 463.1238 460.789 459.2003 457.0568 453.579 449.2196 444.0151 439.0476 434.385 427.7655 419.9695 411.7604 403.9835 396.253 389.7599 390.3238 398.1884 401.0436 406.8996 411.6385 414.5615 417.9616 421.5841 425.9877 429.8617 434.0322 438.755 444.9676 451.011 454.7601 453.028 450.6361 445.9697 441.2818 438.2338 437.1975 435.8191 431.3248 426.2255 419.8559 413.7355 406.0149 399.2926 393.0625 388.809 388.0683 386.2426 380.0521 392.7691 399.8885 400.7556 398.5291 395.2182 391.9355 388.8745 385.9172 383.1686 382.9301 382.0219 381.8611 381.9723 382.1141 381.314 381.9533 383.4041 385.0538 388.2436 395.8796 403.0843 409.4851 415.8356 422.087 429.1355 435.6651 443.1076 450.7847 458.9861 466.7502 474.3671 482.4855 489.9782 497.7445 504.4074 510.8311 516.4608 520.158 -9999 -9999 -9999 -9999 -9999 -9999 -9999 -9999 -9999 -9999 -9999 -9999 -9999 -9999 -9999 -9999 -9999 -9999 -9999 -9999 -9999 -9999 -9999 -9999 -9999 -9999 -9999 -9999 -9999 -9999 -9999 -9999 -9999 -9999 -9999 -9999 -9999 -9999 -9999 -9999 -9999 -9999 -9999 -9999 -9999 -9999 -9999 -9999 -9999 -9999 -9999 -9999 -9999 -9999 -9999 -9999 -9999 -9999 -9999 -9999 -9999 
-9999 -9999 -9999 -9999 -9999 -9999 -9999 -9999 -9999 -9999 -9999 -9999 -9999 -9999 -9999 -9999 -9999 -9999 -9999 -9999 -9999 -9999 -9999 -9999 -9999 -9999 -9999 -9999 -9999 -9999 -9999 -9999 -9999 -9999 -9999 -9999 -9999 -9999 -9999 569.9531 563.7169 557.0616 550.2021 542.1942 534.1589 526.5413 518.5859 511.0231 503.2103 495.2329 487.1451 481.7052 475.1398 469.1672 463.8447 460.312 459.153 458.6966 456.595 453.1477 452.7773 450.6636 447.0067 442.0659 438.1645 433.0149 428.6494 424.2641 416.8978 408.5257 400.7556 392.7897 388.0409 387.8938 395.6761 397.3144 401.1039 403.607 406.767 410.3507 414.4449 419.3644 423.0197 426.5508 432.7962 439.4256 445.0103 448.2534 447.6674 444.5241 440.8406 435.3618 431.8681 430.8828 430.8554 428.1015 423.1965 417.0114 410.4201 403.1597 396.8595 390.2156 386.8522 385.6703 384.2347 378.7094 390.6042 394.9309 396.4518 392.385 388.7274 385.7595 382.3091 379.7214 378.6721 378.9875 378.9685 379.0562 379.4395 379.8006 380.1999 381.9365 385.1331 390.874 397.2618 400.9972 403.1133 406.4218 411.3665 417.7612 425.2935 433.0515 441.3916 448.9262 457.1718 463.8644 472.0971 479.4695 486.966 494.3102 501.524 507.7968 513.236 518.3665 -9999 -9999 -9999 -9999 -9999 -9999 -9999 -9999 -9999 -9999 -9999 -9999 -9999 -9999 -9999 -9999 -9999 -9999 -9999 -9999 -9999 -9999 -9999 -9999 -9999 -9999 -9999 -9999 -9999 -9999 -9999 -9999 -9999 -9999 -9999 -9999 -9999 -9999 -9999 -9999 -9999 -9999 -9999 -9999 -9999 -9999 -9999 -9999 -9999 -9999 -9999 -9999 -9999 -9999 -9999 -9999 -9999 -9999 -9999 -9999 -9999 
-9999 -9999 -9999 -9999 -9999 -9999 -9999 -9999 -9999 -9999 -9999 -9999 -9999 -9999 -9999 -9999 -9999 -9999 -9999 -9999 -9999 -9999 -9999 -9999 -9999 -9999 -9999 -9999 -9999 -9999 -9999 -9999 -9999 -9999 -9999 -9999 -9999 -9999 -9999 570.5422 565.2448 558.2435 551.4373 544.5876 536.4899 528.9735 521.8687 514.9337 507.3022 500.1281 491.951 485.9823 479.0976 472.4118 465.1499 457.3844 452.0123 449.8558 448.4759 446.1129 444.752 443.5198 440.1007 435.4121 430.94 425.6814 422.718 419.436 412.9293 405.6301 397.4661 389.952 386.4239 386.6845 395.1496 393.3817 394.0051 396.1501 398.7653 403.127 407.6891 412.3319 417.1401 421.9712 427.5193 432.5546 438.0723 441.5775 441.1401 439.181 435.9707 430.7037 426.8252 425.244 425.0108 423.8061 418.8364 412.9141 406.6718 399.8496 393.176 387.9434 384.7917 382.7229 382.0523 376.8181 387.2035 390.3246 389.9733 387.0693 381.6165 379.2505 377.3409 376.0699 377.9772 379.2802 377.9794 377.1222 377.4857 378.7277 380.8537 383.4826 392.3584 398.5679 404.5504 408.5242 411.4084 413.2547 417.3322 422.2257 425.9702 432.1104 439.9689 447.7268 454.8607 461.6836 468.63 475.8538 483.3785 490.2868 497.5952 504.6406 511.3271 517.7325 -9999 -9999 -9999 -9999 -9999 -9999 -9999 -9999 -9999 -9999 -9999 -9999 -9999 -9999 -9999 -9999 -9999 -9999 -9999 -9999 -9999 -9999 -9999 -9999 -9999 -9999 -9999 -9999 -9999 -9999 -9999 -9999 -9999 -9999 -9999 -9999 -9999 -9999 -9999 -9999 -9999 -9999 -9999 -9999 -9999 -9999 -9999 -9999 -9999 -9999 -9999 -9999 -9999 -9999 -9999 -9999 -9999 -9999 -9999 -9999 -9999 
-9999 -9999 -9999 -9999 -9999 -9999 -9999 -9999 -9999 -9999 -9999 -9999 -9999 -9999 -9999 -9999 -9999 -9999 -9999 -9999 -9999 -9999 -9999 -9999 -9999 -9999 -9999 -9999 -9999 -9999 -9999 -9999 -9999 -9999 -9999 -9999 -9999 -9999 -9999 570.6565 566.0753 558.7601 552.0454 545.4412 538.67 532.2395 525.95 518.9388 511.7196 504.7442 496.712 489.8822 482.57 475.4271 468.7062 460.1337 452.8033 445.4172 440.1563 438.7009 436.7571 434.0672 431.0611 427.2504 423.6575 419.7264 416.67 413.6113 408.9799 403.3373 395.4262 387.5524 386.1565 385.1415 393.0282 392.0688 390.813 390.7704 392.4925 396.5044 401.084 405.9022 410.731 415.1506 421.1262 425.9092 430.2595 434.4299 434.6654 432.4868 429.3763 425.6814 421.6771 419.9816 419.8292 419.7279 414.6827 408.5379 402.999 396.4359 389.7676 385.7999 382.9629 380.7744 379.0173 375.2492 382.3312 385.1544 385.0881 381.9555 377.2289 375.2629 373.7458 375.8527 378.2774 377.7737 374.8537 375.9464 378.5974 381.3741 385.4783 389.033 392.1846 398.4902 404.1877 410.9847 416.5694 421.2519 425.6944 429.2445 434.1038 438.3428 444.2033 448.3265 454.4309 460.9201 467.9724 475.3211 483.0387 490.0239 496.7372 503.6721 510.982 517.5062 -9999 -9999 -9999 -9999 -9999 -9999 -9999 -9999 -9999 -9999 -9999 -9999 -9999 -9999 -9999 -9999 -9999 -9999 -9999 -9999 -9999 -9999 -9999 -9999 -9999 -9999 -9999 -9999 -9999 -9999 -9999 -9999 -9999 -9999 -9999 -9999 -9999 -9999 -9999 -9999 -9999 -9999 -9999 -9999 -9999 -9999 -9999 -9999 -9999 -9999 -9999 -9999 -9999 -9999 -9999 -9999 -9999 -9999 -9999 -9999 -9999 
-9999 -9999 -9999 -9999 -9999 -9999 -9999 -9999 -9999 -9999 -9999 -9999 -9999 -9999 -9999 -9999 -9999 -9999 -9999 -9999 -9999 -9999 -9999 -9999 -9999 -9999 -9999 -9999 -9999 -9999 -9999 -9999 -9999 -9999 -9999 -9999 -9999 -9999 -9999 571.6829 566.7527 560.1439 554.0609 547.9161 540.9423 535.5801 528.8509 522.5004 515.4412 508.1237 500.25 493.5764 486.2345 478.2792 471.3663 463.8873 456.214 448.312 440.8345 433.2877 429.7848 425.0413 423.3245 420.0563 416.5542 411.8542 409.6748 407.0665 403.7358 399.8839 393.9174 386.1351 383.651 384.3284 390.0899 390.5944 390.7589 389.0277 387.7231 390.1028 394.063 398.5092 403.7396 407.8445 414.5044 419.6197 423.4807 428.0886 428.0474 425.5602 423.5638 420.1142 416.9176 414.5105 414.6096 414.7299 411.5585 406.3754 399.8481 392.0376 385.015 381.2591 381.128 380.8019 376.521 372.1288 378.781 381.7498 381.2012 377.6678 373.4798 372.1661 372.7574 373.9043 375.1623 373.7724 374.9756 377.075 379.8646 385.3747 392.1001 393.6104 396.7818 397.7983 400.6604 406.3921 412.319 418.8737 426.2072 432.4319 439.0019 444.5203 449.026 454.597 458.7933 464.7446 471.0875 478.2099 485.8847 493.0818 499.4933 505.539 512.1242 518.938 -9999 -9999 -9999 -9999 -9999 -9999 -9999 -9999 -9999 -9999 -9999 -9999 -9999 -9999 -9999 -9999 -9999 -9999 -9999 -9999 -9999 -9999 -9999 -9999 -9999 -9999 -9999 -9999 -9999 -9999 -9999 -9999 -9999 -9999 -9999 -9999 -9999 -9999 -9999 -9999 -9999 -9999 -9999 -9999 -9999 -9999 -9999 -9999 -9999 -9999 -9999 -9999 -9999 -9999 -9999 -9999 -9999 -9999 -9999 -9999 -9999 
-9999 -9999 -9999 -9999 -9999 -9999 -9999 -9999 -9999 -9999 -9999 -9999 -9999 -9999 -9999 -9999 -9999 -9999 -9999 -9999 -9999 -9999 -9999 -9999 -9999 -9999 -9999 -9999 -9999 -9999 -9999 -9999 -9999 -9999 -9999 -9999 -9999 -9999 -9999 -9999 567.5994 562.2539 556.8521 550.7507 545.3726 538.0833 531.6299 525.3274 518.1958 510.7435 503.8016 496.1107 488.7361 481.8835 474.2498 466.6275 459.0395 451.9994 444.5523 437.6303 430.4302 425.0322 419.9016 414.7018 409.3777 405.9022 402.4351 399.6096 396.5928 394.0813 390.9167 385.3076 381.2896 381.4724 387.5608 389.0277 388.1964 387.4381 386.2913 385.5956 387.685 391.6558 396.6995 401.8407 408.2407 413.3378 417.6431 422.0604 422.0451 419.2265 416.9832 415.2062 412.1666 408.9578 409.2237 409.2946 407.7942 402.5981 396.1005 389.0444 381.9647 379.0402 378.9738 379.3922 376.3602 370.6063 377.8484 379.2642 378.1943 372.3277 369.6234 370.3724 371.0551 372.9624 373.668 372.5715 374.5306 381.6873 384.0952 391.8707 398.4064 400.4028 398.2334 403.793 409.4043 409.3609 409.3266 412.5804 419.6654 427.607 434.257 442.2648 450.7634 458.1769 464.5228 469.9406 475.3272 480.6186 487.9833 494.8169 501.86 509.0907 515.8092 521.698 -9999 -9999 -9999 -9999 -9999 -9999 -9999 -9999 -9999 -9999 -9999 -9999 -9999 -9999 -9999 -9999 -9999 -9999 -9999 -9999 -9999 -9999 -9999 -9999 -9999 -9999 -9999 -9999 -9999 -9999 -9999 -9999 -9999 -9999 -9999 -9999 -9999 -9999 -9999 -9999 -9999 -9999 -9999 -9999 -9999 -9999 -9999 -9999 -9999 -9999 -9999 -9999 -9999 -9999 -9999 -9999 -9999 -9999 -9999 -9999 -9999 
-9999 -9999 -9999 -9999 -9999 -9999 -9999 -9999 -9999 -9999 -9999 -9999 -9999 -9999 -9999 -9999 -9999 -9999 -9999 -9999 -9999 -9999 -9999 -9999 -9999 -9999 -9999 -9999 -9999 -9999 -9999 -9999 -9999 -9999 -9999 -9999 -9999 -9999 -9999 -9999 567.6954 562.4634 556.0101 551.6377 546.8768 540.066 532.9733 526.3484 517.875 510.5545 503.7483 497.1395 489.0699 482.8573 475.6092 468.9584 460.7585 453.9013 447.0578 439.6451 433.9301 431.4436 427.0172 419.5092 415.1833 413.6517 410.7919 404.4353 398.2189 392.1823 386.1427 382.2352 377.8994 377.8171 382.5652 385.9484 386.0681 385.7648 385.2679 384.4458 383.062 385.7495 391.0493 395.6723 402.1463 406.8897 412.351 417.4305 415.8432 413.0596 410.9199 409.924 406.3792 404.4757 404.0429 404.545 403.1757 399.3025 392.9367 387.2118 380.6937 376.963 376.8799 377.3477 375.1943 368.9619 377.0742 376.7061 372.9571 368.5222 368.4049 368.7661 369.9701 372.0778 371.5695 372.5258 374.8735 379.2162 385.9553 394.7206 402.7528 406.1833 404.0551 405.8069 413.1602 417.0159 419.0208 418.6923 418.8988 423.0578 429.6263 438.9409 448.437 457.453 465.8487 473.5731 479.8542 485.3734 491.5471 499.0041 505.5321 512.285 519.1194 522.6139 -9999 -9999 -9999 -9999 -9999 -9999 -9999 -9999 -9999 -9999 -9999 -9999 -9999 -9999 -9999 -9999 -9999 -9999 -9999 -9999 -9999 -9999 -9999 -9999 -9999 -9999 -9999 -9999 -9999 -9999 -9999 -9999 -9999 -9999 -9999 -9999 -9999 -9999 -9999 -9999 -9999 -9999 -9999 -9999 -9999 -9999 -9999 -9999 -9999 -9999 -9999 -9999 -9999 -9999 -9999 -9999 -9999 -9999 -9999 -9999 -9999 
-9999 -9999 -9999 -9999 -9999 -9999 -9999 -9999 -9999 -9999 -9999 -9999 -9999 -9999 -9999 -9999 -9999 -9999 -9999 -9999 -9999 -9999 -9999 -9999 -9999 -9999 -9999 -9999 -9999 -9999 -9999 -9999 -9999 -9999 -9999 -9999 -9999 -9999 -9999 -9999 565.6898 558.613 554.2643 550.7439 545.7719 540.8524 534.5621 526.9878 517.9756 510.0035 502.9665 495.9706 486.9119 480.364 473.9252 467.0953 460.6686 454.1612 448.9155 443.6235 440.8719 437.7736 430.3647 423.4167 424.4554 421.8242 416.8277 411.3383 406.2588 400.3076 393.051 384.7635 376.5126 374.776 377.4323 383.3805 383.3919 383.7363 383.6114 382.7488 381.3513 381.2316 385.2969 391.5529 396.2271 401.9245 407.9184 412.4378 410.7332 406.8973 404.8277 403.0652 401.2593 398.5336 399.269 399.6942 398.033 394.8478 390.3017 384.4518 378.9281 374.6739 373.7122 375.4001 374.9817 367.54 374.0285 374.0597 368.9924 367.46 368.0247 368.5436 369.9099 370.3762 371.3904 373.921 377.7425 384.128 391.2497 398.3622 405.6599 410.9146 410.1983 409.0889 415.1186 421.7937 426.5737 427.8943 428.6631 430.0027 434.4459 437.5175 446.2462 456.025 464.7194 472.6564 481.0277 488.0503 495.2459 501.9797 509.1265 515.9532 521.8618 -9999 -9999 -9999 -9999 -9999 -9999 -9999 -9999 -9999 -9999 -9999 -9999 -9999 -9999 -9999 -9999 -9999 -9999 -9999 -9999 -9999 -9999 -9999 -9999 -9999 -9999 -9999 -9999 -9999 -9999 -9999 -9999 -9999 -9999 -9999 -9999 -9999 -9999 -9999 -9999 -9999 -9999 -9999 -9999 -9999 -9999 -9999 -9999 -9999 -9999 -9999 -9999 -9999 -9999 -9999 -9999 -9999 -9999 -9999 -9999 -9999 -9999 
-9999 -9999 -9999 -9999 -9999 -9999 -9999 -9999 -9999 -9999 -9999 -9999 -9999 -9999 -9999 -9999 -9999 -9999 -9999 -9999 -9999 -9999 -9999 -9999 -9999 -9999 -9999 -9999 -9999 -9999 -9999 -9999 -9999 -9999 -9999 -9999 -9999 -9999 -9999 -9999 563.5889 556.8521 552.5895 547.9542 543.7045 539.8115 534.8607 526.8331 518.4153 510.9591 503.7445 495.7603 488.1585 481.4217 474.6772 469.2167 463.7502 459.8632 455.4901 450.2132 446.3209 440.9054 434.0443 429.9471 429.9974 425.622 421.0218 415.6284 410.6662 405.0906 397.2824 387.9632 378.0907 372.3475 374.6259 378.9502 381.0716 381.794 382.0074 381.3558 380.235 378.7597 381.0762 385.7419 391.1765 396.8344 404.0856 406.7038 404.7637 401.5054 398.4605 397.5826 396.6553 393.5791 393.9571 394.2542 392.7051 390.1448 385.6924 380.5016 376.3206 373.7366 371.6137 372.6691 373.4181 366.1357 370.1324 369.4051 365.5048 367.4715 368.2517 368.6457 369.1913 370.8197 373.1926 378.3986 385.0119 389.1625 395.9608 402.8911 408.9318 414.908 417.3398 415.7959 416.2553 422.9283 430.9423 434.6872 437.0916 438.8663 442.7548 445.2107 445.9544 455.3872 463.834 472.1108 480.1385 488.5296 496.0178 504.0165 511.5047 518.0861 523.8872 -9999 -9999 -9999 -9999 -9999 -9999 -9999 -9999 -9999 -9999 -9999 -9999 -9999 -9999 -9999 -9999 -9999 -9999 -9999 -9999 -9999 -9999 -9999 -9999 -9999 -9999 -9999 -9999 -9999 -9999 -9999 -9999 -9999 -9999 -9999 -9999 -9999 -9999 -9999 -9999 -9999 -9999 -9999 -9999 -9999 -9999 -9999 -9999 -9999 -9999 -9999 -9999 -9999 -9999 -9999 -9999 -9999 -9999 -9999 -9999 -9999 -9999 
-9999 -9999 -9999 -9999 -9999 -9999 -9999 -9999 -9999 -9999 -9999 -9999 -9999 -9999 -9999 -9999 -9999 -9999 -9999 -9999 -9999 -9999 -9999 -9999 -9999 -9999 -9999 -9999 -9999 -9999 -9999 -9999 -9999 -9999 -9999 -9999 -9999 -9999 -9999 -9999 562.1846 556.1823 551.1615 546.3707 542.2247 537.6702 532.4445 526.6594 519.1194 512.269 504.9728 497.9289 490.8682 484.5032 478.9368 474.3862 469.9551 465.1972 460.5338 454.7212 449.5175 442.6488 437.9778 435.7901 434.1259 429.9524 424.2313 418.0103 411.3505 404.9756 396.1112 388.1559 380.1572 372.0214 370.5956 373.7755 377.6663 379.6002 379.4105 379.3918 379.1415 377.3302 375.9563 378.7826 385.0828 392.6464 398.7047 400.4165 398.106 395.0647 392.3972 390.5335 390.1242 388.3442 388.7389 388.7488 386.4963 384.0952 380.5695 376.4402 373.0889 371.2479 369.2858 370.9911 371.5748 368.2548 366.0594 365.0498 365.8454 367.1331 367.4341 369.9975 371.0788 375.0046 379.8296 385.2032 391.5133 392.904 399.8618 407.7043 413.5397 419.0192 423.07 422.753 422.2562 423.0715 429.8777 437.8086 443.4428 447.0403 450.5119 453.3504 454.2998 456.9097 465.4745 473.4748 481.9879 490.2563 498.0432 505.6716 512.7947 520.4109 524.5029 -9999 -9999 -9999 -9999 -9999 -9999 -9999 -9999 -9999 -9999 -9999 -9999 -9999 -9999 -9999 -9999 -9999 -9999 -9999 -9999 -9999 -9999 -9999 -9999 -9999 -9999 -9999 -9999 -9999 -9999 -9999 -9999 -9999 -9999 -9999 -9999 -9999 -9999 -9999 -9999 -9999 -9999 -9999 -9999 -9999 -9999 -9999 -9999 -9999 -9999 -9999 -9999 -9999 -9999 -9999 -9999 -9999 -9999 -9999 -9999 -9999 -9999 
-9999 -9999 -9999 -9999 -9999 -9999 -9999 -9999 -9999 -9999 -9999 -9999 -9999 -9999 -9999 -9999 -9999 -9999 -9999 -9999 -9999 -9999 -9999 -9999 -9999 -9999 -9999 -9999 -9999 -9999 -9999 -9999 -9999 -9999 -9999 -9999 -9999 -9999 -9999 563.5249 559.4467 555.2565 550.9648 545.717 541.3774 536.2393 530.5187 525.0413 519.1597 512.4974 506.4922 499.1199 492.9942 487.4674 482.4192 478.1691 474.0147 469.2047 463.1385 457.9877 453.0786 447.4469 444.9039 442.6496 439.3441 434.0314 426.5379 417.7726 409.0233 400.2733 393.176 387.5837 381.4412 375.4877 368.3081 368.9238 371.7646 377.2129 377.1336 377.4384 377.5664 376.0287 374.059 374.7623 380.2479 386.8026 392.4506 393.9525 391.4554 388.6772 385.9164 383.7104 382.7648 382.1636 382.9279 382.7473 381.2042 379.0843 376.2413 372.7133 369.9472 368.3455 367.9439 369.8504 370.2017 368.0552 364.2436 363.9076 364.9934 365.7356 366.8177 369.7788 373.6307 379.8029 385.2756 390.903 397.2733 401.6677 406.4744 412.8021 418.9286 424.9102 429.2689 429.3588 429.0967 428.9915 428.7949 436.1894 443.9092 451.6183 456.9699 461.6074 461.2219 465.5736 470.6074 476.6874 484.7615 492.5195 499.5344 506.7094 513.428 520.7744 525.0576 -9999 -9999 -9999 -9999 -9999 -9999 -9999 -9999 -9999 -9999 -9999 -9999 -9999 -9999 -9999 -9999 -9999 -9999 -9999 -9999 -9999 -9999 -9999 -9999 -9999 -9999 -9999 -9999 -9999 -9999 -9999 -9999 -9999 -9999 -9999 -9999 -9999 -9999 -9999 -9999 -9999 -9999 -9999 -9999 -9999 -9999 -9999 -9999 -9999 -9999 -9999 -9999 -9999 -9999 -9999 -9999 -9999 -9999 -9999 -9999 -9999 -9999 
-9999 -9999 -9999 -9999 -9999 -9999 -9999 -9999 -9999 -9999 -9999 -9999 -9999 -9999 -9999 -9999 -9999 -9999 -9999 -9999 -9999 -9999 -9999 -9999 -9999 -9999 -9999 -9999 -9999 -9999 -9999 -9999 -9999 -9999 -9999 -9999 -9999 -9999 -9999 561.0377 555.9659 552.056 549.0645 544.8735 539.7238 534.1986 528.0111 522.1437 516.0554 510.7861 504.5134 498.4775 492.8616 488.4222 483.3884 479.061 473.9465 468.7397 465.1644 461.0953 455.7286 450.5676 446.1136 442.4042 438.9608 434.67 428.8673 418.7159 409.066 401.603 394.8547 388.0333 383.3119 379.1902 370.9835 366.7811 367.6162 373.5453 375.6698 375.0739 375.0046 374.0986 373.0143 372.0511 375.679 380.9855 387.9456 389.1999 385.351 382.3663 378.7811 376.6231 375.5349 375.3124 376.4707 375.9533 373.6536 372.0206 370.4547 368.2594 367.1506 366.1563 365.488 367.0356 367.9104 367.0661 360.9929 362.7638 364.0204 366.4184 369.2111 372.2362 376.9332 382.7374 388.5636 396.0952 403.5232 409.6466 413.5161 418.1544 423.8343 430.7022 435.2689 436.0179 436.1117 436.9102 435.2834 436.8637 443.9778 451.9026 460.1985 466.9963 470.4862 472.5581 476.2645 481.6785 487.6305 494.7659 502.1458 508.8263 515.6851 522.0272 525.2557 -9999 -9999 -9999 -9999 -9999 -9999 -9999 -9999 -9999 -9999 -9999 -9999 -9999 -9999 -9999 -9999 -9999 -9999 -9999 -9999 -9999 -9999 -9999 -9999 -9999 -9999 -9999 -9999 -9999 -9999 -9999 -9999 -9999 -9999 -9999 -9999 -9999 -9999 -9999 -9999 -9999 -9999 -9999 -9999 -9999 -9999 -9999 -9999 -9999 -9999 -9999 -9999 -9999 -9999 -9999 -9999 -9999 -9999 -9999 -9999 -9999 -9999 
-9999 -9999 -9999 -9999 -9999 -9999 -9999 -9999 -9999 -9999 -9999 -9999 -9999 -9999 -9999 -9999 -9999 -9999 -9999 -9999 -9999 -9999 -9999 -9999 -9999 -9999 -9999 -9999 -9999 -9999 -9999 -9999 -9999 -9999 -9999 -9999 -9999 -9999 -9999 560.752 556.4634 551.07 546.8409 542.7688 538.4346 531.8829 525.4988 519.5339 512.5189 506.9518 500.964 496.0163 490.9764 486.0692 481.7044 477.1492 471.8449 467.74 463.3295 459.5812 454.9072 448.799 442.4248 438.7108 434.7805 431.1609 427.8843 420.2499 411.938 405.1181 399.4816 396.1257 391.0965 384.7155 377.8545 367.598 365.4186 370.7016 373.7496 373.2352 372.9609 372.615 371.8103 369.5593 372.631 376.729 382.3411 383.9787 380.9962 376.4432 371.9391 369.6805 369.378 369.3284 369.4991 368.4095 367.0844 366.0747 365.3325 365.1474 365.1542 364.6338 363.1105 364.4836 364.4258 361.3831 360.6675 362.7684 363.778 368.3889 370.6924 374.5291 379.3129 385.383 391.4813 399.6446 406.9651 414.9745 420.467 424.8043 428.7576 434.8345 440.4368 442.152 443.1533 443.1716 443.119 443.2973 444.5752 452.1464 460.6138 468.2726 475.8149 479.0679 483.0791 486.8997 492.2063 498.3907 504.969 510.9042 518.2042 524.2019 525.2153 -9999 -9999 -9999 -9999 -9999 -9999 -9999 -9999 -9999 -9999 -9999 -9999 -9999 -9999 -9999 -9999 -9999 -9999 -9999 -9999 -9999 -9999 -9999 -9999 -9999 -9999 -9999 -9999 -9999 -9999 -9999 -9999 -9999 -9999 -9999 -9999 -9999 -9999 -9999 -9999 -9999 -9999 -9999 -9999 -9999 -9999 -9999 -9999 -9999 -9999 -9999 -9999 -9999 -9999 -9999 -9999 -9999 -9999 -9999 -9999 -9999 -9999 
-9999 -9999 -9999 -9999 -9999 -9999 -9999 -9999 -9999 -9999 -9999 -9999 -9999 -9999 -9999 -9999 -9999 -9999 -9999 -9999 -9999 -9999 -9999 -9999 -9999 -9999 -9999 -9999 -9999 -9999 -9999 -9999 -9999 -9999 -9999 -9999 -9999 -9999 -9999 560.6575 556.3956 550.5808 544.6441 539.9464 534.0218 527.9083 521.861 515.3818 508.856 503.346 497.029 492.3236 487.6229 483.3176 478.2449 474.3481 469.5139 465.4715 460.2168 455.7324 451.9346 444.8808 438.9554 434.0543 429.6019 426.9456 424.8676 420.5486 415.7487 410.0863 405.4244 402.0099 395.3317 386.0681 377.4544 367.6528 364.0417 365.7897 371.1191 371.5428 370.6642 370.2139 369.4587 368.5131 370.2093 372.9769 376.7115 379.236 375.9708 370.9881 368.27 365.693 365.6236 364.8067 363.7224 362.9452 363.1624 362.6602 362.0811 362.5985 363.2202 363.2256 361.0074 362.1108 358.5553 357.852 362.2876 362.5428 363.8481 367.6254 372.5403 376.0729 379.3678 384.1966 391.7084 399.0289 407.1396 414.3649 420.5768 426.0891 430.5955 435.1035 440.3674 446.5572 448.9742 450.6971 451.6953 451.4659 450.3816 452.7583 461.9099 470.1693 477.2528 482.9807 487.4895 492.4037 496.9429 502.8057 508.8994 514.4391 520.8415 523.4986 529.7584 -9999 -9999 -9999 -9999 -9999 -9999 -9999 -9999 -9999 -9999 -9999 -9999 -9999 -9999 -9999 -9999 -9999 -9999 -9999 -9999 -9999 -9999 -9999 -9999 -9999 -9999 -9999 -9999 -9999 -9999 -9999 -9999 -9999 -9999 -9999 -9999 -9999 -9999 -9999 -9999 -9999 -9999 -9999 -9999 -9999 -9999 -9999 -9999 -9999 -9999 -9999 -9999 -9999 -9999 -9999 -9999 -9999 -9999 -9999 -9999 -9999 -9999 
-9999 -9999 -9999 -9999 -9999 -9999 -9999 -9999 -9999 -9999 -9999 -9999 -9999 -9999 -9999 -9999 -9999 -9999 -9999 -9999 -9999 -9999 -9999 -9999 -9999 -9999 -9999 -9999 -9999 -9999 -9999 -9999 -9999 -9999 -9999 -9999 -9999 -9999 -9999 560.5386 555.5406 548.9677 543.1117 536.7406 530.1021 523.7249 517.2639 511.0239 504.7061 499.3051 492.9424 487.6983 482.7659 477.976 473.4108 469.5459 464.6707 460.4568 456.6582 449.9945 443.8086 439.4911 433.4012 427.3243 423.5745 420.7368 418.8729 415.3007 411.6652 407.1335 402.0396 397.7556 393.442 387.999 380.8529 370.9767 364.2932 362.0422 365.9368 369.5037 369.4084 368.1009 366.9579 366.9335 368.4064 369.0572 371.6236 373.502 370.8661 367.6162 364.8403 363.33 361.7862 360.8169 360.2241 360.5571 360.2264 359.6869 360.2286 360.5052 362.0087 361.249 357.8878 354.0191 356.6937 359.5924 361.2139 362.1535 364.9203 369.346 375.8718 382.9324 384.935 386.5009 389.9276 396.7391 404.6715 412.5742 421.2687 428.4444 431.9039 436.1604 441.8358 445.3151 449.0078 453.8495 456.8495 458.0428 458.8124 458.5084 461.7232 470.6752 479.2028 485.2325 490.2152 496.6685 501.5042 507.4745 513.1644 519.0089 521.4808 528.4752 531.9972 -9999 -9999 -9999 -9999 -9999 -9999 -9999 -9999 -9999 -9999 -9999 -9999 -9999 -9999 -9999 -9999 -9999 -9999 -9999 -9999 -9999 -9999 -9999 -9999 -9999 -9999 -9999 -9999 -9999 -9999 -9999 -9999 -9999 -9999 -9999 -9999 -9999 -9999 -9999 -9999 -9999 -9999 -9999 -9999 -9999 -9999 -9999 -9999 -9999 -9999 -9999 -9999 -9999 -9999 -9999 -9999 -9999 -9999 -9999 -9999 -9999 -9999 
-9999 -9999 -9999 -9999 -9999 -9999 -9999 -9999 -9999 -9999 -9999 -9999 -9999 -9999 -9999 -9999 -9999 -9999 -9999 -9999 -9999 -9999 -9999 -9999 -9999 -9999 -9999 -9999 -9999 -9999 -9999 -9999 -9999 -9999 -9999 -9999 -9999 -9999 -9999 559.8185 554.3619 548.192 541.1442 534.9979 527.7909 520.8918 514.2548 507.9324 501.5865 495.6742 489.3732 483.5881 478.7379 473.2668 469.0781 463.6755 459.2208 454.6267 450.3488 443.2973 434.8322 429.4846 425.3339 420.0754 416.321 411.9189 409.2092 407.324 403.8135 399.714 396.5067 391.886 387.2621 382.076 375.3452 369.3087 363.4801 361.0417 360.634 367.1156 367.5408 366.6127 365.1931 364.9195 366.458 366.7773 367.4928 367.2208 365.6259 363.0359 361.793 360.394 359.549 358.4715 357.7377 357.932 357.8695 358.0417 358.1065 359.4225 359.6808 357.5372 352.3861 353.507 356.1649 356.7951 359.8126 362.5802 367.425 372.3909 379.5758 387.7353 392.6639 394.6893 396.4998 396.3878 403.2565 411.4617 418.7487 428.1114 434.0276 437.9298 442.8584 447.0799 449.8002 453.7977 459.6293 463.1649 464.9602 466.8934 466.4553 472.6122 480.4997 487.5337 493.6777 500.3117 506.8336 512.3947 518.0488 520.1839 526.8293 530.4899 -9999 -9999 -9999 -9999 -9999 -9999 -9999 -9999 -9999 -9999 -9999 -9999 -9999 -9999 -9999 -9999 -9999 -9999 -9999 -9999 -9999 -9999 -9999 -9999 -9999 -9999 -9999 -9999 -9999 -9999 -9999 -9999 -9999 -9999 -9999 -9999 -9999 -9999 -9999 -9999 -9999 -9999 -9999 -9999 -9999 -9999 -9999 -9999 -9999 -9999 -9999 -9999 -9999 -9999 -9999 -9999 -9999 -9999 -9999 -9999 -9999 -9999 -9999 
-9999 -9999 -9999 -9999 -9999 -9999 -9999 -9999 -9999 -9999 -9999 -9999 -9999 -9999 -9999 -9999 -9999 -9999 -9999 -9999 -9999 -9999 -9999 -9999 -9999 -9999 -9999 -9999 -9999 -9999 -9999 -9999 -9999 -9999 -9999 -9999 -9999 -9999 562.6265 557.9372 552.751 546.3441 539.8808 533.3246 525.9743 519.2222 512.2119 506.5121 499.7135 493.3081 487.267 480.5363 474.6018 469.4118 463.9757 459.0593 453.9699 449.6722 445.3463 439.2107 430.7944 425.6791 422.5244 418.5925 414.6918 410.4559 402.8923 398.5892 393.8001 390.8382 390.0693 384.57 378.16 372.5677 368.0978 364.441 361.7237 360.6157 358.1111 360.9289 366.0633 364.9607 364.2413 362.6648 363.2058 364.8159 364.0874 363.381 362.2304 360.6485 358.979 358.1888 357.3307 356.5063 356.1832 355.7717 355.8936 356.8759 356.9086 357.407 357.1044 350.1283 351.8131 353.5794 355.0326 355.2048 360.788 368.7577 373.918 376.3145 380.3866 389.4391 398.1031 401.4247 404.2639 404.5717 403.8501 411.685 420.6781 429.448 434.4246 439.3052 444.1408 449.2668 452.9199 455.9884 462.3984 469.0278 471.8632 473.8131 474.0791 474.9889 481.9254 490.3943 497.1982 504.0371 510.191 516.1674 519.3091 526.3919 529.8796 -9999 -9999 -9999 -9999 -9999 -9999 -9999 -9999 -9999 -9999 -9999 -9999 -9999 -9999 -9999 -9999 -9999 -9999 -9999 -9999 -9999 -9999 -9999 -9999 -9999 -9999 -9999 -9999 -9999 -9999 -9999 -9999 -9999 -9999 -9999 -9999 -9999 -9999 -9999 -9999 -9999 -9999 -9999 -9999 -9999 -9999 -9999 -9999 -9999 -9999 -9999 -9999 -9999 -9999 -9999 -9999 -9999 -9999 -9999 -9999 -9999 -9999 -9999 -9999 
-9999 -9999 -9999 -9999 -9999 -9999 -9999 -9999 -9999 -9999 -9999 -9999 -9999 -9999 -9999 -9999 -9999 -9999 -9999 -9999 -9999 -9999 -9999 -9999 -9999 -9999 -9999 -9999 -9999 -9999 -9999 -9999 -9999 -9999 -9999 -9999 -9999 -9999 559.5442 555.7594 551.0114 546.239 538.9062 532.5092 525.3883 518.874 511.3965 504.9515 498.0615 491.5693 485.842 478.6747 472.2091 466.2 460.107 453.358 449.7964 445.6847 441.8831 439.6313 437.4314 433.2549 429.6865 425.2547 420.5707 415.6123 410.779 405.8077 401.3073 395.174 387.7521 387.6835 386.337 380.241 376.3122 373.3945 366.6218 359.3889 357.1844 354.3247 362.0079 363.4999 362.5741 361.4806 361.6422 363.7895 362.5886 361.9211 360.746 359.2419 357.6249 356.7288 356.0956 355.0836 354.6287 354.2873 354.6683 355.2101 355.4258 353.1634 349.1141 350.7334 351.9533 353.2419 353.9528 355.0059 365.3698 374.5329 380.8202 383.2418 384.1006 389.4887 399.3017 407.526 411.2567 413.6334 413.2486 414.275 418.3197 426.5927 433.1437 439.3821 446.0885 450.8327 455.5891 460.1375 465.4799 472.0544 477.6201 479.7339 481.0095 483.8753 488.9045 494.7201 500.7536 507.3815 513.3243 516.572 524.4549 529.1762 529.2181 -9999 -9999 -9999 -9999 -9999 -9999 -9999 -9999 -9999 -9999 -9999 -9999 -9999 -9999 -9999 -9999 -9999 -9999 -9999 -9999 -9999 -9999 -9999 -9999 -9999 -9999 -9999 -9999 -9999 -9999 -9999 -9999 -9999 -9999 -9999 -9999 -9999 -9999 -9999 -9999 -9999 -9999 -9999 -9999 -9999 -9999 -9999 -9999 -9999 -9999 -9999 -9999 -9999 -9999 -9999 -9999 -9999 -9999 -9999 -9999 -9999 -9999 -9999 -9999 
-9999 -9999 -9999 -9999 -9999 -9999 -9999 -9999 -9999 -9999 -9999 -9999 -9999 -9999 -9999 -9999 -9999 -9999 -9999 -9999 -9999 -9999 -9999 -9999 -9999 -9999 -9999 -9999 -9999 -9999 -9999 -9999 -9999 -9999 -9999 -9999 -9999 -9999 557.6415 554.9227 550.1777 545.0365 538.1541 531.8425 524.259 518.448 511.1854 504.1011 497.5067 491.0915 484.7486 478.7296 473.1205 466.9308 461.1913 456.1774 451.5132 447.9554 446.4985 446.5617 444.3817 440.4086 435.6118 431.26 425.2112 421.0096 416.3233 411.512 407.385 401.0543 394.6055 395.4803 392.2197 387.173 383.4178 377.3142 368.549 361.2032 356.424 352.5286 356.3996 360.7605 360.4938 358.9752 359.8926 362.0978 361.4212 360.5304 359.4301 358.0775 356.7471 355.8235 354.826 354.2218 353.8781 353.4971 353.5421 353.1581 349.377 347.5444 349.3968 350.7951 351.9106 352.7999 355.0928 359.9277 369.9495 378.1158 385.9728 390.5928 391.876 394.1917 398.1793 407.8224 415.4325 421.2633 422.3972 423.1653 423.7695 426.3253 431.9168 440.6654 447.0045 454.9087 460.2313 464.8444 469.5596 475.3699 481.5833 485.4481 487.837 490.7692 495.7138 500.5685 505.4818 511.2365 514.126 522.7816 527.0564 528.8669 -9999 -9999 -9999 -9999 -9999 -9999 -9999 -9999 -9999 -9999 -9999 -9999 -9999 -9999 -9999 -9999 -9999 -9999 -9999 -9999 -9999 -9999 -9999 -9999 -9999 -9999 -9999 -9999 -9999 -9999 -9999 -9999 -9999 -9999 -9999 -9999 -9999 -9999 -9999 -9999 -9999 -9999 -9999 -9999 -9999 -9999 -9999 -9999 -9999 -9999 -9999 -9999 -9999 -9999 -9999 -9999 -9999 -9999 -9999 -9999 -9999 -9999 -9999 -9999 -9999 
-9999 -9999 -9999 -9999 -9999 -9999 -9999 -9999 -9999 -9999 -9999 -9999 -9999 -9999 -9999 -9999 -9999 -9999 -9999 -9999 -9999 -9999 -9999 -9999 -9999 -9999 -9999 -9999 -9999 -9999 -9999 -9999 -9999 -9999 -9999 -9999 -9999 -9999 555.6816 552.9445 549.0461 544.033 537.8989 531.6322 524.4777 518.4739 511.8964 505.0071 498.5202 491.9571 485.5898 479.1205 473.9312 468.8815 464.564 461.0763 456.806 454.5589 452.9404 452.5831 451.4949 446.7682 442.3265 437.596 431.1609 425.5267 420.6789 416.0916 411.1653 405.8466 402.8115 398.6662 394.9774 390.9586 385.8417 379.2116 372.7742 365.1725 357.9289 352.425 349.9211 358.8342 358.4852 356.6549 359.9871 360.7415 359.8019 359.2175 358.5027 357.1593 356.2144 355.2787 354.4611 353.376 352.5904 352.4128 352.0227 350.4743 346.7595 347.2183 350.8538 350.2594 352.6033 355.9394 361.0844 365.4674 373.1773 381.0389 388.412 396.2552 400.0866 402.6362 405.7239 408.1851 417.1021 427.1063 430.719 432.2895 433.8188 434.5077 438.5691 442.6031 449.247 457.5132 463.9498 470.4763 474.7748 480.3633 485.5967 491.2043 493.9368 496.5947 501.2314 505.9558 509.0023 513.3884 520.4285 526.1801 528.5834 528.6414 -9999 -9999 -9999 -9999 -9999 -9999 -9999 -9999 -9999 -9999 -9999 -9999 -9999 -9999 -9999 -9999 -9999 -9999 -9999 -9999 -9999 -9999 -9999 -9999 -9999 -9999 -9999 -9999 -9999 -9999 -9999 -9999 -9999 -9999 -9999 -9999 -9999 -9999 -9999 -9999 -9999 -9999 -9999 -9999 -9999 -9999 -9999 -9999 -9999 -9999 -9999 -9999 -9999 -9999 -9999 -9999 -9999 -9999 -9999 -9999 -9999 -9999 -9999 -9999 -9999 
-9999 -9999 -9999 -9999 -9999 -9999 -9999 -9999 -9999 -9999 -9999 -9999 -9999 -9999 -9999 -9999 -9999 -9999 -9999 -9999 -9999 -9999 -9999 -9999 -9999 -9999 -9999 -9999 -9999 -9999 -9999 -9999 -9999 -9999 -9999 -9999 -9999 551.7924 551.7634 550.7645 548.3085 544.4802 538.26 531.9995 525.7518 519.1201 512.6888 505.907 499.014 492.8471 486.5142 479.455 474.5294 471.025 468.4106 465.6529 462.1942 460.45 459.5028 459.39 457.3394 452.1777 447.771 441.3641 436.4248 430.1353 423.9989 419.0009 413.2608 408.8313 404.3721 401.8529 398.196 393.7719 388.9705 383.1991 375.9045 368.1161 360.2637 352.444 349.4852 353.4103 357.6066 355.5431 358.4601 358.9165 358.3846 357.8108 357.5075 356.3691 355.3427 354.5891 353.6183 352.7847 352.0303 350.8781 350.088 347.6938 345.6272 347.6579 348.2439 349.4502 353.0681 357.2043 359.4583 365.6343 373.8616 381.9304 390.1333 397.7831 405.0121 409.9514 413.9862 415.4157 420.1935 430.3913 437.6768 439.9819 441.8069 443.4543 447.1485 450.454 451.4865 458.4406 467.1075 474.0006 479.2782 485.1349 490.3287 495.761 501.0615 503.9434 505.5268 507.8113 513.5911 520.2273 524.9113 527.8 528.2017 528.9537 -9999 -9999 -9999 -9999 -9999 -9999 -9999 -9999 -9999 -9999 -9999 -9999 -9999 -9999 -9999 -9999 -9999 -9999 -9999 -9999 -9999 -9999 -9999 -9999 -9999 -9999 -9999 -9999 -9999 -9999 -9999 -9999 -9999 -9999 -9999 -9999 -9999 -9999 -9999 -9999 -9999 -9999 -9999 -9999 -9999 -9999 -9999 -9999 -9999 -9999 -9999 -9999 -9999 -9999 -9999 -9999 -9999 -9999 -9999 -9999 -9999 -9999 -9999 -9999 -9999 
-9999 -9999 -9999 -9999 -9999 -9999 -9999 -9999 -9999 -9999 -9999 -9999 -9999 -9999 -9999 -9999 -9999 -9999 -9999 -9999 -9999 -9999 -9999 -9999 -9999 -9999 -9999 -9999 -9999 -9999 -9999 -9999 -9999 -9999 -9999 -9999 -9999 547.1427 547.7157 547.3035 545.8038 543.1094 538.8361 532.9063 526.7767 520.2928 513.8821 507.5956 501.6414 494.1806 486.3937 478.9703 469.7029 468.4959 466.7913 466.93 466.312 463.1611 462.3466 460.1299 457.0735 454.6732 450.3176 445.7365 439.3334 434.0695 428.0245 422.7896 417.5821 413.3713 409.7396 406.0972 402.797 396.6987 390.1913 381.1676 373.7161 366.3833 359.5383 352.5103 349.7679 347.2975 355.7359 353.9894 355.8448 357.2888 356.6937 356.0186 355.7793 354.6797 353.9429 353.0163 352.1217 351.439 351.0397 349.5477 348.2287 346.4326 344.6244 345.1319 346.9104 349.1339 356.5954 361.2375 364.1827 363.5632 370.3061 378.9693 387.73 396.0167 405.3642 412.9987 418.9911 423.7505 429.1881 435.7261 442.8759 446.6318 448.946 451.1756 454.0027 457.9399 459.9821 463.4873 470.1289 476.7903 483.0539 488.2111 494.189 500.4763 502.9772 506.8809 510.2329 514.7234 519.7663 523.7363 526.744 527.7833 528.4287 -9999 -9999 -9999 -9999 -9999 -9999 -9999 -9999 -9999 -9999 -9999 -9999 -9999 -9999 -9999 -9999 -9999 -9999 -9999 -9999 -9999 -9999 -9999 -9999 -9999 -9999 -9999 -9999 -9999 -9999 -9999 -9999 -9999 -9999 -9999 -9999 -9999 -9999 -9999 -9999 -9999 -9999 -9999 -9999 -9999 -9999 -9999 -9999 -9999 -9999 -9999 -9999 -9999 -9999 -9999 -9999 -9999 -9999 -9999 -9999 -9999 -9999 -9999 -9999 -9999 -9999 
-9999 -9999 -9999 -9999 -9999 -9999 -9999 -9999 -9999 -9999 -9999 -9999 -9999 -9999 -9999 -9999 -9999 -9999 -9999 -9999 -9999 -9999 -9999 -9999 -9999 -9999 -9999 -9999 -9999 -9999 -9999 -9999 -9999 -9999 -9999 -9999 -9999 542.3749 542.3885 542.0319 540.5613 539.2072 536.2354 531.6443 526.9436 522.4966 516.6383 508.0986 502.3295 493.5504 485.0884 475.6732 464.9328 460.344 459.2574 458.8383 459.502 458.1273 455.4916 455.4177 453.345 452.5373 450.5523 446.9503 441.7969 436.6154 431.2509 426.5333 421.4424 418.1894 413.8902 409.7411 404.0726 397.9476 390.8641 382.4371 375.807 368.3348 361.7084 353.7555 349.422 347.0963 351.1693 351.9754 354.4108 355.3846 354.644 354.1685 353.8446 353.1108 352.6856 351.7422 350.9582 350.3943 349.8197 347.6503 347.2891 345.2645 343.489 345.4939 350.8012 355.5721 361.8738 367.4738 372.3902 371.7607 370.2291 373.6444 382.8616 392.2563 401.446 410.7515 417.3192 425.1358 432.8221 439.6359 446.2569 450.9287 454.6686 458.2843 461.375 464.6402 467.346 469.4073 474.3519 479.8512 486.6642 492.4219 498.3777 501.6749 509.9578 512.8885 515.1813 518.2026 521.762 525.0355 526.9832 527.6972 -9999 -9999 -9999 -9999 -9999 -9999 -9999 -9999 -9999 -9999 -9999 -9999 -9999 -9999 -9999 -9999 -9999 -9999 -9999 -9999 -9999 -9999 -9999 -9999 -9999 -9999 -9999 -9999 -9999 -9999 -9999 -9999 -9999 -9999 -9999 -9999 -9999 -9999 -9999 -9999 -9999 -9999 -9999 -9999 -9999 -9999 -9999 -9999 -9999 -9999 -9999 -9999 -9999 -9999 -9999 -9999 -9999 -9999 -9999 -9999 -9999 -9999 -9999 -9999 -9999 -9999 -9999 
-9999 -9999 -9999 -9999 -9999 -9999 -9999 -9999 -9999 -9999 -9999 -9999 -9999 -9999 -9999 -9999 -9999 -9999 -9999 -9999 -9999 -9999 -9999 -9999 -9999 -9999 -9999 -9999 -9999 -9999 -9999 -9999 -9999 -9999 -9999 -9999 537.5712 537.5667 536.874 535.6807 533.906 532.9748 530.746 526.3828 522.9286 520.1503 512.0579 504.9538 497.4679 489.5309 481.8256 468.7253 460.2495 453.2498 450.3245 447.774 447.6788 446.5609 444.9166 448.0141 447.8594 446.6082 445.7388 442.3616 438.9509 435.0182 432.1043 427.5293 422.6471 419.9085 414.4914 408.5501 402.3253 396.7414 391.8913 384.8679 379.87 372.0671 365.1176 356.555 348.3986 346.1263 345.1898 348.743 352.9188 353.9231 353.2998 352.1309 351.8931 351.7773 351.2431 350.8926 350.1901 349.4151 348.3064 346.6963 346.2947 344.0316 341.706 348.6729 354.4367 360.6996 365.8857 373.1072 379.0828 381.0884 379.8075 378.0594 379.4036 388.8463 397.8539 406.5156 414.672 423.1843 431.2257 439.2244 445.8866 451.6907 458.1396 463.2274 467.3834 471.3016 473.9328 476.1677 479.2629 484.3478 489.9561 496.0932 499.5436 507.5781 513.9492 516.1804 517.1847 518.8458 522.3281 525.6124 -9999 -9999 -9999 -9999 -9999 -9999 -9999 -9999 -9999 -9999 -9999 -9999 -9999 -9999 -9999 -9999 -9999 -9999 -9999 -9999 -9999 -9999 -9999 -9999 -9999 -9999 -9999 -9999 -9999 -9999 -9999 -9999 -9999 -9999 -9999 -9999 -9999 -9999 -9999 -9999 -9999 -9999 -9999 -9999 -9999 -9999 -9999 -9999 -9999 -9999 -9999 -9999 -9999 -9999 -9999 -9999 -9999 -9999 -9999 -9999 -9999 -9999 -9999 -9999 -9999 -9999 -9999 -9999 -9999 
-9999 -9999 -9999 -9999 -9999 -9999 -9999 -9999 -9999 -9999 -9999 -9999 -9999 -9999 -9999 -9999 -9999 -9999 -9999 -9999 -9999 -9999 -9999 -9999 -9999 -9999 -9999 -9999 -9999 -9999 -9999 -9999 -9999 -9999 -9999 -9999 532.225 531.5347 530.4701 529.4764 527.7955 525.985 522.8486 519.3701 515.7109 511.3584 505.6068 499.5436 492.0943 485.6676 478.0506 463.61 454.674 448.5216 445.0187 441.3329 439.4568 438.1371 436.338 436.7807 440.1221 440.2127 439.8737 437.0291 433.3639 430.133 428.228 425.1587 421.5719 416.811 411.5844 405.1646 398.7904 392.3317 387.3627 382.2466 378.9487 373.3671 366.3132 358.1095 349.8167 346.9478 343.6178 345.5053 351.6021 352.4418 352.076 350.9025 350.0902 350.1588 349.8609 349.4067 349.1194 348.4901 347.4423 345.5716 344.9536 341.6076 342.5365 350.8743 357.618 363.7247 370.1309 377.5367 384.4663 388.809 388.3114 387.5517 388.0477 390.0541 394.2238 401.2913 410.6182 419.5161 428.1922 436.277 444.0601 451.6443 458.8947 466.0621 472.2861 476.1662 480.6018 483.0501 485.3353 489.8289 493.8598 496.5718 504.3609 510.0295 514.3096 -9999 -9999 -9999 -9999 -9999 -9999 -9999 -9999 -9999 -9999 -9999 -9999 -9999 -9999 -9999 -9999 -9999 -9999 -9999 -9999 -9999 -9999 -9999 -9999 -9999 -9999 -9999 -9999 -9999 -9999 -9999 -9999 -9999 -9999 -9999 -9999 -9999 -9999 -9999 -9999 -9999 -9999 -9999 -9999 -9999 -9999 -9999 -9999 -9999 -9999 -9999 -9999 -9999 -9999 -9999 -9999 -9999 -9999 -9999 -9999 -9999 -9999 -9999 -9999 -9999 -9999 -9999 -9999 -9999 -9999 -9999 -9999 -9999 -9999 
-9999 -9999 -9999 -9999 -9999 -9999 -9999 -9999 -9999 -9999 -9999 -9999 -9999 -9999 -9999 -9999 -9999 -9999 -9999 -9999 -9999 -9999 -9999 -9999 -9999 -9999 -9999 -9999 -9999 -9999 -9999 -9999 -9999 -9999 -9999 -9999 526.4925 526.2106 524.1151 522.5552 520.5999 518.7925 515.4999 512.2278 508.587 504.2429 499.9063 494.7689 488.2378 479.2675 469.485 457.7669 450.3085 444.0182 440.1373 437.0543 433.9026 432.2346 429.4785 428.577 430.5605 433.0294 432.6232 431.0657 427.8432 424.4988 422.0284 419.1556 416.8734 413.1747 407.558 400.1765 395.0833 387.9471 383.6487 378.2614 373.8037 370.7503 366.5479 359.5451 349.9973 345.9191 342.2721 343.8853 349.8936 350.8553 350.9666 349.585 348.7552 348.3986 348.4748 348.3216 348.2355 347.4606 345.6272 345.2774 342.3689 340.6727 343.3023 352.9805 359.2182 366.8459 374.6167 382.511 390.1044 396.0213 396.7643 396.9593 397.2032 399.0861 402.653 404.2006 407.7637 415.7686 424.4568 433.1978 440.8452 449.4284 457.9955 465.8114 473.298 479.8604 486.3648 488.9434 490.4118 492.201 496.1298 501.8113 506.3056 -9999 -9999 -9999 -9999 -9999 -9999 -9999 -9999 -9999 -9999 -9999 -9999 -9999 -9999 -9999 -9999 -9999 -9999 -9999 -9999 -9999 -9999 -9999 -9999 -9999 -9999 -9999 -9999 -9999 -9999 -9999 -9999 -9999 -9999 -9999 -9999 -9999 -9999 -9999 -9999 -9999 -9999 -9999 -9999 -9999 -9999 -9999 -9999 -9999 -9999 -9999 -9999 -9999 -9999 -9999 -9999 -9999 -9999 -9999 -9999 -9999 -9999 -9999 -9999 -9999 -9999 -9999 -9999 -9999 -9999 -9999 -9999 -9999 -9999 -9999 -9999 
-9999 -9999 -9999 -9999 -9999 -9999 -9999 -9999 -9999 -9999 -9999 -9999 -9999 -9999 -9999 -9999 -9999 -9999 -9999 -9999 -9999 -9999 -9999 -9999 -9999 -9999 -9999 -9999 -9999 -9999 -9999 -9999 -9999 -9999 -9999 -9999 522.9896 521.3643 518.0701 516.0188 513.6604 510.8098 508.2769 505.6396 501.4913 497.4832 493.1313 488.0641 482.7857 474.5683 463.632 451.6885 445.8973 441.4479 438.217 435.1508 431.6463 429.1005 426.8427 421.6626 419.8216 421.1437 421.9758 425.8277 421.9209 418.1749 416.43 413.4536 411.1904 408.5943 403.9484 398.5832 392.1252 385.7503 379.4394 374.1717 370.2672 366.4572 362.1329 356.4042 348.6714 343.7946 340.2726 342.9609 349.3587 349.3884 349.1705 348.5754 347.3745 347.1855 347.1649 347.1207 347.2106 346.1301 345.0687 343.0227 339.5716 338.8035 343.4357 352.6978 361.6818 368.9879 377.155 384.9944 393.067 399.8587 403.1712 403.7678 405.451 408.3345 411.6278 413.7203 414.3695 415.229 422.8178 431.1061 439.3471 447.6697 455.3102 463.853 471.4555 479.3696 486.8296 488.3559 494.5921 497.7986 499.9025 502.0056 -9999 -9999 -9999 -9999 -9999 -9999 -9999 -9999 -9999 -9999 -9999 -9999 -9999 -9999 -9999 -9999 -9999 -9999 -9999 -9999 -9999 -9999 -9999 -9999 -9999 -9999 -9999 -9999 -9999 -9999 -9999 -9999 -9999 -9999 -9999 -9999 -9999 -9999 -9999 -9999 -9999 -9999 -9999 -9999 -9999 -9999 -9999 -9999 -9999 -9999 -9999 -9999 -9999 -9999 -9999 -9999 -9999 -9999 -9999 -9999 -9999 -9999 -9999 -9999 -9999 -9999 -9999 -9999 -9999 -9999 -9999 -9999 -9999 -9999 -9999 -9999 -9999 
-9999 -9999 -9999 -9999 -9999 -9999 -9999 -9999 -9999 -9999 -9999 -9999 -9999 -9999 -9999 -9999 -9999 -9999 -9999 -9999 -9999 -9999 -9999 -9999 -9999 -9999 -9999 -9999 -9999 -9999 -9999 -9999 -9999 -9999 -9999 517.241 518.666 516.6314 511.8408 509.3764 506.5197 503.6188 501.284 497.743 493.7036 490.408 486.7793 482.186 477.1606 469.3387 458.9092 450.425 443.772 439.8127 436.8958 432.7779 430.2564 427.3129 423.4495 416.5587 410.705 411.6758 413.6205 418.2999 415.9529 412.9019 409.5544 405.9502 404.1945 402.4175 399.4153 394.6032 388.4943 382.5613 376.14 370.4661 365.683 362.7189 358.2391 351.6302 344.7113 340.9005 339.3255 341.0293 346.5485 347.9414 348.1707 347.5596 346.4037 345.522 345.6821 346.0311 346.1393 344.9247 343.5195 340.5599 338.3608 337.7687 344.9132 352.5629 360.6996 369.0755 376.7542 384.9883 393.0655 400.9735 407.2486 410.1511 411.7993 415.1125 418.5148 421.3982 423.0555 423.589 424.1803 432.5897 441.3428 449.5701 457.3882 464.5792 471.9676 478.2198 485.8291 490.9048 496.8613 -9999 -9999 -9999 -9999 -9999 -9999 -9999 -9999 -9999 -9999 -9999 -9999 -9999 -9999 -9999 -9999 -9999 -9999 -9999 -9999 -9999 -9999 -9999 -9999 -9999 -9999 -9999 -9999 -9999 -9999 -9999 -9999 -9999 -9999 -9999 -9999 -9999 -9999 -9999 -9999 -9999 -9999 -9999 -9999 -9999 -9999 -9999 -9999 -9999 -9999 -9999 -9999 -9999 -9999 -9999 -9999 -9999 -9999 -9999 -9999 -9999 -9999 -9999 -9999 -9999 -9999 -9999 -9999 -9999 -9999 -9999 -9999 -9999 -9999 -9999 -9999 -9999 -9999 -9999 -9999 
-9999 -9999 -9999 -9999 -9999 -9999 -9999 -9999 -9999 -9999 -9999 -9999 -9999 -9999 -9999 -9999 -9999 -9999 -9999 -9999 -9999 -9999 -9999 -9999 -9999 -9999 -9999 -9999 -9999 -9999 -9999 -9999 -9999 -9999 -9999 511.8811 512.6729 510.4844 505.6602 502.4034 499.3036 496.1161 493.5756 490.8545 487.0117 484.0117 480.6155 476.1296 472.1451 466.4545 458.3933 449.4901 441.8983 437.8223 434.3042 430.6839 427.5392 424.9545 418.3167 411.5067 404.8346 403.761 405.3162 407.8559 407.052 405.2202 402.4983 398.3035 396.8595 395.0513 392.2791 390.2545 384.781 377.9741 372.951 367.4791 362.8469 359.8591 355.6262 348.2934 341.4583 339.2355 337.8319 340.3839 344.1527 346.8243 346.8235 346.4951 345.0671 344.2419 344.2358 344.7296 344.8187 344.3051 338.9368 337.3572 336.4626 342.0428 349.2299 358.4273 362.8195 368.0239 374.4384 381.6576 391.2809 400.8372 408.1089 415.6093 419.2387 420.5067 423.8518 429.2979 430.9674 431.3697 431.5892 435.5493 444.2704 452.3065 459.9615 466.9788 473.5914 479.3293 484.3135 490.9216 -9999 -9999 -9999 -9999 -9999 -9999 -9999 -9999 -9999 -9999 -9999 -9999 -9999 -9999 -9999 -9999 -9999 -9999 -9999 -9999 -9999 -9999 -9999 -9999 -9999 -9999 -9999 -9999 -9999 -9999 -9999 -9999 -9999 -9999 -9999 -9999 -9999 -9999 -9999 -9999 -9999 -9999 -9999 -9999 -9999 -9999 -9999 -9999 -9999 -9999 -9999 -9999 -9999 -9999 -9999 -9999 -9999 -9999 -9999 -9999 -9999 -9999 -9999 -9999 -9999 -9999 -9999 -9999 -9999 -9999 -9999 -9999 -9999 -9999 -9999 -9999 -9999 -9999 -9999 -9999 -9999 
-9999 -9999 -9999 -9999 -9999 -9999 -9999 -9999 -9999 -9999 -9999 -9999 -9999 -9999 -9999 -9999 -9999 -9999 -9999 -9999 -9999 -9999 -9999 -9999 -9999 -9999 -9999 -9999 -9999 -9999 -9999 -9999 -9999 -9999 506.9944 507.3792 506.208 504.3655 499.5588 495.9325 492.489 489.1407 486.8098 483.3922 480.4783 477.1072 474.0966 469.9231 465.5058 461.3544 456.0052 446.9717 440.1046 435.6636 433.04 429.2841 425.417 423.541 416.4803 409.1201 401.3667 397.5491 397.351 398.7097 397.7046 396.5105 393.3757 390.7125 387.6317 386.7699 385.1605 383.6228 380.177 374.0841 368.4865 363.6706 359.6853 356.5367 353.4735 345.6874 339.7903 336.6836 338.1535 338.9559 343.3999 345.1098 345.4283 344.5642 343.4563 342.9549 339.8055 338.4248 339.743 339.6988 334.5637 335.8111 338.7532 345.5106 354.1227 362.142 371.0033 374.3775 379.5918 385.9058 393.2949 401.5923 409.5887 417.336 424.4721 427.8958 429.8015 434.1472 437.7972 438.4624 440.5488 443.4139 448.8652 456.2079 462.4273 469.7669 476.6005 481.9155 485.4085 -9999 -9999 -9999 -9999 -9999 -9999 -9999 -9999 -9999 -9999 -9999 -9999 -9999 -9999 -9999 -9999 -9999 -9999 -9999 -9999 -9999 -9999 -9999 -9999 -9999 -9999 -9999 -9999 -9999 -9999 -9999 -9999 -9999 -9999 -9999 -9999 -9999 -9999 -9999 -9999 -9999 -9999 -9999 -9999 -9999 -9999 -9999 -9999 -9999 -9999 -9999 -9999 -9999 -9999 -9999 -9999 -9999 -9999 -9999 -9999 -9999 -9999 -9999 -9999 -9999 -9999 -9999 -9999 -9999 -9999 -9999 -9999 -9999 -9999 -9999 -9999 -9999 -9999 -9999 -9999 -9999 -9999 
-9999 -9999 -9999 -9999 -9999 -9999 -9999 -9999 -9999 -9999 -9999 -9999 -9999 -9999 -9999 -9999 -9999 -9999 -9999 -9999 -9999 -9999 -9999 -9999 -9999 -9999 -9999 -9999 -9999 -9999 -9999 -9999 -9999 503.8931 503.602 501.5934 499.7028 497.4687 493.3806 489.4738 485.916 482.4489 479.6668 476.9099 473.5746 470.1906 466.7943 463.3349 460.3151 457.0125 451.9849 444.2978 436.5993 431.3994 429.1432 426.4564 423.7345 421.671 415.8775 408.8968 400.5156 392.1694 390.0152 388.6292 389.3309 385.364 383.3203 382.6627 379.6825 379.2756 377.8781 375.6439 374.4834 369.8375 364.255 359.5573 355.6353 353.3211 351.4458 345.0313 337.659 335.8073 336.8192 339.2538 342.5945 343.265 343.3542 342.9274 342.7712 338.4941 334.5111 331.7596 332.2091 332.946 334.598 336.2858 341.7387 349.489 357.5334 365.5726 374.8438 381.7742 386.872 391.066 396.0114 402.8519 410.3774 418.0881 425.5587 432.435 436.1063 439.5955 443.9176 445.671 448.1673 450.9242 455.4085 461.8551 467.1167 472.4316 478.4713 480.5126 -9999 -9999 -9999 -9999 -9999 -9999 -9999 -9999 -9999 -9999 -9999 -9999 -9999 -9999 -9999 -9999 -9999 -9999 -9999 -9999 -9999 -9999 -9999 -9999 -9999 -9999 -9999 -9999 -9999 -9999 -9999 -9999 -9999 -9999 -9999 -9999 -9999 -9999 -9999 -9999 -9999 -9999 -9999 -9999 -9999 -9999 -9999 -9999 -9999 -9999 -9999 -9999 -9999 -9999 -9999 -9999 -9999 -9999 -9999 -9999 -9999 -9999 -9999 -9999 -9999 -9999 -9999 -9999 -9999 -9999 -9999 -9999 -9999 -9999 -9999 -9999 -9999 -9999 -9999 -9999 -9999 -9999 -9999 
-9999 -9999 -9999 -9999 -9999 -9999 -9999 -9999 -9999 -9999 -9999 -9999 -9999 -9999 -9999 -9999 -9999 -9999 -9999 -9999 -9999 -9999 -9999 -9999 -9999 -9999 -9999 -9999 -9999 -9999 -9999 -9999 -9999 499.7905 499.0376 497.5586 494.1037 491.2523 486.6841 482.871 479.1898 475.7699 472.9185 470.471 467.0138 463.8393 459.9782 457.3417 454.3791 451.1421 446.9907 441.0776 432.243 426.5806 422.4353 422.3065 421.6969 420.2232 415.4683 406.3632 399.0221 391.0813 382.5667 380.9337 378.2499 376.9904 374.0414 373.8083 373.79 371.398 370.2368 366.65 367.188 365.2822 360.8123 356.203 352.0745 349.521 347.3615 342.4702 335.5132 335.235 335.8317 338.1405 340.9234 341.8606 342.1433 340.8982 340.0143 333.8406 330.1594 334.3092 338.8233 338.4758 336.4733 338.8119 345.5121 352.6025 361.6475 370.2901 378.794 387.019 393.5166 396.6256 399.5631 404.5664 411.3367 418.8158 427.1391 435.2803 441.6285 445.0278 448.9186 451.0857 454.661 457.568 461.2158 465.9637 470.8642 476.1647 478.2754 -9999 -9999 -9999 -9999 -9999 -9999 -9999 -9999 -9999 -9999 -9999 -9999 -9999 -9999 -9999 -9999 -9999 -9999 -9999 -9999 -9999 -9999 -9999 -9999 -9999 -9999 -9999 -9999 -9999 -9999 -9999 -9999 -9999 -9999 -9999 -9999 -9999 -9999 -9999 -9999 -9999 -9999 -9999 -9999 -9999 -9999 -9999 -9999 -9999 -9999 -9999 -9999 -9999 -9999 -9999 -9999 -9999 -9999 -9999 -9999 -9999 -9999 -9999 -9999 -9999 -9999 -9999 -9999 -9999 -9999 -9999 -9999 -9999 -9999 -9999 -9999 -9999 -9999 -9999 -9999 -9999 -9999 -9999 -9999 
-9999 -9999 -9999 -9999 -9999 -9999 -9999 -9999 -9999 -9999 -9999 -9999 -9999 -9999 -9999 -9999 -9999 -9999 -9999 -9999 -9999 -9999 -9999 -9999 -9999 -9999 -9999 -9999 -9999 -9999 -9999 -9999 -9999 495.8654 494.3338 491.903 487.7676 484.0529 480.6071 477.2345 472.6183 469.3295 465.4022 463.9437 460.709 456.976 453.8266 451.296 447.8564 444.6072 440.9999 435.9798 429.5242 420.9098 417.2057 417.2422 416.8917 418.8706 414.7292 405.3093 398.4795 390.4641 380.9246 375.5288 372.1463 369.7392 365.7928 365.6442 367.7496 364.5789 362.1847 359.4781 359.946 360.0557 357.791 352.3724 348.9663 345.5922 342.9663 338.885 333.9953 333.7164 334.9561 336.1548 340.0974 340.6513 340.9554 339.8947 338.0682 331.3443 330.0931 337.3633 344.4728 345.3559 344.5307 345.6805 349.1019 354.4237 362.9879 372.282 381.1196 389.7867 398.481 402.9951 405.4945 408.0426 413.4543 420.5783 428.4071 436.5269 444.262 449.5427 453.6178 457.3791 460.2945 463.3272 466.1345 469.6762 474.2246 -9999 -9999 -9999 -9999 -9999 -9999 -9999 -9999 -9999 -9999 -9999 -9999 -9999 -9999 -9999 -9999 -9999 -9999 -9999 -9999 -9999 -9999 -9999 -9999 -9999 -9999 -9999 -9999 -9999 -9999 -9999 -9999 -9999 -9999 -9999 -9999 -9999 -9999 -9999 -9999 -9999 -9999 -9999 -9999 -9999 -9999 -9999 -9999 -9999 -9999 -9999 -9999 -9999 -9999 -9999 -9999 -9999 -9999 -9999 -9999 -9999 -9999 -9999 -9999 -9999 -9999 -9999 -9999 -9999 -9999 -9999 -9999 -9999 -9999 -9999 -9999 -9999 -9999 -9999 -9999 -9999 -9999 -9999 -9999 -9999 -9999 
-9999 -9999 -9999 -9999 -9999 -9999 -9999 -9999 -9999 -9999 -9999 -9999 -9999 -9999 -9999 -9999 -9999 -9999 -9999 -9999 -9999 -9999 -9999 -9999 -9999 -9999 -9999 -9999 -9999 -9999 -9999 -9999 -9999 492.1956 490.0894 486.5347 482.3216 477.8639 474.281 469.7242 465.9813 463.0407 459.2383 456.4586 453.5508 450.0357 447.4548 444.989 441.1873 438.624 435.0022 430.8859 424.2763 415.2359 412.4142 410.0124 409.6321 415.261 414.5798 407.3264 400.2108 391.8044 384.8146 376.7755 368.3478 360.519 358.9165 358.8883 358.8029 357.5236 354.4633 352.8586 352.8692 353.9094 353.3257 349.7336 346.0486 341.4415 338.6023 335.5117 332.8766 331.8464 331.563 334.6605 339.6302 339.1578 339.5061 339.2889 336.2538 329.2579 329.9666 336.3338 341.9932 345.9587 347.7639 349.7207 351.6859 356.1367 363.4199 371.9802 380.5878 389.7821 400.1772 407.9908 410.8887 414.435 417.4625 421.9346 428.8422 436.1078 444.0639 451.3737 457.1147 461.0656 464.2394 467.9061 469.8774 472.0445 -9999 -9999 -9999 -9999 -9999 -9999 -9999 -9999 -9999 -9999 -9999 -9999 -9999 -9999 -9999 -9999 -9999 -9999 -9999 -9999 -9999 -9999 -9999 -9999 -9999 -9999 -9999 -9999 -9999 -9999 -9999 -9999 -9999 -9999 -9999 -9999 -9999 -9999 -9999 -9999 -9999 -9999 -9999 -9999 -9999 -9999 -9999 -9999 -9999 -9999 -9999 -9999 -9999 -9999 -9999 -9999 -9999 -9999 -9999 -9999 -9999 -9999 -9999 -9999 -9999 -9999 -9999 -9999 -9999 -9999 -9999 -9999 -9999 -9999 -9999 -9999 -9999 -9999 -9999 -9999 -9999 -9999 -9999 -9999 -9999 -9999 -9999 
-9999 -9999 -9999 -9999 -9999 -9999 -9999 -9999 -9999 -9999 -9999 -9999 -9999 -9999 -9999 -9999 -9999 -9999 -9999 -9999 -9999 -9999 -9999 -9999 -9999 -9999 -9999 -9999 -9999 -9999 -9999 -9999 489.5027 488.4702 485.9526 481.4971 476.6607 472.1276 467.4459 463.1817 459.7321 456.1652 452.4505 449.5488 446.7149 443.3476 440.6448 438.2544 434.8665 431.215 428.0405 423.752 417.9783 410.6822 405.6911 401.939 404.1335 410.4163 412.1948 408.4137 400.3929 392.9085 387.1592 381.4885 374.001 367.3168 359.3135 352.3671 349.6033 350.2365 348.0046 345.4611 345.3415 346.6079 347.9193 345.7895 342.2234 338.0499 335.264 333.2165 329.9856 328.0936 328.0547 332.4759 336.647 336.9206 336.9069 336.9122 336.5526 328.9356 329.1779 333.0938 338.9574 345.6249 348.7407 350.6061 353.5588 356.9239 364.2726 371.7166 379.9248 388.5179 399.6926 408.006 414.192 419.8612 423.5745 425.9671 430.8683 437.2288 444.2254 451.075 458.0367 463.1162 466.2076 468.3039 469.7448 -9999 -9999 -9999 -9999 -9999 -9999 -9999 -9999 -9999 -9999 -9999 -9999 -9999 -9999 -9999 -9999 -9999 -9999 -9999 -9999 -9999 -9999 -9999 -9999 -9999 -9999 -9999 -9999 -9999 -9999 -9999 -9999 -9999 -9999 -9999 -9999 -9999 -9999 -9999 -9999 -9999 -9999 -9999 -9999 -9999 -9999 -9999 -9999 -9999 -9999 -9999 -9999 -9999 -9999 -9999 -9999 -9999 -9999 -9999 -9999 -9999 -9999 -9999 -9999 -9999 -9999 -9999 -9999 -9999 -9999 -9999 -9999 -9999 -9999 -9999 -9999 -9999 -9999 -9999 -9999 -9999 -9999 -9999 -9999 -9999 -9999 -9999 -9999 
-9999 -9999 -9999 -9999 -9999 -9999 -9999 -9999 -9999 -9999 -9999 -9999 -9999 -9999 -9999 -9999 -9999 -9999 -9999 -9999 -9999 -9999 -9999 -9999 -9999 -9999 -9999 -9999 -9999 -9999 -9999 -9999 484.5695 483.8098 482.4382 477.345 471.1827 465.819 461.2798 457.0438 453.4662 449.7012 445.9811 442.008 438.9174 435.9905 433.104 431.3621 428.183 424.8455 420.4891 416.7538 412.2328 408.6042 401.9192 396.4678 398.3279 403.6093 406.1018 401.6433 396.0213 391.0843 386.6563 382.9926 378.5761 372.6896 366.2972 359.8248 353.8202 346.6171 341.9742 341.5574 341.5109 340.3382 342.5929 341.2145 337.8754 334.5721 332.4088 331.4784 329.5323 326.7342 327.2805 331.3107 335.0346 334.3115 334.1721 334.8807 334.6194 328.134 328.4997 331.2863 337.835 344.2548 348.3704 352.5279 356.7486 360.0504 364.7923 371.901 379.2025 388.4333 398.1496 405.1348 411.9006 419.5305 426.1081 430.1879 435.086 440.0344 447.1645 452.2638 458.5335 463.6245 466.0567 467.487 -9999 -9999 -9999 -9999 -9999 -9999 -9999 -9999 -9999 -9999 -9999 -9999 -9999 -9999 -9999 -9999 -9999 -9999 -9999 -9999 -9999 -9999 -9999 -9999 -9999 -9999 -9999 -9999 -9999 -9999 -9999 -9999 -9999 -9999 -9999 -9999 -9999 -9999 -9999 -9999 -9999 -9999 -9999 -9999 -9999 -9999 -9999 -9999 -9999 -9999 -9999 -9999 -9999 -9999 -9999 -9999 -9999 -9999 -9999 -9999 -9999 -9999 -9999 -9999 -9999 -9999 -9999 -9999 -9999 -9999 -9999 -9999 -9999 -9999 -9999 -9999 -9999 -9999 -9999 -9999 -9999 -9999 -9999 -9999 -9999 -9999 -9999 -9999 -9999 
-9999 -9999 -9999 -9999 -9999 -9999 -9999 -9999 -9999 -9999 -9999 -9999 -9999 -9999 -9999 -9999 -9999 -9999 -9999 -9999 -9999 -9999 -9999 -9999 -9999 -9999 -9999 -9999 -9999 -9999 -9999 -9999 479.1372 478.3463 476.1906 472.1741 467.1883 460.6702 455.4969 450.6803 446.3903 443.3506 439.4271 435.2529 431.6349 427.9681 424.4294 422.3796 420.3162 417.5859 413.3484 409.4036 406.3632 404.2661 400.3358 390.032 393.4724 397.7907 399.144 396.2651 392.7356 387.7521 383.8034 381.2507 378.5967 374.9901 370.7198 364.8471 358.8334 354.0305 348.615 340.1088 338.1703 337.9966 337.5119 335.9635 333.849 332.1825 330.9198 330.9138 327.9488 325.0822 325.8579 331.3846 333.5693 333.2477 332.8378 331.8807 330.5937 326.6847 327.4588 330.5853 337.4807 344.0674 350.1695 354.0618 357.6691 362.4194 368.0529 374.4986 382.7976 391.5743 399.0579 405.1486 411.3611 418.6039 425.6265 432.0144 438.2613 443.6951 450.2475 453.8564 459.1904 463.3112 465.358 -9999 -9999 -9999 -9999 -9999 -9999 -9999 -9999 -9999 -9999 -9999 -9999 -9999 -9999 -9999 -9999 -9999 -9999 -9999 -9999 -9999 -9999 -9999 -9999 -9999 -9999 -9999 -9999 -9999 -9999 -9999 -9999 -9999 -9999 -9999 -9999 -9999 -9999 -9999 -9999 -9999 -9999 -9999 -9999 -9999 -9999 -9999 -9999 -9999 -9999 -9999 -9999 -9999 -9999 -9999 -9999 -9999 -9999 -9999 -9999 -9999 -9999 -9999 -9999 -9999 -9999 -9999 -9999 -9999 -9999 -9999 -9999 -9999 -9999 -9999 -9999 -9999 -9999 -9999 -9999 -9999 -9999 -9999 -9999 -9999 -9999 -9999 -9999 -9999 -9999 
-9999 -9999 -9999 -9999 -9999 -9999 -9999 -9999 -9999 -9999 -9999 -9999 -9999 -9999 -9999 -9999 -9999 -9999 -9999 -9999 -9999 -9999 -9999 -9999 -9999 -9999 -9999 -9999 -9999 -9999 -9999 -9999 473.8596 471.7085 468.2604 464.7453 461.0397 455.4124 449.9061 444.5478 438.8831 435.6461 431.8681 427.1688 422.6555 419.7249 417.1958 415.325 412.799 409.4546 407.4666 404.3591 401.3332 399.0427 393.7041 385.6688 385.8242 390.477 392.2311 391.2336 388.3602 384.2019 380.8842 376.9911 374.3843 372.2591 369.6378 366.0336 361.1354 355.9264 350.315 344.1154 338.299 334.614 334.5454 332.9925 331.0402 330.0481 329.5101 328.7146 326.2938 323.4629 325.6773 331.944 332.1322 331.5896 329.6892 328.0349 327.7941 326.136 326.4477 331.9661 338.4278 346.7717 354.5007 359.7311 362.0216 366.7216 373.5522 380.001 386.952 394.6954 404.1793 409.0439 413.5161 419.8734 427.0111 433.2412 439.7106 445.8942 451.4614 456.3268 461.1167 463.1848 -9999 -9999 -9999 -9999 -9999 -9999 -9999 -9999 -9999 -9999 -9999 -9999 -9999 -9999 -9999 -9999 -9999 -9999 -9999 -9999 -9999 -9999 -9999 -9999 -9999 -9999 -9999 -9999 -9999 -9999 -9999 -9999 -9999 -9999 -9999 -9999 -9999 -9999 -9999 -9999 -9999 -9999 -9999 -9999 -9999 -9999 -9999 -9999 -9999 -9999 -9999 -9999 -9999 -9999 -9999 -9999 -9999 -9999 -9999 -9999 -9999 -9999 -9999 -9999 -9999 -9999 -9999 -9999 -9999 -9999 -9999 -9999 -9999 -9999 -9999 -9999 -9999 -9999 -9999 -9999 -9999 -9999 -9999 -9999 -9999 -9999 -9999 -9999 -9999 -9999 -9999 
-9999 -9999 -9999 -9999 -9999 -9999 -9999 -9999 -9999 -9999 -9999 -9999 -9999 -9999 -9999 -9999 -9999 -9999 -9999 -9999 -9999 -9999 -9999 -9999 -9999 -9999 -9999 -9999 -9999 -9999 -9999 -9999 467.9465 465.2886 461.7644 458.1053 454.5147 448.9178 444.041 438.2895 431.8833 427.6199 424.0736 419.6746 417.0121 413.6548 410.5458 408.4 406.6406 403.1292 401.353 399.144 395.9901 394.1544 390.7292 384.1371 376.9583 382.2687 386.0764 384.5639 382.6314 379.3206 375.4846 372.0625 370.1575 368.4796 366.7887 364.4273 361.0966 357.3132 351.7643 346.3123 339.9572 333.3476 330.6806 330.7347 330.0481 328.8045 326.9658 326.6626 323.5551 322.1248 325.5135 325.7017 325.1782 326.1444 325.5592 324.6051 323.9712 324.8498 327.8917 333.7537 340.6003 348.6051 356.2845 364.3168 369.362 373.3221 379.4311 385.2885 391.7168 399.3795 408.8305 413.766 418.6687 423.0502 428.3469 434.4238 441.0357 447.6034 452.4162 457.9963 461.2455 -9999 -9999 -9999 -9999 -9999 -9999 -9999 -9999 -9999 -9999 -9999 -9999 -9999 -9999 -9999 -9999 -9999 -9999 -9999 -9999 -9999 -9999 -9999 -9999 -9999 -9999 -9999 -9999 -9999 -9999 -9999 -9999 -9999 -9999 -9999 -9999 -9999 -9999 -9999 -9999 -9999 -9999 -9999 -9999 -9999 -9999 -9999 -9999 -9999 -9999 -9999 -9999 -9999 -9999 -9999 -9999 -9999 -9999 -9999 -9999 -9999 -9999 -9999 -9999 -9999 -9999 -9999 -9999 -9999 -9999 -9999 -9999 -9999 -9999 -9999 -9999 -9999 -9999 -9999 -9999 -9999 -9999 -9999 -9999 -9999 -9999 -9999 -9999 -9999 -9999 -9999 -9999 
-9999 -9999 -9999 -9999 -9999 -9999 -9999 -9999 -9999 -9999 -9999 -9999 -9999 -9999 -9999 -9999 -9999 -9999 -9999 -9999 -9999 -9999 -9999 -9999 -9999 -9999 -9999 -9999 -9999 -9999 -9999 -9999 462.2147 459.2551 455.8665 451.773 447.816 442.6702 437.7515 430.5285 425.1282 420.1805 416.2859 411.8298 410.3942 408.7109 405.7787 403.3419 400.4059 397.6512 394.6398 392.9421 389.1069 387.6187 385.2931 381.3315 374.5078 373.6909 377.4301 378.2081 376.8921 372.794 370.2413 367.572 365.6381 364.6498 363.0976 361.2231 358.8052 355.3633 351.5891 346.14 339.0466 332.4126 326.8066 327.0702 326.7822 325.2033 324.5533 325.4517 322.7344 320.6588 319.8129 319.2574 319.816 320.4865 321.4329 322.5013 324.9458 329.0743 333.564 335.2876 337.2208 344.7006 352.838 361.1507 369.7094 376.8936 384.7948 391.2314 397.3815 406.2862 413.7142 419.9748 424.751 427.5384 430.7723 436.6976 442.1947 448.2678 453.4555 457.789 460.44 -9999 -9999 -9999 -9999 -9999 -9999 -9999 -9999 -9999 -9999 -9999 -9999 -9999 -9999 -9999 -9999 -9999 -9999 -9999 -9999 -9999 -9999 -9999 -9999 -9999 -9999 -9999 -9999 -9999 -9999 -9999 -9999 -9999 -9999 -9999 -9999 -9999 -9999 -9999 -9999 -9999 -9999 -9999 -9999 -9999 -9999 -9999 -9999 -9999 -9999 -9999 -9999 -9999 -9999 -9999 -9999 -9999 -9999 -9999 -9999 -9999 -9999 -9999 -9999 -9999 -9999 -9999 -9999 -9999 -9999 -9999 -9999 -9999 -9999 -9999 -9999 -9999 -9999 -9999 -9999 -9999 -9999 -9999 -9999 -9999 -9999 -9999 -9999 -9999 -9999 -9999 -9999 
-9999 -9999 -9999 -9999 -9999 -9999 -9999 -9999 -9999 -9999 -9999 -9999 -9999 -9999 -9999 -9999 -9999 -9999 -9999 -9999 -9999 -9999 -9999 -9999 -9999 -9999 -9999 -9999 -9999 -9999 -9999 -9999 456.3694 454.072 450.0045 445.4027 441.0768 435.9814 429.7162 422.9649 417.765 413.9527 409.3807 405.2751 404.052 402.9456 400.9659 398.1503 395.6045 392.667 390.682 387.9426 384.6241 381.8596 380.0841 378.8999 374.0597 366.5205 368.7288 371.1862 370.2787 367.9812 365.0955 362.5383 360.7232 360.3445 358.7214 355.5591 353.1504 350.8096 347.4247 342.2386 336.551 330.4108 325.1561 322.9234 323.0911 323.7708 322.6323 320.581 320.3159 316.7398 318.244 320.7045 324.82 325.9706 327.132 328.9767 330.8238 335.1467 339.0679 343.4159 345.3262 344.3836 351.3826 360.2881 368.3958 376.6978 385.8776 394.2397 402.461 411.0137 418.514 423.7162 427.8965 430.7807 434.9039 440.196 444.8167 449.5434 454.1772 457.4164 459.2475 -9999 -9999 -9999 -9999 -9999 -9999 -9999 -9999 -9999 -9999 -9999 -9999 -9999 -9999 -9999 -9999 -9999 -9999 -9999 -9999 -9999 -9999 -9999 -9999 -9999 -9999 -9999 -9999 -9999 -9999 -9999 -9999 -9999 -9999 -9999 -9999 -9999 -9999 -9999 -9999 -9999 -9999 -9999 -9999 -9999 -9999 -9999 -9999 -9999 -9999 -9999 -9999 -9999 -9999 -9999 -9999 -9999 -9999 -9999 -9999 -9999 -9999 -9999 -9999 -9999 -9999 -9999 -9999 -9999 -9999 -9999 -9999 -9999 -9999 -9999 -9999 -9999 -9999 -9999 -9999 -9999 -9999 -9999 -9999 -9999 -9999 -9999 -9999 -9999 -9999 -9999 -9999 
-9999 -9999 -9999 -9999 -9999 -9999 -9999 -9999 -9999 -9999 -9999 -9999 -9999 -9999 -9999 -9999 -9999 -9999 -9999 -9999 -9999 -9999 -9999 -9999 -9999 -9999 -9999 -9999 -9999 -9999 -9999 -9999 451.328 449.2166 445.2907 440.7271 435.8549 430.6283 423.3878 417.4724 412.1201 407.2959 402.2552 399.5014 398.5413 397.6893 396.6827 394.2024 391.1308 388.6825 386.9375 384.4389 381.3124 378.9525 376.9713 375.2812 368.3889 361.8967 361.9995 362.9993 362.9764 362.6899 360.4687 357.8169 356.2975 355.7031 353.5566 349.2406 347.1253 345.4519 341.693 336.5876 331.6803 326.4286 322.7695 319.7649 319.7375 321.9069 318.577 314.3623 314.5041 318.8856 322.9044 324.7957 327.7743 328.4471 330.3445 334.3481 338.8804 342.6364 346.8754 351.4291 353.8317 354.205 351.0641 358.6978 368.3173 378.3886 386.3294 394.7457 403.6139 412.9011 418.3273 422.2509 427.181 431.4261 436.277 440.7926 446.8246 451.0629 454.6008 456.9729 -9999 -9999 -9999 -9999 -9999 -9999 -9999 -9999 -9999 -9999 -9999 -9999 -9999 -9999 -9999 -9999 -9999 -9999 -9999 -9999 -9999 -9999 -9999 -9999 -9999 -9999 -9999 -9999 -9999 -9999 -9999 -9999 -9999 -9999 -9999 -9999 -9999 -9999 -9999 -9999 -9999 -9999 -9999 -9999 -9999 -9999 -9999 -9999 -9999 -9999 -9999 -9999 -9999 -9999 -9999 -9999 -9999 -9999 -9999 -9999 -9999 -9999 -9999 -9999 -9999 -9999 -9999 -9999 -9999 -9999 -9999 -9999 -9999 -9999 -9999 -9999 -9999 -9999 -9999 -9999 -9999 -9999 -9999 -9999 -9999 -9999 -9999 -9999 -9999 -9999 -9999 -9999 -9999 
-9999 -9999 -9999 -9999 -9999 -9999 -9999 -9999 -9999 -9999 -9999 -9999 -9999 -9999 -9999 -9999 -9999 -9999 -9999 -9999 -9999 -9999 -9999 -9999 -9999 -9999 -9999 -9999 -9999 -9999 -9999 -9999 445.7532 443.5412 440.9465 436.5856 431.3949 425.0756 418.6169 411.0472 405.9715 400.4028 395.795 392.6533 392.0307 392.1001 392.3492 390.1646 387.6995 386.0399 385.0455 383.1694 380.5039 377.1176 374.6784 371.9482 367.8586 356.1771 353.6899 354.6828 355.8974 355.2208 355.3732 354.6508 351.8383 349.9371 346.5546 342.3209 340.3946 337.7024 334.5317 329.7921 325.5531 321.8955 320.4835 317.0895 317.386 316.3275 312.2143 314.1292 315.0596 322.4921 324.3529 326.7113 329.3029 332.357 334.8594 340.5287 344.7105 349.3046 354.3384 358.7145 361.8662 362.6861 360.3155 357.3246 365.6305 377.0551 386.8278 395.9748 404.2242 410.9984 414.3802 419.3332 424.1886 430.0949 434.9679 439.072 444.3329 449.3743 452.6379 455.6905 456.8441 -9999 -9999 -9999 -9999 -9999 -9999 -9999 -9999 -9999 -9999 -9999 -9999 -9999 -9999 -9999 -9999 -9999 -9999 -9999 -9999 -9999 -9999 -9999 -9999 -9999 -9999 -9999 -9999 -9999 -9999 -9999 -9999 -9999 -9999 -9999 -9999 -9999 -9999 -9999 -9999 -9999 -9999 -9999 -9999 -9999 -9999 -9999 -9999 -9999 -9999 -9999 -9999 -9999 -9999 -9999 -9999 -9999 -9999 -9999 -9999 -9999 -9999 -9999 -9999 -9999 -9999 -9999 -9999 -9999 -9999 -9999 -9999 -9999 -9999 -9999 -9999 -9999 -9999 -9999 -9999 -9999 -9999 -9999 -9999 -9999 -9999 -9999 -9999 -9999 -9999 -9999 -9999 
-9999 -9999 -9999 -9999 -9999 -9999 -9999 -9999 -9999 -9999 -9999 -9999 -9999 -9999 -9999 -9999 -9999 -9999 -9999 -9999 -9999 -9999 -9999 -9999 -9999 -9999 -9999 -9999 -9999 -9999 -9999 -9999 438.7238 436.9956 433.8493 430.0674 426.8137 421.1886 414.1401 407.4742 401.0033 393.9304 388.8677 385.5872 384.8474 386.1725 387.2004 387.1486 385.5301 384.8039 384.1021 382.4775 379.6993 377.209 373.5271 370.0882 363.1174 356.5124 349.1035 347.7151 347.6351 345.8261 347.5086 349.3176 347.1337 344.5597 340.3778 335.152 333.0976 331.6674 327.9183 324.6196 321.0458 319.3466 317.927 311.6443 310.9128 311.2656 311.9019 315.0657 321.1761 326.2084 328.7062 330.9396 333.2996 336.5434 340.3092 345.7522 351.1829 356.0811 361.1171 365.2106 370.3099 370.1926 368.1793 364.3008 365.3066 376.8974 386.4636 394.2626 402.2225 406.7282 409.4455 415.1368 420.611 426.3459 431.7111 435.7451 441.4556 446.6006 450.6559 454.0987 455.8192 -9999 -9999 -9999 -9999 -9999 -9999 -9999 -9999 -9999 -9999 -9999 -9999 -9999 -9999 -9999 -9999 -9999 -9999 -9999 -9999 -9999 -9999 -9999 -9999 -9999 -9999 -9999 -9999 -9999 -9999 -9999 -9999 -9999 -9999 -9999 -9999 -9999 -9999 -9999 -9999 -9999 -9999 -9999 -9999 -9999 -9999 -9999 -9999 -9999 -9999 -9999 -9999 -9999 -9999 -9999 -9999 -9999 -9999 -9999 -9999 -9999 -9999 -9999 -9999 -9999 -9999 -9999 -9999 -9999 -9999 -9999 -9999 -9999 -9999 -9999 -9999 -9999 -9999 -9999 -9999 -9999 -9999 -9999 -9999 -9999 -9999 -9999 -9999 -9999 -9999 -9999 -9999 
-9999 -9999 -9999 -9999 -9999 -9999 -9999 -9999 -9999 -9999 -9999 -9999 -9999 -9999 -9999 -9999 -9999 -9999 -9999 -9999 -9999 -9999 -9999 -9999 -9999 -9999 -9999 -9999 -9999 -9999 -9999 -9999 -9999 429.7131 426.182 423.6057 420.4907 417.3268 411.3268 403.7548 394.9911 387.3459 382.604 378.1174 379.3937 379.9797 382.4532 383.1931 383.4803 382.3708 381.9533 381.1989 378.4999 375.8794 371.7897 369.6416 365.2769 360.0267 352.1895 344.3493 339.7606 339.6425 339.4063 342.631 342.0565 339.4649 334.2635 329.341 326.4736 325.6803 321.8711 319.0867 317.6062 315.9641 310.4518 308.578 311.3425 315.1411 320.8759 324.4771 328.057 332.3654 336.2234 337.0364 338.3006 341.0179 345.4634 351.2515 357.7903 362.8301 367.409 372.7491 377.4415 379.7617 376.3396 372.6355 368.1291 374.853 384.2423 391.9713 396.9433 401.731 406.911 412.1323 418.0439 423.5989 428.8666 433.5597 439.1147 444.4982 449.0352 452.7781 454.533 455.1418 -9999 -9999 -9999 -9999 -9999 -9999 -9999 -9999 -9999 -9999 -9999 -9999 -9999 -9999 -9999 -9999 -9999 -9999 -9999 -9999 -9999 -9999 -9999 -9999 -9999 -9999 -9999 -9999 -9999 -9999 -9999 -9999 -9999 -9999 -9999 -9999 -9999 -9999 -9999 -9999 -9999 -9999 -9999 -9999 -9999 -9999 -9999 -9999 -9999 -9999 -9999 -9999 -9999 -9999 -9999 -9999 -9999 -9999 -9999 -9999 -9999 -9999 -9999 -9999 -9999 -9999 -9999 -9999 -9999 -9999 -9999 -9999 -9999 -9999 -9999 -9999 -9999 -9999 -9999 -9999 -9999 -9999 -9999 -9999 -9999 -9999 -9999 -9999 -9999 -9999 -9999 
-9999 -9999 -9999 -9999 -9999 -9999 -9999 -9999 -9999 -9999 -9999 -9999 -9999 -9999 -9999 -9999 -9999 -9999 -9999 -9999 -9999 -9999 -9999 -9999 -9999 -9999 -9999 -9999 -9999 -9999 -9999 -9999 -9999 425.4688 420.1729 417.6812 415.5239 412.3106 406.6443 399.5547 391.4158 383.8354 375.522 371.7417 373.1476 372.2553 375.8291 378.0564 379.7076 380.1824 379.0645 377.5961 375.1654 372.3917 369.3749 366.7064 364.4821 361.9409 356.7776 348.5815 341.1024 333.5853 331.6742 334.2894 335.5688 332.7875 329.9277 325.0509 322.3275 320.1947 318.1655 315.8353 315.0702 309.2631 308.4637 310.608 315.2173 323.2015 329.0811 335.0262 337.15 338.8507 342.33 344.3867 345.7019 347.3257 349.5774 356.0369 364.0363 370.4844 375.7498 380.8666 384.1394 386.1443 385.3274 381.4625 379.6749 378.9708 382.1704 387.8763 394.2702 400.3388 408.685 413.4772 417.829 422.702 427.6108 432.4655 437.4612 443.9191 447.9257 451.722 453.451 -9999 -9999 -9999 -9999 -9999 -9999 -9999 -9999 -9999 -9999 -9999 -9999 -9999 -9999 -9999 -9999 -9999 -9999 -9999 -9999 -9999 -9999 -9999 -9999 -9999 -9999 -9999 -9999 -9999 -9999 -9999 -9999 -9999 -9999 -9999 -9999 -9999 -9999 -9999 -9999 -9999 -9999 -9999 -9999 -9999 -9999 -9999 -9999 -9999 -9999 -9999 -9999 -9999 -9999 -9999 -9999 -9999 -9999 -9999 -9999 -9999 -9999 -9999 -9999 -9999 -9999 -9999 -9999 -9999 -9999 -9999 -9999 -9999 -9999 -9999 -9999 -9999 -9999 -9999 -9999 -9999 -9999 -9999 -9999 -9999 -9999 -9999 -9999 -9999 -9999 -9999 -9999 
-9999 -9999 -9999 -9999 -9999 -9999 -9999 -9999 -9999 -9999 -9999 -9999 -9999 -9999 -9999 -9999 -9999 -9999 -9999 -9999 -9999 -9999 -9999 -9999 -9999 -9999 -9999 -9999 -9999 -9999 -9999 -9999 -9999 420.3123 415.0324 410.5923 407.1031 404.2204 401.5306 395.4247 388.0851 380.7699 373.1849 364.8753 366.7658 366.1578 369.1738 373.1125 374.587 375.6569 374.6266 374.014 371.4247 367.9035 364.793 363.2149 361.5629 359.7318 356.664 351.2675 346.2391 338.325 331.4113 325.9943 329.6503 327.3979 324.6395 322.1073 318.5244 316.8107 315.5229 314.4058 311.0629 306.4467 308.3189 310.9105 317.4736 326.7997 334.2643 339.2996 341.0186 342.455 345.8672 349.5126 352.6719 354.2058 355.8212 361.1461 368.5444 375.996 382.2664 388.6573 392.5199 393.8092 392.1176 388.8997 388.6642 388.7495 390.6042 393.3878 396.0746 401.5724 409.7259 416.5496 421.482 425.2676 429.0487 433.0195 438.8701 445.4911 449.2043 451.5978 452.3925 -9999 -9999 -9999 -9999 -9999 -9999 -9999 -9999 -9999 -9999 -9999 -9999 -9999 -9999 -9999 -9999 -9999 -9999 -9999 -9999 -9999 -9999 -9999 -9999 -9999 -9999 -9999 -9999 -9999 -9999 -9999 -9999 -9999 -9999 -9999 -9999 -9999 -9999 -9999 -9999 -9999 -9999 -9999 -9999 -9999 -9999 -9999 -9999 -9999 -9999 -9999 -9999 -9999 -9999 -9999 -9999 -9999 -9999 -9999 -9999 -9999 -9999 -9999 -9999 -9999 -9999 -9999 -9999 -9999 -9999 -9999 -9999 -9999 -9999 -9999 -9999 -9999 -9999 -9999 -9999 -9999 -9999 -9999 -9999 -9999 -9999 -9999 -9999 -9999 -9999 -9999 -9999 
-9999 -9999 -9999 -9999 -9999 -9999 -9999 -9999 -9999 -9999 -9999 -9999 -9999 -9999 -9999 -9999 -9999 -9999 -9999 -9999 -9999 -9999 -9999 -9999 -9999 -9999 -9999 -9999 -9999 -9999 -9999 -9999 -9999 416.7439 411.4922 404.8232 398.9748 396.0739 394.2725 390.6302 385.1659 378.2545 371.158 363.0092 358.4357 360.1166 363.2957 366.8253 368.9078 369.5388 369.8443 369.3688 367.3747 363.2317 360.9061 358.7534 357.1951 355.4958 352.1133 348.5556 343.3618 338.7044 332.0598 324.7339 325.5858 323.4941 321.218 319.1553 316.3085 314.562 313.4601 313.326 307.5752 305.9735 308.7997 314.3212 320.866 328.5424 336.4459 341.3593 343.3869 345.5175 348.8512 353.8149 357.6432 361.6627 364.2581 368.1961 374.792 383.4552 388.9561 395.2616 398.8925 399.7528 399.3635 396.4511 395.5801 397.1933 398.7645 399.8092 403.5903 407.0894 412.7586 419.007 424.229 429.1134 432.3916 436.437 441.6072 446.99 450.3649 450.7642 -9999 -9999 -9999 -9999 -9999 -9999 -9999 -9999 -9999 -9999 -9999 -9999 -9999 -9999 -9999 -9999 -9999 -9999 -9999 -9999 -9999 -9999 -9999 -9999 -9999 -9999 -9999 -9999 -9999 -9999 -9999 -9999 -9999 -9999 -9999 -9999 -9999 -9999 -9999 -9999 -9999 -9999 -9999 -9999 -9999 -9999 -9999 -9999 -9999 -9999 -9999 -9999 -9999 -9999 -9999 -9999 -9999 -9999 -9999 -9999 -9999 -9999 -9999 -9999 -9999 -9999 -9999 -9999 -9999 -9999 -9999 -9999 -9999 -9999 -9999 -9999 -9999 -9999 -9999 -9999 -9999 -9999 -9999 -9999 -9999 -9999 -9999 -9999 -9999 -9999 -9999 -9999 -9999 
-9999 -9999 -9999 -9999 -9999 -9999 -9999 -9999 -9999 -9999 -9999 -9999 -9999 -9999 -9999 -9999 -9999 -9999 -9999 -9999 -9999 -9999 -9999 -9999 -9999 -9999 -9999 -9999 -9999 -9999 -9999 -9999 -9999 413.9032 408.8115 402.1059 394.9865 387.8908 385.4844 383.1176 380.2746 375.6104 369.1738 362.5543 355.3701 352.6841 357.6561 360.2675 361.8296 363.0907 363.0008 362.8065 360.9625 358.7991 356.392 355.0067 352.9782 350.8644 347.9871 344.2122 339.5526 335.347 329.9269 323.6968 320.9811 322.3283 319.2605 315.9313 314.1757 313.0296 311.9598 310.1378 305.7815 305.658 312.1967 317.9765 324.4078 331.0341 338.3181 344.1375 347.2396 349.0775 353.3447 358.1331 362.2776 367.3732 371.9756 376.6002 381.128 388.7107 394.9034 399.8793 403.7625 405.3314 405.0289 403.5087 402.5898 404.5153 405.24 405.7147 409.101 413.324 417.1539 422.2196 426.944 432.0319 436.5978 440.5823 443.7873 447.8365 449.4558 -9999 -9999 -9999 -9999 -9999 -9999 -9999 -9999 -9999 -9999 -9999 -9999 -9999 -9999 -9999 -9999 -9999 -9999 -9999 -9999 -9999 -9999 -9999 -9999 -9999 -9999 -9999 -9999 -9999 -9999 -9999 -9999 -9999 -9999 -9999 -9999 -9999 -9999 -9999 -9999 -9999 -9999 -9999 -9999 -9999 -9999 -9999 -9999 -9999 -9999 -9999 -9999 -9999 -9999 -9999 -9999 -9999 -9999 -9999 -9999 -9999 -9999 -9999 -9999 -9999 -9999 -9999 -9999 -9999 -9999 -9999 -9999 -9999 -9999 -9999 -9999 -9999 -9999 -9999 -9999 -9999 -9999 -9999 -9999 -9999 -9999 -9999 -9999 -9999 -9999 -9999 -9999 -9999 -9999 
-9999 -9999 -9999 -9999 -9999 -9999 -9999 -9999 -9999 -9999 -9999 -9999 -9999 -9999 -9999 -9999 -9999 -9999 -9999 -9999 -9999 -9999 -9999 -9999 -9999 -9999 -9999 -9999 -9999 -9999 -9999 -9999 -9999 411.2819 406.8204 400.3251 393.4457 384.6149 378.7369 375.1418 372.9205 371.0049 367.6452 361.4158 355.4989 348.1365 352.079 355.1446 355.7862 357.0145 357.1494 356.8599 356.4468 355.0158 353.5901 352.0295 349.2642 347.3729 344.2053 341.2533 336.3339 331.5394 326.3219 321.8688 315.0504 319.105 316.7337 314.7776 312.5031 311.04 310.5059 309.9755 304.531 306.1251 312.6859 321.4291 327.9595 335.9079 341.962 347.1024 351.7918 354.7247 359.0529 363.9053 367.5492 372.1982 377.7821 383.0879 388.2009 393.893 399.2956 404.4894 407.5001 408.7399 408.6591 409.1315 409.0957 409.5361 410.5146 411.5021 413.2684 417.3459 421.69 425.6204 430.1475 435.3131 438.784 443.2981 445.6313 447.0875 448.0911 -9999 -9999 -9999 -9999 -9999 -9999 -9999 -9999 -9999 -9999 -9999 -9999 -9999 -9999 -9999 -9999 -9999 -9999 -9999 -9999 -9999 -9999 -9999 -9999 -9999 -9999 -9999 -9999 -9999 -9999 -9999 -9999 -9999 -9999 -9999 -9999 -9999 -9999 -9999 -9999 -9999 -9999 -9999 -9999 -9999 -9999 -9999 -9999 -9999 -9999 -9999 -9999 -9999 -9999 -9999 -9999 -9999 -9999 -9999 -9999 -9999 -9999 -9999 -9999 -9999 -9999 -9999 -9999 -9999 -9999 -9999 -9999 -9999 -9999 -9999 -9999 -9999 -9999 -9999 -9999 -9999 -9999 -9999 -9999 -9999 -9999 -9999 -9999 -9999 -9999 -9999 -9999 -9999 -9999 
-9999 -9999 -9999 -9999 -9999 -9999 -9999 -9999 -9999 -9999 -9999 -9999 -9999 -9999 -9999 -9999 -9999 -9999 -9999 -9999 -9999 -9999 -9999 -9999 -9999 -9999 -9999 -9999 -9999 -9999 -9999 -9999 -9999 -9999 406.1856 400.1445 392.4506 385.5194 377.8674 369.5852 365.5786 364.1918 362.046 359.1085 354.8055 345.4573 344.4964 348.6584 350.3531 352.7649 353.8438 353.0414 351.9808 351.8367 350.9376 349.6483 347.6648 344.5581 341.3623 338.6145 334.6567 329.3715 324.2927 319.7992 312.7865 314.7426 314.1475 311.3349 310.2369 309.5808 308.3921 305.2686 303.8467 308.357 316.9699 325.3542 332.1528 340.2559 346.8723 352.5568 356.6534 360.4763 364.79 368.5024 372.7537 377.8179 383.0117 388.3251 393.4031 398.5077 403.9088 408.2697 410.2159 411.067 411.7216 412.6611 412.7419 413.26 414.3383 415.863 417.6758 421.4919 425.8536 429.96 433.6321 437.1137 440.8551 443.7583 445.4957 446.3621 -9999 -9999 -9999 -9999 -9999 -9999 -9999 -9999 -9999 -9999 -9999 -9999 -9999 -9999 -9999 -9999 -9999 -9999 -9999 -9999 -9999 -9999 -9999 -9999 -9999 -9999 -9999 -9999 -9999 -9999 -9999 -9999 -9999 -9999 -9999 -9999 -9999 -9999 -9999 -9999 -9999 -9999 -9999 -9999 -9999 -9999 -9999 -9999 -9999 -9999 -9999 -9999 -9999 -9999 -9999 -9999 -9999 -9999 -9999 -9999 -9999 -9999 -9999 -9999 -9999 -9999 -9999 -9999 -9999 -9999 -9999 -9999 -9999 -9999 -9999 -9999 -9999 -9999 -9999 -9999 -9999 -9999 -9999 -9999 -9999 -9999 -9999 -9999 -9999 -9999 -9999 -9999 -9999 -9999 -9999 
-9999 -9999 -9999 -9999 -9999 -9999 -9999 -9999 -9999 -9999 -9999 -9999 -9999 -9999 -9999 -9999 -9999 -9999 -9999 -9999 -9999 -9999 -9999 -9999 -9999 -9999 -9999 -9999 -9999 -9999 -9999 -9999 -9999 -9999 406.7084 400.7876 393.0617 385.9964 378.2568 369.9678 361.0585 356.5901 355.3191 354.1868 351.8535 346.0783 338.2427 340.8807 344.4187 349.1317 350.7806 351.0747 349.8274 349.4433 349.5332 347.7326 346.172 342.6935 339.423 335.9178 331.9326 328.1995 323.0834 318.91 313.7977 309.7553 310.201 310.0677 308.7098 305.3784 301.5135 303.4177 305.0865 313.4335 322.6308 329.2564 336.6402 344.5825 351.5754 358.2856 363.1403 366.9922 369.4252 374.1938 378.3741 382.982 388.697 394.2626 398.2646 403.9263 408.1082 411.8039 414.0243 414.4823 415.2824 415.7 415.9743 416.7668 418.844 420.8313 423.3123 425.8087 429.7002 433.2747 436.4035 439.2397 442.4797 444.643 445.2297 -9999 -9999 -9999 -9999 -9999 -9999 -9999 -9999 -9999 -9999 -9999 -9999 -9999 -9999 -9999 -9999 -9999 -9999 -9999 -9999 -9999 -9999 -9999 -9999 -9999 -9999 -9999 -9999 -9999 -9999 -9999 -9999 -9999 -9999 -9999 -9999 -9999 -9999 -9999 -9999 -9999 -9999 -9999 -9999 -9999 -9999 -9999 -9999 -9999 -9999 -9999 -9999 -9999 -9999 -9999 -9999 -9999 -9999 -9999 -9999 -9999 -9999 -9999 -9999 -9999 -9999 -9999 -9999 -9999 -9999 -9999 -9999 -9999 -9999 -9999 -9999 -9999 -9999 -9999 -9999 -9999 -9999 -9999 -9999 -9999 -9999 -9999 -9999 -9999 -9999 -9999 -9999 -9999 -9999 -9999 -9999 
-9999 -9999 -9999 -9999 -9999 -9999 -9999 -9999 -9999 -9999 -9999 -9999 -9999 -9999 -9999 -9999 -9999 -9999 -9999 -9999 -9999 -9999 -9999 -9999 -9999 -9999 -9999 -9999 -9999 -9999 -9999 -9999 -9999 -9999 406.703 400.6352 393.0541 386.8072 377.8758 371.4552 361.7778 354.4832 349.6727 346.8274 348.1898 343.9142 337.6711 335.0552 338.9437 345.5487 348.0938 348.2858 347.7006 346.8723 346.5226 344.9795 343.739 340.6208 336.855 332.2632 328.5287 325.5074 322.0944 317.4629 313.1973 311.0682 306.75 306.2745 302.1452 301.1249 303.2067 305.437 309.6638 317.9895 326.584 334.5889 342.4138 349.5797 357.3384 363.3452 368.872 372.0518 376.0531 380.8499 384.9837 389.5695 394.3007 398.9451 404.0063 408.9273 413.0764 416.446 418.0042 418.9872 419.3469 419.817 420.435 421.7541 424.562 426.4259 428.2463 430.4759 433.5285 436.5917 439.4127 441.4022 443.8566 445.1749 -9999 -9999 -9999 -9999 -9999 -9999 -9999 -9999 -9999 -9999 -9999 -9999 -9999 -9999 -9999 -9999 -9999 -9999 -9999 -9999 -9999 -9999 -9999 -9999 -9999 -9999 -9999 -9999 -9999 -9999 -9999 -9999 -9999 -9999 -9999 -9999 -9999 -9999 -9999 -9999 -9999 -9999 -9999 -9999 -9999 -9999 -9999 -9999 -9999 -9999 -9999 -9999 -9999 -9999 -9999 -9999 -9999 -9999 -9999 -9999 -9999 -9999 -9999 -9999 -9999 -9999 -9999 -9999 -9999 -9999 -9999 -9999 -9999 -9999 -9999 -9999 -9999 -9999 -9999 -9999 -9999 -9999 -9999 -9999 -9999 -9999 -9999 -9999 -9999 -9999 -9999 -9999 -9999 -9999 -9999 -9999 -9999 
-9999 -9999 -9999 -9999 -9999 -9999 -9999 -9999 -9999 -9999 -9999 -9999 -9999 -9999 -9999 -9999 -9999 -9999 -9999 -9999 -9999 -9999 -9999 -9999 -9999 -9999 -9999 -9999 -9999 -9999 -9999 -9999 -9999 -9999 406.5811 401.1077 394.9865 387.2217 380.1367 372.2492 365.7204 358.6445 350.6442 343.3763 340.4357 340.0699 335.8203 331.4258 335.1367 342.3171 345.6348 345.5312 345.0267 344.4339 343.0547 341.4118 338.437 335.7334 332.8279 328.9554 324.8612 321.244 318.7225 314.6572 311.2031 308.5902 307.3199 300.6143 299.6725 302.6641 304.211 309.9199 316.7863 324.7583 331.5454 339.7819 347.7593 354.5715 362.3455 369.0008 374.7607 378.7483 382.3122 386.5306 390.5768 395.4536 399.8923 404.8491 409.2542 414.0137 417.1028 420.3024 422.4109 423.4899 423.7116 425.9702 426.3931 427.8264 430.6473 431.2425 433.5627 435.5889 438.0205 440.7164 442.8272 443.1502 444.5356 -9999 -9999 -9999 -9999 -9999 -9999 -9999 -9999 -9999 -9999 -9999 -9999 -9999 -9999 -9999 -9999 -9999 -9999 -9999 -9999 -9999 -9999 -9999 -9999 -9999 -9999 -9999 -9999 -9999 -9999 -9999 -9999 -9999 -9999 -9999 -9999 -9999 -9999 -9999 -9999 -9999 -9999 -9999 -9999 -9999 -9999 -9999 -9999 -9999 -9999 -9999 -9999 -9999 -9999 -9999 -9999 -9999 -9999 -9999 -9999 -9999 -9999 -9999 -9999 -9999 -9999 -9999 -9999 -9999 -9999 -9999 -9999 -9999 -9999 -9999 -9999 -9999 -9999 -9999 -9999 -9999 -9999 -9999 -9999 -9999 -9999 -9999 -9999 -9999 -9999 -9999 -9999 -9999 -9999 -9999 -9999 -9999 -9999 
-9999 -9999 -9999 -9999 -9999 -9999 -9999 -9999 -9999 -9999 -9999 -9999 -9999 -9999 -9999 -9999 -9999 -9999 -9999 -9999 -9999 -9999 -9999 -9999 -9999 -9999 -9999 -9999 -9999 -9999 -9999 -9999 -9999 -9999 404.8773 400.7632 395.0848 388.2375 381.4084 374.4308 367.0158 360.0488 353.6008 346.2871 339.0603 332.9208 330.7217 327.9153 330.8353 337.1545 341.2762 342.817 342.2996 341.7737 340.2467 336.0649 331.0738 329.1124 327.6966 325.2285 320.4888 317.6999 315.6783 311.6466 307.7131 305.7243 304.4076 298.7558 297.9077 302.6694 309.34 314.7045 321.6676 329.155 336.7065 344.1237 352.505 359.9558 367.6063 374.5261 380.8042 385.5781 388.5217 392.9763 397.2534 402.2888 406.1102 410.7843 415.0637 419.1236 421.3571 423.4968 426.2491 428.1023 429.4769 430.4088 431.5031 434.1038 435.7025 437.5282 438.4503 440.1373 441.9806 443.3194 443.4512 444.5142 -9999 -9999 -9999 -9999 -9999 -9999 -9999 -9999 -9999 -9999 -9999 -9999 -9999 -9999 -9999 -9999 -9999 -9999 -9999 -9999 -9999 -9999 -9999 -9999 -9999 -9999 -9999 -9999 -9999 -9999 -9999 -9999 -9999 -9999 -9999 -9999 -9999 -9999 -9999 -9999 -9999 -9999 -9999 -9999 -9999 -9999 -9999 -9999 -9999 -9999 -9999 -9999 -9999 -9999 -9999 -9999 -9999 -9999 -9999 -9999 -9999 -9999 -9999 -9999 -9999 -9999 -9999 -9999 -9999 -9999 -9999 -9999 -9999 -9999 -9999 -9999 -9999 -9999 -9999 -9999 -9999 -9999 -9999 -9999 -9999 -9999 -9999 -9999 -9999 -9999 -9999 -9999 -9999 -9999 -9999 -9999 -9999 -9999 -9999 
-9999 -9999 -9999 -9999 -9999 -9999 -9999 -9999 -9999 -9999 -9999 -9999 -9999 -9999 -9999 -9999 -9999 -9999 -9999 -9999 -9999 -9999 -9999 -9999 -9999 -9999 -9999 -9999 -9999 -9999 -9999 -9999 -9999 401.6395 400.1689 397.7373 393.9121 388.5499 382.431 375.5829 369.791 364.1949 358.1758 351.9076 344.3661 336.0756 330.154 324.6486 326.149 331.6536 336.4017 338.5094 338.2526 338.2046 335.1428 330.5442 328.5637 323.1292 322.6072 321.186 317.1193 311.8866 310.39 307.6636 304.7368 303.8193 299.3883 296.6786 301.5005 307.7947 313.4456 318.4909 323.7761 330.5769 338.2777 345.3986 353.2495 361.7389 370.0668 378.2812 384.5037 390.6134 395.3926 399.5669 403.9637 407.7782 412.2946 416.6304 420.8 423.4884 425.0642 426.8221 428.9405 430.7746 432.7581 434.388 436.9156 438.5462 440.4452 441.3786 442.437 443.2828 444.675 444.8846 445.0903 -9999 -9999 -9999 -9999 -9999 -9999 -9999 -9999 -9999 -9999 -9999 -9999 -9999 -9999 -9999 -9999 -9999 -9999 -9999 -9999 -9999 -9999 -9999 -9999 -9999 -9999 -9999 -9999 -9999 -9999 -9999 -9999 -9999 -9999 -9999 -9999 -9999 -9999 -9999 -9999 -9999 -9999 -9999 -9999 -9999 -9999 -9999 -9999 -9999 -9999 -9999 -9999 -9999 -9999 -9999 -9999 -9999 -9999 -9999 -9999 -9999 -9999 -9999 -9999 -9999 -9999 -9999 -9999 -9999 -9999 -9999 -9999 -9999 -9999 -9999 -9999 -9999 -9999 -9999 -9999 -9999 -9999 -9999 -9999 -9999 -9999 -9999 -9999 -9999 -9999 -9999 -9999 -9999 -9999 -9999 -9999 -9999 -9999 -9999 -9999 
-9999 -9999 -9999 -9999 -9999 -9999 -9999 -9999 -9999 -9999 -9999 -9999 -9999 -9999 -9999 -9999 -9999 -9999 -9999 -9999 -9999 -9999 -9999 -9999 -9999 -9999 -9999 -9999 -9999 -9999 -9999 -9999 -9999 396.7581 394.6627 391.5408 390.5418 387.6408 383.4377 378.0876 372.5486 367.5568 360.8375 354.4359 347.4339 340.3991 333.8581 325.7642 320.7273 325.8769 331.537 334.8419 334.1812 333.1936 330.519 326.0461 324.7011 321.0443 315.9679 315.0878 311.882 308.4317 305.8615 302.1559 298.7833 297.2318 296.2374 299.2664 307.877 311.4805 315.8757 321.3895 325.8358 330.263 336.9427 344.5101 352.6407 360.7369 369.6622 379.1498 385.8036 392.2159 398.4643 403.6337 409.1666 414.608 417.9875 420.9471 424.5453 426.7741 427.7746 429.5394 431.6753 433.6169 436.3022 438.2742 440.359 441.736 442.7045 444.4975 446.4154 446.9427 446.6257 446.7347 -9999 -9999 -9999 -9999 -9999 -9999 -9999 -9999 -9999 -9999 -9999 -9999 -9999 -9999 -9999 -9999 -9999 -9999 -9999 -9999 -9999 -9999 -9999 -9999 -9999 -9999 -9999 -9999 -9999 -9999 -9999 -9999 -9999 -9999 -9999 -9999 -9999 -9999 -9999 -9999 -9999 -9999 -9999 -9999 -9999 -9999 -9999 -9999 -9999 -9999 -9999 -9999 -9999 -9999 -9999 -9999 -9999 -9999 -9999 -9999 -9999 -9999 -9999 -9999 -9999 -9999 -9999 -9999 -9999 -9999 -9999 -9999 -9999 -9999 -9999 -9999 -9999 -9999 -9999 -9999 -9999 -9999 -9999 -9999 -9999 -9999 -9999 -9999 -9999 -9999 -9999 -9999 -9999 -9999 -9999 -9999 -9999 -9999 -9999 -9999 -9999 
-9999 -9999 -9999 -9999 -9999 -9999 -9999 -9999 -9999 -9999 -9999 -9999 -9999 -9999 -9999 -9999 -9999 -9999 -9999 -9999 -9999 -9999 -9999 -9999 -9999 -9999 -9999 -9999 -9999 -9999 -9999 -9999 -9999 391.7968 388.8844 385.4661 383.872 382.3891 380.1595 378.0038 373.6345 367.9446 361.4075 354.6378 347.9391 340.7009 334.7085 328.2925 319.8929 320.9834 327.0511 330.5114 329.8569 326.4789 324.6311 321.071 320.3006 318.2935 311.3448 307.6667 305.3837 301.3184 295.8473 293.9857 293.9499 295.4366 299.594 305.1993 309.0291 315.3301 321.3811 327.3209 330.5045 333.7621 337.4106 343.9752 352.582 360.7773 369.8382 379.6147 387.032 394.1887 399.6058 405.6621 412.4919 418.1444 422.5191 425.9268 427.2648 429.0662 430.485 432.2117 434.0604 436.8843 438.6072 440.7759 442.575 443.9702 445.4934 447.1782 447.1744 448.1269 449.6798 449.5472 -9999 -9999 -9999 -9999 -9999 -9999 -9999 -9999 -9999 -9999 -9999 -9999 -9999 -9999 -9999 -9999 -9999 -9999 -9999 -9999 -9999 -9999 -9999 -9999 -9999 -9999 -9999 -9999 -9999 -9999 -9999 -9999 -9999 -9999 -9999 -9999 -9999 -9999 -9999 -9999 -9999 -9999 -9999 -9999 -9999 -9999 -9999 -9999 -9999 -9999 -9999 -9999 -9999 -9999 -9999 -9999 -9999 -9999 -9999 -9999 -9999 -9999 -9999 -9999 -9999 -9999 -9999 -9999 -9999 -9999 -9999 -9999 -9999 -9999 -9999 -9999 -9999 -9999 -9999 -9999 -9999 -9999 -9999 -9999 -9999 -9999 -9999 -9999 -9999 -9999 -9999 -9999 -9999 -9999 -9999 -9999 -9999 -9999 -9999 -9999 -9999 
-9999 -9999 -9999 -9999 -9999 -9999 -9999 -9999 -9999 -9999 -9999 -9999 -9999 -9999 -9999 -9999 -9999 -9999 -9999 -9999 -9999 -9999 -9999 -9999 -9999 -9999 -9999 -9999 -9999 -9999 -9999 -9999 -9999 387.0289 382.7221 379.3914 377.0803 376.1171 374.4026 373.5156 370.1979 364.8029 358.6703 352.7512 346.3534 339.4443 332.9887 326.2846 317.3913 317.7266 323.5239 326.8652 325.0921 321.2325 319.153 317.8287 315.6273 314.0865 308.5681 303.0444 299.2214 294.9032 291.8978 293.9499 296.1406 300.6105 303.3286 306.99 312.1122 318.817 325.5843 332.5178 337.0928 339.4725 341.213 346.2589 354.4557 363.0877 371.5893 380.2327 387.2796 394.7305 401.2319 408.1798 414.8747 420.6362 425.8948 428.4482 429.6453 431.1518 432.5866 434.3408 436.5208 439.1536 440.6982 442.2465 443.8589 445.3654 446.5335 448.1482 450.0959 451.9811 454.4195 -9999 -9999 -9999 -9999 -9999 -9999 -9999 -9999 -9999 -9999 -9999 -9999 -9999 -9999 -9999 -9999 -9999 -9999 -9999 -9999 -9999 -9999 -9999 -9999 -9999 -9999 -9999 -9999 -9999 -9999 -9999 -9999 -9999 -9999 -9999 -9999 -9999 -9999 -9999 -9999 -9999 -9999 -9999 -9999 -9999 -9999 -9999 -9999 -9999 -9999 -9999 -9999 -9999 -9999 -9999 -9999 -9999 -9999 -9999 -9999 -9999 -9999 -9999 -9999 -9999 -9999 -9999 -9999 -9999 -9999 -9999 -9999 -9999 -9999 -9999 -9999 -9999 -9999 -9999 -9999 -9999 -9999 -9999 -9999 -9999 -9999 -9999 -9999 -9999 -9999 -9999 -9999 -9999 -9999 -9999 -9999 -9999 -9999 -9999 -9999 -9999 -9999 
-9999 -9999 -9999 -9999 -9999 -9999 -9999 -9999 -9999 -9999 -9999 -9999 -9999 -9999 -9999 -9999 -9999 -9999 -9999 -9999 -9999 -9999 -9999 -9999 -9999 -9999 -9999 -9999 -9999 -9999 -9999 -9999 384.9434 379.2977 376.0844 373.2962 371.1108 368.9977 367.9401 366.8093 364.6978 359.7882 354.8421 348.9312 343.0562 336.6615 330.4459 322.6422 315.7324 315.3796 320.6077 323.7974 321.7903 317.8896 315.5823 314.4446 312.8277 310.0456 305.3761 300.5785 295.022 291.1411 292.8328 298.1119 301.0776 303.3514 304.5912 309.3705 315.7621 322.0822 329.0179 336.881 343.1012 346.3252 348.3407 350.6724 357.9015 365.0475 373.412 380.8743 389.0955 395.2151 402.8184 410.2303 416.862 423.5005 427.9217 429.5097 431.1343 432.5821 433.671 435.7573 438.275 440.0055 441.2186 442.9788 444.768 446.2706 448.2213 451.2587 453.9402 456.5378 -9999 -9999 -9999 -9999 -9999 -9999 -9999 -9999 -9999 -9999 -9999 -9999 -9999 -9999 -9999 -9999 -9999 -9999 -9999 -9999 -9999 -9999 -9999 -9999 -9999 -9999 -9999 -9999 -9999 -9999 -9999 -9999 -9999 -9999 -9999 -9999 -9999 -9999 -9999 -9999 -9999 -9999 -9999 -9999 -9999 -9999 -9999 -9999 -9999 -9999 -9999 -9999 -9999 -9999 -9999 -9999 -9999 -9999 -9999 -9999 -9999 -9999 -9999 -9999 -9999 -9999 -9999 -9999 -9999 -9999 -9999 -9999 -9999 -9999 -9999 -9999 -9999 -9999 -9999 -9999 -9999 -9999 -9999 -9999 -9999 -9999 -9999 -9999 -9999 -9999 -9999 -9999 -9999 -9999 -9999 -9999 -9999 -9999 -9999 -9999 -9999 -9999 -9999 
-9999 -9999 -9999 -9999 -9999 -9999 -9999 -9999 -9999 -9999 -9999 -9999 -9999 -9999 -9999 -9999 -9999 -9999 -9999 -9999 -9999 -9999 -9999 -9999 -9999 -9999 -9999 -9999 -9999 -9999 -9999 -9999 375.8916 372.9129 369.7887 366.6752 363.9785 362.2022 360.8078 360.0541 358.5431 354.2203 349.806 345.2935 339.5129 333.7773 328.0867 320.6351 313.2483 313.7329 317.7243 320.9979 318.7172 314.6283 312.5861 310.3855 309.2097 304.9791 299.9247 296.6527 291.8757 291.1411 295.9189 300.7172 303.721 306.3812 308.8485 313.3817 320.0118 326.0187 333.0389 338.7928 346.015 351.7704 354.5677 357.4778 361.5202 367.9728 375.1273 383.2609 390.3909 397.652 405.0305 411.7315 418.9445 424.863 429.0075 430.5742 431.8452 433.1414 434.2546 436.6915 438.4403 439.9072 442.3357 443.5198 445.6389 446.8551 450.3854 453.944 -9999 -9999 -9999 -9999 -9999 -9999 -9999 -9999 -9999 -9999 -9999 -9999 -9999 -9999 -9999 -9999 -9999 -9999 -9999 -9999 -9999 -9999 -9999 -9999 -9999 -9999 -9999 -9999 -9999 -9999 -9999 -9999 -9999 -9999 -9999 -9999 -9999 -9999 -9999 -9999 -9999 -9999 -9999 -9999 -9999 -9999 -9999 -9999 -9999 -9999 -9999 -9999 -9999 -9999 -9999 -9999 -9999 -9999 -9999 -9999 -9999 -9999 -9999 -9999 -9999 -9999 -9999 -9999 -9999 -9999 -9999 -9999 -9999 -9999 -9999 -9999 -9999 -9999 -9999 -9999 -9999 -9999 -9999 -9999 -9999 -9999 -9999 -9999 -9999 -9999 -9999 -9999 -9999 -9999 -9999 -9999 -9999 -9999 -9999 -9999 -9999 -9999 -9999 -9999 -9999 
-9999 -9999 -9999 -9999 -9999 -9999 -9999 -9999 -9999 -9999 -9999 -9999 -9999 -9999 -9999 -9999 -9999 -9999 -9999 -9999 -9999 -9999 -9999 -9999 -9999 -9999 -9999 -9999 -9999 -9999 -9999 -9999 369.1364 366.4329 363.1547 360.1814 357.4565 355.4197 353.77 353.2998 351.9396 349.0387 344.7242 340.5698 335.9803 330.5838 324.5251 317.7967 310.2445 312.692 315.2562 317.4088 314.245 311.0888 307.816 307.182 302.056 300.4193 295.2079 290.0522 290.8531 295.3047 299.783 302.1566 303.7012 307.4144 312.4749 317.6778 324.0466 330.8162 337.4136 342.5617 348.1212 353.9384 360.8123 364.4593 368.1893 372.6973 378.6218 386.3355 393.3962 399.0068 407.4224 413.9504 420.0845 425.5122 430.4089 431.9222 432.5889 433.2968 434.5244 436.2816 438.515 440.5236 442.4637 444.5203 446.7827 448.3913 -9999 -9999 -9999 -9999 -9999 -9999 -9999 -9999 -9999 -9999 -9999 -9999 -9999 -9999 -9999 -9999 -9999 -9999 -9999 -9999 -9999 -9999 -9999 -9999 -9999 -9999 -9999 -9999 -9999 -9999 -9999 -9999 -9999 -9999 -9999 -9999 -9999 -9999 -9999 -9999 -9999 -9999 -9999 -9999 -9999 -9999 -9999 -9999 -9999 -9999 -9999 -9999 -9999 -9999 -9999 -9999 -9999 -9999 -9999 -9999 -9999 -9999 -9999 -9999 -9999 -9999 -9999 -9999 -9999 -9999 -9999 -9999 -9999 -9999 -9999 -9999 -9999 -9999 -9999 -9999 -9999 -9999 -9999 -9999 -9999 -9999 -9999 -9999 -9999 -9999 -9999 -9999 -9999 -9999 -9999 -9999 -9999 -9999 -9999 -9999 -9999 -9999 -9999 -9999 -9999 -9999 -9999 
-9999 -9999 -9999 -9999 -9999 -9999 -9999 -9999 -9999 -9999 -9999 -9999 -9999 -9999 -9999 -9999 -9999 -9999 -9999 -9999 -9999 -9999 -9999 -9999 -9999 -9999 -9999 -9999 -9999 -9999 -9999 -9999 363.4077 360.5891 357.5243 354.282 350.3912 348.5746 347.2693 345.9876 345.2531 342.2767 338.8591 334.8624 331.3161 326.056 320.3418 315.1838 307.3237 309.0923 312.3164 311.9125 310.4914 307.451 304.9814 302.7776 299.3578 294.244 291.1663 287.911 293.0302 300.0566 301.6522 303.007 305.6375 310.2292 316.1393 322.2963 328.5554 334.7862 341.8073 347.5947 352.3435 357.2363 364.172 370.0424 373.9949 378.7079 383.5702 388.8669 395.9688 402.307 409.8287 416.1381 422.1823 427.3128 431.132 433.7152 433.8036 433.4271 434.9504 436.9117 439.2023 440.5274 441.8632 443.9077 -9999 -9999 -9999 -9999 -9999 -9999 -9999 -9999 -9999 -9999 -9999 -9999 -9999 -9999 -9999 -9999 -9999 -9999 -9999 -9999 -9999 -9999 -9999 -9999 -9999 -9999 -9999 -9999 -9999 -9999 -9999 -9999 -9999 -9999 -9999 -9999 -9999 -9999 -9999 -9999 -9999 -9999 -9999 -9999 -9999 -9999 -9999 -9999 -9999 -9999 -9999 -9999 -9999 -9999 -9999 -9999 -9999 -9999 -9999 -9999 -9999 -9999 -9999 -9999 -9999 -9999 -9999 -9999 -9999 -9999 -9999 -9999 -9999 -9999 -9999 -9999 -9999 -9999 -9999 -9999 -9999 -9999 -9999 -9999 -9999 -9999 -9999 -9999 -9999 -9999 -9999 -9999 -9999 -9999 -9999 -9999 -9999 -9999 -9999 -9999 -9999 -9999 -9999 -9999 -9999 -9999 -9999 -9999 -9999 
-9999 -9999 -9999 -9999 -9999 -9999 -9999 -9999 -9999 -9999 -9999 -9999 -9999 -9999 -9999 -9999 -9999 -9999 -9999 -9999 -9999 -9999 -9999 -9999 -9999 -9999 -9999 -9999 -9999 -9999 -9999 -9999 356.4781 354.3102 351.0648 347.9879 344.3966 341.8606 339.9503 338.7943 338.4179 336.8436 332.4416 330.0176 326.0781 320.975 316.9653 311.7677 303.558 307.1371 308.7997 306.926 305.3029 303.34 301.5379 298.656 292.7337 289.5943 286.7947 285.8689 293.0103 301.6537 302.9727 304.893 309.3217 316.2109 321.4253 327.5175 334.4723 340.0692 345.519 352.3732 357.487 362.3843 367.3183 373.028 379.2329 384.1021 388.3091 393.0609 399.3604 405.4541 412.4729 418.1086 424.5445 428.5717 431.7995 433.8348 -9999 -9999 -9999 -9999 -9999 -9999 -9999 -9999 -9999 -9999 -9999 -9999 -9999 -9999 -9999 -9999 -9999 -9999 -9999 -9999 -9999 -9999 -9999 -9999 -9999 -9999 -9999 -9999 -9999 -9999 -9999 -9999 -9999 -9999 -9999 -9999 -9999 -9999 -9999 -9999 -9999 -9999 -9999 -9999 -9999 -9999 -9999 -9999 -9999 -9999 -9999 -9999 -9999 -9999 -9999 -9999 -9999 -9999 -9999 -9999 -9999 -9999 -9999 -9999 -9999 -9999 -9999 -9999 -9999 -9999 -9999 -9999 -9999 -9999 -9999 -9999 -9999 -9999 -9999 -9999 -9999 -9999 -9999 -9999 -9999 -9999 -9999 -9999 -9999 -9999 -9999 -9999 -9999 -9999 -9999 -9999 -9999 -9999 -9999 -9999 -9999 -9999 -9999 -9999 -9999 -9999 -9999 -9999 -9999 -9999 -9999 -9999 -9999 -9999 -9999 -9999 -9999 
-9999 -9999 -9999 -9999 -9999 -9999 -9999 -9999 -9999 -9999 -9999 -9999 -9999 -9999 -9999 -9999 -9999 -9999 -9999 -9999 -9999 -9999 -9999 -9999 -9999 -9999 -9999 -9999 -9999 -9999 -9999 -9999 352.2398 348.3193 344.0514 341.1382 337.5287 335.5939 333.8116 332.2396 332.4614 330.9137 326.9422 323.6046 320.2739 315.2859 311.6999 306.9382 299.1528 306.564 305.8813 302.7312 301.1485 299.9857 298.6438 294.5161 288.5062 285.6433 285.8689 293.0096 298.003 301.8815 304.8953 308.5132 314.0004 320.2076 326.9346 332.7791 339.3582 345.4047 350.8492 356.6876 362.0994 367.4242 371.9543 376.4631 382.2512 388.6337 393.2233 397.9172 403.4828 408.922 415.287 421.2336 426.0738 429.8808 432.7848 432.912 -9999 -9999 -9999 -9999 -9999 -9999 -9999 -9999 -9999 -9999 -9999 -9999 -9999 -9999 -9999 -9999 -9999 -9999 -9999 -9999 -9999 -9999 -9999 -9999 -9999 -9999 -9999 -9999 -9999 -9999 -9999 -9999 -9999 -9999 -9999 -9999 -9999 -9999 -9999 -9999 -9999 -9999 -9999 -9999 -9999 -9999 -9999 -9999 -9999 -9999 -9999 -9999 -9999 -9999 -9999 -9999 -9999 -9999 -9999 -9999 -9999 -9999 -9999 -9999 -9999 -9999 -9999 -9999 -9999 -9999 -9999 -9999 -9999 -9999 -9999 -9999 -9999 -9999 -9999 -9999 -9999 -9999 -9999 -9999 -9999 -9999 -9999 -9999 -9999 -9999 -9999 -9999 -9999 -9999 -9999 -9999 -9999 -9999 -9999 -9999 -9999 -9999 -9999 -9999 -9999 -9999 -9999 -9999 -9999 -9999 -9999 -9999 -9999 -9999 -9999 -9999 -9999 
-9999 -9999 -9999 -9999 -9999 -9999 -9999 -9999 -9999 -9999 -9999 -9999 -9999 -9999 -9999 -9999 -9999 -9999 -9999 -9999 -9999 -9999 -9999 -9999 -9999 -9999 -9999 -9999 -9999 -9999 -9999 -9999 346.5812 342.9556 338.4499 334.7306 331.233 328.739 327.1075 325.1385 325.5523 324.09 320.6641 317.6534 314.7213 309.6044 306.0443 300.7012 296.2778 303.1411 301.1096 295.1767 293.181 292.1127 291.0017 286.2361 283.6705 285.5755 293.6039 297.939 300.878 304.0266 308.2762 312.7934 318.1921 324.6539 331.5744 337.5614 343.9676 351.1014 356.6145 362.1786 367.2322 372.9037 377.9954 381.9563 386.1267 392.366 398.2799 402.3657 408.051 412.3975 418.3266 424.7571 428.5115 431.1297 432.5349 -9999 -9999 -9999 -9999 -9999 -9999 -9999 -9999 -9999 -9999 -9999 -9999 -9999 -9999 -9999 -9999 -9999 -9999 -9999 -9999 -9999 -9999 -9999 -9999 -9999 -9999 -9999 -9999 -9999 -9999 -9999 -9999 -9999 -9999 -9999 -9999 -9999 -9999 -9999 -9999 -9999 -9999 -9999 -9999 -9999 -9999 -9999 -9999 -9999 -9999 -9999 -9999 -9999 -9999 -9999 -9999 -9999 -9999 -9999 -9999 -9999 -9999 -9999 -9999 -9999 -9999 -9999 -9999 -9999 -9999 -9999 -9999 -9999 -9999 -9999 -9999 -9999 -9999 -9999 -9999 -9999 -9999 -9999 -9999 -9999 -9999 -9999 -9999 -9999 -9999 -9999 -9999 -9999 -9999 -9999 -9999 -9999 -9999 -9999 -9999 -9999 -9999 -9999 -9999 -9999 -9999 -9999 -9999 -9999 -9999 -9999 -9999 -9999 -9999 -9999 -9999 -9999 -9999 
-9999 -9999 -9999 -9999 -9999 -9999 -9999 -9999 -9999 -9999 -9999 -9999 -9999 -9999 -9999 -9999 -9999 -9999 -9999 -9999 -9999 -9999 -9999 -9999 -9999 -9999 -9999 -9999 -9999 -9999 -9999 -9999 341.6671 336.8787 332.155 328.0966 325.2193 321.4969 319.9432 318.4284 318.6371 318.2607 315.1533 312.2836 308.7251 304.3062 299.6085 294.3621 294.2494 295.2247 293.1955 289.3009 286.8579 283.733 281.6398 283.6705 289.2857 294.4406 297.9611 301.3923 305.3906 308.4881 313.0372 317.8927 322.4967 329.0651 335.0331 341.8744 347.5093 354.7582 361.1667 367.8052 372.6013 377.5733 383.321 387.3596 391.7823 397.4615 403.4036 408.4267 412.9156 417.5516 423.0837 427.0538 430.4828 431.9938 -9999 -9999 -9999 -9999 -9999 -9999 -9999 -9999 -9999 -9999 -9999 -9999 -9999 -9999 -9999 -9999 -9999 -9999 -9999 -9999 -9999 -9999 -9999 -9999 -9999 -9999 -9999 -9999 -9999 -9999 -9999 -9999 -9999 -9999 -9999 -9999 -9999 -9999 -9999 -9999 -9999 -9999 -9999 -9999 -9999 -9999 -9999 -9999 -9999 -9999 -9999 -9999 -9999 -9999 -9999 -9999 -9999 -9999 -9999 -9999 -9999 -9999 -9999 -9999 -9999 -9999 -9999 -9999 -9999 -9999 -9999 -9999 -9999 -9999 -9999 -9999 -9999 -9999 -9999 -9999 -9999 -9999 -9999 -9999 -9999 -9999 -9999 -9999 -9999 -9999 -9999 -9999 -9999 -9999 -9999 -9999 -9999 -9999 -9999 -9999 -9999 -9999 -9999 -9999 -9999 -9999 -9999 -9999 -9999 -9999 -9999 -9999 -9999 -9999 -9999 -9999 -9999 -9999 -9999 
-9999 -9999 -9999 -9999 -9999 -9999 -9999 -9999 -9999 -9999 -9999 -9999 -9999 -9999 -9999 -9999 -9999 -9999 -9999 -9999 -9999 -9999 -9999 -9999 -9999 -9999 -9999 -9999 -9999 -9999 -9999 -9999 335.3852 331.0684 326.1329 322.1729 318.5099 315.7126 313.9052 312.5534 311.722 311.2846 309.2364 305.7609 302.7159 300.0108 293.114 289.6324 288.0604 287.927 287.1589 285.129 282.2852 280.6088 283.8199 292.9059 295.5912 298.4007 301.3641 305.7144 310.0921 314.0705 318.3598 323.9041 328.6735 333.788 339.2371 345.2073 350.8027 357.0702 363.8809 371.1687 377.4201 383.968 389.1039 394.3937 398.1633 402.5319 408.1965 413.8148 419.4056 423.3626 426.8373 429.7733 431.9427 -9999 -9999 -9999 -9999 -9999 -9999 -9999 -9999 -9999 -9999 -9999 -9999 -9999 -9999 -9999 -9999 -9999 -9999 -9999 -9999 -9999 -9999 -9999 -9999 -9999 -9999 -9999 -9999 -9999 -9999 -9999 -9999 -9999 -9999 -9999 -9999 -9999 -9999 -9999 -9999 -9999 -9999 -9999 -9999 -9999 -9999 -9999 -9999 -9999 -9999 -9999 -9999 -9999 -9999 -9999 -9999 -9999 -9999 -9999 -9999 -9999 -9999 -9999 -9999 -9999 -9999 -9999 -9999 -9999 -9999 -9999 -9999 -9999 -9999 -9999 -9999 -9999 -9999 -9999 -9999 -9999 -9999 -9999 -9999 -9999 -9999 -9999 -9999 -9999 -9999 -9999 -9999 -9999 -9999 -9999 -9999 -9999 -9999 -9999 -9999 -9999 -9999 -9999 -9999 -9999 -9999 -9999 -9999 -9999 -9999 -9999 -9999 -9999 -9999 -9999 -9999 -9999 -9999 -9999 -9999 
-9999 -9999 -9999 -9999 -9999 -9999 -9999 -9999 -9999 -9999 -9999 -9999 -9999 -9999 -9999 -9999 -9999 -9999 -9999 -9999 -9999 -9999 -9999 -9999 -9999 -9999 -9999 -9999 -9999 -9999 -9999 -9999 329.1162 325.2307 320.4446 316.6407 312.9084 309.5442 307.5729 306.2036 304.7147 303.955 302.8356 300.3263 298.1904 296.6519 288.8094 285.9169 284.0325 283.941 282.625 280.4579 280.4579 286.368 292.2803 296.2321 298.3367 301.6461 307.0822 310.4548 315.2348 320.0613 324.5983 330.1296 334.9211 339.6676 345.3384 350.5109 356.1695 361.6688 367.2794 373.9233 381.3162 388.6962 395.4856 401.4117 405.8976 408.5067 412.588 418.7952 423.6743 428.8269 430.8234 432.2681 -9999 -9999 -9999 -9999 -9999 -9999 -9999 -9999 -9999 -9999 -9999 -9999 -9999 -9999 -9999 -9999 -9999 -9999 -9999 -9999 -9999 -9999 -9999 -9999 -9999 -9999 -9999 -9999 -9999 -9999 -9999 -9999 -9999 -9999 -9999 -9999 -9999 -9999 -9999 -9999 -9999 -9999 -9999 -9999 -9999 -9999 -9999 -9999 -9999 -9999 -9999 -9999 -9999 -9999 -9999 -9999 -9999 -9999 -9999 -9999 -9999 -9999 -9999 -9999 -9999 -9999 -9999 -9999 -9999 -9999 -9999 -9999 -9999 -9999 -9999 -9999 -9999 -9999 -9999 -9999 -9999 -9999 -9999 -9999 -9999 -9999 -9999 -9999 -9999 -9999 -9999 -9999 -9999 -9999 -9999 -9999 -9999 -9999 -9999 -9999 -9999 -9999 -9999 -9999 -9999 -9999 -9999 -9999 -9999 -9999 -9999 -9999 -9999 -9999 -9999 -9999 -9999 -9999 -9999 -9999 -9999 
-9999 -9999 -9999 -9999 -9999 -9999 -9999 -9999 -9999 -9999 -9999 -9999 -9999 -9999 -9999 -9999 -9999 -9999 -9999 -9999 -9999 -9999 -9999 -9999 -9999 -9999 -9999 -9999 -9999 -9999 -9999 323.8051 322.4479 318.628 313.9394 309.8597 306.4261 302.706 301.0715 299.3792 297.4719 297.0032 296.146 294.6578 294.5282 291.1145 285.6113 278.7754 278.1711 278.2778 278.8097 281.8066 286.3307 292.9037 294.3339 298.1104 300.1891 304.8373 310.2735 314.7647 320.2633 325.7657 331.451 336.5243 341.7646 346.4883 351.7834 356.8248 362.2792 368.3477 372.4717 378.3094 384.5327 391.3571 399.4092 407.0116 411.5211 414.2803 418.4134 424.1605 428.5122 432.115 -9999 -9999 -9999 -9999 -9999 -9999 -9999 -9999 -9999 -9999 -9999 -9999 -9999 -9999 -9999 -9999 -9999 -9999 -9999 -9999 -9999 -9999 -9999 -9999 -9999 -9999 -9999 -9999 -9999 -9999 -9999 -9999 -9999 -9999 -9999 -9999 -9999 -9999 -9999 -9999 -9999 -9999 -9999 -9999 -9999 -9999 -9999 -9999 -9999 -9999 -9999 -9999 -9999 -9999 -9999 -9999 -9999 -9999 -9999 -9999 -9999 -9999 -9999 -9999 -9999 -9999 -9999 -9999 -9999 -9999 -9999 -9999 -9999 -9999 -9999 -9999 -9999 -9999 -9999 -9999 -9999 -9999 -9999 -9999 -9999 -9999 -9999 -9999 -9999 -9999 -9999 -9999 -9999 -9999 -9999 -9999 -9999 -9999 -9999 -9999 -9999 -9999 -9999 -9999 -9999 -9999 -9999 -9999 -9999 -9999 -9999 -9999 -9999 -9999 -9999 -9999 -9999 -9999 -9999 -9999 -9999 -9999 -9999 
-9999 -9999 -9999 -9999 -9999 -9999 -9999 -9999 -9999 -9999 -9999 -9999 -9999 -9999 -9999 -9999 -9999 -9999 -9999 -9999 -9999 -9999 -9999 -9999 -9999 -9999 -9999 -9999 -9999 -9999 -9999 318.4238 316.1538 312.5328 308.4911 303.2234 300.5679 297.542 295.4541 293.4157 292.1378 291.1609 291.4749 291.5663 290.9354 286.2186 281.7419 275.9888 280.192 282.2753 284.7419 287.7449 290.2138 292.8442 295.8595 299.4386 304.2049 308.9201 314.2603 319.8952 324.9534 330.4725 337.5645 342.6554 348.074 353.7486 359.1276 363.938 369.0305 374.4864 378.6584 383.4895 389.2807 395.4826 402.7299 410.1358 416.939 421.0927 425.4818 429.5356 432.4053 -9999 -9999 -9999 -9999 -9999 -9999 -9999 -9999 -9999 -9999 -9999 -9999 -9999 -9999 -9999 -9999 -9999 -9999 -9999 -9999 -9999 -9999 -9999 -9999 -9999 -9999 -9999 -9999 -9999 -9999 -9999 -9999 -9999 -9999 -9999 -9999 -9999 -9999 -9999 -9999 -9999 -9999 -9999 -9999 -9999 -9999 -9999 -9999 -9999 -9999 -9999 -9999 -9999 -9999 -9999 -9999 -9999 -9999 -9999 -9999 -9999 -9999 -9999 -9999 -9999 -9999 -9999 -9999 -9999 -9999 -9999 -9999 -9999 -9999 -9999 -9999 -9999 -9999 -9999 -9999 -9999 -9999 -9999 -9999 -9999 -9999 -9999 -9999 -9999 -9999 -9999 -9999 -9999 -9999 -9999 -9999 -9999 -9999 -9999 -9999 -9999 -9999 -9999 -9999 -9999 -9999 -9999 -9999 -9999 -9999 -9999 -9999 -9999 -9999 -9999 -9999 -9999 -9999 -9999 -9999 -9999 -9999 -9999 -9999 
-9999 -9999 -9999 -9999 -9999 -9999 -9999 -9999 -9999 -9999 -9999 -9999 -9999 -9999 -9999 -9999 -9999 -9999 -9999 -9999 -9999 -9999 -9999 -9999 -9999 -9999 -9999 -9999 -9999 -9999 -9999 312.423 309.974 307.0616 303.1823 297.9557 294.7591 290.8036 288.9329 288.7096 288.1252 288.1267 288.8994 289.8961 289.8389 283.4404 279.1305 274.8816 281.3365 287.4462 289.685 290.9316 293.4515 297.5336 300.7462 305.7418 310.2711 315.1274 320.7639 326.1329 330.3384 336.1936 342.5373 347.6168 354.1266 360.6767 366.0054 371.4834 375.5052 380.1359 384.8572 390.8192 395.5131 400.8699 405.8991 413.5267 421.6085 426.8907 431.5252 -9999 -9999 -9999 -9999 -9999 -9999 -9999 -9999 -9999 -9999 -9999 -9999 -9999 -9999 -9999 -9999 -9999 -9999 -9999 -9999 -9999 -9999 -9999 -9999 -9999 -9999 -9999 -9999 -9999 -9999 -9999 -9999 -9999 -9999 -9999 -9999 -9999 -9999 -9999 -9999 -9999 -9999 -9999 -9999 -9999 -9999 -9999 -9999 -9999 -9999 -9999 -9999 -9999 -9999 -9999 -9999 -9999 -9999 -9999 -9999 -9999 -9999 -9999 -9999 -9999 -9999 -9999 -9999 -9999 -9999 -9999 -9999 -9999 -9999 -9999 -9999 -9999 -9999 -9999 -9999 -9999 -9999 -9999 -9999 -9999 -9999 -9999 -9999 -9999 -9999 -9999 -9999 -9999 -9999 -9999 -9999 -9999 -9999 -9999 -9999 -9999 -9999 -9999 -9999 -9999 -9999 -9999 -9999 -9999 -9999 -9999 -9999 -9999 -9999 -9999 -9999 -9999 -9999 -9999 -9999 -9999 -9999 -9999 -9999 -9999 -9999 
-9999 -9999 -9999 -9999 -9999 -9999 -9999 -9999 -9999 -9999 -9999 -9999 -9999 -9999 -9999 -9999 -9999 -9999 -9999 -9999 -9999 -9999 -9999 -9999 -9999 -9999 -9999 -9999 -9999 -9999 -9999 306.5861 303.321 300.135 297.0383 291.8643 289.2537 285.9999 285.3713 285.2212 286.0746 286.307 287.0157 287.8973 286.5287 281.4218 277.2179 274.6789 285.5542 289.9753 292.4701 294.9092 298.0396 303.068 307.8846 312.4451 316.739 321.2211 326.3517 331.7062 336.7888 342.6653 348.029 354.2828 361.3191 367.3518 373.3244 378.7369 381.1722 385.319 391.5606 398.0338 402.5974 407.4429 411.3657 417.5547 424.6535 431.3171 -9999 -9999 -9999 -9999 -9999 -9999 -9999 -9999 -9999 -9999 -9999 -9999 -9999 -9999 -9999 -9999 -9999 -9999 -9999 -9999 -9999 -9999 -9999 -9999 -9999 -9999 -9999 -9999 -9999 -9999 -9999 -9999 -9999 -9999 -9999 -9999 -9999 -9999 -9999 -9999 -9999 -9999 -9999 -9999 -9999 -9999 -9999 -9999 -9999 -9999 -9999 -9999 -9999 -9999 -9999 -9999 -9999 -9999 -9999 -9999 -9999 -9999 -9999 -9999 -9999 -9999 -9999 -9999 -9999 -9999 -9999 -9999 -9999 -9999 -9999 -9999 -9999 -9999 -9999 -9999 -9999 -9999 -9999 -9999 -9999 -9999 -9999 -9999 -9999 -9999 -9999 -9999 -9999 -9999 -9999 -9999 -9999 -9999 -9999 -9999 -9999 -9999 -9999 -9999 -9999 -9999 -9999 -9999 -9999 -9999 -9999 -9999 -9999 -9999 -9999 -9999 -9999 -9999 -9999 -9999 -9999 -9999 -9999 -9999 -9999 -9999 -9999 
-9999 -9999 -9999 -9999 -9999 -9999 -9999 -9999 -9999 -9999 -9999 -9999 -9999 -9999 -9999 -9999 -9999 -9999 -9999 -9999 -9999 -9999 -9999 -9999 -9999 -9999 -9999 -9999 -9999 -9999 -9999 300.0627 296.1734 292.9486 289.9037 286.1859 284.825 283.8884 283.6019 284.1559 284.6901 284.4028 284.719 285.1937 283.9532 276.9382 273.7401 277.7299 287.3174 291.2821 294.4528 298.0418 302.5994 306.9077 312.8917 318.4497 322.9234 326.7555 332.6892 337.9508 343.6742 349.7214 355.7428 360.5616 368.0643 372.8694 379.6017 384.5266 387.24 392.0429 397.2969 402.3596 409.29 415.037 419.1282 422.7249 429.1272 432.0852 -9999 -9999 -9999 -9999 -9999 -9999 -9999 -9999 -9999 -9999 -9999 -9999 -9999 -9999 -9999 -9999 -9999 -9999 -9999 -9999 -9999 -9999 -9999 -9999 -9999 -9999 -9999 -9999 -9999 -9999 -9999 -9999 -9999 -9999 -9999 -9999 -9999 -9999 -9999 -9999 -9999 -9999 -9999 -9999 -9999 -9999 -9999 -9999 -9999 -9999 -9999 -9999 -9999 -9999 -9999 -9999 -9999 -9999 -9999 -9999 -9999 -9999 -9999 -9999 -9999 -9999 -9999 -9999 -9999 -9999 -9999 -9999 -9999 -9999 -9999 -9999 -9999 -9999 -9999 -9999 -9999 -9999 -9999 -9999 -9999 -9999 -9999 -9999 -9999 -9999 -9999 -9999 -9999 -9999 -9999 -9999 -9999 -9999 -9999 -9999 -9999 -9999 -9999 -9999 -9999 -9999 -9999 -9999 -9999 -9999 -9999 -9999 -9999 -9999 -9999 -9999 -9999 -9999 -9999 -9999 -9999 -9999 -9999 -9999 -9999 -9999 -9999 
-9999 -9999 -9999 -9999 -9999 -9999 -9999 -9999 -9999 -9999 -9999 -9999 -9999 -9999 -9999 -9999 -9999 -9999 -9999 -9999 -9999 -9999 -9999 -9999 -9999 -9999 -9999 -9999 -9999 -9999 297.881 294.3682 289.6964 286.6339 283.9341 282.811 282.5222 282.3027 282.5687 282.8513 282.5648 282.1084 281.9766 282.9969 277.2888 272.3517 275.2336 282.0985 287.4538 291.225 296.0614 301.0007 307.054 312.0527 317.9171 324.3347 330.1129 334.8723 340.9485 345.8047 350.126 356.1177 361.7854 366.0358 374.1603 379.2337 385.1575 391.0889 394.3708 398.8529 404.2159 410.6738 416.8948 423.0273 426.9341 428.9008 432.1264 -9999 -9999 -9999 -9999 -9999 -9999 -9999 -9999 -9999 -9999 -9999 -9999 -9999 -9999 -9999 -9999 -9999 -9999 -9999 -9999 -9999 -9999 -9999 -9999 -9999 -9999 -9999 -9999 -9999 -9999 -9999 -9999 -9999 -9999 -9999 -9999 -9999 -9999 -9999 -9999 -9999 -9999 -9999 -9999 -9999 -9999 -9999 -9999 -9999 -9999 -9999 -9999 -9999 -9999 -9999 -9999 -9999 -9999 -9999 -9999 -9999 -9999 -9999 -9999 -9999 -9999 -9999 -9999 -9999 -9999 -9999 -9999 -9999 -9999 -9999 -9999 -9999 -9999 -9999 -9999 -9999 -9999 -9999 -9999 -9999 -9999 -9999 -9999 -9999 -9999 -9999 -9999 -9999 -9999 -9999 -9999 -9999 -9999 -9999 -9999 -9999 -9999 -9999 -9999 -9999 -9999 -9999 -9999 -9999 -9999 -9999 -9999 -9999 -9999 -9999 -9999 -9999 -9999 -9999 -9999 -9999 -9999 -9999 -9999 -9999 -9999 -9999 -9999 
-9999 -9999 -9999 -9999 -9999 -9999 -9999 -9999 -9999 -9999 -9999 -9999 -9999 -9999 -9999 -9999 -9999 -9999 -9999 -9999 -9999 -9999 -9999 -9999 -9999 -9999 -9999 -9999 -9999 -9999 293.3532 288.8613 284.0088 281.9194 281.1818 281.3746 281.3967 281.2855 280.893 281.0523 279.6593 278.3723 277.9128 275.3922 271.4236 274.3147 278.8196 285.7561 290.86 293.7083 299.6893 305.4904 310.9867 317.3852 322.6598 329.149 335.7426 340.8182 348.6013 354.2721 357.3597 363.1006 368.6952 373.5248 380.4757 386.9809 392.4689 397.0896 401.0673 405.6393 411.9867 417.6629 423.3352 430.3144 433.4553 -9999 -9999 -9999 -9999 -9999 -9999 -9999 -9999 -9999 -9999 -9999 -9999 -9999 -9999 -9999 -9999 -9999 -9999 -9999 -9999 -9999 -9999 -9999 -9999 -9999 -9999 -9999 -9999 -9999 -9999 -9999 -9999 -9999 -9999 -9999 -9999 -9999 -9999 -9999 -9999 -9999 -9999 -9999 -9999 -9999 -9999 -9999 -9999 -9999 -9999 -9999 -9999 -9999 -9999 -9999 -9999 -9999 -9999 -9999 -9999 -9999 -9999 -9999 -9999 -9999 -9999 -9999 -9999 -9999 -9999 -9999 -9999 -9999 -9999 -9999 -9999 -9999 -9999 -9999 -9999 -9999 -9999 -9999 -9999 -9999 -9999 -9999 -9999 -9999 -9999 -9999 -9999 -9999 -9999 -9999 -9999 -9999 -9999 -9999 -9999 -9999 -9999 -9999 -9999 -9999 -9999 -9999 -9999 -9999 -9999 -9999 -9999 -9999 -9999 -9999 -9999 -9999 -9999 -9999 -9999 -9999 -9999 -9999 -9999 -9999 -9999 -9999 -9999 -9999 -9999 
-9999 -9999 -9999 -9999 -9999 -9999 -9999 -9999 -9999 -9999 -9999 -9999 -9999 -9999 -9999 -9999 -9999 -9999 -9999 -9999 -9999 -9999 -9999 -9999 -9999 -9999 -9999 -9999 -9999 -9999 288.5085 283.7033 280.5448 279.0795 279.987 280.8107 280.3566 279.7775 278.7838 278.2199 275.5826 273.2867 272.0584 270.7759 276.9039 280.5669 284.7129 289.9288 294.5938 299.2435 305.9887 311.0644 316.7215 323.565 327.8795 333.0969 340.771 348.4176 355.4631 361.7191 365.4796 370.4174 375.7224 380.9886 387.5357 394.6604 399.0122 403.6223 407.7318 412.0424 418.0195 424.6474 429.6309 433.9651 -9999 -9999 -9999 -9999 -9999 -9999 -9999 -9999 -9999 -9999 -9999 -9999 -9999 -9999 -9999 -9999 -9999 -9999 -9999 -9999 -9999 -9999 -9999 -9999 -9999 -9999 -9999 -9999 -9999 -9999 -9999 -9999 -9999 -9999 -9999 -9999 -9999 -9999 -9999 -9999 -9999 -9999 -9999 -9999 -9999 -9999 -9999 -9999 -9999 -9999 -9999 -9999 -9999 -9999 -9999 -9999 -9999 -9999 -9999 -9999 -9999 -9999 -9999 -9999 -9999 -9999 -9999 -9999 -9999 -9999 -9999 -9999 -9999 -9999 -9999 -9999 -9999 -9999 -9999 -9999 -9999 -9999 -9999 -9999 -9999 -9999 -9999 -9999 -9999 -9999 -9999 -9999 -9999 -9999 -9999 -9999 -9999 -9999 -9999 -9999 -9999 -9999 -9999 -9999 -9999 -9999 -9999 -9999 -9999 -9999 -9999 -9999 -9999 -9999 -9999 -9999 -9999 -9999 -9999 -9999 -9999 -9999 -9999 -9999 -9999 -9999 -9999 -9999 -9999 -9999 -9999 
-9999 -9999 -9999 -9999 -9999 -9999 -9999 -9999 -9999 -9999 -9999 -9999 -9999 -9999 -9999 -9999 -9999 -9999 -9999 -9999 -9999 -9999 -9999 -9999 -9999 -9999 -9999 -9999 -9999 -9999 -9999 280.6355 278.5796 277.5745 278.9956 279.593 276.942 275.2238 271.9014 270.4475 270.2563 270.8933 269.8219 275.7922 283.1607 286.7459 290.3319 295.6407 300.4658 305.2488 311.5643 317.1978 324.2859 330.6089 334.9859 339.1494 347.2396 355.2635 361.4433 366.9846 370.9782 375.9373 381.4244 386.8506 393.2606 400.0927 405.2598 409.4104 413.3804 417.8138 423.1317 431.2471 434.4223 -9999 -9999 -9999 -9999 -9999 -9999 -9999 -9999 -9999 -9999 -9999 -9999 -9999 -9999 -9999 -9999 -9999 -9999 -9999 -9999 -9999 -9999 -9999 -9999 -9999 -9999 -9999 -9999 -9999 -9999 -9999 -9999 -9999 -9999 -9999 -9999 -9999 -9999 -9999 -9999 -9999 -9999 -9999 -9999 -9999 -9999 -9999 -9999 -9999 -9999 -9999 -9999 -9999 -9999 -9999 -9999 -9999 -9999 -9999 -9999 -9999 -9999 -9999 -9999 -9999 -9999 -9999 -9999 -9999 -9999 -9999 -9999 -9999 -9999 -9999 -9999 -9999 -9999 -9999 -9999 -9999 -9999 -9999 -9999 -9999 -9999 -9999 -9999 -9999 -9999 -9999 -9999 -9999 -9999 -9999 -9999 -9999 -9999 -9999 -9999 -9999 -9999 -9999 -9999 -9999 -9999 -9999 -9999 -9999 -9999 -9999 -9999 -9999 -9999 -9999 -9999 -9999 -9999 -9999 -9999 -9999 -9999 -9999 -9999 -9999 -9999 -9999 -9999 -9999 -9999 -9999 -9999 
-9999 -9999 -9999 -9999 -9999 -9999 -9999 -9999 -9999 -9999 -9999 -9999 -9999 -9999 -9999 -9999 -9999 -9999 -9999 -9999 -9999 -9999 -9999 -9999 -9999 -9999 -9999 -9999 -9999 -9999 -9999 277.8 277.3825 277.1333 277.3086 272.0736 268.3764 267.6312 267.6312 268.1646 268.6355 269.7434 278.812 283.7589 286.9243 292.7726 298.4312 302.4401 307.2719 312.01 317.7037 323.7106 331.1576 338.059 343.6361 346.7512 352.7344 359.363 366.1517 371.9993 375.9274 381.0404 388.6177 394.0836 400.4272 406.2115 411.1615 413.9153 418.0103 422.2478 428.1366 434.7919 435.6712 -9999 -9999 -9999 -9999 -9999 -9999 -9999 -9999 -9999 -9999 -9999 -9999 -9999 -9999 -9999 -9999 -9999 -9999 -9999 -9999 -9999 -9999 -9999 -9999 -9999 -9999 -9999 -9999 -9999 -9999 -9999 -9999 -9999 -9999 -9999 -9999 -9999 -9999 -9999 -9999 -9999 -9999 -9999 -9999 -9999 -9999 -9999 -9999 -9999 -9999 -9999 -9999 -9999 -9999 -9999 -9999 -9999 -9999 -9999 -9999 -9999 -9999 -9999 -9999 -9999 -9999 -9999 -9999 -9999 -9999 -9999 -9999 -9999 -9999 -9999 -9999 -9999 -9999 -9999 -9999 -9999 -9999 -9999 -9999 -9999 -9999 -9999 -9999 -9999 -9999 -9999 -9999 -9999 -9999 -9999 -9999 -9999 -9999 -9999 -9999 -9999 -9999 -9999 -9999 -9999 -9999 -9999 -9999 -9999 -9999 -9999 -9999 -9999 -9999 -9999 -9999 -9999 -9999 -9999 -9999 -9999 -9999 -9999 -9999 -9999 -9999 -9999 -9999 -9999 -9999 -9999 -9999 
-9999 -9999 -9999 -9999 -9999 -9999 -9999 -9999 -9999 -9999 -9999 -9999 -9999 -9999 -9999 -9999 -9999 -9999 -9999 -9999 -9999 -9999 -9999 -9999 -9999 -9999 -9999 -9999 -9999 -9999 -9999 276.1016 276.5938 275.5164 273.8285 266.732 266.3152 268.8687 271.4709 274.8153 277.8488 282.0642 285.0063 286.5463 291.3522 298.6644 304.3001 308.9544 314.4225 319.105 324.705 330.4626 336.4611 343.8936 350.2495 355.1232 359.1375 365.648 372.157 376.8105 381.1189 387.0137 394.3937 400.9187 406.716 411.5783 414.0197 416.7256 420.3139 425.3438 430.7975 436.0614 -9999 -9999 -9999 -9999 -9999 -9999 -9999 -9999 -9999 -9999 -9999 -9999 -9999 -9999 -9999 -9999 -9999 -9999 -9999 -9999 -9999 -9999 -9999 -9999 -9999 -9999 -9999 -9999 -9999 -9999 -9999 -9999 -9999 -9999 -9999 -9999 -9999 -9999 -9999 -9999 -9999 -9999 -9999 -9999 -9999 -9999 -9999 -9999 -9999 -9999 -9999 -9999 -9999 -9999 -9999 -9999 -9999 -9999 -9999 -9999 -9999 -9999 -9999 -9999 -9999 -9999 -9999 -9999 -9999 -9999 -9999 -9999 -9999 -9999 -9999 -9999 -9999 -9999 -9999 -9999 -9999 -9999 -9999 -9999 -9999 -9999 -9999 -9999 -9999 -9999 -9999 -9999 -9999 -9999 -9999 -9999 -9999 -9999 -9999 -9999 -9999 -9999 -9999 -9999 -9999 -9999 -9999 -9999 -9999 -9999 -9999 -9999 -9999 -9999 -9999 -9999 -9999 -9999 -9999 -9999 -9999 -9999 -9999 -9999 -9999 -9999 -9999 -9999 -9999 -9999 -9999 -9999 -9999 
-9999 -9999 -9999 -9999 -9999 -9999 -9999 -9999 -9999 -9999 -9999 -9999 -9999 -9999 -9999 -9999 -9999 -9999 -9999 -9999 -9999 -9999 -9999 -9999 -9999 -9999 -9999 -9999 -9999 -9999 274.6012 275.0142 275.0279 272.623 267.004 265.3833 268.7681 273.4696 275.5499 278.3449 282.1046 285.7767 289.3185 290.9415 296.511 303.6661 309.7523 315.6585 321.6585 326.2739 331.0524 336.7187 342.6242 349.3602 355.8639 362.027 367.348 373.1697 377.8781 383.5916 387.3398 392.9893 400.2238 406.2413 409.7091 413.132 416.1366 419.3614 423.4556 428.3103 433.767 437.167 -9999 -9999 -9999 -9999 -9999 -9999 -9999 -9999 -9999 -9999 -9999 -9999 -9999 -9999 -9999 -9999 -9999 -9999 -9999 -9999 -9999 -9999 -9999 -9999 -9999 -9999 -9999 -9999 -9999 -9999 -9999 -9999 -9999 -9999 -9999 -9999 -9999 -9999 -9999 -9999 -9999 -9999 -9999 -9999 -9999 -9999 -9999 -9999 -9999 -9999 -9999 -9999 -9999 -9999 -9999 -9999 -9999 -9999 -9999 -9999 -9999 -9999 -9999 -9999 -9999 -9999 -9999 -9999 -9999 -9999 -9999 -9999 -9999 -9999 -9999 -9999 -9999 -9999 -9999 -9999 -9999 -9999 -9999 -9999 -9999 -9999 -9999 -9999 -9999 -9999 -9999 -9999 -9999 -9999 -9999 -9999 -9999 -9999 -9999 -9999 -9999 -9999 -9999 -9999 -9999 -9999 -9999 -9999 -9999 -9999 -9999 -9999 -9999 -9999 -9999 -9999 -9999 -9999 -9999 -9999 -9999 -9999 -9999 -9999 -9999 -9999 -9999 -9999 -9999 -9999 -9999 -9999 -9999 
-9999 -9999 -9999 -9999 -9999 -9999 -9999 -9999 -9999 -9999 -9999 -9999 -9999 -9999 -9999 -9999 -9999 -9999 -9999 -9999 -9999 -9999 -9999 -9999 -9999 -9999 -9999 -9999 -9999 272.6916 273.3218 274.0167 270.7988 266.3038 264.8826 266.6665 271.5837 273.2509 275.8928 279.4727 282.705 286.099 290.924 294.8818 299.501 308.0461 314.37 320.3128 325.8716 330.5015 335.4355 341.024 347.1619 353.1565 359.4484 365.4255 371.0536 376.537 382.1956 387.541 393.3795 398.4064 403.2222 407.5481 411.0632 415.3105 419.0505 422.4871 426.1371 431.0665 436.2458 -9999 -9999 -9999 -9999 -9999 -9999 -9999 -9999 -9999 -9999 -9999 -9999 -9999 -9999 -9999 -9999 -9999 -9999 -9999 -9999 -9999 -9999 -9999 -9999 -9999 -9999 -9999 -9999 -9999 -9999 -9999 -9999 -9999 -9999 -9999 -9999 -9999 -9999 -9999 -9999 -9999 -9999 -9999 -9999 -9999 -9999 -9999 -9999 -9999 -9999 -9999 -9999 -9999 -9999 -9999 -9999 -9999 -9999 -9999 -9999 -9999 -9999 -9999 -9999 -9999 -9999 -9999 -9999 -9999 -9999 -9999 -9999 -9999 -9999 -9999 -9999 -9999 -9999 -9999 -9999 -9999 -9999 -9999 -9999 -9999 -9999 -9999 -9999 -9999 -9999 -9999 -9999 -9999 -9999 -9999 -9999 -9999 -9999 -9999 -9999 -9999 -9999 -9999 -9999 -9999 -9999 -9999 -9999 -9999 -9999 -9999 -9999 -9999 -9999 -9999 -9999 -9999 -9999 -9999 -9999 -9999 -9999 -9999 -9999 -9999 -9999 -9999 -9999 -9999 -9999 -9999 -9999 -9999 -9999 
-9999 -9999 -9999 -9999 -9999 -9999 -9999 -9999 -9999 -9999 -9999 -9999 -9999 -9999 -9999 -9999 -9999 -9999 -9999 -9999 -9999 -9999 -9999 -9999 -9999 -9999 -9999 265.6302 267.619 271.5387 271.176 268.269 264.8179 263.9774 264.9619 269.0058 272.1681 275.2077 278.4302 281.0721 283.1348 289.2491 295.0586 299.1475 300.8932 308.5033 316.6864 323.4995 329.1947 333.6768 337.5691 342.8238 347.8675 354.4893 361.1331 367.1232 373.4882 379.4516 385.4089 390.5433 395.9794 401.1998 405.701 409.7975 414.0266 417.9837 422.3735 425.574 428.8719 433.7266 438.0578 -9999 -9999 -9999 -9999 -9999 -9999 -9999 -9999 -9999 -9999 -9999 -9999 -9999 -9999 -9999 -9999 -9999 -9999 -9999 -9999 -9999 -9999 -9999 -9999 -9999 -9999 -9999 -9999 -9999 -9999 -9999 -9999 -9999 -9999 -9999 -9999 -9999 -9999 -9999 -9999 -9999 -9999 -9999 -9999 -9999 -9999 -9999 -9999 -9999 -9999 -9999 -9999 -9999 -9999 -9999 -9999 -9999 -9999 -9999 -9999 -9999 -9999 -9999 -9999 -9999 -9999 -9999 -9999 -9999 -9999 -9999 -9999 -9999 -9999 -9999 -9999 -9999 -9999 -9999 -9999 -9999 -9999 -9999 -9999 -9999 -9999 -9999 -9999 -9999 -9999 -9999 -9999 -9999 -9999 -9999 -9999 -9999 -9999 -9999 -9999 -9999 -9999 -9999 -9999 -9999 -9999 -9999 -9999 -9999 -9999 -9999 -9999 -9999 -9999 -9999 -9999 -9999 -9999 -9999 -9999 -9999 -9999 -9999 -9999 -9999 -9999 -9999 -9999 -9999 -9999 -9999 -9999 -9999 -9999 
-9999 -9999 -9999 -9999 -9999 -9999 -9999 -9999 -9999 -9999 -9999 -9999 -9999 -9999 -9999 -9999 -9999 -9999 -9999 -9999 -9999 -9999 -9999 -9999 -9999 -9999 265.7925 265.3292 265.3924 264.0597 262.5349 262.9014 263.4798 266.0973 269.6116 271.9464 274.1021 277.5181 281.0835 284.162 289.3215 295.2133 300.8033 306.2105 308.1109 308.9491 315.5335 324.6341 330.9877 338.3539 342.1563 346.7291 351.6797 357.0587 363.8604 370.3762 376.7922 383.2548 388.3838 393.6622 398.6959 403.7648 408.6827 412.6763 416.6098 420.7726 425.3096 429.054 432.7695 437.766 438.6933 -9999 -9999 -9999 -9999 -9999 -9999 -9999 -9999 -9999 -9999 -9999 -9999 -9999 -9999 -9999 -9999 -9999 -9999 -9999 -9999 -9999 -9999 -9999 -9999 -9999 -9999 -9999 -9999 -9999 -9999 -9999 -9999 -9999 -9999 -9999 -9999 -9999 -9999 -9999 -9999 -9999 -9999 -9999 -9999 -9999 -9999 -9999 -9999 -9999 -9999 -9999 -9999 -9999 -9999 -9999 -9999 -9999 -9999 -9999 -9999 -9999 -9999 -9999 -9999 -9999 -9999 -9999 -9999 -9999 -9999 -9999 -9999 -9999 -9999 -9999 -9999 -9999 -9999 -9999 -9999 -9999 -9999 -9999 -9999 -9999 -9999 -9999 -9999 -9999 -9999 -9999 -9999 -9999 -9999 -9999 -9999 -9999 -9999 -9999 -9999 -9999 -9999 -9999 -9999 -9999 -9999 -9999 -9999 -9999 -9999 -9999 -9999 -9999 -9999 -9999 -9999 -9999 -9999 -9999 -9999 -9999 -9999 -9999 -9999 -9999 -9999 -9999 -9999 -9999 -9999 -9999 -9999 -9999 -9999 
-9999 -9999 -9999 -9999 -9999 -9999 -9999 -9999 -9999 -9999 -9999 -9999 -9999 -9999 -9999 -9999 -9999 -9999 -9999 -9999 -9999 -9999 -9999 -9999 -9999 262.9129 263.6269 263.1323 261.8651 262.3116 262.48 263.7122 266.9179 270.4026 274.4556 277.3329 278.9476 281.8783 286.2171 291.3774 296.4477 301.5714 307.147 312.6136 315.9915 317.3677 317.5002 323.3821 331.9455 340.6071 345.6798 351.5624 357.2721 362.3455 367.1674 373.8342 379.6261 385.4463 390.9426 396.4457 402.5006 407.7957 412.1597 416.1899 419.8871 423.5516 427.7655 432.275 436.2938 438.9943 -9999 -9999 -9999 -9999 -9999 -9999 -9999 -9999 -9999 -9999 -9999 -9999 -9999 -9999 -9999 -9999 -9999 -9999 -9999 -9999 -9999 -9999 -9999 -9999 -9999 -9999 -9999 -9999 -9999 -9999 -9999 -9999 -9999 -9999 -9999 -9999 -9999 -9999 -9999 -9999 -9999 -9999 -9999 -9999 -9999 -9999 -9999 -9999 -9999 -9999 -9999 -9999 -9999 -9999 -9999 -9999 -9999 -9999 -9999 -9999 -9999 -9999 -9999 -9999 -9999 -9999 -9999 -9999 -9999 -9999 -9999 -9999 -9999 -9999 -9999 -9999 -9999 -9999 -9999 -9999 -9999 -9999 -9999 -9999 -9999 -9999 -9999 -9999 -9999 -9999 -9999 -9999 -9999 -9999 -9999 -9999 -9999 -9999 -9999 -9999 -9999 -9999 -9999 -9999 -9999 -9999 -9999 -9999 -9999 -9999 -9999 -9999 -9999 -9999 -9999 -9999 -9999 -9999 -9999 -9999 -9999 -9999 -9999 -9999 -9999 -9999 -9999 -9999 -9999 -9999 -9999 -9999 -9999 -9999 -9999 
-9999 -9999 -9999 -9999 -9999 -9999 -9999 -9999 -9999 -9999 -9999 -9999 -9999 -9999 -9999 -9999 -9999 -9999 -9999 -9999 -9999 -9999 -9999 -9999 -9999 259.1303 260.2451 261.8651 265.7544 265.8474 267.0231 268.9433 273.1023 276.2105 281.5941 285.5732 288.0787 290.7914 294.5046 297.9725 302.8379 309.0329 314.0027 319.8891 323.9125 325.64 325.6133 325.4327 330.6013 339.4649 347.1215 354.2866 361.9066 366.9076 371.5786 377.7966 382.2085 387.4854 393.2438 399.7635 406.5003 411.9052 415.9118 420.1454 423.003 426.3573 429.9821 434.2524 437.7477 -9999 -9999 -9999 -9999 -9999 -9999 -9999 -9999 -9999 -9999 -9999 -9999 -9999 -9999 -9999 -9999 -9999 -9999 -9999 -9999 -9999 -9999 -9999 -9999 -9999 -9999 -9999 -9999 -9999 -9999 -9999 -9999 -9999 -9999 -9999 -9999 -9999 -9999 -9999 -9999 -9999 -9999 -9999 -9999 -9999 -9999 -9999 -9999 -9999 -9999 -9999 -9999 -9999 -9999 -9999 -9999 -9999 -9999 -9999 -9999 -9999 -9999 -9999 -9999 -9999 -9999 -9999 -9999 -9999 -9999 -9999 -9999 -9999 -9999 -9999 -9999 -9999 -9999 -9999 -9999 -9999 -9999 -9999 -9999 -9999 -9999 -9999 -9999 -9999 -9999 -9999 -9999 -9999 -9999 -9999 -9999 -9999 -9999 -9999 -9999 -9999 -9999 -9999 -9999 -9999 -9999 -9999 -9999 -9999 -9999 -9999 -9999 -9999 -9999 -9999 -9999 -9999 -9999 -9999 -9999 -9999 -9999 -9999 -9999 -9999 -9999 -9999 -9999 -9999 -9999 -9999 -9999 -9999 -9999 -9999 -9999 
-9999 -9999 -9999 -9999 -9999 -9999 -9999 -9999 -9999 -9999 -9999 -9999 -9999 -9999 -9999 -9999 -9999 -9999 -9999 -9999 -9999 -9999 -9999 -9999 -9999 -9999 -9999 265.0564 266.4135 267.0772 269.8676 274.6576 278.9415 283.5486 288.7081 291.6974 294.2676 297.5778 301.5569 304.9082 309.6402 315.2417 320.434 326.8363 331.3191 333.7614 334.1606 334.646 334.2612 338.1459 346.4738 355.4578 364.5172 370.4143 375.5952 380.4384 384.9075 389.8087 396.3726 402.9304 408.7833 415.2618 418.9644 422.2768 425.8719 429.7185 434.0359 437.974 439.8264 -9999 -9999 -9999 -9999 -9999 -9999 -9999 -9999 -9999 -9999 -9999 -9999 -9999 -9999 -9999 -9999 -9999 -9999 -9999 -9999 -9999 -9999 -9999 -9999 -9999 -9999 -9999 -9999 -9999 -9999 -9999 -9999 -9999 -9999 -9999 -9999 -9999 -9999 -9999 -9999 -9999 -9999 -9999 -9999 -9999 -9999 -9999 -9999 -9999 -9999 -9999 -9999 -9999 -9999 -9999 -9999 -9999 -9999 -9999 -9999 -9999 -9999 -9999 -9999 -9999 -9999 -9999 -9999 -9999 -9999 -9999 -9999 -9999 -9999 -9999 -9999 -9999 -9999 -9999 -9999 -9999 -9999 -9999 -9999 -9999 -9999 -9999 -9999 -9999 -9999 -9999 -9999 -9999 -9999 -9999 -9999 -9999 -9999 -9999 -9999 -9999 -9999 -9999 -9999 -9999 -9999 -9999 -9999 -9999 -9999 -9999 -9999 -9999 -9999 -9999 -9999 -9999 -9999 -9999 -9999 -9999 -9999 -9999 -9999 -9999 -9999 -9999 -9999 -9999 -9999 -9999 -9999 -9999 -9999 -9999 -9999 
-9999 -9999 -9999 -9999 -9999 -9999 -9999 -9999 -9999 -9999 -9999 -9999 -9999 -9999 -9999 -9999 -9999 -9999 -9999 -9999 -9999 -9999 -9999 -9999 -9999 -9999 -9999 -9999 267.2646 272.7389 277.8633 281.9606 286.9387 290.9339 292.8869 295.7985 299.2161 304.3177 308.7677 312.1998 316.2719 321.3583 326.5475 332.5917 337.2947 341.1017 342.0466 342.439 343.3206 343.4311 348.3331 359.0026 366.8177 372.7734 377.7691 383.414 388.3884 393.6591 399.9563 405.7117 411.8945 417.4243 422.0467 425.1846 429.3108 433.7121 437.8947 440.5709 -9999 -9999 -9999 -9999 -9999 -9999 -9999 -9999 -9999 -9999 -9999 -9999 -9999 -9999 -9999 -9999 -9999 -9999 -9999 -9999 -9999 -9999 -9999 -9999 -9999 -9999 -9999 -9999 -9999 -9999 -9999 -9999 -9999 -9999 -9999 -9999 -9999 -9999 -9999 -9999 -9999 -9999 -9999 -9999 -9999 -9999 -9999 -9999 -9999 -9999 -9999 -9999 -9999 -9999 -9999 -9999 -9999 -9999 -9999 -9999 -9999 -9999 -9999 -9999 -9999 -9999 -9999 -9999 -9999 -9999 -9999 -9999 -9999 -9999 -9999 -9999 -9999 -9999 -9999 -9999 -9999 -9999 -9999 -9999 -9999 -9999 -9999 -9999 -9999 -9999 -9999 -9999 -9999 -9999 -9999 -9999 -9999 -9999 -9999 -9999 -9999 -9999 -9999 -9999 -9999 -9999 -9999 -9999 -9999 -9999 -9999 -9999 -9999 -9999 -9999 -9999 -9999 -9999 -9999 -9999 -9999 -9999 -9999 -9999 -9999 -9999 -9999 -9999 -9999 -9999 -9999 -9999 -9999 -9999 -9999 -9999 -9999 
-9999 -9999 -9999 -9999 -9999 -9999 -9999 -9999 -9999 -9999 -9999 -9999 -9999 -9999 -9999 -9999 -9999 -9999 -9999 -9999 -9999 -9999 -9999 -9999 -9999 -9999 -9999 -9999 -9999 -9999 282.9138 287.5247 291.2768 293.0187 295.2369 298.7688 303.3705 309.0284 313.9547 318.6082 323.6786 328.6453 333.7957 338.9277 344.4804 348.1304 348.9815 350.0125 350.7532 352.489 355.4844 362.0155 369.8344 375.551 380.8735 386.7059 392.8621 398.0917 404.8834 410.561 415.8341 421.5178 425.6692 429.2422 433.4591 436.8295 440.6539 442.4355 -9999 -9999 -9999 -9999 -9999 -9999 -9999 -9999 -9999 -9999 -9999 -9999 -9999 -9999 -9999 -9999 -9999 -9999 -9999 -9999 -9999 -9999 -9999 -9999 -9999 -9999 -9999 -9999 -9999 -9999 -9999 -9999 -9999 -9999 -9999 -9999 -9999 -9999 -9999 -9999 -9999 -9999 -9999 -9999 -9999 -9999 -9999 -9999 -9999 -9999 -9999 -9999 -9999 -9999 -9999 -9999 -9999 -9999 -9999 -9999 -9999 -9999 -9999 -9999 -9999 -9999 -9999 -9999 -9999 -9999 -9999 -9999 -9999 -9999 -9999 -9999 -9999 -9999 -9999 -9999 -9999 -9999 -9999 -9999 -9999 -9999 -9999 -9999 -9999 -9999 -9999 -9999 -9999 -9999 -9999 -9999 -9999 -9999 -9999 -9999 -9999 -9999 -9999 -9999 -9999 -9999 -9999 -9999 -9999 -9999 -9999 -9999 -9999 -9999 -9999 -9999 -9999 -9999 -9999 -9999 -9999 -9999 -9999 -9999 -9999 -9999 -9999 -9999 -9999 -9999 -9999 -9999 -9999 -9999 -9999 -9999 -9999 
-9999 -9999 -9999 -9999 -9999 -9999 -9999 -9999 -9999 -9999 -9999 -9999 -9999 -9999 -9999 -9999 -9999 -9999 -9999 -9999 -9999 -9999 -9999 -9999 -9999 -9999 -9999 -9999 -9999 -9999 -9999 -9999 294.0749 295.957 298.6926 302.194 307.3771 313.057 319.5165 325.1919 329.7875 335.597 339.791 344.0095 348.3773 352.5904 355.1956 357.4131 358.2528 359.9429 363.9807 368.094 374.9093 380.0963 384.9236 390.6111 397.0584 402.6545 408.8664 414.2079 419.6829 424.9697 429.5257 433.0484 437.2874 440.9626 443.3629 -9999 -9999 -9999 -9999 -9999 -9999 -9999 -9999 -9999 -9999 -9999 -9999 -9999 -9999 -9999 -9999 -9999 -9999 -9999 -9999 -9999 -9999 -9999 -9999 -9999 -9999 -9999 -9999 -9999 -9999 -9999 -9999 -9999 -9999 -9999 -9999 -9999 -9999 -9999 -9999 -9999 -9999 -9999 -9999 -9999 -9999 -9999 -9999 -9999 -9999 -9999 -9999 -9999 -9999 -9999 -9999 -9999 -9999 -9999 -9999 -9999 -9999 -9999 -9999 -9999 -9999 -9999 -9999 -9999 -9999 -9999 -9999 -9999 -9999 -9999 -9999 -9999 -9999 -9999 -9999 -9999 -9999 -9999 -9999 -9999 -9999 -9999 -9999 -9999 -9999 -9999 -9999 -9999 -9999 -9999 -9999 -9999 -9999 -9999 -9999 -9999 -9999 -9999 -9999 -9999 -9999 -9999 -9999 -9999 -9999 -9999 -9999 -9999 -9999 -9999 -9999 -9999 -9999 -9999 -9999 -9999 -9999 -9999 -9999 -9999 -9999 -9999 -9999 -9999 -9999 -9999 -9999 -9999 -9999 -9999 -9999 -9999 -9999 
-9999 -9999 -9999 -9999 -9999 -9999 -9999 -9999 -9999 -9999 -9999 -9999 -9999 -9999 -9999 -9999 -9999 -9999 -9999 -9999 -9999 -9999 -9999 -9999 -9999 -9999 -9999 -9999 -9999 -9999 -9999 -9999 -9999 300.8148 302.7464 306.308 311.4088 316.6491 322.9547 329.3905 334.2559 339.9114 345.0938 349.3526 354.1197 357.3651 360.6813 364.1987 366.0907 366.9784 370.8669 374.8712 380.2997 385.732 389.8933 395.0795 401.3736 406.905 413.3355 419.1091 424.0416 428.897 433.7304 437.2592 440.8536 443.9542 -9999 -9999 -9999 -9999 -9999 -9999 -9999 -9999 -9999 -9999 -9999 -9999 -9999 -9999 -9999 -9999 -9999 -9999 -9999 -9999 -9999 -9999 -9999 -9999 -9999 -9999 -9999 -9999 -9999 -9999 -9999 -9999 -9999 -9999 -9999 -9999 -9999 -9999 -9999 -9999 -9999 -9999 -9999 -9999 -9999 -9999 -9999 -9999 -9999 -9999 -9999 -9999 -9999 -9999 -9999 -9999 -9999 -9999 -9999 -9999 -9999 -9999 -9999 -9999 -9999 -9999 -9999 -9999 -9999 -9999 -9999 -9999 -9999 -9999 -9999 -9999 -9999 -9999 -9999 -9999 -9999 -9999 -9999 -9999 -9999 -9999 -9999 -9999 -9999 -9999 -9999 -9999 -9999 -9999 -9999 -9999 -9999 -9999 -9999 -9999 -9999 -9999 -9999 -9999 -9999 -9999 -9999 -9999 -9999 -9999 -9999 -9999 -9999 -9999 -9999 -9999 -9999 -9999 -9999 -9999 -9999 -9999 -9999 -9999 -9999 -9999 -9999 -9999 -9999 -9999 -9999 -9999 -9999 -9999 -9999 -9999 -9999 -9999 -9999 
-9999 -9999 -9999 -9999 -9999 -9999 -9999 -9999 -9999 -9999 -9999 -9999 -9999 -9999 -9999 -9999 -9999 -9999 -9999 -9999 -9999 -9999 -9999 -9999 -9999 -9999 -9999 -9999 -9999 -9999 -9999 -9999 -9999 -9999 308.4835 311.5917 315.3865 320.5924 326.2648 331.4227 337.2216 343.0219 348.1685 353.0514 357.1205 360.6851 365.6594 370.3678 372.7231 373.0836 375.842 380.6236 385.8882 391.0683 395.0787 400.29 406.4409 412.0446 417.7299 424.229 429.1942 433.8051 438.0776 441.2605 444.3915 444.7703 -9999 -9999 -9999 -9999 -9999 -9999 -9999 -9999 -9999 -9999 -9999 -9999 -9999 -9999 -9999 -9999 -9999 -9999 -9999 -9999 -9999 -9999 -9999 -9999 -9999 -9999 -9999 -9999 -9999 -9999 -9999 -9999 -9999 -9999 -9999 -9999 -9999 -9999 -9999 -9999 -9999 -9999 -9999 -9999 -9999 -9999 -9999 -9999 -9999 -9999 -9999 -9999 -9999 -9999 -9999 -9999 -9999 -9999 -9999 -9999 -9999 -9999 -9999 -9999 -9999 -9999 -9999 -9999 -9999 -9999 -9999 -9999 -9999 -9999 -9999 -9999 -9999 -9999 -9999 -9999 -9999 -9999 -9999 -9999 -9999 -9999 -9999 -9999 -9999 -9999 -9999 -9999 -9999 -9999 -9999 -9999 -9999 -9999 -9999 -9999 -9999 -9999 -9999 -9999 -9999 -9999 -9999 -9999 -9999 -9999 -9999 -9999 -9999 -9999 -9999 -9999 -9999 -9999 -9999 -9999 -9999 -9999 -9999 -9999 -9999 -9999 -9999 -9999 -9999 -9999 -9999 -9999 -9999 -9999 -9999 -9999 -9999 -9999 -9999 
-9999 -9999 -9999 -9999 -9999 -9999 -9999 -9999 -9999 -9999 -9999 -9999 -9999 -9999 -9999 -9999 -9999 -9999 -9999 -9999 -9999 -9999 -9999 -9999 -9999 -9999 -9999 -9999 -9999 -9999 -9999 -9999 -9999 -9999 -9999 317.024 321.3255 325.5737 330.4169 335.2061 339.9686 345.6714 351.1151 355.5309 359.3135 363.5388 368.0879 374.0757 377.7417 378.2659 380.7478 384.8633 390.2111 395.35 399.8069 405.528 411.3825 416.8445 422.1305 428.3309 433.5445 437.673 442.773 444.6461 444.912 -9999 -9999 -9999 -9999 -9999 -9999 -9999 -9999 -9999 -9999 -9999 -9999 -9999 -9999 -9999 -9999 -9999 -9999 -9999 -9999 -9999 -9999 -9999 -9999 -9999 -9999 -9999 -9999 -9999 -9999 -9999 -9999 -9999 -9999 -9999 -9999 -9999 -9999 -9999 -9999 -9999 -9999 -9999 -9999 -9999 -9999 -9999 -9999 -9999 -9999 -9999 -9999 -9999 -9999 -9999 -9999 -9999 -9999 -9999 -9999 -9999 -9999 -9999 -9999 -9999 -9999 -9999 -9999 -9999 -9999 -9999 -9999 -9999 -9999 -9999 -9999 -9999 -9999 -9999 -9999 -9999 -9999 -9999 -9999 -9999 -9999 -9999 -9999 -9999 -9999 -9999 -9999 -9999 -9999 -9999 -9999 -9999 -9999 -9999 -9999 -9999 -9999 -9999 -9999 -9999 -9999 -9999 -9999 -9999 -9999 -9999 -9999 -9999 -9999 -9999 -9999 -9999 -9999 -9999 -9999 -9999 -9999 -9999 -9999 -9999 -9999 -9999 -9999 -9999 -9999 -9999 -9999 -9999 -9999 -9999 -9999 -9999 -9999 -9999 -9999 
-9999 -9999 -9999 -9999 -9999 -9999 -9999 -9999 -9999 -9999 -9999 -9999 -9999 -9999 -9999 -9999 -9999 -9999 -9999 -9999 -9999 -9999 -9999 -9999 -9999 -9999 -9999 -9999 -9999 -9999 -9999 -9999 -9999 -9999 -9999 -9999 325.2231 330.852 334.4654 339.1273 344.7608 348.5655 354.5136 359.7715 363.6432 367.521 372.1197 377.4734 381.4854 382.4646 384.2012 387.938 392.9992 398.545 403.6924 409.6642 415.527 420.4929 426.1188 431.3134 435.8549 440.404 443.6966 -9999 -9999 -9999 -9999 -9999 -9999 -9999 -9999 -9999 -9999 -9999 -9999 -9999 -9999 -9999 -9999 -9999 -9999 -9999 -9999 -9999 -9999 -9999 -9999 -9999 -9999 -9999 -9999 -9999 -9999 -9999 -9999 -9999 -9999 -9999 -9999 -9999 -9999 -9999 -9999 -9999 -9999 -9999 -9999 -9999 -9999 -9999 -9999 -9999 -9999 -9999 -9999 -9999 -9999 -9999 -9999 -9999 -9999 -9999 -9999 -9999 -9999 -9999 -9999 -9999 -9999 -9999 -9999 -9999 -9999 -9999 -9999 -9999 -9999 -9999 -9999 -9999 -9999 -9999 -9999 -9999 -9999 -9999 -9999 -9999 -9999 -9999 -9999 -9999 -9999 -9999 -9999 -9999 -9999 -9999 -9999 -9999 -9999 -9999 -9999 -9999 -9999 -9999 -9999 -9999 -9999 -9999 -9999 -9999 -9999 -9999 -9999 -9999 -9999 -9999 -9999 -9999 -9999 -9999 -9999 -9999 -9999 -9999 -9999 -9999 -9999 -9999 -9999 -9999 -9999 -9999 -9999 -9999 -9999 -9999 -9999 -9999 -9999 -9999 -9999 -9999 -9999 
-9999 -9999 -9999 -9999 -9999 -9999 -9999 -9999 -9999 -9999 -9999 -9999 -9999 -9999 -9999 -9999 -9999 -9999 -9999 -9999 -9999 -9999 -9999 -9999 -9999 -9999 -9999 -9999 -9999 -9999 -9999 -9999 -9999 -9999 -9999 -9999 -9999 -9999 339.0634 343.8677 348.5563 354.0328 359.6823 364.7214 368.2296 371.7295 375.538 378.6279 381.8093 382.2809 384.5585 389.0361 394.5644 400.5019 407.3705 413.6768 419.3514 423.3047 428.2829 432.3207 436.5643 -9999 -9999 -9999 -9999 -9999 -9999 -9999 -9999 -9999 -9999 -9999 -9999 -9999 -9999 -9999 -9999 -9999 -9999 -9999 -9999 -9999 -9999 -9999 -9999 -9999 -9999 -9999 -9999 -9999 -9999 -9999 -9999 -9999 -9999 -9999 -9999 -9999 -9999 -9999 -9999 -9999 -9999 -9999 -9999 -9999 -9999 -9999 -9999 -9999 -9999 -9999 -9999 -9999 -9999 -9999 -9999 -9999 -9999 -9999 -9999 -9999 -9999 -9999 -9999 -9999 -9999 -9999 -9999 -9999 -9999 -9999 -9999 -9999 -9999 -9999 -9999 -9999 -9999 -9999 -9999 -9999 -9999 -9999 -9999 -9999 -9999 -9999 -9999 -9999 -9999 -9999 -9999 -9999 -9999 -9999 -9999 -9999 -9999 -9999 -9999 -9999 -9999 -9999 -9999 -9999 -9999 -9999 -9999 -9999 -9999 -9999 -9999 -9999 -9999 -9999 -9999 -9999 -9999 -9999 -9999 -9999 -9999 -9999 -9999 -9999 -9999 -9999 -9999 -9999 -9999 -9999 -9999 -9999 -9999 -9999 -9999 -9999 -9999 -9999 -9999 -9999 -9999 -9999 -9999 
-9999 -9999 -9999 -9999 -9999 -9999 -9999 -9999 -9999 -9999 -9999 -9999 -9999 -9999 -9999 -9999 -9999 -9999 -9999 -9999 -9999 -9999 -9999 -9999 -9999 -9999 -9999 -9999 -9999 -9999 -9999 -9999 -9999 -9999 -9999 -9999 -9999 -9999 -9999 -9999 -9999 356.3988 362.0277 366.4039 369.8314 372.4877 375.1646 378.144 380.1572 382.4509 385.6657 389.7943 395.1122 401.0033 407.2486 414.0967 -9999 -9999 -9999 -9999 -9999 -9999 -9999 -9999 -9999 -9999 -9999 -9999 -9999 -9999 -9999 -9999 -9999 -9999 -9999 -9999 -9999 -9999 -9999 -9999 -9999 -9999 -9999 -9999 -9999 -9999 -9999 -9999 -9999 -9999 -9999 -9999 -9999 -9999 -9999 -9999 -9999 -9999 -9999 -9999 -9999 -9999 -9999 -9999 -9999 -9999 -9999 -9999 -9999 -9999 -9999 -9999 -9999 -9999 -9999 -9999 -9999 -9999 -9999 -9999 -9999 -9999 -9999 -9999 -9999 -9999 -9999 -9999 -9999 -9999 -9999 -9999 -9999 -9999 -9999 -9999 -9999 -9999 -9999 -9999 -9999 -9999 -9999 -9999 -9999 -9999 -9999 -9999 -9999 -9999 -9999 -9999 -9999 -9999 -9999 -9999 -9999 -9999 -9999 -9999 -9999 -9999 -9999 -9999 -9999 -9999 -9999 -9999 -9999 -9999 -9999 -9999 -9999 -9999 -9999 -9999 -9999 -9999 -9999 -9999 -9999 -9999 -9999 -9999 -9999 -9999 -9999 -9999 -9999 -9999 -9999 -9999 -9999 -9999 -9999 -9999 -9999 -9999 -9999 -9999 -9999 -9999 -9999 -9999 -9999 
-9999 -9999 -9999 -9999 -9999 -9999 -9999 -9999 -9999 -9999 -9999 -9999 -9999 -9999 -9999 -9999 -9999 -9999 -9999 -9999 -9999 -9999 -9999 -9999 -9999 -9999 -9999 -9999 -9999 -9999 -9999 -9999 -9999 -9999 -9999 -9999 -9999 -9999 -9999 -9999 -9999 -9999 -9999 -9999 -9999 -9999 -9999 -9999 -9999 -9999 -9999 -9999 -9999 -9999 -9999 -9999 -9999 -9999 -9999 -9999 -9999 -9999 -9999 -9999 -9999 -9999 -9999 -9999 -9999 -9999 -9999 -9999 -9999 -9999 -9999 -9999 -9999 -9999 -9999 -9999 -9999 -9999 -9999 -9999 -9999 -9999 -9999 -9999 -9999 -9999 -9999 -9999 -9999 -9999 -9999 -9999 -9999 -9999 -9999 -9999 -9999 -9999 -9999 -9999 -9999 -9999 -9999 -9999 -9999 -9999 -9999 -9999 -9999 -9999 -9999 -9999 -9999 -9999 -9999 -9999 -9999 -9999 -9999 -9999 -9999 -9999 -9999 -9999 -9999 -9999 -9999 -9999 -9999 -9999 -9999 -9999 -9999 -9999 -9999 -9999 -9999 -9999 -9999 -9999 -9999 -9999 -9999 -9999 -9999 -9999 -9999 -9999 -9999 -9999 -9999 -9999 -9999 -9999 -9999 -9999 -9999 -9999 -9999 -9999 -9999 -9999 -9999 -9999 -9999 -9999 -9999 -9999 -9999 -9999 -9999 -9999 -9999 -9999 -9999 -9999 -9999 -9999 -9999 -9999 -9999 -9999 -9999 -9999 -9999 -9999 -9999 -9999 -9999 -9999 -9999 -9999 -9999 -9999 -9999 -9999 -9999 -9999 -9999 -9999 -9999 
-9999 -9999 -9999 -9999 -9999 -9999 -9999 -9999 -9999 -9999 -9999 -9999 -9999 -9999 -9999 -9999 -9999 -9999 -9999 -9999 -9999 -9999 -9999 -9999 -9999 -9999 -9999 -9999 -9999 -9999 -9999 -9999 -9999 -9999 -9999 -9999 -9999 -9999 -9999 -9999 -9999 -9999 -9999 -9999 -9999 -9999 -9999 -9999 -9999 -9999 -9999 -9999 -9999 -9999 -9999 -9999 -9999 -9999 -9999 -9999 -9999 -9999 -9999 -9999 -9999 -9999 -9999 -9999 -9999 -9999 -9999 -9999 -9999 -9999 -9999 -9999 -9999 -9999 -9999 -9999 -9999 -9999 -9999 -9999 -9999 -9999 -9999 -9999 -9999 -9999 -9999 -9999 -9999 -9999 -9999 -9999 -9999 -9999 -9999 -9999 -9999 -9999 -9999 -9999 -9999 -9999 -9999 -9999 -9999 -9999 -9999 -9999 -9999 -9999 -9999 -9999 -9999 -9999 -9999 -9999 -9999 -9999 -9999 -9999 -9999 -9999 -9999 -9999 -9999 -9999 -9999 -9999 -9999 -9999 -9999 -9999 -9999 -9999 -9999 -9999 -9999 -9999 -9999 -9999 -9999 -9999 -9999 -9999 -9999 -9999 -9999 -9999 -9999 -9999 -9999 -9999 -9999 -9999 -9999 -9999 -9999 -9999 -9999 -9999 -9999 -9999 -9999 -9999 -9999 -9999 -9999 -9999 -9999 -9999 -9999 -9999 -9999 -9999 -9999 -9999 -9999 -9999 -9999 -9999 -9999 -9999 -9999 -9999 -9999 -9999 -9999 -9999 -9999 -9999 -9999 -9999 -9999 -9999 -9999 -9999 -9999 -9999 -9999 -9999 -9999 
-9999 -9999 -9999 -9999 -9999 -9999 -9999 -9999 -9999 -9999 -9999 -9999 -9999 -9999 -9999 -9999 -9999 -9999 -9999 -9999 -9999 -9999 -9999 -9999 -9999 -9999 -9999 -9999 -9999 -9999 -9999 -9999 -9999 -9999 -9999 -9999 -9999 -9999 -9999 -9999 -9999 -9999 -9999 -9999 -9999 -9999 -9999 -9999 -9999 -9999 -9999 -9999 -9999 -9999 -9999 -9999 -9999 -9999 -9999 -9999 -9999 -9999 -9999 -9999 -9999 -9999 -9999 -9999 -9999 -9999 -9999 -9999 -9999 -9999 -9999 -9999 -9999 -9999 -9999 -9999 -9999 -9999 -9999 -9999 -9999 -9999 -9999 -9999 -9999 -9999 -9999 -9999 -9999 -9999 -9999 -9999 -9999 -9999 -9999 -9999 -9999 -9999 -9999 -9999 -9999 -9999 -9999 -9999 -9999 -9999 -9999 -9999 -9999 -9999 -9999 -9999 -9999 -9999 -9999 -9999 -9999 -9999 -9999 -9999 -9999 -9999 -9999 -9999 -9999 -9999 -9999 -9999 -9999 -9999 -9999 -9999 -9999 -9999 -9999 -9999 -9999 -9999 -9999 -9999 -9999 -9999 -9999 -9999 -9999 -9999 -9999 -9999 -9999 -9999 -9999 -9999 -9999 -9999 -9999 -9999 -9999 -9999 -9999 -9999 -9999 -9999 -9999 -9999 -9999 -9999 -9999 -9999 -9999 -9999 -9999 -9999 -9999 -9999 -9999 -9999 -9999 -9999 -9999 -9999 -9999 -9999 -9999 -9999 -9999 -9999 -9999 -9999 -9999 -9999 -9999 -9999 -9999 -9999 -9999 -9999 -9999 -9999 -9999 -9999 -9999 
-9999 -9999 -9999 -9999 -9999 -9999 -9999 -9999 -9999 -9999 -9999 -9999 -9999 -9999 -9999 -9999 -9999 -9999 -9999 -9999 -9999 -9999 -9999 -9999 -9999 -9999 -9999 -9999 -9999 -9999 -9999 -9999 -9999 -9999 -9999 -9999 -9999 -9999 -9999 -9999 -9999 -9999 -9999 -9999 -9999 -9999 -9999 -9999 -9999 -9999 -9999 -9999 -9999 -9999 -9999 -9999 -9999 -9999 -9999 -9999 -9999 -9999 -9999 -9999 -9999 -9999 -9999 -9999 -9999 -9999 -9999 -9999 -9999 -9999 -9999 -9999 -9999 -9999 -9999 -9999 -9999 -9999 -9999 -9999 -9999 -9999 -9999 -9999 -9999 -9999 -9999 -9999 -9999 -9999 -9999 -9999 -9999 -9999 -9999 -9999 -9999 -9999 -9999 -9999 -9999 -9999 -9999 -9999 -9999 -9999 -9999 -9999 -9999 -9999 -9999 -9999 -9999 -9999 -9999 -9999 -9999 -9999 -9999 -9999 -9999 -9999 -9999 -9999 -9999 -9999 -9999 -9999 -9999 -9999 -9999 -9999 -9999 -9999 -9999 -9999 -9999 -9999 -9999 -9999 -9999 -9999 -9999 -9999 -9999 -9999 -9999 -9999 -9999 -9999 -9999 -9999 -9999 -9999 -9999 -9999 -9999 -9999 -9999 -9999 -9999 -9999 -9999 -9999 -9999 -9999 -9999 -9999 -9999 -9999 -9999 -9999 -9999 -9999 -9999 -9999 -9999 -9999 -9999 -9999 -9999 -9999 -9999 -9999 -9999 -9999 -9999 -9999 -9999 -9999 -9999 -9999 -9999 -9999 -9999 -9999 -9999 -9999 -9999 -9999 -9999 
-9999 -9999 -9999 -9999 -9999 -9999 -9999 -9999 -9999 -9999 -9999 -9999 -9999 -9999 -9999 -9999 -9999 -9999 -9999 -9999 -9999 -9999 -9999 -9999 -9999 -9999 -9999 -9999 -9999 -9999 -9999 -9999 -9999 -9999 -9999 -9999 -9999 -9999 -9999 -9999 -9999 -9999 -9999 -9999 -9999 -9999 -9999 -9999 -9999 -9999 -9999 -9999 -9999 -9999 -9999 -9999 -9999 -9999 -9999 -9999 -9999 -9999 -9999 -9999 -9999 -9999 -9999 -9999 -9999 -9999 -9999 -9999 -9999 -9999 -9999 -9999 -9999 -9999 -9999 -9999 -9999 -9999 -9999 -9999 -9999 -9999 -9999 -9999 -9999 -9999 -9999 -9999 -9999 -9999 -9999 -9999 -9999 -9999 -9999 -9999 -9999 -9999 -9999 -9999 -9999 -9999 -9999 -9999 -9999 -9999 -9999 -9999 -9999 -9999 -9999 -9999 -9999 -9999 -9999 -9999 -9999 -9999 -9999 -9999 -9999 -9999 -9999 -9999 -9999 -9999 -9999 -9999 -9999 -9999 -9999 -9999 -9999 -9999 -9999 -9999 -9999 -9999 -9999 -9999 -9999 -9999 -9999 -9999 -9999 -9999 -9999 -9999 -9999 -9999 -9999 -9999 -9999 -9999 -9999 -9999 -9999 -9999 -9999 -9999 -9999 -9999 -9999 -9999 -9999 -9999 -9999 -9999 -9999 -9999 -9999 -9999 -9999 -9999 -9999 -9999 -9999 -9999 -9999 -9999 -9999 -9999 -9999 -9999 -9999 -9999 -9999 -9999 -9999 -9999 -9999 -9999 -9999 -9999 -9999 -9999 -9999 -9999 -9999 -9999 -9999 
-9999 -9999 -9999 -9999 -9999 -9999 -9999 -9999 -9999 -9999 -9999 -9999 -9999 -9999 -9999 -9999 -9999 -9999 -9999 -9999 -9999 -9999 -9999 -9999 -9999 -9999 -9999 -9999 -9999 -9999 -9999 -9999 -9999 -9999 -9999 -9999 -9999 -9999 -9999 -9999 -9999 -9999 -9999 -9999 -9999 -9999 -9999 -9999 -9999 -9999 -9999 -9999 -9999 -9999 -9999 -9999 -9999 -9999 -9999 -9999 -9999 -9999 -9999 -9999 -9999 -9999 -9999 -9999 -9999 -9999 -9999 -9999 -9999 -9999 -9999 -9999 -9999 -9999 -9999 -9999 -9999 -9999 -9999 -9999 -9999 -9999 -9999 -9999 -9999 -9999 -9999 -9999 -9999 -9999 -9999 -9999 -9999 -9999 -9999 -9999 -9999 -9999 -9999 -9999 -9999 -9999 -9999 -9999 -9999 -9999 -9999 -9999 -9999 -9999 -9999 -9999 -9999 -9999 -9999 -9999 -9999 -9999 -9999 -9999 -9999 -9999 -9999 -9999 -9999 -9999 -9999 -9999 -9999 -9999 -9999 -9999 -9999 -9999 -9999 -9999 -9999 -9999 -9999 -9999 -9999 -9999 -9999 -9999 -9999 -9999 -9999 -9999 -9999 -9999 -9999 -9999 -9999 -9999 -9999 -9999 -9999 -9999 -9999 -9999 -9999 -9999 -9999 -9999 -9999 -9999 -9999 -9999 -9999 -9999 -9999 -9999 -9999 -9999 -9999 -9999 -9999 -9999 -9999 -9999 -9999 -9999 -9999 -9999 -9999 -9999 -9999 -9999 -9999 -9999 -9999 -9999 -9999 -9999 -9999 -9999 -9999 -9999 -9999 -9999 -9999 
-9999 -9999 -9999 -9999 -9999 -9999 -9999 -9999 -9999 -9999 -9999 -9999 -9999 -9999 -9999 -9999 -9999 -9999 -9999 -9999 -9999 -9999 -9999 -9999 -9999 -9999 -9999 -9999 -9999 -9999 -9999 -9999 -9999 -9999 -9999 -9999 -9999 -9999 -9999 -9999 -9999 -9999 -9999 -9999 -9999 -9999 -9999 -9999 -9999 -9999 -9999 -9999 -9999 -9999 -9999 -9999 -9999 -9999 -9999 -9999 -9999 -9999 -9999 -9999 -9999 -9999 -9999 -9999 -9999 -9999 -9999 -9999 -9999 -9999 -9999 -9999 -9999 -9999 -9999 -9999 -9999 -9999 -9999 -9999 -9999 -9999 -9999 -9999 -9999 -9999 -9999 -9999 -9999 -9999 -9999 -9999 -9999 -9999 -9999 -9999 -9999 -9999 -9999 -9999 -9999 -9999 -9999 -9999 -9999 -9999 -9999 -9999 -9999 -9999 -9999 -9999 -9999 -9999 -9999 -9999 -9999 -9999 -9999 -9999 -9999 -9999 -9999 -9999 -9999 -9999 -9999 -9999 -9999 -9999 -9999 -9999 -9999 -9999 -9999 -9999 -9999 -9999 -9999 -9999 -9999 -9999 -9999 -9999 -9999 -9999 -9999 -9999 -9999 -9999 -9999 -9999 -9999 -9999 -9999 -9999 -9999 -9999 -9999 -9999 -9999 -9999 -9999 -9999 -9999 -9999 -9999 -9999 -9999 -9999 -9999 -9999 -9999 -9999 -9999 -9999 -9999 -9999 -9999 -9999 -9999 -9999 -9999 -9999 -9999 -9999 -9999 -9999 -9999 -9999 -9999 -9999 -9999 -9999 -9999 -9999 -9999 -9999 -9999 -9999 -9999 
-9999 -9999 -9999 -9999 -9999 -9999 -9999 -9999 -9999 -9999 -9999 -9999 -9999 -9999 -9999 -9999 -9999 -9999 -9999 -9999 -9999 -9999 -9999 -9999 -9999 -9999 -9999 -9999 -9999 -9999 -9999 -9999 -9999 -9999 -9999 -9999 -9999 -9999 -9999 -9999 -9999 -9999 -9999 -9999 -9999 -9999 -9999 -9999 -9999 -9999 -9999 -9999 -9999 -9999 -9999 -9999 -9999 -9999 -9999 -9999 -9999 -9999 -9999 -9999 -9999 -9999 -9999 -9999 -9999 -9999 -9999 -9999 -9999 -9999 -9999 -9999 -9999 -9999 -9999 -9999 -9999 -9999 -9999 -9999 -9999 -9999 -9999 -9999 -9999 -9999 -9999 -9999 -9999 -9999 -9999 -9999 -9999 -9999 -9999 -9999 -9999 -9999 -9999 -9999 -9999 -9999 -9999 -9999 -9999 -9999 -9999 -9999 -9999 -9999 -9999 -9999 -9999 -9999 -9999 -9999 -9999 -9999 -9999 -9999 -9999 -9999 -9999 -9999 -9999 -9999 -9999 -9999 -9999 -9999 -9999 -9999 -9999 -9999 -9999 -9999 -9999 -9999 -9999 -9999 -9999 -9999 -9999 -9999 -9999 -9999 -9999 -9999 -9999 -9999 -9999 -9999 -9999 -9999 -9999 -9999 -9999 -9999 -9999 -9999 -9999 -9999 -9999 -9999 -9999 -9999 -9999 -9999 -9999 -9999 -9999 -9999 -9999 -9999 -9999 -9999 -9999 -9999 -9999 -9999 -9999 -9999 -9999 -9999 -9999 -9999 -9999 -9999 -9999 -9999 -9999 -9999 -9999 -9999 -9999 -9999 -9999 -9999 -9999 -9999 -9999 
-9999 -9999 -9999 -9999 -9999 -9999 -9999 -9999 -9999 -9999 -9999 -9999 -9999 -9999 -9999 -9999 -9999 -9999 -9999 -9999 -9999 -9999 -9999 -9999 -9999 -9999 -9999 -9999 -9999 -9999 -9999 -9999 -9999 -9999 -9999 -9999 -9999 -9999 -9999 -9999 -9999 -9999 -9999 -9999 -9999 -9999 -9999 -9999 -9999 -9999 -9999 -9999 -9999 -9999 -9999 -9999 -9999 -9999 -9999 -9999 -9999 -9999 -9999 -9999 -9999 -9999 -9999 -9999 -9999 -9999 -9999 -9999 -9999 -9999 -9999 -9999 -9999 -9999 -9999 -9999 -9999 -9999 -9999 -9999 -9999 -9999 -9999 -9999 -9999 -9999 -9999 -9999 -9999 -9999 -9999 -9999 -9999 -9999 -9999 -9999 -9999 -9999 -9999 -9999 -9999 -9999 -9999 -9999 -9999 -9999 -9999 -9999 -9999 -9999 -9999 -9999 -9999 -9999 -9999 -9999 -9999 -9999 -9999 -9999 -9999 -9999 -9999 -9999 -9999 -9999 -9999 -9999 -9999 -9999 -9999 -9999 -9999 -9999 -9999 -9999 -9999 -9999 -9999 -9999 -9999 -9999 -9999 -9999 -9999 -9999 -9999 -9999 -9999 -9999 -9999 -9999 -9999 -9999 -9999 -9999 -9999 -9999 -9999 -9999 -9999 -9999 -9999 -9999 -9999 -9999 -9999 -9999 -9999 -9999 -9999 -9999 -9999 -9999 -9999 -9999 -9999 -9999 -9999 -9999 -9999 -9999 -9999 -9999 -9999 -9999 -9999 -9999 -9999 -9999 -9999 -9999 -9999 -9999 -9999 -9999 -9999 -9999 -9999 -9999 -9999 
-9999 -9999 -9999 -9999 -9999 -9999 -9999 -9999 -9999 -9999 -9999 -9999 -9999 -9999 -9999 -9999 -9999 -9999 -9999 -9999 -9999 -9999 -9999 -9999 -9999 -9999 -9999 -9999 -9999 -9999 -9999 -9999 -9999 -9999 -9999 -9999 -9999 -9999 -9999 -9999 -9999 -9999 -9999 -9999 -9999 -9999 -9999 -9999 -9999 -9999 -9999 -9999 -9999 -9999 -9999 -9999 -9999 -9999 -9999 -9999 -9999 -9999 -9999 -9999 -9999 -9999 -9999 -9999 -9999 -9999 -9999 -9999 -9999 -9999 -9999 -9999 -9999 -9999 -9999 -9999 -9999 -9999 -9999 -9999 -9999 -9999 -9999 -9999 -9999 -9999 -9999 -9999 -9999 -9999 -9999 -9999 -9999 -9999 -9999 -9999 -9999 -9999 -9999 -9999 -9999 -9999 -9999 -9999 -9999 -9999 -9999 -9999 -9999 -9999 -9999 -9999 -9999 -9999 -9999 -9999 -9999 -9999 -9999 -9999 -9999 -9999 -9999 -9999 -9999 -9999 -9999 -9999 -9999 -9999 -9999 -9999 -9999 -9999 -9999 -9999 -9999 -9999 -9999 -9999 -9999 -9999 -9999 -9999 -9999 -9999 -9999 -9999 -9999 -9999 -9999 -9999 -9999 -9999 -9999 -9999 -9999 -9999 -9999 -9999 -9999 -9999 -9999 -9999 -9999 -9999 -9999 -9999 -9999 -9999 -9999 -9999 -9999 -9999 -9999 -9999 -9999 -9999 -9999 -9999 -9999 -9999 -9999 -9999 -9999 -9999 -9999 -9999 -9999 -9999 -9999 -9999 -9999 -9999 -9999 -9999 -9999 -9999 -9999 -9999 -9999 
-9999 -9999 -9999 -9999 -9999 -9999 -9999 -9999 -9999 -9999 -9999 -9999 -9999 -9999 -9999 -9999 -9999 -9999 -9999 -9999 -9999 -9999 -9999 -9999 -9999 -9999 -9999 -9999 -9999 -9999 -9999 -9999 -9999 -9999 -9999 -9999 -9999 -9999 -9999 -9999 -9999 -9999 -9999 -9999 -9999 -9999 -9999 -9999 -9999 -9999 -9999 -9999 -9999 -9999 -9999 -9999 -9999 -9999 -9999 -9999 -9999 -9999 -9999 -9999 -9999 -9999 -9999 -9999 -9999 -9999 -9999 -9999 -9999 -9999 -9999 -9999 -9999 -9999 -9999 -9999 -9999 -9999 -9999 -9999 -9999 -9999 -9999 -9999 -9999 -9999 -9999 -9999 -9999 -9999 -9999 -9999 -9999 -9999 -9999 -9999 -9999 -9999 -9999 -9999 -9999 -9999 -9999 -9999 -9999 -9999 -9999 -9999 -9999 -9999 -9999 -9999 -9999 -9999 -9999 -9999 -9999 -9999 -9999 -9999 -9999 -9999 -9999 -9999 -9999 -9999 -9999 -9999 -9999 -9999 -9999 -9999 -9999 -9999 -9999 -9999 -9999 -9999 -9999 -9999 -9999 -9999 -9999 -9999 -9999 -9999 -9999 -9999 -9999 -9999 -9999 -9999 -9999 -9999 -9999 -9999 -9999 -9999 -9999 -9999 -9999 -9999 -9999 -9999 -9999 -9999 -9999 -9999 -9999 -9999 -9999 -9999 -9999 -9999 -9999 -9999 -9999 -9999 -9999 -9999 -9999 -9999 -9999 -9999 -9999 -9999 -9999 -9999 -9999 -9999 -9999 -9999 -9999 -9999 -9999 -9999 -9999 -9999 -9999 -9999 -9999 
-9999 -9999 -9999 -9999 -9999 -9999 -9999 -9999 -9999 -9999 -9999 -9999 -9999 -9999 -9999 -9999 -9999 -9999 -9999 -9999 -9999 -9999 -9999 -9999 -9999 -9999 -9999 -9999 -9999 -9999 -9999 -9999 -9999 -9999 -9999 -9999 -9999 -9999 -9999 -9999 -9999 -9999 -9999 -9999 -9999 -9999 -9999 -9999 -9999 -9999 -9999 -9999 -9999 -9999 -9999 -9999 -9999 -9999 -9999 -9999 -9999 -9999 -9999 -9999 -9999 -9999 -9999 -9999 -9999 -9999 -9999 -9999 -9999 -9999 -9999 -9999 -9999 -9999 -9999 -9999 -9999 -9999 -9999 -9999 -9999 -9999 -9999 -9999 -9999 -9999 -9999 -9999 -9999 -9999 -9999 -9999 -9999 -9999 -9999 -9999 -9999 -9999 -9999 -9999 -9999 -9999 -9999 -9999 -9999 -9999 -9999 -9999 -9999 -9999 -9999 -9999 -9999 -9999 -9999 -9999 -9999 -9999 -9999 -9999 -9999 -9999 -9999 -9999 -9999 -9999 -9999 -9999 -9999 -9999 -9999 -9999 -9999 -9999 -9999 -9999 -9999 -9999 -9999 -9999 -9999 -9999 -9999 -9999 -9999 -9999 -9999 -9999 -9999 -9999 -9999 -9999 -9999 -9999 -9999 -9999 -9999 -9999 -9999 -9999 -9999 -9999 -9999 -9999 -9999 -9999 -9999 -9999 -9999 -9999 -9999 -9999 -9999 -9999 -9999 -9999 -9999 -9999 -9999 -9999 -9999 -9999 -9999 -9999 -9999 -9999 -9999 -9999 -9999 -9999 -9999 -9999 -9999 -9999 -9999 -9999 -9999 -9999 -9999 -9999 -9999 
-9999 -9999 -9999 -9999 -9999 -9999 -9999 -9999 -9999 -9999 -9999 -9999 -9999 -9999 -9999 -9999 -9999 -9999 -9999 -9999 -9999 -9999 -9999 -9999 -9999 -9999 -9999 -9999 -9999 -9999 -9999 -9999 -9999 -9999 -9999 -9999 -9999 -9999 -9999 -9999 -9999 -9999 -9999 -9999 -9999 -9999 -9999 -9999 -9999 -9999 -9999 -9999 -9999 -9999 -9999 -9999 -9999 -9999 -9999 -9999 -9999 -9999 -9999 -9999 -9999 -9999 -9999 -9999 -9999 -9999 -9999 -9999 -9999 -9999 -9999 -9999 -9999 -9999 -9999 -9999 -9999 -9999 -9999 -9999 -9999 -9999 -9999 -9999 -9999 -9999 -9999 -9999 -9999 -9999 -9999 -9999 -9999 -9999 -9999 -9999 -9999 -9999 -9999 -9999 -9999 -9999 -9999 -9999 -9999 -9999 -9999 -9999 -9999 -9999 -9999 -9999 -9999 -9999 -9999 -9999 -9999 -9999 -9999 -9999 -9999 -9999 -9999 -9999 -9999 -9999 -9999 -9999 -9999 -9999 -9999 -9999 -9999 -9999 -9999 -9999 -9999 -9999 -9999 -9999 -9999 -9999 -9999 -9999 -9999 -9999 -9999 -9999 -9999 -9999 -9999 -9999 -9999 -9999 -9999 -9999 -9999 -9999 -9999 -9999 -9999 -9999 -9999 -9999 -9999 -9999 -9999 -9999 -9999 -9999 -9999 -9999 -9999 -9999 -9999 -9999 -9999 -9999 -9999 -9999 -9999 -9999 -9999 -9999 -9999 -9999 -9999 -9999 -9999 -9999 -9999 -9999 -9999 -9999 -9999 -9999 -9999 -9999 -9999 -9999 -9999 
-9999 -9999 -9999 -9999 -9999 -9999 -9999 -9999 -9999 -9999 -9999 -9999 -9999 -9999 -9999 -9999 -9999 -9999 -9999 -9999 -9999 -9999 -9999 -9999 -9999 -9999 -9999 -9999 -9999 -9999 -9999 -9999 -9999 -9999 -9999 -9999 -9999 -9999 -9999 -9999 -9999 -9999 -9999 -9999 -9999 -9999 -9999 -9999 -9999 -9999 -9999 -9999 -9999 -9999 -9999 -9999 -9999 -9999 -9999 -9999 -9999 -9999 -9999 -9999 -9999 -9999 -9999 -9999 -9999 -9999 -9999 -9999 -9999 -9999 -9999 -9999 -9999 -9999 -9999 -9999 -9999 -9999 -9999 -9999 -9999 -9999 -9999 -9999 -9999 -9999 -9999 -9999 -9999 -9999 -9999 -9999 -9999 -9999 -9999 -9999 -9999 -9999 -9999 -9999 -9999 -9999 -9999 -9999 -9999 -9999 -9999 -9999 -9999 -9999 -9999 -9999 -9999 -9999 -9999 -9999 -9999 -9999 -9999 -9999 -9999 -9999 -9999 -9999 -9999 -9999 -9999 -9999 -9999 -9999 -9999 -9999 -9999 -9999 -9999 -9999 -9999 -9999 -9999 -9999 -9999 -9999 -9999 -9999 -9999 -9999 -9999 -9999 -9999 -9999 -9999 -9999 -9999 -9999 -9999 -9999 -9999 -9999 -9999 -9999 -9999 -9999 -9999 -9999 -9999 -9999 -9999 -9999 -9999 -9999 -9999 -9999 -9999 -9999 -9999 -9999 -9999 -9999 -9999 -9999 -9999 -9999 -9999 -9999 -9999 -9999 -9999 -9999 -9999 -9999 -9999 -9999 -9999 -9999 -9999 -9999 -9999 -9999 -9999 -9999 -9999 
-9999 -9999 -9999 -9999 -9999 -9999 -9999 -9999 -9999 -9999 -9999 -9999 -9999 -9999 -9999 -9999 -9999 -9999 -9999 -9999 -9999 -9999 -9999 -9999 -9999 -9999 -9999 -9999 -9999 -9999 -9999 -9999 -9999 -9999 -9999 -9999 -9999 -9999 -9999 -9999 -9999 -9999 -9999 -9999 -9999 -9999 -9999 -9999 -9999 -9999 -9999 -9999 -9999 -9999 -9999 -9999 -9999 -9999 -9999 -9999 -9999 -9999 -9999 -9999 -9999 -9999 -9999 -9999 -9999 -9999 -9999 -9999 -9999 -9999 -9999 -9999 -9999 -9999 -9999 -9999 -9999 -9999 -9999 -9999 -9999 -9999 -9999 -9999 -9999 -9999 -9999 -9999 -9999 -9999 -9999 -9999 -9999 -9999 -9999 -9999 -9999 -9999 -9999 -9999 -9999 -9999 -9999 -9999 -9999 -9999 -9999 -9999 -9999 -9999 -9999 -9999 -9999 -9999 -9999 -9999 -9999 -9999 -9999 -9999 -9999 -9999 -9999 -9999 -9999 -9999 -9999 -9999 -9999 -9999 -9999 -9999 -9999 -9999 -9999 -9999 -9999 -9999 -9999 -9999 -9999 -9999 -9999 -9999 -9999 -9999 -9999 -9999 -9999 -9999 -9999 -9999 -9999 -9999 -9999 -9999 -9999 -9999 -9999 -9999 -9999 -9999 -9999 -9999 -9999 -9999 -9999 -9999 -9999 -9999 -9999 -9999 -9999 -9999 -9999 -9999 -9999 -9999 -9999 -9999 -9999 -9999 -9999 -9999 -9999 -9999 -9999 -9999 -9999 -9999 -9999 -9999 -9999 -9999 -9999 -9999 -9999 -9999 -9999 -9999 -9999 
-9999 -9999 -9999 -9999 -9999 -9999 -9999 -9999 -9999 -9999 -9999 -9999 -9999 -9999 -9999 -9999 -9999 -9999 -9999 -9999 -9999 -9999 -9999 -9999 -9999 -9999 -9999 -9999 -9999 -9999 -9999 -9999 -9999 -9999 -9999 -9999 -9999 -9999 -9999 -9999 -9999 -9999 -9999 -9999 -9999 -9999 -9999 -9999 -9999 -9999 -9999 -9999 -9999 -9999 -9999 -9999 -9999 -9999 -9999 -9999 -9999 -9999 -9999 -9999 -9999 -9999 -9999 -9999 -9999 -9999 -9999 -9999 -9999 -9999 -9999 -9999 -9999 -9999 -9999 -9999 -9999 -9999 -9999 -9999 -9999 -9999 -9999 -9999 -9999 -9999 -9999 -9999 -9999 -9999 -9999 -9999 -9999 -9999 -9999 -9999 -9999 -9999 -9999 -9999 -9999 -9999 -9999 -9999 -9999 -9999 -9999 -9999 -9999 -9999 -9999 -9999 -9999 -9999 -9999 -9999 -9999 -9999 -9999 -9999 -9999 -9999 -9999 -9999 -9999 -9999 -9999 -9999 -9999 -9999 -9999 -9999 -9999 -9999 -9999 -9999 -9999 -9999 -9999 -9999 -9999 -9999 -9999 -9999 -9999 -9999 -9999 -9999 -9999 -9999 -9999 -9999 -9999 -9999 -9999 -9999 -9999 -9999 -9999 -9999 -9999 -9999 -9999 -9999 -9999 -9999 -9999 -9999 -9999 -9999 -9999 -9999 -9999 -9999 -9999 -9999 -9999 -9999 -9999 -9999 -9999 -9999 -9999 -9999 -9999 -9999 -9999 -9999 -9999 -9999 -9999 -9999 -9999 -9999 -9999 -9999 -9999 -9999 -9999 -9999 -9999 
-9999 -9999 -9999 -9999 -9999 -9999 -9999 -9999 -9999 -9999 -9999 -9999 -9999 -9999 -9999 -9999 -9999 -9999 -9999 -9999 -9999 -9999 -9999 -9999 -9999 -9999 -9999 -9999 -9999 -9999 -9999 -9999 -9999 -9999 -9999 -9999 -9999 -9999 -9999 -9999 -9999 -9999 -9999 -9999 -9999 -9999 -9999 -9999 -9999 -9999 -9999 -9999 -9999 -9999 -9999 -9999 -9999 -9999 -9999 -9999 -9999 -9999 -9999 -9999 -9999 -9999 -9999 -9999 -9999 -9999 -9999 -9999 -9999 -9999 -9999 -9999 -9999 -9999 -9999 -9999 -9999 -9999 -9999 -9999 -9999 -9999 -9999 -9999 -9999 -9999 -9999 -9999 -9999 -9999 -9999 -9999 -9999 -9999 -9999 -9999 -9999 -9999 -9999 -9999 -9999 -9999 -9999 -9999 -9999 -9999 -9999 -9999 -9999 -9999 -9999 -9999 -9999 -9999 -9999 -9999 -9999 -9999 -9999 -9999 -9999 -9999 -9999 -9999 -9999 -9999 -9999 -9999 -9999 -9999 -9999 -9999 -9999 -9999 -9999 -9999 -9999 -9999 -9999 -9999 -9999 -9999 -9999 -9999 -9999 -9999 -9999 -9999 -9999 -9999 -9999 -9999 -9999 -9999 -9999 -9999 -9999 -9999 -9999 -9999 -9999 -9999 -9999 -9999 -9999 -9999 -9999 -9999 -9999 -9999 -9999 -9999 -9999 -9999 -9999 -9999 -9999 -9999 -9999 -9999 -9999 -9999 -9999 -9999 -9999 -9999 -9999 -9999 -9999 -9999 -9999 -9999 -9999 -9999 -9999 -9999 -9999 -9999 -9999 -9999 -9999 
-9999 -9999 -9999 -9999 -9999 -9999 -9999 -9999 -9999 -9999 -9999 -9999 -9999 -9999 -9999 -9999 -9999 -9999 -9999 -9999 -9999 -9999 -9999 -9999 -9999 -9999 -9999 -9999 -9999 -9999 -9999 -9999 -9999 -9999 -9999 -9999 -9999 -9999 -9999 -9999 -9999 -9999 -9999 -9999 -9999 -9999 -9999 -9999 -9999 -9999 -9999 -9999 -9999 -9999 -9999 -9999 -9999 -9999 -9999 -9999 -9999 -9999 -9999 -9999 -9999 -9999 -9999 -9999 -9999 -9999 -9999 -9999 -9999 -9999 -9999 -9999 -9999 -9999 -9999 -9999 -9999 -9999 -9999 -9999 -9999 -9999 -9999 -9999 -9999 -9999 -9999 -9999 -9999 -9999 -9999 -9999 -9999 -9999 -9999 -9999 -9999 -9999 -9999 -9999 -9999 -9999 -9999 -9999 -9999 -9999 -9999 -9999 -9999 -9999 -9999 -9999 -9999 -9999 -9999 -9999 -9999 -9999 -9999 -9999 -9999 -9999 -9999 -9999 -9999 -9999 -9999 -9999 -9999 -9999 -9999 -9999 -9999 -9999 -9999 -9999 -9999 -9999 -9999 -9999 -9999 -9999 -9999 -9999 -9999 -9999 -9999 -9999 -9999 -9999 -9999 -9999 -9999 -9999 -9999 -9999 -9999 -9999 -9999 -9999 -9999 -9999 -9999 -9999 -9999 -9999 -9999 -9999 -9999 -9999 -9999 -9999 -9999 -9999 -9999 -9999 -9999 -9999 -9999 -9999 -9999 -9999 -9999 -9999 -9999 -9999 -9999 -9999 -9999 -9999 -9999 -9999 -9999 -9999 -9999 -9999 -9999 -9999 -9999 -9999 -9999 
-9999 -9999 -9999 -9999 -9999 -9999 -9999 -9999 -9999 -9999 -9999 -9999 -9999 -9999 -9999 -9999 -9999 -9999 -9999 -9999 -9999 -9999 -9999 -9999 -9999 -9999 -9999 -9999 -9999 -9999 -9999 -9999 -9999 -9999 -9999 -9999 -9999 -9999 -9999 -9999 -9999 -9999 -9999 -9999 -9999 -9999 -9999 -9999 -9999 -9999 -9999 -9999 -9999 -9999 -9999 -9999 -9999 -9999 -9999 -9999 -9999 -9999 -9999 -9999 -9999 -9999 -9999 -9999 -9999 -9999 -9999 -9999 -9999 -9999 -9999 -9999 -9999 -9999 -9999 -9999 -9999 -9999 -9999 -9999 -9999 -9999 -9999 -9999 -9999 -9999 -9999 -9999 -9999 -9999 -9999 -9999 -9999 -9999 -9999 -9999 -9999 -9999 -9999 -9999 -9999 -9999 -9999 -9999 -9999 -9999 -9999 -9999 -9999 -9999 -9999 -9999 -9999 -9999 -9999 -9999 -9999 -9999 -9999 -9999 -9999 -9999 -9999 -9999 -9999 -9999 -9999 -9999 -9999 -9999 -9999 -9999 -9999 -9999 -9999 -9999 -9999 -9999 -9999 -9999 -9999 -9999 -9999 -9999 -9999 -9999 -9999 -9999 -9999 -9999 -9999 -9999 -9999 -9999 -9999 -9999 -9999 -9999 -9999 -9999 -9999 -9999 -9999 -9999 -9999 -9999 -9999 -9999 -9999 -9999 -9999 -9999 -9999 -9999 -9999 -9999 -9999 -9999 -9999 -9999 -9999 -9999 -9999 -9999 -9999 -9999 -9999 -9999 -9999 -9999 -9999 -9999 -9999 -9999 -9999 -9999 -9999 -9999 -9999 -9999 -9999 
-9999 -9999 -9999 -9999 -9999 -9999 -9999 -9999 -9999 -9999 -9999 -9999 -9999 -9999 -9999 -9999 -9999 -9999 -9999 -9999 -9999 -9999 -9999 -9999 -9999 -9999 -9999 -9999 -9999 -9999 -9999 -9999 -9999 -9999 -9999 -9999 -9999 -9999 -9999 -9999 -9999 -9999 -9999 -9999 -9999 -9999 -9999 -9999 -9999 -9999 -9999 -9999 -9999 -9999 -9999 -9999 -9999 -9999 -9999 -9999 -9999 -9999 -9999 -9999 -9999 -9999 -9999 -9999 -9999 -9999 -9999 -9999 -9999 -9999 -9999 -9999 -9999 -9999 -9999 -9999 -9999 -9999 -9999 -9999 -9999 -9999 -9999 -9999 -9999 -9999 -9999 -9999 -9999 -9999 -9999 -9999 -9999 -9999 -9999 -9999 -9999 -9999 -9999 -9999 -9999 -9999 -9999 -9999 -9999 -9999 -9999 -9999 -9999 -9999 -9999 -9999 -9999 -9999 -9999 -9999 -9999 -9999 -9999 -9999 -9999 -9999 -9999 -9999 -9999 -9999 -9999 -9999 -9999 -9999 -9999 -9999 -9999 -9999 -9999 -9999 -9999 -9999 -9999 -9999 -9999 -9999 -9999 -9999 -9999 -9999 -9999 -9999 -9999 -9999 -9999 -9999 -9999 -9999 -9999 -9999 -9999 -9999 -9999 -9999 -9999 -9999 -9999 -9999 -9999 -9999 -9999 -9999 -9999 -9999 -9999 -9999 -9999 -9999 -9999 -9999 -9999 -9999 -9999 -9999 -9999 -9999 -9999 -9999 -9999 -9999 -9999 -9999 -9999 -9999 -9999 -9999 -9999 -9999 -9999 -9999 -9999 -9999 -9999 -9999 -9999 
-9999 -9999 -9999 -9999 -9999 -9999 -9999 -9999 -9999 -9999 -9999 -9999 -9999 -9999 -9999 -9999 -9999 -9999 -9999 -9999 -9999 -9999 -9999 -9999 -9999 -9999 -9999 -9999 -9999 -9999 -9999 -9999 -9999 -9999 -9999 -9999 -9999 -9999 -9999 -9999 -9999 -9999 -9999 -9999 -9999 -9999 -9999 -9999 -9999 -9999 -9999 -9999 -9999 -9999 -9999 -9999 -9999 -9999 -9999 -9999 -9999 -9999 -9999 -9999 -9999 -9999 -9999 -9999 -9999 -9999 -9999 -9999 -9999 -9999 -9999 -9999 -9999 -9999 -9999 -9999 -9999 -9999 -9999 -9999 -9999 -9999 -9999 -9999 -9999 -9999 -9999 -9999 -9999 -9999 -9999 -9999 -9999 -9999 -9999 -9999 -9999 -9999 -9999 -9999 -9999 -9999 -9999 -9999 -9999 -9999 -9999 -9999 -9999 -9999 -9999 -9999 -9999 -9999 -9999 -9999 -9999 -9999 -9999 -9999 -9999 -9999 -9999 -9999 -9999 -9999 -9999 -9999 -9999 -9999 -9999 -9999 -9999 -9999 -9999 -9999 -9999 -9999 -9999 -9999 -9999 -9999 -9999 -9999 -9999 -9999 -9999 -9999 -9999 -9999 -9999 -9999 -9999 -9999 -9999 -9999 -9999 -9999 -9999 -9999 -9999 -9999 -9999 -9999 -9999 -9999 -9999 -9999 -9999 -9999 -9999 -9999 -9999 -9999 -9999 -9999 -9999 -9999 -9999 -9999 -9999 -9999 -9999 -9999 -9999 -9999 -9999 -9999 -9999 -9999 -9999 -9999 -9999 -9999 -9999 -9999 -9999 -9999 -9999 -9999 -9999 
