ncols         397
nrows         609
xllcorner     361015.59563119
yllcorner     70225.434086869
cellsize      2
NODATA_value  -9999
-9999 -9999 -9999 -9999 -9999 -9999 -9999 -9999 -9999 -9999 -9999 -9999 -9999 -9999 -9999 -9999 -9999 -9999 -9999 -9999 -9999 -9999 -9999 -9999 -9999 -9999 -9999 -9999 -9999 -9999 -9999 -9999 -9999 -9999 -9999 -9999 -9999 -9999 -9999 -9999 -9999 -9999 -9999 -9999 -9999 -9999 -9999 -9999 -9999 -9999 -9999 -9999 -9999 -9999 -9999 -9999 -9999 -9999 -9999 -9999 -9999 -9999 -9999 -9999 -9999 -9999 -9999 -9999 -9999 -9999 -9999 -9999 -9999 -9999 -9999 -9999 -9999 -9999 -9999 -9999 -9999 -9999 -9999 -9999 -9999 -9999 -9999 -9999 -9999 -9999 -9999 -9999 -9999 -9999 -9999 -9999 -9999 -9999 -9999 -9999 -9999 -9999 -9999 -9999 -9999 -9999 -9999 -9999 -9999 -9999 -9999 -9999 -9999 -9999 -9999 -9999 -9999 -9999 -9999 -9999 -9999 -9999 -9999 -9999 -9999 -9999 -9999 -9999 -9999 -9999 -9999 -9999 -9999 -9999 -9999 -9999 -9999 -9999 -9999 -9999 -9999 -9999 -9999 -9999 -9999 -9999 -9999 -9999 -9999 -9999 -9999 -9999 -9999 -9999 -9999 -9999 -9999 -9999 -9999 -9999 -9999 -9999 -9999 -9999 -9999 -9999 -9999 -9999 -9999 -9999 -9999 -9999 -9999 -9999 -9999 -9999 -9999 -9999 -9999 -9999 -9999 -9999 -9999 -9999 -9999 -9999 -9999 -9999 -9999 -9999 -9999 -9999 -9999 -9999 -9999 -9999 -9999 -9999 -9999 -9999 -9999 -9999 -9999 -9999 -9999 -9999 -9999 -9999 -9999 -9999 -9999 -9999 -9999 -9999 -9999 -9999 -9999 -9999 -9999 -9999 -9999 -9999 -9999 -9999 -9999 -9999 -9999 -9999 -9999 -9999 -9999 -9999 -9999 -9999 -9999 -9999 -9999 -9999 -9999 -9999 -9999 -9999 -9999 -9999 -9999 -9999 -9999 -9999 -9999 -9999 -9999 -9999 -9999 -9999 -9999 -9999 -9999 -9999 -9999 -9999 -9999 -9999 -9999 -9999 -9999 -9999 -9999 -9999 -9999 -9999 -9999 -9999 -9999 -9999 -9999 -9999 -9999 -9999 -9999 -9999 -9999 -9999 -9999 -9999 -9999 -9999 -9999 -9999 -9999 -9999 -9999 -9999 -9999 -9999 -9999 -9999 -9999 -9999 -9999 -9999 -9999 -9999 -9999 -9999 -9999 -9999 -9999 -9999 -9999 -9999 -9999 -9999 -9999 -9999 -9999 -9999 -9999 -9999 -9999 -9999 -9999 -9999 -9999 -9999 -9999 -9999 -9999 -9999 -9999 -9999 -9999 -9999 -9999 -9999 -9999 -9999 -9999 -9999 -9999 -9999 -9999 -9999 -9999 -9999 -9999 -9999 -9999 -9999 -9999 -9999 -9999 -9999 -9999 -9999 -9999 -9999 -9999 -9999 -9999 -9999 -9999 -9999 -9999 -9999 -9999 -9999 -9999 -9999 -9999 -9999 -9999 -9999 -9999 -9999 -9999 -9999 -9999 -9999 -9999 -9999 -9999 -9999 -9999 -9999 -9999 -9999 -9999 -9999 -9999 -9999 -9999 -9999 -9999 -9999 -9999 -9999 -9999 
-9999 212 216 217 216 214 209 208 208 204 199 201 205 208 210 211 212 205 193 188 188 177 169 175 175 175 183 183 176 176 188 201 205 204 200 198 197 195 194 194 194 195 196 201 209 212 213 216 221 225 227 232 235 237 240 244 244 245 252 253 252 252 253 252 253 254 254 253 250 251 251 249 251 252 251 252 254 254 253 253 253 253 251 249 248 249 250 251 246 236 240 245 244 245 243 235 240 247 243 240 239 237 240 243 238 233 234 235 236 239 240 234 228 223 215 208 203 201 196 184 172 170 172 171 165 156 147 151 167 174 171 166 161 163 167 167 163 154 145 145 148 151 155 157 158 161 165 163 157 148 142 145 147 145 149 156 160 164 159 159 170 171 171 174 174 172 165 164 172 176 173 172 174 176 173 171 170 170 167 166 179 189 188 186 183 177 171 173 176 172 171 167 161 159 157 154 156 167 173 172 173 175 177 177 175 172 171 179 192 199 200 203 199 192 191 192 195 197 200 201 200 196 198 203 203 200 197 197 201 202 200 197 194 189 182 181 187 188 188 187 185 183 181 178 175 175 169 164 171 179 181 180 179 176 174 169 166 167 172 179 179 180 182 183 182 176 172 179 179 173 173 173 171 164 156 159 162 160 166 169 168 171 172 171 174 174 169 163 172 177 173 176 175 171 168 168 171 169 166 169 171 173 174 177 178 171 168 170 173 174 175 172 172 174 175 177 182 186 182 174 171 172 175 177 175 175 177 178 184 190 186 191 200 200 200 203 206 203 199 195 198 205 199 188 186 189 194 196 193 188 190 190 183 178 177 176 172 175 180 176 171 176 180 178 175 176 185 194 198 194 190 191 192 183 180 186 186 184 181 180 183 183 178 175 178 180 179 179 182 186 187 185 183 181 181 187 -9999 
-9999 206 205 206 209 208 206 209 208 202 201 205 208 211 211 210 209 206 198 193 188 179 177 182 180 179 182 180 175 175 187 199 204 203 199 197 197 195 193 194 197 201 206 210 212 215 218 223 228 231 233 235 233 229 229 236 240 243 251 253 252 251 254 254 254 254 253 252 249 248 248 247 250 251 250 250 253 254 254 254 253 252 251 251 251 251 251 250 248 240 238 245 248 247 242 233 234 240 239 235 233 230 232 234 231 228 224 224 224 226 228 224 218 212 207 203 201 200 197 190 180 175 177 178 174 166 160 167 179 177 169 165 162 166 170 168 159 149 143 144 149 154 158 163 167 165 160 159 154 153 156 156 158 154 157 166 168 168 164 169 175 169 171 175 172 170 165 168 176 176 174 173 175 177 172 169 174 174 170 169 179 187 185 182 179 177 172 172 171 166 166 163 157 155 152 149 156 171 175 172 173 176 179 179 173 170 174 183 192 196 197 198 193 188 190 193 197 202 206 206 200 195 198 203 203 200 198 201 203 200 195 191 189 187 180 183 190 190 189 189 187 185 182 177 174 174 173 173 176 179 180 181 180 175 171 170 172 172 176 181 180 179 180 180 179 173 173 182 178 174 175 174 171 165 161 167 164 157 164 168 167 170 172 173 175 175 171 167 172 175 171 171 172 173 177 178 175 171 170 177 184 182 181 183 183 178 175 176 178 179 178 177 176 175 174 174 181 184 176 169 170 175 183 184 180 184 189 193 197 198 195 199 206 205 203 205 205 201 197 194 195 201 192 182 183 186 190 191 185 182 187 185 181 183 181 179 174 175 176 170 169 177 181 180 178 180 191 199 200 192 187 188 186 178 180 184 185 186 182 179 179 183 183 180 182 184 183 185 187 189 186 182 180 177 177 186 -9999 
-9999 202 200 202 206 210 212 213 212 211 212 214 215 216 214 211 209 207 202 196 190 185 183 184 184 183 181 181 179 177 184 196 202 202 200 200 199 197 193 195 198 204 212 220 225 229 233 234 235 235 234 236 237 237 235 232 235 240 248 253 253 252 252 253 254 254 254 253 252 251 249 249 250 251 250 249 251 254 254 254 253 251 253 254 253 253 250 247 247 245 241 243 248 248 243 235 233 239 240 235 230 225 224 221 219 216 215 215 214 211 210 209 205 202 200 198 199 200 199 195 190 188 187 184 180 179 180 185 186 177 171 169 168 170 172 168 156 146 145 151 164 171 173 173 171 163 155 158 161 166 170 165 164 162 164 171 169 170 171 177 175 167 171 175 172 170 170 173 177 177 177 174 173 172 165 168 174 171 168 167 177 185 181 177 180 180 174 170 168 166 166 164 161 155 150 152 164 176 177 173 176 180 183 180 175 177 184 189 193 196 198 199 196 193 196 198 199 201 205 205 198 194 198 204 206 204 202 202 199 195 190 188 187 185 182 188 193 192 192 191 189 186 181 177 176 178 179 179 180 181 184 184 180 174 170 176 182 181 182 182 179 178 178 178 177 173 175 181 175 171 171 168 166 162 164 170 161 152 160 163 161 166 171 171 174 178 177 172 171 173 172 174 175 175 176 175 172 171 171 181 188 183 176 179 186 184 181 182 180 179 181 180 177 175 172 172 177 178 172 169 175 183 191 191 190 196 202 204 205 205 203 204 207 205 202 201 200 198 195 190 189 193 183 174 176 180 182 181 177 179 186 181 180 186 185 179 175 176 175 169 171 180 185 185 181 181 191 197 194 184 180 180 176 174 180 185 187 186 179 174 177 184 186 182 183 186 190 194 193 189 187 187 186 178 178 191 -9999 
-9999 205 203 203 205 209 210 210 213 219 220 218 218 218 217 215 212 208 202 195 188 186 183 182 183 184 182 184 183 178 179 190 196 197 199 200 198 195 193 196 202 209 216 226 234 239 241 241 239 240 237 234 235 239 240 231 231 235 245 253 254 253 252 253 254 253 253 254 254 254 254 253 253 252 251 248 250 251 252 252 251 247 250 254 254 251 248 248 249 248 244 241 245 246 243 236 232 237 235 229 223 215 210 209 209 210 207 203 202 200 199 197 195 195 196 196 197 197 196 189 185 186 185 181 179 179 178 178 176 172 172 172 172 172 173 169 157 151 156 164 175 175 172 171 166 157 154 161 166 167 168 164 165 167 168 169 169 175 176 173 168 165 169 171 169 168 170 174 176 177 176 172 172 168 164 167 168 164 162 163 174 182 176 173 176 174 168 168 168 167 165 169 171 158 152 160 170 177 176 174 179 184 184 181 181 186 191 191 191 191 193 197 199 199 201 202 201 201 204 201 194 193 199 204 206 205 203 201 198 194 191 190 188 183 183 188 191 190 191 191 191 187 179 177 179 179 179 181 182 185 187 186 180 173 172 180 184 182 183 181 180 179 180 181 178 175 176 177 173 169 167 165 160 157 162 166 157 150 157 160 159 165 170 167 169 177 177 169 167 170 174 178 178 176 177 177 175 173 175 183 185 178 172 177 185 183 181 183 177 177 186 187 182 180 180 180 183 184 179 178 184 189 194 196 198 202 205 207 207 208 207 207 206 203 200 197 199 199 194 185 184 185 176 168 172 178 180 181 182 184 186 177 177 183 180 172 173 180 181 176 176 182 184 185 182 182 190 191 184 176 176 177 176 180 185 185 182 176 170 170 178 186 185 183 183 186 193 196 190 185 188 192 190 182 187 202 -9999 
-9999 204 204 204 206 210 211 211 216 220 218 216 216 217 216 213 210 206 200 193 186 184 182 181 183 184 183 184 183 178 172 178 187 190 194 197 196 193 195 203 214 222 228 234 239 243 244 244 244 245 243 239 236 241 241 232 226 227 238 247 250 252 253 254 254 252 253 254 254 254 254 254 254 254 253 252 252 253 253 253 253 249 249 252 252 250 248 249 249 248 245 240 242 244 243 237 230 228 223 217 211 205 201 205 211 210 203 198 194 191 189 189 191 192 192 191 189 188 190 186 180 180 181 178 175 171 167 169 171 171 175 176 174 171 170 167 159 161 167 170 172 166 164 162 158 154 157 165 169 166 163 164 168 171 170 167 171 179 173 164 163 165 169 168 168 171 174 177 178 176 173 173 173 167 165 166 166 165 164 167 175 180 175 172 172 166 163 167 166 162 164 174 173 153 152 163 169 176 175 175 183 189 187 185 185 190 193 189 186 186 189 196 199 200 202 203 202 204 206 202 195 196 203 206 205 202 201 200 198 196 194 191 187 183 185 188 187 187 188 189 189 184 175 174 179 178 179 183 186 188 188 185 178 174 176 181 180 180 180 178 179 180 180 181 177 174 175 173 170 168 166 166 161 159 166 167 161 156 161 166 167 171 173 170 173 179 174 162 162 169 176 180 176 175 179 180 179 176 176 179 182 182 180 184 184 180 181 184 176 178 194 193 183 183 188 190 192 195 192 189 194 197 198 201 204 206 209 210 210 212 210 205 202 199 199 198 198 198 189 181 183 184 178 174 177 183 184 186 187 186 184 176 175 180 177 172 179 187 188 184 184 188 188 187 186 188 192 190 184 180 183 184 183 184 184 180 176 173 171 174 182 187 184 182 181 185 195 196 188 185 189 192 189 187 196 208 -9999 
-9999 195 199 205 209 212 215 217 221 221 217 216 216 214 212 209 208 204 200 193 186 184 184 181 181 182 181 181 178 172 164 166 180 188 193 195 191 188 195 206 219 230 236 238 239 242 242 242 243 243 243 241 238 239 235 230 222 217 222 231 240 247 250 252 253 252 250 249 250 249 247 248 248 250 251 252 252 252 252 252 248 246 247 248 249 250 251 251 249 248 247 241 238 238 238 236 228 223 221 216 210 205 200 199 201 201 201 201 196 189 185 185 189 191 190 185 181 184 188 188 186 183 183 181 177 173 169 173 173 175 180 177 172 168 165 163 163 169 170 166 164 161 161 159 158 159 161 165 166 163 162 166 167 168 168 165 168 172 164 160 165 168 170 168 170 176 179 179 177 172 168 171 170 162 163 165 167 171 172 175 177 179 177 171 169 166 166 169 165 161 167 180 172 151 154 161 166 174 175 179 189 194 190 186 187 192 192 187 183 185 191 199 202 201 201 203 204 206 210 208 203 205 208 205 203 201 202 201 198 195 192 188 187 188 193 191 187 188 189 187 185 178 170 171 176 178 180 185 189 188 183 177 172 171 173 174 172 173 175 177 180 180 178 177 173 169 170 168 168 168 166 167 167 169 173 171 166 160 163 171 171 173 176 176 176 176 166 156 158 166 174 177 173 173 179 179 178 177 178 182 188 190 190 188 182 180 185 188 180 184 198 193 183 185 191 193 196 201 198 194 199 201 202 207 211 212 213 213 213 212 206 199 197 197 200 198 194 192 187 182 185 185 183 182 184 186 186 188 188 184 183 179 179 182 180 180 186 191 190 187 186 190 191 190 190 192 192 190 190 190 191 189 183 180 180 181 182 182 181 182 186 188 187 188 187 192 200 198 192 187 187 188 188 191 197 203 -9999 
-9999 196 204 210 212 212 211 213 215 212 211 214 215 213 209 208 208 206 201 194 184 183 186 179 176 179 181 181 176 167 159 154 174 190 194 194 189 187 197 210 221 230 236 237 236 237 237 237 237 236 238 240 239 237 230 223 216 209 209 216 229 236 240 242 245 245 243 243 242 238 237 238 238 237 237 236 236 237 238 236 235 239 244 244 246 250 251 251 249 245 243 238 229 222 222 223 223 222 221 217 209 199 189 180 174 180 193 198 196 195 195 193 192 192 191 185 186 192 191 188 186 185 183 180 178 178 176 175 175 179 181 176 172 169 165 166 171 174 166 157 158 161 161 161 163 163 160 161 163 165 165 166 165 164 168 166 164 165 163 163 168 170 171 171 175 180 179 177 176 173 168 170 168 161 163 168 172 178 181 178 175 180 180 172 168 169 170 171 167 163 169 176 163 144 146 153 163 173 179 186 193 193 189 184 185 190 189 183 182 187 194 201 203 201 201 203 206 210 214 212 207 210 211 205 202 204 204 204 200 192 188 188 192 197 200 195 190 191 188 184 183 178 171 171 176 180 181 183 184 179 170 165 166 169 168 169 170 170 174 180 181 179 177 176 171 168 169 170 174 174 170 174 175 174 173 168 162 155 160 168 168 172 178 177 170 166 161 156 162 171 178 179 177 175 174 173 174 177 180 186 189 188 187 182 178 183 190 193 189 191 198 193 188 190 195 196 200 204 199 195 199 202 206 211 212 209 209 212 211 206 198 194 193 196 198 194 188 188 185 180 182 181 182 185 183 183 183 187 188 184 184 183 182 182 183 187 189 189 188 186 185 187 189 191 195 197 194 191 189 190 191 186 180 180 184 189 191 189 189 192 193 192 192 196 195 198 202 197 191 186 184 185 188 192 194 195 -9999 
-9999 204 208 206 206 208 209 209 210 207 205 209 214 213 210 210 209 205 200 193 183 183 182 171 172 180 182 183 180 168 152 147 173 194 196 195 192 194 205 216 224 228 231 234 234 236 238 239 239 238 239 241 241 240 235 228 216 208 210 214 221 226 229 229 228 228 231 233 229 227 231 232 228 221 216 211 208 214 221 221 223 229 231 228 235 242 244 245 241 232 226 225 223 219 213 208 207 203 197 197 195 189 182 173 167 171 179 184 188 192 196 197 196 194 192 192 198 200 193 186 182 182 181 175 171 176 177 173 176 180 180 178 175 169 164 170 174 170 158 151 159 163 160 159 160 158 156 160 165 169 168 166 165 166 173 173 167 166 165 167 171 170 174 176 177 179 176 173 169 170 169 170 168 163 167 173 177 181 183 176 174 180 178 171 165 166 168 167 163 158 160 163 148 133 141 153 165 176 182 184 182 183 181 178 182 186 184 181 184 189 193 197 198 198 199 203 206 210 211 208 207 210 212 206 202 205 207 208 201 190 188 193 200 203 200 193 187 187 184 182 182 180 177 176 181 184 182 180 176 172 167 167 172 172 170 172 174 174 181 185 180 177 177 175 171 172 175 178 180 176 170 173 173 169 165 162 159 157 162 168 168 173 176 169 161 164 166 166 174 182 182 181 178 172 169 170 172 175 179 181 180 180 180 177 177 184 191 192 189 190 193 193 191 192 196 197 201 201 197 195 196 202 207 210 207 203 204 205 203 197 191 189 190 193 193 187 182 183 177 171 176 178 183 185 179 178 179 185 187 184 185 186 186 182 186 193 190 186 185 185 185 186 189 194 198 196 192 186 185 187 183 175 177 185 188 190 189 187 190 194 193 190 195 200 197 196 197 194 190 185 181 183 188 189 187 188 -9999 
-9999 209 209 207 207 208 209 209 210 209 209 214 217 216 215 215 210 201 197 189 183 182 175 169 176 183 181 180 178 160 139 141 168 192 196 193 193 200 210 219 227 233 236 234 233 235 238 242 243 242 241 240 238 239 239 236 227 218 212 206 207 214 219 219 218 215 213 215 215 218 222 219 211 207 204 196 190 196 203 205 209 211 209 206 215 221 224 228 229 224 221 224 225 221 211 199 188 183 186 186 183 183 184 183 182 174 165 170 179 178 177 185 193 196 199 199 197 195 192 189 183 182 180 176 174 173 169 171 179 181 179 175 169 161 162 169 169 164 157 157 165 167 163 163 162 158 159 164 168 170 169 167 166 171 179 178 172 167 164 170 174 172 177 178 176 175 173 169 161 164 169 167 168 171 175 179 179 177 175 168 168 172 171 166 161 165 166 163 159 154 153 153 146 144 155 163 169 176 179 175 175 177 177 179 182 184 182 181 186 186 186 191 194 195 197 201 205 206 204 202 204 207 208 205 199 201 206 204 194 186 190 200 204 204 196 185 178 179 182 184 184 182 178 178 184 186 185 183 181 181 178 175 177 176 175 175 174 175 181 184 179 177 178 174 171 176 180 180 177 171 167 171 172 165 161 163 163 160 163 170 172 172 169 160 159 168 172 175 182 183 177 172 168 165 166 168 171 174 179 180 177 177 178 176 175 182 189 186 179 182 189 190 189 190 192 194 195 194 192 189 189 196 203 205 201 198 197 196 194 191 187 186 187 188 187 182 178 178 172 172 179 183 187 183 175 178 181 186 188 185 186 191 191 184 189 194 186 182 182 185 186 187 191 193 192 188 185 183 185 185 174 169 181 189 186 185 185 186 188 189 186 184 191 199 197 193 193 192 188 180 176 181 186 185 183 184 -9999 
-9999 204 209 213 213 209 209 213 216 214 216 220 221 219 216 211 204 199 196 189 179 171 171 178 184 186 182 177 171 148 127 134 167 191 193 190 192 199 211 223 230 233 235 234 232 230 232 236 238 239 241 242 238 236 237 239 237 231 219 209 206 210 212 208 209 210 206 205 207 211 210 205 201 201 204 206 207 204 197 194 194 194 196 202 211 210 207 208 212 216 215 208 205 205 205 200 193 197 205 199 187 183 184 186 182 167 159 165 172 172 173 178 187 198 203 199 193 189 189 188 186 186 183 182 182 177 170 174 182 181 177 170 163 160 166 173 171 167 163 163 170 174 174 173 171 172 174 174 172 171 170 169 170 177 182 177 169 160 160 173 175 171 173 172 171 171 170 166 162 171 176 172 175 180 181 180 177 173 173 167 168 174 173 168 166 171 170 163 161 161 161 160 160 160 162 166 169 174 177 177 181 181 184 186 184 183 180 181 185 183 184 193 198 199 199 203 206 206 205 204 205 204 203 200 194 195 199 194 187 186 193 202 205 200 190 180 176 180 184 186 186 182 178 179 182 183 184 184 184 184 178 173 175 179 178 174 172 173 176 179 177 177 179 175 173 176 175 170 167 167 168 173 174 166 162 167 165 159 163 168 169 167 164 161 165 173 175 177 181 178 171 166 166 166 167 168 170 175 181 183 177 175 176 172 170 180 189 183 175 183 191 191 189 186 187 190 191 190 187 183 185 192 199 198 190 187 189 190 191 190 187 185 184 184 182 177 173 173 174 179 185 189 187 179 175 178 184 189 189 188 191 195 192 186 187 186 181 181 182 185 188 188 188 185 184 184 184 184 184 178 171 175 188 190 185 184 185 186 187 186 183 183 188 195 196 191 189 189 184 175 175 184 188 186 186 185 -9999 
-9999 199 205 211 215 214 212 216 219 218 218 217 214 213 212 207 203 198 192 181 168 165 173 178 177 176 174 172 165 145 128 144 180 196 190 188 190 196 208 220 224 224 227 232 232 226 222 221 226 232 239 243 241 235 233 234 234 234 231 226 220 211 209 207 208 210 208 206 210 211 206 204 204 202 204 208 210 207 201 196 194 192 191 195 203 205 202 198 197 199 195 184 181 185 186 187 187 186 179 173 179 187 190 190 185 182 182 176 176 184 189 188 190 195 196 196 198 195 190 187 187 188 184 182 181 181 181 181 181 178 176 170 165 165 171 177 177 176 173 173 178 179 176 171 171 177 180 179 176 175 176 173 176 181 179 171 164 157 160 173 171 167 168 167 170 169 165 162 165 177 178 172 174 178 177 175 174 177 177 171 174 179 176 171 172 175 169 163 165 166 166 169 174 169 164 170 175 178 182 184 186 185 187 186 184 183 180 183 187 186 189 197 202 202 202 208 212 213 213 210 208 206 203 200 194 192 193 192 191 193 198 202 199 189 181 178 180 184 186 185 184 184 182 181 180 180 180 180 180 176 171 169 172 173 168 162 166 172 177 181 179 178 180 179 177 176 167 159 162 168 171 174 172 164 160 166 166 163 166 170 171 170 168 168 172 175 174 174 176 173 169 167 167 169 170 169 172 175 179 177 169 167 170 168 170 180 187 180 173 183 190 188 183 178 182 189 191 188 184 181 183 189 194 189 177 180 187 189 190 189 187 184 182 180 176 170 169 171 176 181 185 184 179 175 174 176 187 192 190 190 193 190 189 184 178 178 180 182 182 186 193 193 188 185 187 188 185 182 178 175 177 183 189 190 188 187 186 183 181 182 182 184 188 193 193 185 181 182 179 175 181 191 192 187 186 187 -9999 
-9999 205 206 211 215 214 210 210 211 211 212 208 201 200 204 205 203 194 183 171 164 168 172 169 166 164 165 166 159 147 143 162 185 191 188 190 194 200 210 219 225 227 229 231 232 229 224 221 225 228 234 241 241 235 231 229 231 234 235 231 223 213 211 213 212 208 203 203 206 204 200 200 198 195 192 190 191 195 194 193 194 194 191 185 183 187 192 192 189 186 183 180 180 178 174 175 176 164 149 149 162 175 185 194 200 202 197 190 188 192 196 199 201 200 196 194 199 201 197 191 188 186 184 182 182 186 186 183 181 176 172 168 167 169 172 174 173 173 172 174 176 176 172 167 169 173 176 177 174 175 178 175 177 180 175 167 163 162 165 169 168 168 168 169 174 169 163 165 173 178 171 164 171 175 169 166 170 173 170 168 176 181 175 169 172 172 160 157 164 168 170 175 175 167 169 179 182 183 186 188 187 186 187 188 189 184 180 185 189 189 192 197 200 200 202 210 216 218 215 211 210 208 207 206 202 195 194 195 197 199 201 198 191 181 179 179 180 181 183 184 185 186 184 181 178 178 177 176 176 169 165 167 168 167 163 162 170 176 179 182 182 183 186 185 180 175 164 162 170 173 174 172 167 160 159 165 169 167 167 170 174 176 172 172 174 170 168 172 175 173 169 166 166 170 172 172 173 171 172 171 160 159 164 168 169 173 176 170 167 176 182 181 175 172 179 187 189 182 175 171 175 184 188 182 174 182 189 187 188 188 183 177 175 174 170 168 172 177 181 183 183 175 170 172 174 179 191 195 191 189 188 184 186 182 175 178 182 183 184 190 198 198 189 189 192 188 183 181 179 183 188 189 188 188 187 186 182 177 176 180 182 182 186 189 187 180 177 178 178 180 186 191 189 181 180 185 -9999 
-9999 205 205 205 207 208 208 210 209 208 209 205 200 200 199 196 192 185 178 174 175 177 172 167 166 163 163 161 154 152 158 169 179 186 192 198 203 209 216 223 230 233 232 231 232 234 234 231 229 227 230 236 237 233 229 228 231 233 232 227 223 220 217 214 212 207 204 201 196 189 189 191 191 187 179 175 177 180 181 180 179 182 186 185 185 182 177 175 176 178 178 178 177 175 177 178 174 170 170 168 164 162 165 173 183 191 192 190 189 194 198 198 197 197 196 196 198 199 196 189 187 188 187 181 180 186 185 182 181 175 167 166 170 172 172 171 168 166 165 167 170 172 169 167 170 173 175 173 171 173 176 174 175 178 171 161 160 162 164 169 173 173 170 174 174 164 159 165 173 174 165 164 174 176 167 166 170 169 168 171 180 186 177 169 171 166 156 159 169 174 175 176 170 164 174 182 182 183 186 188 188 190 193 195 191 183 181 186 188 187 191 195 197 199 204 212 216 214 208 206 209 211 213 211 202 193 192 194 198 200 198 192 186 184 186 185 181 178 180 183 182 181 180 177 175 177 177 178 174 163 158 164 168 171 171 174 179 181 180 180 182 184 183 179 175 169 165 170 177 177 175 170 164 161 160 167 173 171 167 169 172 175 170 169 170 165 169 176 177 174 169 165 165 167 171 174 170 162 168 169 160 157 158 158 155 157 163 161 162 171 177 176 169 168 175 183 184 174 165 163 171 177 177 173 171 178 182 181 182 181 175 172 174 173 169 171 180 184 184 184 179 171 172 177 179 186 194 195 188 186 187 184 186 184 178 180 185 189 193 197 198 193 185 185 184 181 182 186 187 191 192 190 182 178 179 177 175 173 175 181 182 181 183 188 189 183 178 179 181 182 186 187 182 172 171 180 -9999 
-9999 209 209 205 203 205 211 216 214 210 211 209 205 202 199 193 188 183 179 176 177 176 169 168 169 166 167 164 157 159 163 166 171 181 194 204 210 216 222 224 227 231 232 231 232 235 235 229 221 218 220 225 231 233 231 227 226 228 227 223 223 221 215 212 210 207 208 205 195 186 185 186 188 186 180 175 176 180 177 169 167 172 178 188 197 193 180 174 176 175 173 175 177 177 178 174 169 173 176 174 173 170 167 168 173 184 193 191 188 194 200 201 200 198 197 200 200 199 193 185 185 185 175 165 167 175 173 173 176 172 169 170 172 169 169 170 172 170 167 172 174 170 168 170 172 173 172 170 169 173 175 171 171 175 168 159 161 168 171 174 175 174 171 173 168 158 161 168 174 174 170 173 179 178 173 175 178 179 180 180 183 184 173 166 166 162 162 171 179 179 171 169 167 167 177 180 180 182 184 185 190 193 195 193 187 183 184 188 187 187 192 197 198 197 203 213 214 209 204 202 206 209 210 208 198 190 190 191 196 196 191 186 185 188 191 190 184 179 183 183 177 175 176 174 173 175 178 180 174 161 159 166 170 170 169 172 178 179 177 178 181 180 175 170 167 165 166 172 177 177 174 169 164 162 164 170 176 174 169 169 172 171 165 165 166 166 173 177 174 170 165 162 160 161 169 174 164 157 166 169 160 152 148 148 146 150 159 159 160 169 175 173 165 165 173 179 179 169 160 162 169 172 170 167 168 174 178 176 174 170 169 172 176 176 173 177 183 184 182 176 172 171 177 180 182 189 192 190 184 185 188 183 183 184 180 182 189 195 200 200 190 181 178 179 179 180 186 189 190 188 185 181 171 171 177 176 177 177 177 181 180 181 187 193 194 188 182 181 181 182 183 180 171 164 168 175 -9999 
-9999 214 212 208 205 208 216 219 212 207 208 206 202 201 198 193 189 186 182 177 173 170 166 169 171 170 174 173 163 160 159 162 166 175 192 206 218 227 231 231 230 233 235 235 235 235 232 226 216 212 213 216 226 235 235 228 224 225 224 220 217 214 209 206 203 201 203 200 189 182 181 179 177 174 172 179 185 185 179 174 170 170 175 183 189 189 186 186 183 175 170 174 181 182 176 170 169 171 170 173 181 185 188 187 184 187 196 200 195 189 188 193 201 206 206 205 202 199 189 182 181 173 162 161 168 172 167 166 171 175 174 172 170 167 168 172 176 174 173 178 176 169 169 173 174 171 169 167 169 172 172 167 169 173 168 163 167 175 178 176 174 174 171 170 166 162 169 178 184 183 179 182 185 182 179 180 184 183 182 179 177 174 166 164 163 164 170 177 181 176 167 165 168 171 176 178 179 181 183 185 190 191 192 189 184 183 187 190 187 189 196 199 196 193 201 208 208 204 201 200 202 203 204 203 198 193 193 195 196 193 187 185 188 192 195 191 183 181 185 184 177 176 178 177 174 175 178 178 171 160 161 168 171 170 169 172 176 175 174 176 178 175 171 168 167 167 170 172 176 177 174 170 165 165 167 173 177 174 170 171 172 169 165 164 165 167 171 170 168 164 159 158 155 161 173 173 160 156 165 165 155 145 146 151 151 151 155 154 155 166 173 169 161 168 177 179 175 163 157 162 167 170 170 170 174 179 182 178 171 170 174 174 175 176 176 177 180 180 175 167 167 174 178 178 180 186 189 186 184 187 188 181 183 186 183 185 190 194 196 190 172 168 175 179 181 184 186 187 184 178 176 174 170 175 181 180 182 182 179 178 178 183 190 191 191 189 182 178 177 176 174 167 160 162 167 171 -9999 
-9999 211 205 203 204 206 209 207 203 204 204 202 202 203 199 193 190 187 184 178 173 171 168 167 167 170 173 169 158 155 158 163 162 172 193 212 225 231 234 235 233 234 236 238 237 236 235 235 229 224 226 227 227 230 231 227 222 222 221 215 207 203 205 206 199 193 192 186 175 172 175 175 170 162 165 179 185 184 182 183 176 171 170 170 170 167 170 178 181 182 183 184 182 176 170 170 173 176 178 184 190 195 195 190 184 182 186 192 192 184 180 187 192 199 204 202 198 193 183 177 176 171 168 172 179 180 176 172 174 176 173 169 170 172 173 175 175 174 176 180 175 167 169 174 172 169 166 166 171 172 170 167 168 171 170 167 168 173 176 173 172 174 173 172 169 169 175 183 189 187 181 183 183 179 178 180 179 175 175 174 173 172 171 172 169 168 174 177 177 173 166 165 171 177 176 176 179 184 186 188 190 189 189 185 181 182 188 191 188 190 196 193 186 187 194 199 197 194 196 197 200 202 202 203 199 193 193 195 194 192 191 192 196 199 196 187 181 182 185 184 177 174 176 177 174 175 174 170 163 153 156 165 171 172 172 174 176 175 175 176 174 173 170 170 169 171 171 168 173 174 171 171 170 170 173 176 176 172 170 169 165 162 163 164 167 171 172 167 166 163 157 155 155 165 175 169 156 154 158 155 148 147 153 159 156 153 158 158 158 167 170 164 159 168 177 175 170 163 163 168 169 170 170 172 177 183 183 176 171 176 178 174 174 177 174 172 175 176 170 165 170 178 178 176 177 183 186 184 184 189 185 180 184 186 183 181 180 181 181 172 156 163 178 182 183 183 182 181 174 169 173 178 177 177 177 175 181 186 181 177 179 183 183 179 180 180 173 170 169 165 160 157 155 156 160 165 -9999 
-9999 211 206 205 207 208 202 194 195 201 203 202 203 203 199 196 192 189 185 177 173 175 171 167 168 171 170 163 155 155 163 167 162 174 200 219 227 229 231 233 233 233 235 237 238 237 238 242 238 233 233 233 227 222 222 223 219 216 217 215 206 199 201 202 192 187 184 176 169 170 177 181 177 173 177 184 188 189 184 178 174 175 171 165 161 150 151 165 174 183 190 189 180 171 170 177 182 183 184 186 190 192 188 183 180 178 177 181 188 192 196 196 188 187 194 196 194 189 179 175 176 176 178 182 181 179 177 175 176 174 171 173 179 181 178 175 172 173 176 174 167 162 170 175 170 168 166 168 173 172 169 168 169 173 173 168 165 169 173 170 169 173 176 175 172 173 179 184 186 180 176 179 179 178 177 177 175 173 177 178 177 180 180 180 175 169 173 177 175 172 169 169 179 186 183 183 188 191 190 189 187 185 184 180 177 180 188 191 188 188 189 184 180 185 192 198 197 195 197 198 198 202 205 205 198 188 187 188 189 192 196 200 204 204 195 184 182 185 183 178 172 168 172 174 172 172 169 166 160 153 159 166 171 173 173 173 175 175 175 174 173 174 174 173 171 171 169 166 171 171 169 173 175 176 179 181 175 167 166 163 156 156 161 165 170 176 177 170 169 166 159 156 158 165 168 159 151 151 152 152 153 155 156 156 153 155 166 167 169 174 172 164 158 165 172 169 166 167 169 168 166 167 168 171 179 182 177 168 166 174 174 171 173 173 166 164 170 171 168 166 171 179 177 174 175 179 180 178 181 182 175 172 179 177 173 173 170 172 174 168 163 175 185 184 183 181 178 175 168 167 177 183 179 174 172 171 180 185 178 177 180 178 173 171 173 170 163 161 158 151 147 146 147 149 155 160 -9999 
-9999 207 205 208 210 213 212 206 203 201 199 199 199 199 198 196 192 186 178 173 176 177 173 170 171 169 165 160 157 158 166 167 161 178 207 224 229 230 230 230 230 231 232 236 239 238 239 241 238 234 230 226 222 218 216 219 218 213 212 214 211 206 202 194 182 181 180 178 177 180 183 180 174 173 177 179 179 175 170 173 178 181 180 178 175 164 166 172 174 178 182 182 177 174 179 187 187 184 184 184 181 178 174 176 182 182 175 175 187 198 201 196 187 184 186 187 185 181 180 181 177 177 182 184 180 175 174 176 177 175 175 177 181 179 174 169 167 172 173 167 163 169 178 176 168 166 164 167 173 171 169 170 171 174 172 168 169 172 174 170 168 172 175 173 170 173 178 178 176 174 174 175 179 181 177 178 180 183 186 185 181 184 181 180 180 173 174 176 174 172 174 178 185 192 193 192 194 194 189 186 184 180 178 177 175 181 189 191 187 183 182 182 185 192 199 205 207 207 206 203 201 204 207 205 195 183 181 184 188 192 197 202 207 203 188 179 181 184 179 174 172 170 174 176 174 172 170 169 164 162 165 168 173 175 175 173 172 173 173 170 168 171 175 172 168 169 169 170 175 172 170 173 178 180 180 179 169 161 164 161 157 160 165 167 172 179 178 170 169 167 162 161 160 161 158 152 154 158 158 160 161 160 155 151 148 158 172 174 175 177 175 166 157 162 169 166 164 164 158 155 158 161 163 168 178 178 168 158 161 169 166 165 169 166 161 164 168 166 163 163 171 177 175 170 171 174 174 174 176 173 166 168 175 171 170 176 175 177 181 179 179 186 186 183 184 183 179 175 170 173 183 186 179 175 176 175 183 185 176 176 177 171 165 165 169 164 157 152 145 140 139 142 145 147 154 162 -9999 
-9999 200 199 205 210 214 216 215 211 203 197 196 194 191 189 188 185 179 175 178 181 176 168 165 162 158 159 159 160 164 170 165 162 187 215 225 227 228 228 228 229 231 231 232 236 236 237 237 234 231 227 225 227 226 222 220 218 213 206 204 205 207 203 192 187 186 181 178 179 184 182 172 163 161 163 165 162 154 157 173 185 190 195 198 191 181 186 187 184 179 175 174 176 182 188 191 192 192 190 188 186 182 183 187 189 189 184 181 182 187 191 192 192 185 177 174 174 176 180 182 179 179 184 184 183 182 181 180 179 180 180 177 174 171 170 167 166 172 171 167 173 179 180 172 165 164 164 167 172 171 173 176 174 175 171 171 174 174 171 167 167 169 170 169 169 175 180 177 174 177 179 178 185 187 180 182 187 189 188 183 180 183 178 177 180 172 171 176 175 174 180 183 184 191 194 191 189 187 183 181 180 176 177 178 180 188 193 192 186 181 180 183 189 196 202 203 203 203 202 201 202 203 202 199 191 181 182 186 189 191 195 200 204 195 177 174 182 187 182 179 179 177 178 180 177 174 175 174 169 168 167 169 176 181 181 176 172 174 171 166 164 168 168 161 159 164 168 169 170 169 168 172 177 179 174 170 164 161 166 167 164 165 166 163 168 176 175 169 168 167 165 165 162 159 158 160 165 169 166 165 164 161 158 154 154 168 179 177 174 174 173 164 155 161 169 167 164 158 147 150 156 157 161 170 181 177 165 161 164 164 157 159 167 169 167 171 170 165 163 168 176 180 176 169 168 171 172 175 176 174 172 175 178 173 173 178 177 176 179 180 179 182 178 176 183 188 186 180 175 178 184 187 182 182 182 178 186 187 178 176 174 166 158 160 167 163 153 144 139 139 141 144 145 152 165 180 -9999 
-9999 203 202 210 217 216 210 210 214 212 206 199 192 188 188 186 182 179 180 182 176 164 155 154 153 153 155 155 160 169 168 160 165 196 221 227 227 226 225 227 228 229 229 228 228 226 228 227 227 227 227 226 228 231 230 224 218 214 208 204 203 202 196 187 185 186 182 176 177 180 176 170 166 168 169 168 166 163 166 171 174 179 188 190 178 173 184 188 181 174 175 176 180 184 183 183 186 189 192 196 199 199 201 199 193 192 197 198 190 184 188 198 199 190 182 179 180 177 175 177 178 182 184 182 183 184 186 183 183 185 181 178 177 179 181 176 176 180 173 167 172 174 172 166 164 165 167 170 173 175 181 180 174 174 172 172 174 170 167 167 169 173 176 177 179 185 187 181 179 185 187 187 191 188 182 184 188 188 185 179 178 182 178 177 176 167 169 176 175 177 183 184 183 188 188 184 181 180 178 179 179 178 180 183 186 192 194 191 186 183 180 179 185 193 195 191 188 186 184 189 196 197 195 195 191 184 185 189 190 191 194 200 202 188 168 173 186 187 182 180 178 175 175 176 176 177 182 179 170 168 167 170 178 182 181 174 174 176 170 167 169 172 166 158 160 167 169 167 168 166 165 171 177 175 168 166 166 165 168 168 166 166 162 159 168 177 175 172 169 166 166 166 161 154 156 164 169 172 169 163 162 161 162 164 169 181 183 172 167 166 163 157 154 162 171 169 164 156 149 158 162 159 164 177 185 177 165 167 167 163 162 169 179 180 176 174 170 168 171 177 182 181 175 165 164 170 173 178 181 180 177 177 174 169 169 169 166 162 167 173 175 180 179 178 191 200 193 182 175 178 186 190 188 187 182 180 187 183 175 169 164 159 158 166 175 173 158 145 138 139 140 140 148 164 179 188 -9999 
-9999 206 210 217 220 218 214 213 212 211 211 203 197 197 195 189 184 182 181 178 170 160 155 157 158 157 154 151 158 166 164 159 173 206 223 227 227 227 229 233 234 230 229 230 226 228 231 230 227 226 225 224 225 228 228 224 217 213 208 199 193 197 198 192 186 180 174 168 167 170 171 171 174 176 176 177 177 178 178 174 169 168 171 172 173 175 175 175 173 176 181 184 186 185 184 186 186 189 195 199 201 200 199 199 200 197 195 195 191 187 188 191 193 193 189 182 173 169 173 178 179 183 186 182 180 179 180 179 179 176 169 170 175 181 183 179 181 183 177 173 171 168 166 164 165 168 168 167 171 178 180 173 170 171 171 172 170 167 169 171 173 180 183 183 187 190 186 179 182 187 189 189 187 183 179 180 184 186 182 175 178 185 185 182 177 171 175 178 178 184 188 185 184 186 184 183 183 179 179 180 180 181 186 186 189 194 194 191 187 185 181 176 183 188 185 179 179 180 181 188 194 194 194 196 190 182 185 190 191 189 192 200 199 181 169 179 186 181 177 175 171 169 169 170 172 176 182 176 166 165 167 171 176 177 172 168 172 173 166 168 174 173 166 165 169 172 171 171 171 167 166 173 180 176 168 165 165 164 163 162 167 170 169 171 182 186 181 177 171 167 168 164 156 153 161 170 173 174 170 163 160 161 168 174 176 180 177 168 165 164 160 157 157 164 168 162 156 151 153 165 167 166 172 182 184 173 164 167 166 169 176 182 188 184 178 172 170 172 174 175 176 172 164 158 160 169 175 180 181 176 171 170 167 168 169 165 161 163 170 174 175 181 183 185 199 204 187 174 175 182 191 193 188 183 179 184 187 179 172 169 169 168 169 173 179 177 156 140 137 139 145 150 160 173 179 174 -9999 
-9999 211 215 216 213 210 206 200 197 200 199 195 198 201 194 187 187 184 181 180 178 173 165 162 163 163 156 153 158 164 164 164 184 214 224 225 226 228 232 233 232 229 226 228 232 238 241 240 236 231 228 227 228 227 225 224 220 214 211 207 204 204 201 196 193 185 173 164 164 167 169 170 172 175 179 178 175 176 178 181 180 178 175 174 179 183 185 182 182 188 191 188 187 192 199 197 193 196 198 198 198 202 207 209 206 195 185 187 196 199 192 182 179 181 178 172 166 165 169 171 173 180 185 183 182 181 180 181 179 171 163 163 167 169 171 172 176 179 179 178 173 171 170 169 170 171 169 169 177 182 176 171 171 171 171 173 171 172 175 173 173 179 181 180 184 186 180 178 185 186 185 185 182 181 179 180 184 186 182 176 182 190 189 182 175 174 178 180 184 191 189 182 181 183 184 185 183 179 181 183 183 185 186 185 188 194 194 192 189 189 187 184 187 188 184 181 185 189 193 197 197 195 196 196 187 180 185 191 192 187 187 193 188 176 174 180 181 175 174 172 169 170 169 169 170 174 176 170 165 163 166 171 172 168 164 164 170 170 165 172 178 169 162 164 168 171 173 173 171 167 168 176 179 172 164 163 165 165 161 163 172 178 182 185 187 187 182 177 171 167 166 160 154 159 169 172 173 175 169 159 159 163 173 178 173 173 171 168 170 171 169 168 166 164 162 156 151 150 160 169 170 174 180 184 181 174 169 168 169 175 179 180 181 177 170 166 169 172 172 171 170 163 157 155 159 170 176 178 175 169 166 169 171 172 168 161 163 173 174 169 168 173 177 182 193 192 176 173 179 183 187 185 179 175 175 181 183 180 180 181 179 176 173 170 170 161 140 134 143 158 171 173 173 176 178 177 -9999 
-9999 216 215 213 209 200 193 193 198 198 187 184 192 195 193 193 194 188 184 186 188 179 163 156 161 161 154 152 163 171 168 167 188 213 222 225 229 231 232 230 229 228 223 224 231 234 232 232 231 233 235 232 229 226 225 224 221 217 218 222 221 210 195 185 182 180 176 173 170 163 161 167 171 171 172 172 173 175 177 183 187 186 183 180 179 183 193 195 192 194 197 196 195 199 203 198 195 196 198 198 198 200 203 199 191 187 186 191 200 205 199 188 181 178 175 172 165 161 167 170 171 177 182 182 181 180 180 181 182 179 174 175 178 177 177 176 176 176 175 171 170 175 180 181 181 178 175 178 185 185 177 175 176 173 173 175 174 178 178 171 170 176 180 179 181 183 182 183 188 185 181 182 182 183 184 183 182 183 182 179 184 191 188 176 168 171 176 182 188 191 185 178 177 181 185 185 182 181 185 185 186 183 179 181 187 191 192 191 189 192 192 183 183 183 181 185 191 196 200 201 198 196 197 196 190 185 189 195 193 183 180 185 183 179 177 176 174 171 170 170 172 173 169 167 169 174 174 170 166 162 167 170 169 166 168 172 177 175 169 174 175 165 165 170 171 173 176 175 172 170 173 180 180 171 164 168 173 171 165 166 174 181 185 186 184 179 173 170 167 164 162 158 157 164 171 171 173 178 171 162 162 165 173 173 167 168 169 170 172 172 173 173 170 164 159 157 158 161 169 173 173 177 180 180 178 174 167 164 168 171 170 168 168 166 162 163 166 167 166 165 165 162 158 157 164 174 178 177 170 164 164 171 173 165 156 153 162 173 171 165 167 176 180 181 184 182 178 178 173 169 170 171 171 171 173 180 186 187 187 182 171 166 166 164 157 143 134 143 163 180 185 179 174 177 182 187 -9999 
-9999 214 213 212 206 201 201 204 204 197 189 192 198 198 196 197 196 190 188 191 187 171 153 148 149 146 145 150 166 174 171 173 192 212 219 225 230 234 234 233 232 230 228 225 226 226 224 223 225 228 233 229 223 222 222 219 213 213 214 211 205 196 185 177 173 174 176 178 176 169 169 175 177 176 175 176 181 184 185 188 190 188 186 181 177 181 190 195 195 194 198 206 208 200 196 197 198 197 198 199 199 196 190 186 192 203 205 199 196 199 200 195 186 180 177 173 166 172 181 179 176 179 178 177 176 176 177 181 183 182 182 185 187 186 186 181 175 172 170 167 169 177 183 187 186 182 179 182 186 184 178 175 176 174 175 176 174 176 174 169 170 178 183 182 184 187 188 188 190 185 179 181 183 185 184 179 178 182 184 183 184 187 183 169 165 172 179 186 190 186 182 179 176 181 188 191 189 188 189 185 179 174 174 183 187 189 194 193 188 191 186 174 177 177 175 184 193 199 201 200 198 198 198 197 192 189 193 195 186 172 170 180 186 185 180 174 172 173 175 177 177 174 169 165 169 175 172 167 165 164 168 170 170 170 175 181 185 181 173 172 170 168 174 175 173 175 176 175 174 174 177 180 179 174 170 177 179 174 168 168 175 181 183 187 184 168 161 164 166 163 161 161 163 169 175 176 176 180 176 168 168 169 171 171 169 170 170 168 168 169 171 171 168 162 160 164 168 170 174 175 172 171 173 173 172 167 159 157 162 167 167 164 164 163 163 163 163 162 160 159 160 160 158 160 170 179 179 174 164 157 161 169 165 151 147 153 166 174 172 170 177 187 187 182 181 179 175 165 153 152 158 165 171 172 176 188 195 188 177 163 150 150 156 157 146 138 150 172 186 187 179 170 167 172 176 178 -9999 
-9999 212 213 211 203 201 203 204 201 194 192 200 205 200 194 190 187 187 189 188 176 156 143 139 140 143 149 155 167 173 173 181 201 217 223 225 229 234 235 233 230 230 230 228 226 228 228 228 228 224 223 224 222 220 217 212 209 207 201 193 188 185 181 177 175 173 171 174 181 185 183 178 177 182 184 184 188 188 189 190 189 189 193 192 188 188 192 197 198 196 198 205 207 201 195 197 202 203 204 206 207 202 194 195 203 209 210 207 199 197 197 194 190 185 182 179 180 186 184 178 176 178 175 171 173 178 182 182 180 180 182 184 185 182 181 176 172 170 170 171 176 182 183 185 183 178 177 182 187 186 179 174 176 176 174 175 175 176 175 172 175 183 188 190 193 192 192 193 192 185 180 182 184 184 181 177 180 186 190 187 183 183 177 166 167 175 182 186 185 182 181 178 177 183 192 196 192 188 186 180 174 175 180 187 189 193 197 192 184 183 176 171 178 176 174 186 197 200 196 194 196 197 197 195 192 192 194 190 177 164 166 182 192 188 178 171 171 176 181 181 178 175 169 164 170 176 171 167 167 167 168 170 171 173 177 182 184 180 173 168 168 170 173 171 172 176 175 175 176 177 178 177 175 171 170 178 180 175 172 172 178 180 180 188 186 164 158 169 169 166 167 168 170 173 174 175 174 174 173 167 169 173 175 176 175 175 171 166 167 170 171 167 163 162 168 177 178 178 180 177 168 164 166 168 167 164 159 158 164 171 172 167 168 170 166 160 159 159 158 158 160 159 159 164 174 177 173 166 156 155 164 170 161 149 150 161 174 178 177 177 182 187 185 177 174 170 162 149 140 143 153 164 174 178 181 191 193 177 159 144 135 139 148 148 139 148 177 195 194 179 167 162 159 162 161 159 -9999 
-9999 208 209 207 204 203 204 204 202 196 193 197 199 195 191 186 184 186 187 182 167 152 145 142 147 154 159 162 170 176 180 190 207 219 225 227 228 232 236 234 232 229 229 228 227 229 231 232 230 224 222 223 223 219 214 210 210 206 196 189 186 182 177 174 170 167 167 170 176 180 178 174 173 174 175 180 187 186 186 189 188 188 194 198 199 194 191 194 197 198 197 197 199 202 203 203 207 210 209 208 207 203 202 203 202 200 204 204 196 188 182 178 181 184 182 177 176 177 177 174 174 178 179 178 179 184 186 180 177 184 185 183 185 186 185 181 176 175 178 182 186 188 186 183 180 175 176 182 187 185 176 174 180 181 178 177 178 181 183 180 181 186 191 197 198 193 192 196 192 184 181 182 184 184 181 179 182 186 190 186 182 182 174 165 168 176 180 182 182 182 182 178 179 186 191 191 185 181 180 177 177 183 186 189 193 197 197 189 180 178 175 175 180 176 175 187 198 198 192 190 194 198 199 195 192 190 188 182 173 166 173 189 193 180 169 167 170 177 181 181 178 174 164 160 167 170 168 167 167 168 168 168 170 172 174 178 179 177 171 167 169 170 170 172 177 179 175 176 178 179 178 175 174 173 174 180 180 177 176 177 177 175 179 188 186 164 158 171 171 171 174 175 174 172 170 173 173 171 173 170 170 174 177 178 177 176 172 168 171 175 172 165 163 170 181 185 180 182 187 180 166 163 168 169 168 168 166 167 172 176 170 166 170 171 165 161 160 159 158 157 160 159 159 167 173 171 165 159 154 157 165 169 166 160 160 173 185 185 182 181 181 179 173 166 165 165 155 144 137 139 147 160 172 177 176 182 182 168 150 138 134 137 146 151 151 169 191 192 176 156 150 151 148 149 147 149 -9999 
-9999 207 205 203 203 205 205 201 197 193 190 191 193 193 191 188 188 188 184 176 166 159 155 151 153 156 159 166 175 181 190 199 209 217 223 227 228 231 237 239 236 231 229 231 233 233 235 235 231 227 226 224 219 213 209 207 206 201 195 191 186 181 174 168 163 165 168 171 174 175 177 178 179 179 180 183 187 191 196 196 189 184 184 188 195 201 200 195 193 197 200 197 200 211 217 214 211 208 205 201 198 202 211 211 203 200 203 203 196 181 164 158 164 172 174 174 169 167 169 167 171 177 180 181 184 186 187 185 188 192 184 178 185 189 188 184 181 182 186 189 190 190 187 184 181 178 180 184 188 184 175 176 182 184 182 181 182 186 186 183 183 187 193 198 195 189 191 194 191 183 180 183 185 184 182 181 183 187 191 188 186 185 173 164 170 178 180 183 185 186 186 182 185 189 187 183 180 180 180 178 181 188 187 189 195 195 193 188 181 180 182 183 180 174 175 185 193 193 189 188 195 202 202 195 187 180 176 174 170 169 181 191 186 173 168 169 174 182 183 181 177 169 159 161 167 169 171 167 165 168 168 167 168 169 171 176 178 176 172 171 173 174 177 182 186 181 176 177 180 178 174 170 171 175 179 182 184 182 180 177 173 174 182 188 182 162 156 167 170 173 176 176 173 171 172 176 178 178 179 174 171 175 178 179 177 176 173 170 173 179 175 169 173 182 188 185 178 183 186 174 164 170 179 178 174 172 169 169 172 172 164 165 171 168 163 161 160 161 160 158 161 158 159 169 172 168 163 158 156 159 163 168 174 172 170 182 190 187 183 181 177 171 163 163 170 166 153 143 137 135 141 155 165 165 165 175 182 168 145 130 130 139 152 165 173 179 183 172 150 136 138 144 143 143 149 159 -9999 
-9999 211 209 204 202 206 206 202 197 193 192 193 193 190 189 187 186 187 183 175 168 163 156 152 154 156 162 174 181 186 191 198 212 224 225 223 224 228 234 239 239 236 233 235 238 238 235 232 229 228 228 224 215 206 200 197 192 185 183 180 177 174 169 167 166 168 171 173 175 179 182 186 189 192 195 196 196 198 201 199 194 192 192 192 197 202 199 195 197 202 204 201 201 206 211 215 212 207 205 201 199 202 207 208 205 203 202 202 196 181 169 170 173 172 169 166 161 160 161 161 166 171 172 173 179 186 185 184 189 192 182 181 188 188 184 183 184 185 187 189 188 186 186 189 189 186 185 186 187 181 174 178 184 185 183 182 184 187 185 183 184 188 193 196 192 189 191 192 189 183 182 185 187 186 182 180 185 191 194 190 188 185 172 165 176 186 186 189 190 188 189 188 189 188 181 179 182 184 183 180 186 191 188 191 195 190 187 185 182 183 186 182 176 171 173 180 184 185 182 185 195 201 197 188 181 177 175 174 173 176 185 188 182 177 175 177 182 187 185 179 171 162 159 168 175 178 175 165 166 171 170 167 169 173 178 182 180 177 178 179 179 181 186 191 189 180 174 176 177 176 172 168 171 178 182 186 189 185 177 172 167 172 182 184 178 164 159 166 171 175 178 177 173 173 177 180 183 184 181 176 174 178 182 181 178 178 176 172 176 184 178 174 181 185 184 180 177 180 179 169 167 178 183 178 174 170 164 160 162 163 162 169 171 166 165 163 162 165 164 161 161 159 165 173 173 168 164 162 163 165 167 174 180 177 169 175 184 183 183 181 176 169 165 175 180 164 148 141 139 139 148 160 164 165 169 178 179 158 129 120 134 153 171 183 185 177 170 161 149 142 147 151 150 153 166 179 -9999 
-9999 210 208 204 202 205 205 201 199 199 198 197 193 188 188 189 189 186 182 179 174 167 158 157 160 161 165 176 184 188 187 193 214 229 231 228 227 227 229 231 233 230 224 225 233 235 231 228 227 224 222 219 214 208 200 192 179 170 169 168 168 165 163 167 171 171 169 172 179 186 189 194 198 200 202 204 206 202 197 197 200 207 210 208 206 205 203 206 208 205 202 200 195 187 187 195 201 203 205 208 208 202 198 206 215 214 204 194 188 185 189 194 190 178 165 158 157 161 164 166 166 166 165 169 180 187 184 182 187 188 183 187 194 190 185 185 187 187 187 188 187 187 192 195 192 189 187 186 185 177 174 181 185 184 183 182 184 186 185 184 186 189 194 195 192 191 192 192 187 183 183 186 188 188 183 182 188 193 192 187 185 183 173 170 182 190 190 191 189 187 191 190 187 180 175 180 187 188 186 185 192 195 191 193 191 184 182 182 183 185 184 177 169 166 167 171 176 177 176 182 193 194 187 179 178 179 179 179 181 185 190 188 183 179 176 178 183 184 181 175 168 166 170 176 179 178 170 164 171 177 171 168 173 180 187 186 181 180 183 183 180 183 187 189 184 174 173 175 174 173 171 172 179 184 184 186 187 178 169 168 168 173 180 180 174 166 163 169 177 184 187 183 175 175 180 182 184 185 182 177 175 179 183 182 180 182 181 177 181 187 180 176 181 180 177 177 177 175 174 172 175 181 180 175 170 164 159 158 161 164 167 171 170 167 167 164 162 165 163 160 161 165 173 174 172 169 168 170 172 172 173 176 179 173 160 165 179 183 186 185 177 165 167 177 165 142 135 140 149 157 169 176 179 184 188 187 174 147 126 133 161 184 198 201 191 174 163 162 162 157 156 158 162 172 184 195 -9999 
-9999 202 201 199 200 202 200 193 191 192 191 192 194 194 194 194 190 188 187 185 179 170 164 165 164 158 159 172 185 189 190 200 219 227 235 237 235 232 232 230 228 230 230 227 227 230 229 228 225 219 214 212 214 214 210 198 181 172 168 167 169 166 163 164 164 162 165 177 188 195 198 200 202 203 205 207 208 203 202 204 208 215 216 211 208 210 215 218 212 205 202 199 193 187 188 187 187 193 202 209 209 202 193 196 207 205 193 184 182 181 182 185 185 176 167 166 168 170 171 171 172 172 170 175 184 185 183 186 189 186 181 185 187 186 187 191 191 189 189 190 191 191 193 190 187 187 183 183 184 177 178 184 184 181 180 181 185 186 186 186 188 192 197 199 196 193 193 191 186 183 182 185 188 186 184 184 188 191 187 184 183 181 175 175 183 187 189 190 187 187 190 186 179 172 172 181 186 186 186 189 194 193 190 190 184 179 182 184 187 185 180 172 170 169 166 170 179 181 180 185 188 182 175 172 175 179 178 180 185 192 195 192 188 183 178 177 176 175 175 174 173 175 175 176 177 175 169 167 176 179 171 170 177 185 188 181 177 181 182 180 177 179 180 178 172 168 174 177 174 171 173 180 187 184 180 180 178 173 173 176 177 179 180 176 171 168 172 180 185 189 190 180 172 176 183 185 185 185 183 177 172 176 183 182 181 184 182 178 179 181 177 175 177 174 172 176 180 178 176 178 180 181 179 175 170 165 163 167 170 174 176 173 167 164 163 161 162 167 167 164 164 171 173 171 170 170 172 176 178 178 173 172 172 166 159 170 182 184 192 193 174 155 163 163 137 123 130 149 167 176 183 183 193 205 203 192 175 158 151 167 192 206 213 205 185 167 159 163 167 160 148 150 167 185 195 201 -9999 
-9999 199 199 199 201 203 200 193 190 189 187 191 196 196 194 189 182 185 188 186 181 172 167 165 157 151 157 176 189 190 198 218 233 231 235 239 236 233 237 240 240 244 245 242 238 235 231 227 222 217 212 208 210 212 205 187 174 176 176 173 174 169 163 162 161 164 177 191 199 202 204 207 209 209 212 218 221 222 224 224 222 223 224 225 225 221 219 218 217 217 213 203 197 197 193 187 186 192 200 206 208 205 197 186 178 173 176 181 182 181 181 179 173 169 171 175 177 176 174 174 179 184 182 182 183 183 183 185 185 183 182 184 184 185 191 195 194 191 190 191 191 190 187 182 183 182 179 183 185 177 178 183 182 180 180 184 187 187 187 188 190 195 199 199 195 191 191 190 185 181 181 185 187 186 185 183 185 188 188 187 185 181 178 181 185 185 187 187 184 187 185 179 177 173 174 183 186 187 189 193 195 192 189 186 181 182 184 187 192 188 178 173 175 172 166 173 186 190 186 184 179 172 168 168 173 178 178 182 191 197 196 195 194 188 183 179 176 174 173 175 177 173 168 171 176 178 175 172 176 176 167 170 180 187 187 177 177 182 179 175 173 174 176 175 172 173 177 175 171 171 178 185 186 177 172 178 179 181 183 182 182 179 176 171 168 173 182 185 184 182 179 171 168 176 184 186 186 185 182 176 171 175 182 182 181 183 179 174 174 173 173 175 175 172 172 179 186 181 175 177 181 181 179 176 172 170 174 179 183 186 183 172 165 162 163 166 169 172 171 168 170 174 172 169 167 169 173 175 178 176 168 165 166 165 168 177 181 185 195 190 160 148 157 144 121 127 149 171 181 186 188 187 200 211 202 188 178 174 177 193 207 211 212 197 170 156 154 158 157 142 130 144 176 196 201 203 -9999 
-9999 203 199 197 200 201 202 200 198 196 194 196 198 195 189 184 183 187 187 181 177 169 163 158 150 149 159 178 189 195 212 233 240 237 234 235 234 229 232 238 241 241 241 240 237 233 225 218 216 214 207 201 199 194 180 166 164 169 170 170 170 166 164 170 176 187 199 204 204 207 213 219 220 218 218 225 233 237 238 238 236 236 236 237 237 232 225 222 223 223 219 211 207 203 195 192 195 192 184 189 198 204 205 194 174 169 179 183 179 178 183 180 168 165 165 162 161 168 176 177 175 171 171 178 183 185 184 181 182 185 186 188 191 194 195 194 191 188 188 191 192 190 186 184 185 183 182 185 184 177 181 187 185 183 184 189 191 190 191 191 192 197 198 194 190 188 190 190 186 183 185 187 189 190 187 186 186 186 189 187 183 181 180 181 182 181 182 183 183 186 178 173 179 176 180 187 187 189 193 194 196 191 186 186 186 187 186 189 194 189 177 178 183 175 166 172 186 192 185 178 175 179 178 172 172 177 182 188 195 195 190 190 191 187 184 181 177 175 173 175 171 161 158 166 175 180 177 169 171 175 174 182 191 191 186 174 175 181 174 171 172 176 180 180 177 176 174 173 174 178 184 185 183 176 177 185 185 183 180 177 176 173 171 170 173 182 187 185 180 179 178 173 172 177 184 186 187 187 183 178 173 174 181 183 183 181 175 172 171 170 171 177 180 179 180 186 190 182 171 176 182 182 180 177 174 173 178 184 188 188 180 167 161 164 172 176 174 173 170 169 172 176 176 173 172 174 174 173 173 167 160 161 165 171 179 183 186 195 201 184 156 152 148 125 121 143 170 185 189 190 190 189 198 202 193 186 185 188 196 206 209 206 204 189 159 147 147 148 144 134 137 163 193 208 210 211 -9999 
-9999 202 195 192 194 194 197 198 197 197 199 202 200 194 188 187 189 191 186 178 173 164 159 153 146 148 160 178 189 204 224 235 237 234 230 229 228 224 222 227 233 236 232 226 222 220 214 210 208 205 197 194 187 174 163 160 163 164 160 161 166 163 168 180 188 198 207 211 210 210 214 218 220 222 225 227 231 234 236 239 240 240 239 236 235 235 234 231 228 222 217 213 210 207 203 201 197 191 184 182 187 194 200 198 187 181 182 181 176 174 173 172 173 172 167 166 173 181 183 179 176 176 181 187 188 185 181 181 186 189 190 192 196 198 197 196 194 191 193 195 194 191 188 189 191 190 188 186 183 184 191 194 190 186 187 191 192 190 192 195 197 199 198 194 192 191 193 193 187 186 191 192 193 190 187 187 185 183 184 181 179 179 178 178 178 178 178 179 181 180 166 168 179 178 183 185 184 191 197 197 197 189 185 189 188 186 185 189 194 185 177 185 188 177 167 167 180 190 182 169 171 182 184 176 178 184 185 187 189 186 179 177 180 186 190 186 177 175 175 174 163 151 153 162 171 173 163 154 162 174 180 191 195 189 179 168 173 177 169 169 173 178 181 179 174 171 173 179 183 186 187 185 186 186 186 188 187 184 181 177 172 169 172 176 181 187 189 186 183 183 183 180 178 182 184 185 186 187 183 176 170 170 179 185 183 177 173 172 171 171 173 185 193 188 184 186 190 184 175 180 186 185 182 179 177 177 181 185 186 181 173 166 166 173 181 181 176 173 170 169 172 177 176 175 177 179 179 176 174 167 162 166 173 182 190 192 196 205 207 190 167 157 137 120 137 161 180 190 193 192 190 190 194 194 193 193 193 197 200 204 203 195 192 178 149 138 140 141 145 148 161 186 206 214 216 217 -9999 
-9999 192 188 189 193 195 197 194 190 191 195 198 193 186 183 185 188 187 183 182 176 167 159 149 146 153 167 183 198 215 227 232 232 230 226 227 229 227 226 228 231 232 227 222 218 217 217 215 210 201 195 194 184 168 158 157 163 166 163 165 170 167 173 184 192 199 205 211 214 217 219 219 221 229 235 236 235 236 236 238 240 240 239 237 235 232 233 234 232 225 218 214 211 209 206 202 191 192 200 196 189 186 187 192 195 191 183 181 183 185 180 177 182 185 187 195 201 196 188 187 193 198 198 193 186 180 178 182 186 189 188 188 194 198 199 200 200 199 197 195 193 189 189 191 193 192 189 188 189 192 195 193 190 188 190 192 191 190 193 198 200 200 200 197 196 196 197 195 187 187 191 190 186 183 184 184 180 177 179 178 180 181 178 179 179 179 180 180 180 176 166 173 183 183 185 182 186 198 201 200 197 189 187 187 182 179 183 188 188 180 179 188 184 170 158 157 176 188 175 160 166 177 178 174 180 185 182 182 183 181 177 176 184 194 196 189 178 172 176 179 171 161 159 164 168 162 148 147 162 171 174 183 186 177 165 160 169 169 162 164 168 173 177 176 172 173 178 183 186 188 186 184 190 192 187 184 188 192 188 182 176 175 179 182 184 187 188 187 185 185 185 182 182 182 180 180 184 186 178 167 163 167 178 186 181 174 172 172 173 174 179 193 199 191 182 180 185 179 171 180 190 189 185 182 182 183 185 187 184 179 173 170 174 182 186 183 177 174 171 168 174 177 175 177 179 183 186 185 182 176 174 178 182 188 194 193 195 201 203 192 171 153 127 119 147 173 189 199 201 197 195 195 196 197 202 204 203 200 195 196 193 179 171 156 136 132 136 142 153 160 175 200 215 218 218 220 -9999 
-9999 183 185 190 193 196 198 195 192 191 191 189 185 185 184 187 188 186 186 185 177 168 158 147 148 157 167 183 203 219 227 232 234 233 231 228 230 231 230 230 229 225 222 222 218 214 213 212 206 196 189 182 171 159 150 152 160 167 171 175 176 179 189 196 201 206 209 212 215 221 226 231 235 237 241 243 244 245 243 241 240 239 238 238 236 233 232 233 230 226 223 220 216 212 209 208 204 202 203 201 195 190 188 189 192 195 192 187 186 186 184 182 182 183 182 185 189 190 188 192 197 195 189 184 181 179 181 183 186 188 187 188 194 197 197 198 198 197 195 196 197 194 195 196 196 191 187 189 192 193 193 192 189 190 194 195 193 193 197 200 200 200 199 196 196 197 195 190 183 183 185 183 179 180 184 183 179 178 179 179 184 185 181 180 179 178 183 186 186 182 173 178 186 186 185 185 192 199 198 197 194 186 184 182 179 180 186 186 183 177 179 184 173 157 147 154 177 183 169 161 169 178 179 175 180 181 179 181 182 181 182 186 193 193 187 181 171 164 173 187 187 178 175 175 172 160 150 157 170 170 166 170 165 152 144 145 156 158 156 160 162 166 171 171 169 171 176 177 181 184 178 179 187 188 181 180 187 191 186 181 181 183 186 186 188 190 190 188 186 185 184 181 179 177 174 176 183 184 174 164 163 168 177 184 181 173 172 175 177 178 182 191 196 190 182 179 180 171 167 184 196 193 187 183 184 185 186 187 185 181 177 174 179 185 185 183 179 175 172 169 175 178 179 184 185 188 191 189 184 181 181 183 184 189 192 190 192 197 199 189 168 144 116 116 154 186 203 211 209 203 200 200 200 202 206 209 204 193 183 183 175 154 142 135 130 132 138 146 156 168 190 213 221 222 221 224 -9999 
-9999 184 190 192 192 192 193 193 193 195 197 194 190 192 192 191 187 184 184 180 171 163 152 144 149 156 165 183 206 220 228 231 232 232 232 229 228 227 228 228 228 224 219 216 211 205 197 193 191 188 182 172 162 152 144 150 160 168 175 179 180 187 200 206 206 210 217 220 220 222 226 233 241 242 243 245 246 248 247 244 241 240 239 240 242 240 239 237 233 231 228 225 223 223 223 222 220 215 212 212 213 212 207 197 191 192 194 192 188 184 183 181 173 167 167 173 178 182 184 186 186 183 182 184 183 181 182 186 192 192 193 199 204 202 197 195 195 195 195 198 200 201 201 201 199 193 191 196 197 194 193 190 187 191 197 199 197 199 203 203 202 200 197 195 194 193 189 185 182 183 185 184 183 185 188 186 184 185 185 184 188 189 183 183 182 182 189 193 188 181 171 174 184 187 186 190 197 198 194 194 190 182 180 181 182 184 187 183 180 180 180 174 158 149 152 165 181 180 169 167 170 176 179 180 185 186 185 185 183 181 184 189 192 186 177 170 162 158 169 186 189 184 184 186 179 165 161 170 178 173 166 166 156 145 144 147 158 164 166 169 167 167 166 162 158 161 167 168 173 174 169 173 181 180 175 178 185 188 184 182 184 185 185 187 190 190 189 188 187 185 182 177 173 172 173 179 186 184 172 164 165 169 174 181 181 174 176 182 181 178 178 187 194 192 186 180 177 171 177 197 203 196 185 181 182 185 187 189 189 186 182 179 183 185 183 183 180 175 172 171 177 181 186 190 188 189 190 186 183 182 182 182 185 191 189 189 195 199 196 182 160 131 103 118 170 205 218 219 212 205 205 206 206 203 202 199 185 163 155 157 148 130 125 129 133 137 143 152 165 184 206 221 225 224 222 223 -9999 
-9999 194 195 191 191 195 198 196 195 197 199 198 192 191 192 189 184 181 180 172 164 158 148 144 148 156 170 192 213 223 228 231 229 229 231 233 232 228 226 224 221 219 218 214 207 197 190 186 187 187 182 172 162 154 151 162 168 169 174 179 186 192 198 205 211 216 220 225 227 226 227 231 238 243 244 241 240 244 245 243 241 240 239 241 241 240 238 235 232 231 229 228 231 235 238 237 234 229 224 220 219 217 212 204 196 191 188 185 184 185 187 182 173 171 176 181 179 177 179 178 173 171 177 184 185 183 182 187 193 195 199 204 208 205 199 196 195 194 194 195 198 201 201 199 196 194 196 201 199 194 190 187 187 193 199 201 201 203 205 203 202 201 197 194 193 192 191 188 187 188 187 186 187 189 191 189 188 190 189 185 187 186 183 186 185 184 190 192 184 175 172 176 185 187 188 195 199 195 191 191 189 184 182 182 182 181 182 181 181 185 182 165 152 158 168 174 180 178 171 166 165 172 178 183 189 191 191 191 187 184 186 190 191 186 178 170 162 158 168 183 189 186 185 184 175 168 173 181 183 179 175 177 175 171 171 167 172 179 183 183 182 181 175 167 161 164 170 171 172 170 167 172 176 174 173 180 187 186 184 184 184 183 183 187 189 188 186 184 183 181 178 174 168 171 179 185 189 184 171 166 169 171 175 183 184 179 183 186 181 176 176 187 195 195 189 180 175 176 187 202 205 195 184 181 183 187 190 192 192 188 182 181 184 185 183 182 178 173 171 174 179 185 190 189 184 184 184 183 180 181 182 183 189 192 187 190 197 195 187 172 151 126 106 133 195 225 226 217 208 207 211 212 206 198 191 180 155 131 131 137 133 128 132 141 147 153 161 171 185 202 215 224 227 224 221 222 -9999 
-9999 197 197 195 197 200 201 196 195 196 197 196 189 187 186 181 175 172 170 164 159 156 149 143 146 160 182 202 218 223 227 231 232 232 233 234 232 228 224 218 212 214 216 212 204 198 194 190 184 177 170 164 160 157 161 173 175 171 173 182 195 203 206 212 219 222 223 226 229 230 230 231 236 242 244 239 236 235 233 234 235 235 234 232 230 229 227 223 224 226 228 230 233 236 239 240 240 236 227 216 207 203 200 200 198 194 190 185 183 183 185 184 182 180 180 182 181 177 177 178 175 173 173 176 180 182 187 188 186 189 195 199 200 197 195 194 195 195 195 196 198 198 195 193 192 192 194 197 194 189 187 187 190 197 202 203 203 203 201 200 202 200 196 194 194 194 193 190 190 189 186 185 188 191 192 189 190 191 189 182 180 183 184 186 184 182 185 186 178 172 175 179 183 185 190 197 197 193 189 192 193 189 185 182 180 178 181 182 181 185 179 161 157 172 176 171 171 173 168 158 158 171 181 187 192 193 191 188 186 185 186 188 187 181 177 173 166 164 176 190 194 189 183 173 166 169 179 186 189 186 182 184 188 189 188 181 180 187 193 193 191 189 182 176 175 179 182 183 183 179 174 176 177 175 175 181 183 178 179 183 180 180 183 185 186 184 181 177 176 176 176 173 167 173 185 189 188 181 170 169 175 177 181 186 187 184 186 184 180 176 177 189 196 196 190 180 175 180 191 202 201 192 186 184 185 190 193 192 188 181 177 180 184 184 183 182 178 173 173 178 184 187 190 189 183 180 180 180 179 180 181 185 189 185 181 189 194 189 182 173 158 146 140 163 215 232 222 207 206 211 215 213 201 186 176 161 137 127 137 145 146 147 152 162 170 176 184 192 201 212 221 228 229 225 223 224 -9999 
-9999 193 197 201 204 204 201 197 197 197 197 193 187 185 176 164 158 156 152 146 147 149 140 132 146 175 199 216 228 229 229 235 237 234 231 230 227 223 219 214 214 214 211 206 198 195 194 189 180 173 168 165 169 167 168 177 181 182 187 194 205 214 221 223 223 224 227 229 230 234 236 232 230 236 238 239 234 227 224 225 225 225 224 221 216 212 213 215 218 222 227 229 230 230 230 230 231 231 225 215 203 197 197 196 193 191 191 191 186 179 177 180 184 185 185 183 179 176 177 182 186 186 185 183 182 182 185 179 175 184 191 194 194 194 196 200 204 203 200 200 200 196 191 188 188 189 190 190 187 185 188 192 197 203 205 204 203 201 199 201 202 199 195 196 197 194 193 191 190 187 185 187 190 195 192 187 188 188 187 178 176 186 188 185 183 182 182 180 176 175 176 180 183 184 192 196 194 190 186 190 192 188 182 178 178 177 180 183 179 179 173 162 165 175 175 170 168 172 166 151 156 173 182 186 187 185 180 174 170 171 175 178 177 170 168 169 168 173 186 193 189 182 176 165 164 173 178 183 187 187 185 185 186 185 186 181 178 187 194 195 191 185 176 173 179 187 188 188 191 189 185 186 186 183 182 181 175 170 177 180 177 179 181 180 179 176 172 171 172 175 176 172 166 175 187 188 184 176 167 169 178 183 181 181 185 186 186 184 181 177 177 189 196 195 188 179 176 183 196 203 198 190 188 185 185 189 192 188 181 173 174 183 185 183 182 181 178 175 176 184 191 193 194 193 186 182 183 185 185 183 185 188 186 180 185 195 192 186 185 182 175 178 176 180 215 227 210 200 207 212 213 208 188 168 159 147 137 145 164 170 169 167 169 180 188 193 199 206 213 219 226 229 228 226 226 227 -9999 
-9999 190 193 196 197 196 197 198 199 197 192 184 184 184 171 159 155 150 135 127 139 147 140 144 173 202 219 232 242 243 239 238 235 230 226 225 224 221 216 214 213 208 204 198 189 185 183 178 172 171 169 167 172 168 165 173 182 193 202 208 214 221 227 224 221 226 229 230 234 235 236 235 229 230 232 235 230 223 222 221 221 223 223 220 213 210 213 216 217 218 219 220 222 222 215 210 216 219 214 208 202 198 194 187 186 189 189 186 183 181 181 187 192 193 194 192 188 184 181 187 195 199 199 197 193 189 184 175 181 188 188 191 194 198 203 209 211 208 201 197 196 193 192 190 188 188 190 189 189 191 195 199 203 205 202 200 200 199 201 204 204 201 201 202 199 196 195 195 190 188 189 190 193 195 191 184 183 184 182 175 178 189 188 184 184 182 179 176 176 180 181 183 184 185 192 194 191 186 183 184 187 185 180 177 178 176 174 177 177 173 168 167 169 170 171 169 169 171 164 152 159 173 179 182 181 178 173 166 158 162 172 180 181 173 168 169 173 182 187 182 172 165 162 161 169 176 172 171 175 178 180 179 175 174 177 174 174 182 190 192 186 177 167 167 181 192 191 189 192 191 188 188 190 190 186 183 177 173 176 175 175 178 175 173 174 172 171 173 175 177 176 172 170 178 187 186 180 173 168 171 181 181 173 174 182 187 189 188 180 174 177 186 193 192 184 176 176 185 199 206 198 187 187 186 184 185 188 186 182 178 180 187 186 183 184 184 181 180 185 194 198 198 194 191 186 183 187 190 191 190 191 190 186 188 198 201 192 186 187 185 183 189 187 180 202 215 205 202 207 209 207 192 164 145 141 141 148 166 181 179 179 182 187 196 198 200 208 218 222 221 223 225 225 227 228 227 -9999 
-9999 191 192 193 192 191 192 194 194 192 187 182 182 177 169 167 161 146 129 137 155 161 159 172 198 217 227 237 243 243 238 232 224 224 225 227 226 221 214 209 205 200 194 184 176 176 175 169 163 162 162 164 167 159 156 169 180 190 200 213 222 226 226 222 225 229 232 234 236 235 235 234 231 230 230 228 223 221 219 217 219 222 219 215 212 212 212 212 213 213 210 211 214 211 207 211 212 205 202 203 202 196 186 181 188 193 190 185 188 190 191 194 195 197 199 194 188 186 189 195 198 196 192 192 191 193 189 187 195 194 188 190 192 195 199 202 202 198 193 194 197 198 199 195 192 193 194 195 197 200 202 204 204 200 197 197 199 201 206 208 205 203 203 202 199 196 197 197 192 191 192 191 193 192 187 181 182 183 179 175 181 188 185 181 181 180 180 178 177 183 184 179 181 185 189 192 190 186 186 185 188 189 182 178 179 172 168 175 178 168 163 167 165 164 168 169 168 166 159 153 162 171 176 181 184 183 183 177 174 183 190 188 183 176 173 179 188 190 181 169 162 156 157 161 168 170 163 167 176 177 173 166 163 167 171 169 171 174 175 177 177 169 160 166 184 192 188 183 186 183 177 179 185 187 184 183 183 178 175 177 181 180 175 175 177 177 182 184 182 179 177 175 177 184 188 186 179 172 172 176 180 178 173 179 187 190 190 188 178 173 180 187 190 189 182 175 175 185 199 205 191 179 182 185 184 185 189 190 189 188 188 192 190 186 188 187 184 186 194 196 195 192 187 186 187 188 195 197 196 194 191 188 188 194 199 192 183 182 184 182 178 177 173 171 191 206 205 203 204 206 198 171 140 127 131 146 164 180 184 177 186 200 207 209 209 215 222 227 223 216 218 223 223 227 229 226 -9999 
-9999 186 191 191 190 188 187 185 183 181 177 175 170 161 161 163 155 142 141 166 181 178 177 192 214 227 234 239 238 233 226 225 230 233 229 225 222 217 210 205 201 195 184 173 171 173 170 164 156 152 152 154 160 159 165 182 189 193 203 215 221 217 212 222 232 232 231 233 234 236 235 233 229 225 222 217 216 217 214 210 206 204 202 198 193 194 198 201 203 203 199 196 196 197 204 208 204 199 200 199 195 191 187 189 194 193 190 192 196 196 200 202 199 198 201 198 193 195 199 196 185 178 180 181 179 179 179 186 196 199 197 195 195 195 195 193 191 188 191 201 205 203 202 198 196 199 200 201 203 204 205 206 204 201 199 202 204 208 211 210 205 201 199 198 196 195 196 195 191 190 190 191 191 189 184 179 179 181 179 180 185 187 182 176 176 178 183 184 179 182 180 174 180 184 187 193 191 187 186 184 185 185 178 175 176 170 169 180 183 171 167 169 166 168 171 170 166 160 150 153 166 169 171 174 177 177 179 185 195 203 197 185 176 168 169 180 186 180 168 164 165 162 165 166 161 158 161 173 179 174 166 163 165 172 172 170 174 170 164 170 172 163 156 167 181 183 175 173 177 175 172 174 176 175 173 177 179 176 177 184 185 181 177 178 180 181 190 189 179 178 179 180 183 187 188 184 177 174 177 178 175 177 182 187 190 191 190 188 177 173 184 190 191 186 176 170 176 187 198 196 180 173 180 183 183 185 190 191 192 192 189 192 193 191 190 186 183 191 196 192 188 188 187 188 193 196 199 198 193 190 187 186 189 193 190 182 178 179 180 178 172 171 173 179 194 203 199 196 195 196 177 142 126 126 142 167 186 194 193 193 207 217 219 216 219 225 227 227 221 217 223 227 225 229 230 226 -9999 
-9999 180 181 181 177 171 170 171 169 167 168 166 161 158 158 151 142 142 156 181 193 195 198 212 229 238 242 243 239 235 232 231 232 232 226 218 213 209 207 203 196 184 175 171 170 168 160 154 152 152 151 152 159 167 182 198 204 209 216 220 219 217 213 214 222 228 228 228 231 237 237 232 226 219 215 211 208 206 204 200 196 195 197 197 193 194 197 194 190 187 183 179 181 190 198 197 195 197 195 191 191 192 194 195 193 190 188 190 191 194 201 198 191 187 187 191 197 201 201 190 176 178 183 179 174 176 184 195 201 201 199 198 200 202 201 200 198 194 199 205 202 201 203 201 200 203 205 205 205 205 207 207 206 205 204 205 209 212 213 211 204 197 195 197 197 196 196 195 193 191 190 191 190 185 180 177 178 180 182 186 187 185 180 175 176 180 185 184 178 178 181 179 182 184 189 195 189 182 181 180 179 179 176 173 174 170 174 182 183 176 172 172 173 175 171 164 157 147 140 151 163 162 159 161 168 170 173 183 193 193 186 182 179 175 178 180 171 163 159 161 162 163 170 163 151 155 168 175 170 165 165 170 176 179 173 172 178 169 163 171 172 162 159 169 176 175 170 168 171 173 177 178 174 167 167 172 175 174 176 181 181 179 177 179 180 182 189 182 170 174 179 181 185 187 185 178 174 176 181 181 178 183 190 191 190 190 191 187 173 173 188 192 189 182 177 176 185 195 198 189 177 176 182 184 184 187 189 189 190 189 186 190 194 192 190 184 183 194 197 189 186 189 191 193 196 194 192 191 189 187 184 185 188 188 185 183 186 188 184 178 177 184 192 198 199 192 185 184 184 180 154 126 127 143 169 192 201 202 204 211 219 222 222 219 220 222 222 222 223 223 227 228 226 231 233 230 -9999 
-9999 180 176 174 168 159 156 157 157 156 158 159 159 161 156 144 140 152 175 198 209 217 222 229 236 239 242 243 240 237 235 231 224 221 219 214 207 200 197 195 187 176 170 167 165 164 156 155 160 162 165 169 175 184 198 210 212 212 212 213 219 227 227 220 218 225 230 229 230 231 229 224 217 212 208 203 199 197 196 196 199 199 197 196 199 203 202 191 181 177 177 181 184 188 193 195 193 188 185 185 188 192 192 191 191 191 189 188 187 188 191 186 177 178 183 185 185 189 190 186 185 188 186 181 185 191 197 203 202 197 196 198 200 204 207 209 205 198 199 201 200 207 209 203 201 204 206 207 207 208 208 207 205 204 203 206 211 213 211 208 201 194 198 200 198 197 197 199 198 194 191 191 187 181 179 180 183 184 184 184 183 183 183 180 181 185 185 183 177 179 186 186 185 187 191 194 186 178 179 180 177 181 183 178 175 174 177 179 177 174 170 168 170 174 168 161 155 146 146 157 161 159 152 156 168 174 179 185 188 185 183 183 182 180 183 178 169 167 166 166 164 167 168 154 150 165 176 173 166 168 175 181 181 178 174 176 177 164 158 165 169 167 168 173 177 177 171 167 168 173 177 175 173 172 175 180 180 178 176 176 179 181 180 178 178 178 182 177 171 175 181 183 186 186 179 171 173 180 186 188 185 188 193 189 187 187 187 180 171 180 193 193 188 183 183 183 187 196 196 185 179 182 185 186 186 187 188 188 188 188 188 192 194 193 191 186 187 197 197 188 186 189 192 198 197 193 193 193 193 190 184 184 186 186 185 185 188 188 182 180 190 199 201 198 184 172 171 172 170 164 147 135 149 171 191 203 206 207 211 218 221 221 222 220 218 219 221 225 229 229 227 227 227 230 233 231 -9999 
-9999 183 185 181 169 155 145 141 140 142 146 150 155 157 153 148 159 182 202 219 233 240 240 240 244 244 242 239 235 233 231 225 219 215 211 204 196 189 186 183 179 174 172 167 165 164 160 166 172 171 174 185 191 196 204 212 214 213 214 216 218 220 225 229 227 227 229 229 229 227 221 217 213 207 199 195 195 195 194 195 196 193 185 181 185 191 189 182 180 186 192 194 192 189 188 186 184 181 180 180 184 189 190 188 190 193 194 194 191 192 194 191 189 193 196 193 187 187 186 185 190 193 190 187 189 191 191 192 192 194 196 198 199 204 209 209 200 191 197 202 207 212 209 201 201 203 204 206 207 208 209 208 205 205 207 210 213 212 209 206 200 198 204 204 199 198 199 199 196 189 188 190 184 178 180 185 188 186 185 184 183 187 188 183 184 185 184 184 181 185 191 188 185 184 185 188 184 178 180 179 176 181 183 175 174 177 177 176 173 173 172 170 171 176 171 167 163 155 158 163 162 162 151 154 169 175 180 184 188 187 186 185 183 179 180 177 173 174 172 171 170 171 167 159 164 177 179 171 170 178 182 180 175 172 175 175 172 165 162 167 174 178 178 177 179 178 171 167 169 174 172 170 174 176 180 184 183 179 175 174 179 183 182 179 178 177 178 178 176 179 185 186 188 185 178 176 184 191 194 193 185 186 189 184 182 182 181 179 179 187 194 192 187 181 180 178 179 191 191 181 180 186 188 187 186 186 187 187 189 191 192 193 192 192 192 189 191 199 195 187 189 192 196 199 195 194 196 195 195 191 184 183 186 187 183 182 186 184 181 188 202 202 194 182 164 162 167 166 163 160 153 153 175 197 206 208 210 215 220 223 225 223 221 220 220 221 224 228 231 231 228 228 229 231 232 231 -9999 
-9999 192 192 180 162 147 136 134 139 144 149 152 152 150 149 159 187 213 226 235 242 244 241 242 245 241 235 230 228 227 224 218 213 209 203 195 190 188 184 177 169 164 164 165 167 165 163 168 172 172 177 190 200 206 211 217 224 228 229 228 223 219 227 235 233 230 231 230 228 225 221 216 209 201 195 195 196 195 192 192 193 190 183 179 180 178 174 173 180 189 194 195 194 191 186 184 185 186 185 184 185 187 185 186 189 189 189 190 194 200 200 196 198 202 200 195 193 190 183 181 186 191 191 191 192 191 192 192 194 198 202 203 205 208 211 207 195 192 203 210 213 211 205 201 201 201 202 205 207 208 209 208 207 209 212 213 213 211 208 205 202 203 205 202 197 197 198 196 191 185 185 187 181 178 186 191 190 186 184 185 188 193 189 182 182 181 180 182 183 185 188 187 181 176 177 181 181 176 176 173 172 177 175 167 175 179 177 176 175 175 177 174 173 175 174 171 166 157 158 160 158 159 152 155 170 178 181 184 185 184 182 179 175 175 181 181 175 173 172 170 167 166 165 166 172 179 177 175 178 179 174 166 158 162 170 166 167 170 168 172 180 184 180 176 175 171 169 170 172 176 173 172 176 176 179 181 178 175 172 172 179 184 184 181 182 182 180 179 177 178 182 183 185 186 185 188 193 194 193 189 182 185 187 183 182 181 180 182 184 190 193 190 185 177 177 178 178 189 188 180 183 188 188 187 186 186 186 187 190 192 193 190 188 191 191 188 190 194 191 190 194 196 197 196 192 193 193 192 192 187 180 181 185 185 179 181 190 192 193 201 208 193 175 171 165 170 173 172 174 175 173 178 199 215 212 210 218 224 226 227 228 222 219 221 223 223 224 228 230 230 229 231 231 230 231 230 -9999 
-9999 187 175 158 146 140 136 144 155 158 158 156 153 149 153 176 208 228 237 242 240 237 233 236 235 230 225 225 223 220 215 207 204 204 199 192 191 189 180 171 163 156 155 158 163 167 167 168 170 173 184 198 209 218 224 227 230 231 227 225 227 229 231 236 235 233 232 226 219 216 213 208 202 197 197 199 199 195 189 188 190 189 186 186 186 183 182 185 184 181 182 187 190 191 188 186 187 189 189 188 187 185 183 186 189 186 181 181 189 194 191 190 194 195 194 193 194 194 189 187 187 187 190 194 197 200 203 203 203 205 207 206 209 211 209 204 198 203 214 217 216 211 204 201 201 203 206 208 208 208 207 208 209 211 212 212 212 211 207 205 202 201 200 198 195 194 196 195 191 187 185 184 181 184 192 192 189 186 184 186 191 192 185 181 179 177 180 184 185 183 184 185 179 172 171 177 179 177 173 170 173 178 171 170 181 180 176 176 176 178 178 172 171 172 171 168 161 156 155 157 156 157 156 158 171 179 180 184 184 181 176 170 167 176 183 177 166 165 171 171 165 163 164 164 168 172 175 179 179 174 167 160 158 166 169 163 165 168 167 170 177 180 176 169 167 166 172 175 173 175 175 176 176 173 175 176 173 174 173 173 181 187 185 181 181 180 176 178 175 172 174 175 182 188 188 189 186 182 182 180 178 182 184 184 183 182 182 183 187 192 192 189 183 174 178 181 179 187 188 183 187 190 188 187 187 187 187 188 190 191 191 188 187 190 187 183 186 190 191 194 198 198 195 193 192 191 190 188 187 181 177 177 181 182 181 190 197 197 198 202 200 175 164 178 180 182 185 188 193 192 191 198 212 219 211 211 225 229 227 226 225 219 219 225 227 223 223 228 231 230 230 232 230 227 229 228 -9999 
-9999 162 149 141 138 137 138 150 158 156 156 159 159 161 175 201 222 234 239 240 239 236 231 227 224 223 223 223 219 213 207 200 198 195 188 184 184 178 168 164 164 162 164 166 168 171 175 182 185 187 201 215 219 221 225 229 229 228 225 226 231 234 229 226 229 230 225 217 212 210 206 200 196 197 201 199 194 188 187 188 187 185 182 185 188 191 193 194 190 188 191 192 192 192 191 187 185 187 187 187 189 189 188 189 191 190 187 187 189 185 179 179 185 191 194 191 191 195 198 200 200 199 200 201 203 204 205 207 208 207 205 207 210 207 203 201 203 214 221 220 217 211 205 202 204 207 209 210 209 206 205 208 210 209 210 210 210 209 205 204 202 199 198 196 194 194 194 195 193 189 183 183 186 191 194 191 189 186 185 189 193 188 183 184 180 179 187 190 188 184 183 183 179 170 167 173 181 182 176 173 176 176 171 175 182 177 172 173 176 178 175 170 171 172 168 162 159 156 152 154 155 159 161 162 172 178 180 184 184 183 180 176 177 182 175 162 158 162 167 162 153 153 156 158 166 170 174 177 175 173 170 167 170 177 175 169 168 168 169 173 177 177 170 166 166 170 180 182 174 173 177 178 176 175 177 177 178 182 179 177 183 186 183 180 180 176 174 177 173 170 173 173 180 184 181 178 172 171 176 178 179 182 183 184 182 182 183 184 190 192 191 188 179 173 179 179 176 185 189 186 189 188 185 186 188 189 190 189 188 187 188 187 186 187 184 182 188 193 194 196 197 194 188 188 190 189 188 187 183 177 173 176 181 186 192 199 202 200 196 194 186 167 169 190 194 193 196 201 204 201 203 208 214 218 214 217 227 230 226 224 224 222 224 229 229 222 222 231 233 230 229 230 229 226 226 224 -9999 
-9999 155 147 139 132 129 134 150 157 155 158 162 165 177 203 225 233 237 240 240 237 231 225 221 220 221 221 218 211 202 194 193 196 189 177 172 170 163 158 158 161 163 172 179 180 181 187 199 207 213 223 231 233 232 231 232 231 231 229 225 226 232 231 227 226 223 218 214 210 205 199 195 192 194 195 187 179 178 184 188 189 188 185 185 185 186 186 185 185 192 198 194 188 186 185 182 182 182 180 183 189 191 188 187 187 190 192 191 191 190 186 183 186 191 192 188 186 187 192 201 206 205 201 201 205 206 205 205 206 205 205 209 210 203 196 196 204 215 220 217 214 210 206 205 207 209 209 208 207 207 209 211 211 208 208 208 209 206 200 201 201 199 199 198 197 196 195 195 193 186 180 186 192 193 193 190 188 187 189 193 193 186 186 188 183 185 192 192 188 184 179 179 176 168 166 177 187 185 178 176 176 174 174 177 178 172 167 170 174 173 169 169 175 174 168 165 164 161 158 158 159 168 165 160 171 176 181 184 185 187 187 185 186 180 164 155 158 161 158 150 143 146 149 156 170 174 174 175 175 175 171 170 172 177 178 177 176 177 180 181 178 172 165 167 171 176 186 187 179 177 181 179 177 178 181 183 185 183 179 177 181 185 184 182 179 176 176 176 174 175 180 181 183 181 176 172 170 174 179 182 184 186 184 182 180 181 182 182 187 190 189 184 175 171 174 176 178 187 189 187 188 185 183 186 188 191 192 189 185 186 188 185 184 187 186 186 194 197 195 193 192 188 184 184 185 185 184 182 180 175 177 186 192 197 201 202 204 202 195 189 183 178 187 203 204 200 203 206 205 206 211 214 219 224 223 223 228 228 224 225 227 226 226 230 230 224 226 234 235 229 227 232 231 227 225 223 -9999 
-9999 169 156 138 124 123 136 157 170 173 179 188 199 214 229 237 239 239 237 235 229 223 218 217 218 216 213 208 200 191 186 186 183 175 167 162 160 163 165 162 159 159 169 179 185 193 201 210 219 228 233 235 239 242 240 236 233 234 233 227 221 225 231 228 223 222 219 213 206 200 196 193 192 193 188 178 174 176 181 187 189 186 182 182 180 178 176 174 175 180 184 183 178 174 172 174 182 188 189 193 199 201 197 194 192 191 192 194 194 194 194 195 192 189 185 183 184 186 189 194 196 193 191 193 195 195 199 204 206 205 205 206 207 204 200 200 205 212 214 212 211 209 205 206 208 208 208 207 207 210 213 213 211 209 208 209 208 203 197 198 200 198 198 200 200 199 197 196 193 185 182 193 197 194 193 188 187 190 191 194 192 186 187 186 182 183 187 187 185 182 175 174 177 172 171 182 186 182 178 177 175 173 174 176 173 168 167 172 174 169 168 174 179 175 169 168 168 167 166 165 167 172 157 151 166 173 180 183 184 187 186 184 180 173 162 158 157 152 149 147 146 151 156 169 181 179 173 172 174 172 169 168 170 176 180 180 180 180 182 181 174 166 168 176 179 180 185 187 183 179 180 179 180 182 184 185 181 172 171 174 179 184 182 177 174 175 178 180 178 182 189 189 188 185 183 180 179 181 183 185 187 186 182 180 182 183 181 177 181 188 188 181 174 170 173 178 183 188 189 190 189 183 183 184 186 189 191 186 182 185 189 187 188 193 189 189 194 193 189 188 187 184 181 178 177 178 176 176 181 184 191 199 203 206 206 201 200 197 191 191 193 196 202 208 205 201 206 211 210 214 220 221 223 227 226 225 227 225 224 226 229 227 226 230 231 228 230 235 233 229 229 233 233 228 225 223 -9999 
-9999 150 136 123 121 137 159 177 187 197 209 220 232 241 243 242 242 241 235 229 226 221 216 215 213 207 199 193 187 182 182 182 174 165 163 164 164 167 167 166 171 176 180 187 194 201 210 218 222 227 230 232 235 236 235 231 231 234 235 231 223 220 224 220 215 218 215 208 201 195 194 193 192 191 189 185 185 184 184 185 181 175 173 175 174 171 172 173 167 163 167 173 175 177 178 177 179 184 192 198 202 203 201 199 199 194 190 189 188 184 182 184 187 188 186 185 187 190 190 189 185 184 190 192 187 184 193 202 205 201 199 199 200 203 207 210 212 212 210 209 209 207 205 206 207 207 208 208 208 212 213 210 209 209 209 209 207 202 199 202 204 200 197 200 203 201 198 197 195 189 188 197 200 195 192 188 190 192 193 195 192 184 183 179 174 176 182 184 181 178 173 172 177 174 173 180 181 178 176 176 175 172 173 176 175 170 170 175 173 168 173 181 181 176 171 169 170 169 165 164 169 165 146 148 166 174 182 181 182 189 189 182 171 164 162 159 152 150 153 154 159 166 176 187 187 177 170 171 174 172 169 168 172 179 184 180 175 176 178 175 169 168 176 184 185 183 183 183 179 174 173 176 180 183 183 180 172 166 174 180 180 181 176 169 169 174 177 177 178 186 190 187 183 184 189 189 186 184 185 186 187 185 181 183 188 187 182 178 183 190 189 181 176 175 177 182 187 190 189 189 188 185 183 183 183 185 184 179 178 184 191 193 193 195 190 188 191 188 184 181 180 177 173 172 173 177 179 183 192 197 198 201 204 207 202 193 193 196 199 201 201 206 208 203 199 203 214 222 219 219 224 226 224 225 227 226 226 225 225 228 231 230 230 233 233 231 233 233 230 230 232 233 233 229 226 223 -9999 
-9999 127 118 115 136 166 185 194 203 217 228 232 238 244 246 243 240 235 226 220 217 214 212 211 207 200 192 187 184 185 190 189 179 175 176 179 180 179 176 179 187 194 199 206 213 219 223 225 228 233 236 236 235 232 230 230 232 233 233 232 228 220 219 222 217 207 201 201 196 190 188 187 185 183 182 184 189 194 195 189 179 176 179 181 180 179 181 177 166 166 170 175 179 188 193 189 185 182 184 191 193 191 190 192 193 189 185 182 182 179 175 181 189 193 194 195 194 193 191 186 183 186 192 194 192 194 198 202 201 194 195 198 199 202 208 213 217 218 214 211 209 205 205 208 209 209 209 209 209 212 211 209 210 209 209 208 206 203 203 206 208 204 198 200 203 200 196 196 194 188 186 194 197 193 190 189 190 190 192 193 188 180 178 177 175 179 183 181 178 176 174 174 179 177 171 178 181 176 174 175 174 169 170 177 178 175 173 175 172 171 179 183 179 177 174 171 173 172 164 163 166 158 145 154 168 175 182 176 178 191 194 185 170 167 166 157 152 153 155 160 170 180 187 188 181 176 174 177 181 180 174 172 177 181 177 168 166 172 173 169 168 172 180 185 186 181 178 176 171 168 169 174 178 179 177 173 170 176 186 184 179 176 170 165 168 175 178 174 174 182 186 182 179 183 188 188 187 185 185 188 188 186 186 190 193 189 184 182 186 191 192 188 183 181 180 182 188 189 186 187 189 188 185 184 184 183 181 178 180 186 192 191 188 189 185 184 186 184 180 175 174 173 169 173 180 188 192 195 200 200 196 197 201 201 194 189 195 202 206 202 201 207 210 205 209 217 224 228 224 220 224 228 227 227 228 227 226 226 228 231 236 237 235 235 235 233 233 232 230 233 233 232 233 231 229 227 -9999 
-9999 121 114 125 153 173 188 205 221 229 232 232 232 234 233 230 223 211 202 201 198 198 200 197 193 189 185 182 180 182 187 185 181 184 186 185 186 189 192 197 202 207 213 220 226 233 237 237 239 242 242 239 235 233 234 236 233 227 225 227 226 219 214 215 213 200 192 194 193 189 184 180 177 177 178 177 181 190 194 186 178 181 185 186 184 183 181 173 172 184 188 188 191 194 194 194 195 189 181 182 186 188 190 191 189 188 190 194 195 192 193 197 197 195 196 197 197 197 195 193 192 195 198 199 200 204 204 203 202 203 209 212 211 207 206 211 218 221 218 214 210 208 211 213 212 211 210 210 212 214 213 212 212 210 208 206 205 204 204 204 204 201 197 200 203 198 195 195 193 185 183 191 194 192 190 188 186 186 189 185 180 178 179 183 183 186 186 181 179 180 179 179 182 177 170 176 177 173 174 175 172 167 172 178 176 174 172 172 172 178 184 182 182 181 175 171 173 169 162 160 162 158 153 162 170 177 182 174 177 191 193 186 178 174 171 164 162 161 161 166 175 182 180 171 171 178 180 180 181 178 173 174 179 180 172 165 168 171 167 160 162 169 176 182 180 172 169 169 167 165 166 170 174 175 172 171 173 180 181 174 171 170 165 163 168 175 177 173 177 188 191 186 182 183 184 183 183 182 185 191 193 191 190 192 191 185 183 186 188 191 198 196 188 184 181 182 189 187 187 192 191 186 186 186 186 188 191 191 193 194 189 186 186 182 177 176 175 172 168 168 176 178 179 188 199 202 199 199 200 197 195 196 199 197 194 197 202 204 204 203 205 212 217 216 221 225 224 226 224 222 224 227 229 228 228 228 226 226 230 235 240 239 233 232 235 232 232 234 233 234 233 230 232 233 235 234 -9999 
-9999 114 116 142 170 187 205 221 229 230 229 228 224 219 214 211 204 194 193 194 190 187 183 180 176 172 172 172 169 167 167 164 164 173 182 185 186 189 196 203 211 218 223 225 226 230 237 239 237 233 230 229 231 234 235 234 228 222 220 219 217 214 209 205 200 192 188 189 193 194 189 182 180 183 185 185 181 181 183 181 182 187 189 189 187 187 187 184 186 194 198 197 195 191 190 193 193 188 185 186 187 187 186 187 190 191 193 197 194 190 192 194 195 193 192 192 194 196 198 201 203 206 207 205 205 206 203 200 202 210 216 219 221 216 213 214 216 219 216 212 210 210 213 213 211 210 209 211 214 215 213 212 211 208 207 209 208 203 200 200 200 199 197 200 202 199 196 195 193 186 187 195 195 191 190 187 184 185 185 179 178 183 183 185 184 183 181 178 180 182 179 180 181 172 167 172 175 177 177 176 172 171 176 176 171 171 170 169 173 181 184 185 188 183 173 169 169 166 162 162 165 166 164 166 171 179 182 174 179 192 192 186 179 170 171 171 168 169 168 169 172 171 163 161 172 181 179 171 169 166 167 172 176 179 177 174 175 174 166 159 162 171 177 179 173 167 167 166 164 163 165 169 174 175 171 168 169 172 170 165 165 167 168 168 171 175 176 174 181 192 193 186 180 180 180 180 181 183 191 200 200 196 193 189 185 182 185 191 189 190 200 197 187 182 179 182 189 190 192 194 187 184 190 189 187 193 199 199 199 199 193 190 188 177 173 173 169 165 164 171 181 185 190 202 208 204 197 196 197 198 197 199 201 199 200 206 208 209 211 214 216 219 220 220 226 223 219 225 228 228 227 226 229 231 229 229 228 228 232 237 239 235 229 231 234 230 232 237 236 234 232 229 230 233 239 239 -9999 
-9999 116 126 160 190 213 227 230 227 224 223 220 213 207 202 198 192 190 192 188 184 179 174 176 171 164 164 165 164 161 160 157 158 170 183 191 192 197 205 209 214 223 229 231 230 230 233 236 235 231 227 225 226 229 229 226 224 224 221 220 217 211 208 205 196 188 187 183 182 187 187 183 182 185 188 187 183 181 180 181 186 190 188 187 192 197 196 193 194 198 198 193 185 182 186 186 185 190 197 197 194 189 184 186 193 194 190 186 184 188 195 201 200 193 190 189 191 194 197 199 201 201 199 200 204 203 198 198 200 203 205 209 215 221 225 223 218 214 209 206 208 210 210 208 207 208 209 210 212 211 210 209 206 204 207 210 207 200 199 201 202 201 198 198 199 196 194 194 191 188 189 194 191 190 192 190 186 187 184 181 184 188 187 184 180 177 174 173 179 179 175 178 175 166 164 167 175 181 180 176 173 173 177 171 171 175 172 170 174 179 179 183 186 178 172 172 170 169 169 170 169 167 166 166 171 178 177 173 182 192 189 184 177 170 174 176 173 170 166 168 168 162 159 168 177 178 169 160 160 162 167 173 177 180 178 171 175 177 169 163 170 185 190 186 175 169 167 163 161 165 173 176 177 175 170 168 172 177 172 165 164 169 173 173 174 178 180 180 182 184 184 180 175 174 176 180 183 188 196 200 194 191 189 183 183 187 191 192 188 189 198 196 185 179 176 182 193 195 194 192 187 188 193 191 188 193 197 194 194 199 194 187 185 178 176 177 174 174 179 186 190 190 194 202 204 198 193 194 198 200 201 202 204 203 207 213 215 219 220 220 220 222 223 226 230 225 221 226 231 232 229 226 232 236 230 228 229 229 232 237 237 233 230 234 235 232 234 239 239 235 233 230 229 233 239 237 -9999 
-9999 112 129 168 199 218 227 226 221 216 212 206 199 193 187 182 177 174 169 169 173 170 174 177 168 163 167 165 161 161 164 167 174 180 183 187 195 209 217 222 229 235 235 233 233 232 230 232 235 235 231 226 222 220 215 211 212 216 218 218 217 215 212 206 200 199 199 191 184 181 179 180 177 177 180 179 178 178 172 168 175 183 184 186 188 186 186 189 193 197 194 186 177 174 177 176 181 193 199 198 195 191 189 191 192 188 184 184 188 199 207 205 195 189 188 189 191 194 196 196 195 192 189 194 201 204 207 208 207 203 201 201 208 217 221 221 218 214 209 209 213 214 211 208 209 211 210 208 209 210 208 207 205 204 206 206 201 197 200 203 205 202 197 196 196 193 191 190 188 186 184 186 188 191 195 192 186 183 178 180 185 188 187 180 176 173 170 172 179 177 174 174 169 165 163 164 174 182 180 176 173 175 176 172 177 178 170 169 174 176 174 178 181 175 173 174 170 168 171 170 165 164 168 168 172 179 180 180 186 188 182 181 181 180 180 178 176 173 171 173 172 167 168 171 170 165 157 153 158 164 173 179 179 180 178 171 176 177 168 163 176 195 199 189 175 167 163 160 160 170 178 178 176 174 171 170 177 179 171 164 169 179 182 179 178 181 181 181 180 180 182 181 173 168 174 179 182 186 190 184 174 178 180 176 181 187 189 189 186 188 197 192 180 175 175 185 197 200 194 191 190 190 193 191 189 192 194 192 195 198 190 182 182 181 180 181 181 185 192 196 198 197 199 203 201 196 193 196 200 202 204 204 206 207 210 217 222 225 223 220 220 224 230 230 229 227 224 227 230 231 230 229 236 235 228 230 232 231 232 236 236 233 235 238 236 235 237 239 239 236 233 231 229 231 236 233 -9999 
-9999 104 134 175 199 211 215 214 212 206 201 196 190 186 182 178 172 161 153 159 160 154 160 160 153 159 168 168 164 164 171 178 183 187 191 196 209 222 229 233 238 239 236 233 233 235 232 228 223 220 220 223 223 218 211 204 206 210 215 218 217 215 210 205 203 202 198 194 192 186 180 177 175 176 180 182 182 177 169 166 174 180 182 186 186 182 185 184 179 183 184 183 183 184 186 185 188 192 194 194 190 188 191 191 186 179 180 187 192 196 195 188 184 186 189 191 192 194 196 197 198 199 199 200 202 207 213 213 209 209 212 210 212 216 218 220 221 219 216 218 220 218 215 214 215 214 209 205 207 208 206 206 205 203 203 201 198 197 199 200 202 200 196 196 195 191 190 190 189 187 184 187 191 193 194 190 180 174 172 175 181 185 183 176 174 171 166 169 175 171 168 166 164 169 168 168 179 183 178 174 174 176 175 174 177 172 165 170 175 174 173 177 181 178 177 174 170 170 172 168 165 169 176 173 173 182 183 183 183 180 174 177 183 183 179 175 172 177 181 181 175 171 170 165 160 157 154 156 161 169 178 181 178 179 179 174 172 170 162 163 179 194 192 177 164 160 157 156 160 171 176 173 173 173 168 167 169 169 165 164 174 185 186 181 178 178 179 182 183 185 189 184 171 170 178 181 183 186 187 177 173 179 177 175 180 182 182 183 181 185 191 182 171 171 175 184 196 199 191 184 184 189 195 193 191 193 196 196 199 198 187 179 178 178 178 183 190 196 201 201 199 199 203 203 200 199 197 199 204 206 206 205 210 211 213 222 226 225 221 220 223 228 232 228 225 227 226 226 230 231 230 233 237 233 229 234 234 230 231 236 236 235 239 240 236 237 238 237 237 234 231 231 231 233 234 230 -9999 
-9999 108 149 186 200 204 201 196 193 192 194 190 186 184 179 175 165 153 156 161 151 147 157 152 146 155 163 169 172 174 181 187 195 206 213 217 222 228 232 235 236 236 234 235 235 235 233 229 221 216 217 219 217 213 208 208 211 213 215 214 208 205 203 198 192 187 183 180 182 181 177 174 175 181 184 185 185 181 178 181 184 184 181 181 180 179 179 173 172 175 176 184 197 204 203 196 191 188 187 188 188 189 189 186 182 180 187 192 190 186 183 183 186 191 195 193 191 192 195 198 203 207 205 198 195 198 203 203 203 210 215 213 211 216 222 225 223 219 215 217 218 216 214 215 215 211 206 204 206 206 203 201 200 197 198 198 197 195 195 196 197 197 194 193 192 190 192 194 193 190 185 189 192 190 189 185 174 170 172 177 183 186 182 176 175 172 165 167 170 166 162 160 165 174 172 171 180 180 174 172 174 174 172 171 170 166 165 172 175 173 175 179 184 184 181 176 175 178 177 172 173 178 180 173 170 176 180 181 178 174 170 175 183 185 181 175 174 181 185 181 177 176 172 163 162 163 162 164 166 172 176 172 169 173 174 165 158 158 157 163 175 180 172 157 151 151 149 152 162 174 178 175 175 170 162 161 165 167 167 167 174 179 178 174 172 173 179 184 186 190 190 180 171 175 183 184 185 187 187 182 182 183 178 176 180 182 183 182 181 185 186 177 170 173 177 183 194 197 185 176 179 192 201 197 194 193 196 198 197 190 180 173 172 178 183 191 198 203 204 198 194 196 201 200 198 200 200 203 210 211 209 210 218 219 220 226 228 225 223 225 228 229 229 226 223 225 227 228 230 230 230 235 238 232 229 235 236 231 230 236 238 239 240 239 237 239 238 236 235 231 229 231 233 235 235 228 -9999 
-9999 121 167 197 204 200 191 186 184 189 190 184 183 182 176 169 157 150 157 155 144 152 164 158 154 159 161 166 172 177 187 199 213 221 222 225 226 226 230 234 235 236 237 236 231 225 224 223 220 218 216 213 210 211 212 213 215 215 212 205 200 199 195 186 177 174 174 177 176 171 169 171 175 181 182 180 177 178 184 188 183 178 174 171 168 169 173 177 182 183 179 185 193 196 194 188 188 190 186 184 186 186 184 182 183 188 196 198 194 189 187 187 190 194 194 188 184 184 189 194 199 201 201 198 192 189 191 195 201 206 207 208 206 206 210 211 206 205 209 213 212 210 210 210 209 208 206 206 206 205 201 198 197 195 197 198 196 193 193 195 196 196 193 190 190 193 196 195 191 186 183 187 190 186 184 180 171 169 175 181 187 186 180 174 172 167 163 162 164 166 165 163 172 178 172 172 178 175 172 174 174 172 171 169 168 168 169 177 179 178 181 185 188 188 184 179 179 182 179 174 178 182 180 172 166 171 180 185 180 175 173 178 187 194 188 180 177 175 178 179 182 186 181 169 169 171 168 167 166 168 164 155 157 166 165 153 148 152 155 162 168 167 159 151 148 149 148 156 170 179 179 177 174 165 158 161 167 170 169 169 170 171 169 168 167 170 178 181 183 184 179 174 174 179 183 183 185 189 190 187 185 184 178 175 179 182 183 181 180 182 181 175 172 178 181 183 191 191 179 174 183 199 202 196 192 189 193 196 190 179 171 168 172 184 192 195 201 203 197 189 188 195 201 199 197 200 201 205 211 213 214 218 223 225 226 228 229 228 227 230 230 227 228 227 222 225 231 232 231 229 231 239 240 231 229 236 238 235 232 235 240 241 239 236 238 238 236 235 232 229 229 232 234 235 235 229 -9999 
-9999 145 190 205 203 195 188 189 190 191 187 178 179 180 175 169 165 164 167 159 155 160 160 156 162 170 169 170 172 177 190 207 219 223 224 227 228 227 229 233 234 234 236 236 231 223 218 216 214 215 215 212 209 209 211 211 210 208 203 199 197 194 186 178 175 176 178 181 178 174 176 178 179 180 179 176 173 175 181 184 181 178 173 169 171 176 183 191 196 196 192 190 186 184 183 183 192 195 189 186 187 188 190 189 190 194 197 197 195 194 194 193 192 190 185 183 184 184 184 187 188 189 198 205 200 189 186 193 200 202 203 206 204 201 201 199 195 199 209 215 214 211 209 208 206 205 202 202 203 203 202 203 202 199 198 199 196 193 193 194 196 196 192 188 190 195 196 190 184 183 183 185 187 184 181 175 169 170 176 183 186 183 175 170 165 162 162 162 164 171 171 166 173 175 171 175 177 173 172 176 174 173 174 171 171 171 172 179 180 178 182 187 189 188 186 182 180 181 177 176 181 181 181 174 166 172 187 190 180 177 179 182 190 197 190 182 175 167 177 184 187 190 187 177 178 177 169 166 164 163 156 147 153 161 155 146 146 149 153 159 163 163 162 160 157 156 156 165 177 178 174 170 164 159 158 164 171 170 168 167 168 171 171 170 166 169 173 172 174 174 172 176 179 179 182 184 186 190 191 188 188 187 180 176 177 177 175 173 174 176 176 173 174 181 183 181 186 186 180 182 192 201 200 195 190 185 189 191 181 170 168 173 181 193 197 196 200 199 189 180 186 199 206 204 199 200 204 210 215 219 223 224 225 228 228 228 229 229 228 229 228 223 227 229 225 231 236 237 233 230 232 239 238 230 232 239 241 239 234 235 241 242 238 232 237 239 235 236 235 232 229 231 233 232 232 230 -9999 
-9999 169 202 204 198 191 189 191 188 187 184 180 185 184 177 172 172 173 172 170 172 173 167 164 172 179 181 186 190 193 203 214 220 224 227 230 230 228 227 228 224 219 218 221 220 216 212 207 206 211 216 214 209 204 200 198 199 197 194 192 191 185 179 177 178 181 182 178 174 175 176 178 179 179 180 179 176 175 178 184 186 185 180 177 178 180 183 188 194 199 198 195 191 190 183 180 188 190 188 187 190 195 198 194 192 193 192 190 190 191 192 192 190 184 179 184 193 193 188 188 190 194 201 205 201 198 195 195 195 191 196 206 210 208 205 204 206 210 213 214 211 207 206 206 205 202 200 200 202 202 203 205 203 199 198 199 197 195 196 196 196 194 190 189 192 194 192 184 182 184 185 186 185 185 180 173 169 173 178 183 184 176 168 165 162 163 166 164 167 173 169 163 166 170 172 176 176 174 175 176 174 175 176 173 171 170 171 176 177 175 178 184 184 186 187 181 177 177 176 181 184 178 179 176 170 179 191 187 179 180 183 186 194 197 188 185 179 170 185 192 189 188 184 176 180 183 173 166 165 165 160 158 164 162 149 142 145 149 152 157 161 163 164 164 162 160 161 169 177 173 165 162 157 154 156 163 169 170 166 165 170 173 174 172 169 172 172 169 172 171 174 179 177 174 176 179 180 184 185 185 190 190 182 177 175 171 166 168 172 176 179 177 181 185 182 181 189 192 188 189 194 199 200 196 185 178 182 182 175 169 177 190 196 202 203 199 198 195 186 181 193 207 212 207 200 202 212 220 224 226 226 224 224 227 227 227 228 227 225 227 227 225 230 232 232 236 239 238 235 231 231 234 233 230 235 241 242 240 235 238 243 242 238 229 235 239 235 236 237 236 229 227 230 228 228 231 -9999 
-9999 179 202 202 196 190 190 195 196 196 192 190 192 184 173 170 172 169 163 164 167 173 174 174 179 183 189 196 202 208 219 223 219 219 225 229 229 228 225 220 211 205 203 204 205 203 201 199 200 204 210 210 208 206 199 190 188 187 184 182 183 182 176 171 174 179 180 175 171 170 170 171 170 173 178 180 177 175 180 183 181 180 179 179 180 178 175 174 180 184 184 188 193 190 182 183 185 181 184 189 194 197 196 189 186 185 184 184 185 187 189 190 190 189 186 186 190 195 196 194 199 206 207 203 203 210 212 207 196 183 184 190 193 193 196 200 204 208 208 205 197 195 199 202 203 202 202 203 204 201 199 199 197 195 197 200 198 198 199 198 197 194 192 192 194 194 190 184 183 187 188 187 186 185 176 170 173 178 180 182 177 167 163 162 160 163 165 164 169 171 165 162 166 174 176 175 173 174 173 170 171 174 175 173 171 172 173 176 178 175 175 179 182 186 185 178 175 176 178 183 181 171 174 177 172 178 185 182 182 184 185 191 195 192 184 189 187 176 185 194 192 190 185 179 184 187 176 166 167 170 169 169 170 160 148 144 147 152 157 162 165 161 159 157 155 154 159 166 168 162 157 159 158 154 155 160 164 166 167 170 174 172 172 172 173 177 176 177 181 179 178 177 173 170 174 177 176 178 179 180 185 184 177 173 174 174 170 173 178 179 179 178 183 184 180 185 194 196 192 192 195 196 195 186 172 170 175 177 176 176 189 202 203 205 205 200 193 189 187 188 199 209 211 208 202 206 217 226 228 226 225 223 224 228 228 229 229 226 224 227 228 230 234 235 237 240 239 237 233 231 230 231 231 233 239 243 243 239 238 243 244 242 238 231 234 237 234 236 237 237 230 225 227 222 222 229 -9999 
-9999 172 195 198 194 192 193 197 199 194 188 191 190 181 177 176 172 162 156 158 160 169 176 180 186 193 199 204 209 215 220 222 220 220 224 226 225 224 220 213 208 208 205 201 200 199 196 193 191 193 199 203 206 209 205 198 198 193 184 179 179 178 177 180 183 181 179 178 178 176 174 172 169 173 179 181 177 175 177 177 175 175 176 177 178 179 178 178 178 175 176 182 185 183 182 193 196 189 187 188 187 186 183 180 182 183 182 181 183 185 187 189 190 192 192 191 189 192 198 199 203 205 199 195 202 215 221 217 208 201 195 187 182 188 195 199 198 196 195 196 196 199 203 206 206 205 203 202 201 197 195 195 194 194 198 200 199 199 199 197 195 194 193 193 193 194 191 183 185 189 188 186 184 180 170 169 175 179 180 180 172 163 160 158 162 166 167 168 171 167 162 165 171 177 176 171 169 169 167 163 170 177 173 169 170 170 168 174 182 177 173 182 190 187 181 178 178 177 180 183 175 166 172 175 169 171 176 179 182 183 184 188 188 186 184 189 189 179 181 189 191 190 187 186 190 190 181 175 178 178 173 169 161 152 149 149 153 160 160 161 161 157 155 152 148 149 157 158 155 152 152 158 158 153 155 162 163 166 172 176 176 172 172 172 175 181 184 187 190 186 181 179 174 173 180 183 179 178 177 175 173 170 164 166 178 185 181 183 183 179 175 176 181 179 180 186 192 191 188 190 191 186 180 173 165 167 174 182 188 189 197 203 201 201 200 195 185 184 191 194 199 205 210 211 209 212 219 225 225 224 226 226 227 231 232 233 232 227 226 229 230 233 236 238 239 239 237 233 232 234 232 232 233 235 239 243 243 240 242 244 242 239 239 236 235 234 234 234 234 235 234 230 225 217 216 225 -9999 
-9999 168 185 187 186 189 191 190 191 189 191 193 187 183 184 180 169 159 159 163 163 169 179 189 199 207 214 218 220 219 217 218 223 226 226 223 218 215 212 207 204 206 203 196 193 192 192 192 191 192 191 191 195 197 192 189 194 192 186 182 180 176 177 184 185 181 179 180 184 185 183 179 176 179 182 181 180 181 185 187 183 176 167 165 168 173 180 185 181 175 180 186 185 184 190 197 198 198 195 188 184 181 176 177 185 189 188 184 183 184 186 186 185 182 187 196 198 195 195 197 197 192 186 188 198 208 213 212 208 212 207 196 192 195 200 203 202 200 198 201 207 209 209 208 207 204 201 200 197 194 192 195 197 199 201 201 199 198 195 193 192 192 193 193 191 191 188 181 182 185 184 182 178 173 170 173 176 176 177 177 172 163 159 164 171 170 168 171 173 164 161 167 171 173 172 169 165 166 167 167 175 178 167 163 165 163 163 174 182 173 170 185 189 180 178 181 177 173 177 178 169 166 176 177 172 173 179 181 182 182 180 181 183 188 189 187 185 180 180 186 188 185 185 189 190 188 188 190 191 185 176 169 160 153 154 156 163 166 161 161 160 157 156 154 152 153 157 155 154 156 154 155 153 148 153 163 161 163 171 171 170 168 170 174 179 184 185 184 183 180 177 176 175 177 184 183 178 178 178 175 176 177 175 177 185 187 180 182 186 183 178 182 182 178 181 185 185 183 181 181 180 172 169 169 169 174 185 197 201 197 198 200 195 191 190 186 179 182 193 197 197 205 215 219 218 218 219 222 224 225 228 229 229 232 234 234 232 228 228 231 231 232 237 241 237 233 235 233 234 236 234 234 236 236 238 241 241 241 242 241 239 238 241 241 236 232 234 233 231 233 236 233 223 215 216 221 -9999 
-9999 173 182 184 188 193 196 197 198 199 201 194 182 178 174 170 168 166 162 164 172 182 191 201 210 216 221 224 226 224 223 223 223 223 221 218 214 212 208 205 202 202 198 195 192 188 193 201 205 197 185 182 185 183 175 172 176 178 180 182 180 173 171 171 171 172 172 173 177 181 183 181 181 183 183 180 177 180 188 190 184 176 169 171 177 179 183 188 189 188 188 190 193 193 194 193 188 188 190 194 197 195 189 187 191 192 188 186 186 185 186 186 185 187 195 203 203 199 195 191 186 185 189 197 203 204 200 197 201 211 210 202 195 189 188 196 204 209 211 209 207 207 206 205 203 199 199 199 197 194 195 200 202 202 200 200 199 196 192 189 189 192 194 192 188 186 183 176 178 180 179 176 171 170 173 177 175 174 176 177 172 163 162 173 174 165 165 173 173 162 160 168 167 168 170 167 163 165 170 173 176 171 164 166 169 168 170 177 176 165 170 182 181 176 178 179 172 171 175 174 170 174 182 181 176 177 184 183 181 182 179 178 182 190 192 186 184 181 182 186 188 184 186 193 192 189 195 197 190 187 185 181 175 170 171 172 172 168 163 164 166 163 160 158 156 155 157 155 156 156 151 149 143 139 147 157 151 153 163 164 163 161 166 175 179 179 175 171 173 174 175 175 176 179 181 179 179 181 181 184 189 191 190 186 185 181 175 177 185 187 186 188 186 184 184 183 179 178 178 176 174 170 173 180 185 193 202 208 204 195 194 194 188 183 185 186 183 185 195 201 202 213 223 223 221 221 221 224 225 226 228 231 232 232 234 233 232 230 231 234 232 230 236 241 236 234 237 236 236 236 235 235 236 237 239 241 242 242 240 240 240 240 243 243 238 231 234 236 232 233 236 233 222 218 220 220 -9999 
-9999 168 181 190 196 201 205 205 199 191 187 181 176 170 162 163 166 165 165 175 189 200 203 210 218 221 221 223 225 224 225 225 223 219 214 212 209 208 205 201 197 194 190 189 193 193 193 199 204 201 196 192 188 182 175 173 176 178 179 181 180 175 174 172 168 166 167 169 172 174 176 179 184 186 184 182 179 182 185 181 177 178 185 193 194 192 191 192 194 195 192 189 192 194 191 187 184 182 185 192 197 198 197 197 197 193 192 195 195 193 190 190 194 198 199 199 202 203 201 199 196 194 196 202 206 205 199 196 201 211 215 210 205 201 194 192 199 203 203 201 201 200 200 199 197 196 198 198 198 198 202 208 206 201 199 200 198 193 191 190 192 194 194 190 185 184 180 176 180 183 180 176 172 174 177 175 171 173 176 176 172 163 164 174 171 164 172 178 171 159 158 166 167 166 168 165 163 167 172 175 173 167 168 172 171 168 169 174 171 168 175 179 179 179 179 176 173 175 175 172 171 174 178 179 175 175 178 176 176 179 179 178 181 190 193 186 184 184 184 185 187 188 191 195 192 189 196 194 189 192 193 195 192 187 185 182 176 171 165 163 163 161 160 158 155 153 154 155 152 151 148 144 137 134 139 144 142 153 166 165 163 161 165 172 172 170 165 167 175 177 178 178 177 178 182 184 187 186 185 190 193 190 185 179 178 178 175 175 181 187 192 193 193 192 188 184 179 180 182 181 179 183 190 195 200 206 210 208 199 192 189 186 181 182 191 198 197 196 203 210 213 220 226 223 222 222 224 225 222 224 230 237 239 235 236 236 234 232 234 236 234 230 232 239 240 240 238 235 235 236 236 236 237 240 242 241 242 242 241 241 241 242 242 242 238 232 235 239 232 230 233 231 222 218 218 217 -9999 
-9999 162 180 193 201 203 201 194 186 180 173 168 166 159 156 161 162 162 175 193 202 204 207 213 218 220 220 218 216 214 216 217 216 214 209 204 201 201 201 198 195 193 189 190 196 197 195 193 191 194 200 198 190 182 176 174 176 178 179 181 180 177 177 172 164 163 167 171 174 174 174 177 182 184 186 186 186 191 191 185 180 183 194 200 197 194 193 191 187 184 185 188 191 192 191 191 188 186 188 190 189 189 194 199 197 193 196 200 201 199 193 193 197 196 194 197 203 203 204 207 210 207 203 200 200 201 201 199 199 204 210 209 212 214 207 195 190 188 187 191 194 190 190 191 191 193 195 197 200 202 205 207 203 199 200 198 193 190 191 193 195 196 193 188 184 183 180 179 182 180 177 176 175 177 179 172 170 173 175 175 168 159 163 174 172 170 177 175 165 158 158 165 167 165 168 167 169 173 175 176 171 167 170 170 166 163 168 174 174 177 180 179 181 181 178 177 178 178 175 169 169 169 170 173 170 168 169 168 170 177 180 179 180 189 191 184 183 185 181 179 185 192 193 192 188 187 192 194 197 199 195 193 194 191 188 180 177 176 170 165 163 163 163 160 157 155 160 161 156 155 150 143 138 138 141 143 147 161 169 167 165 165 165 167 167 168 166 172 179 178 177 174 174 181 186 190 191 187 183 188 190 186 181 178 179 179 174 172 177 187 193 195 192 188 186 186 185 187 189 187 187 195 201 203 208 212 212 204 192 185 179 177 181 188 200 206 206 204 207 213 214 218 222 222 222 223 226 226 225 230 236 242 242 236 235 236 237 236 236 237 236 229 230 239 244 242 236 234 237 237 237 238 240 242 242 242 242 242 242 242 242 243 241 238 237 235 239 240 231 227 229 228 221 214 210 210 -9999 
-9999 157 179 193 200 198 190 181 177 174 167 166 165 160 162 166 166 169 181 195 204 205 206 206 208 212 212 211 210 207 208 207 207 207 203 198 197 198 197 196 199 200 195 196 199 199 197 194 185 183 187 188 185 181 177 175 179 180 180 178 175 172 171 165 162 166 171 176 176 174 173 175 178 182 185 184 183 187 189 185 185 191 198 201 196 191 193 190 184 182 183 187 189 191 192 192 192 197 201 197 191 188 188 190 188 190 192 190 191 193 194 196 195 196 202 205 202 199 204 209 210 209 209 207 203 200 199 198 201 203 200 198 202 205 204 198 189 183 188 192 189 184 188 192 192 194 196 198 201 202 200 199 199 199 200 196 192 192 192 194 194 193 191 187 184 181 180 180 181 178 175 176 176 178 177 171 169 169 170 169 162 159 169 177 174 171 171 166 160 160 160 164 168 168 167 168 170 171 172 174 171 166 168 168 165 166 172 177 178 180 180 178 179 177 176 181 181 178 171 165 170 172 171 171 167 164 165 163 168 177 180 178 180 187 185 179 180 180 174 174 183 193 191 187 187 188 190 196 201 202 193 190 193 193 191 184 180 180 176 176 178 177 172 165 162 165 174 175 167 162 154 149 148 149 151 155 160 166 168 167 168 168 165 165 167 171 173 178 182 179 176 173 177 184 188 191 189 183 180 186 188 181 178 181 183 179 169 165 173 186 192 191 185 180 182 184 186 190 192 192 195 202 206 206 209 212 210 197 181 177 174 181 193 198 205 209 207 205 208 211 211 217 223 224 225 227 230 231 233 236 239 241 239 235 235 236 239 239 236 236 235 229 233 241 243 240 236 238 240 238 236 238 241 242 242 244 244 240 240 242 242 242 240 236 236 239 240 238 228 225 226 224 219 211 207 207 -9999 
-9999 157 183 191 189 186 182 177 175 172 167 171 169 165 169 173 173 176 182 193 204 207 205 203 204 205 204 207 208 209 210 208 204 199 195 196 196 193 192 193 193 194 195 198 201 199 194 189 184 182 182 181 180 179 174 174 180 179 174 169 165 162 162 162 169 178 181 179 174 170 170 173 177 179 180 177 176 182 186 186 190 197 198 194 190 192 194 191 187 187 187 190 191 191 192 193 194 200 203 200 194 190 185 182 186 192 192 185 183 185 190 196 197 197 200 199 196 200 207 209 206 204 206 208 207 204 200 197 199 198 193 189 185 181 186 193 190 185 185 186 184 185 193 198 194 194 195 197 200 197 195 198 201 202 200 197 195 195 193 191 191 190 187 185 183 181 181 183 184 183 181 181 182 183 179 173 169 166 167 167 162 166 179 180 172 166 164 161 160 162 160 163 169 166 164 166 168 167 169 173 169 164 167 170 165 165 171 175 173 175 175 173 173 175 181 183 177 172 166 163 172 175 172 172 169 166 166 166 173 180 180 178 182 182 178 174 176 174 171 176 183 189 188 185 189 190 189 193 198 202 198 196 191 189 193 190 185 185 190 192 189 182 176 171 170 176 184 182 173 166 160 155 153 155 157 165 171 172 173 171 171 172 168 167 171 175 176 178 182 181 178 179 184 188 191 192 188 183 182 190 191 183 182 186 184 175 165 164 178 190 191 186 178 174 176 179 182 188 193 196 200 205 207 205 204 205 199 183 170 173 180 194 204 206 210 210 207 207 212 212 213 223 228 228 229 232 234 235 238 236 236 238 235 234 237 238 239 238 236 236 234 230 236 242 240 238 239 242 243 237 235 238 237 240 245 246 245 239 239 242 241 241 240 239 238 239 238 231 226 226 225 221 216 211 209 207 -9999 
-9999 166 186 185 181 180 182 183 184 179 173 171 165 162 166 171 172 175 183 194 202 208 212 213 210 205 203 204 205 206 208 207 204 196 189 190 190 190 194 195 190 187 189 194 196 192 188 186 184 184 183 181 179 178 176 177 176 171 168 166 161 159 161 166 175 183 183 176 166 164 168 173 177 179 180 179 179 182 184 187 192 194 189 184 186 192 193 191 191 193 196 198 193 187 186 188 190 193 196 196 193 192 186 184 188 192 191 190 191 191 193 196 197 193 190 190 196 204 206 202 200 203 206 205 203 204 203 199 196 193 190 187 185 180 180 182 182 181 181 180 181 190 202 203 193 190 190 192 195 194 197 202 203 202 199 196 195 195 192 190 189 185 182 184 184 182 183 186 186 182 179 181 185 185 178 172 168 168 171 171 167 175 184 173 162 162 162 162 162 164 163 166 167 161 162 168 172 171 171 174 169 160 166 170 163 159 165 168 167 170 171 169 169 176 181 176 171 172 167 166 174 175 174 173 172 169 171 176 184 188 184 182 184 182 178 175 176 174 174 181 183 186 187 185 187 190 188 189 196 203 202 195 182 182 192 191 186 187 194 196 188 182 184 184 183 184 186 184 177 170 162 157 159 164 167 175 178 181 182 177 177 179 173 169 174 178 176 174 179 182 181 183 187 190 193 193 188 183 186 194 194 187 185 185 178 170 164 169 186 194 190 183 177 173 174 178 184 191 197 199 202 205 206 202 197 194 186 172 170 181 192 201 208 210 211 209 206 212 218 216 218 228 231 232 233 234 234 236 238 234 233 237 234 234 238 239 238 237 237 237 232 232 239 243 240 238 241 243 242 237 236 240 236 240 247 245 244 240 239 241 240 239 240 241 238 236 233 227 227 227 224 218 215 213 211 208 -9999 
-9999 172 184 179 175 177 182 185 185 179 175 171 164 163 166 171 174 181 190 198 204 212 217 217 211 207 205 202 200 200 200 200 200 195 188 183 182 186 191 192 191 191 189 191 192 188 187 186 186 187 182 178 176 176 180 179 170 167 169 169 168 169 171 171 173 175 174 170 166 167 172 176 179 181 185 189 191 190 188 189 189 184 179 183 192 194 193 191 190 195 201 200 191 183 184 188 191 191 189 188 192 195 194 193 191 189 190 195 201 204 205 202 197 193 192 192 199 206 206 202 202 208 212 207 202 201 204 205 200 191 184 186 190 190 182 175 173 177 182 183 184 191 196 191 183 188 194 193 192 191 194 196 196 195 189 183 184 188 189 190 187 179 180 185 184 179 180 184 183 178 176 180 183 180 173 167 167 169 173 175 173 179 177 163 158 161 160 160 167 170 169 168 163 161 167 175 177 172 170 174 168 160 166 168 158 154 163 169 170 172 173 171 171 175 173 168 172 176 169 167 173 176 177 175 172 173 180 185 189 188 184 183 185 188 183 177 176 176 180 185 185 186 187 184 186 190 186 184 191 197 194 181 171 180 193 192 185 185 190 191 189 193 201 199 193 187 185 186 182 174 167 170 179 184 183 182 184 190 191 187 188 186 173 169 176 181 179 176 180 182 181 182 185 187 190 190 185 181 187 195 193 183 179 175 168 164 160 168 184 190 186 181 179 176 178 185 193 198 201 201 201 205 206 198 190 186 179 173 179 191 198 204 209 210 210 208 209 217 223 221 224 231 233 233 234 235 234 236 238 234 233 237 235 235 238 238 236 235 236 235 233 235 241 242 239 239 240 240 241 242 238 239 238 241 246 244 243 242 242 242 240 238 239 240 237 234 230 227 230 227 222 219 217 215 211 207 -9999 
-9999 163 174 174 176 180 182 180 175 171 170 170 172 178 182 185 189 194 199 205 209 213 214 211 207 206 205 204 200 195 193 196 193 186 184 186 186 187 186 185 184 187 189 193 194 189 186 184 186 184 177 172 170 168 166 159 159 167 170 170 173 173 172 171 169 167 167 169 169 170 173 175 176 175 176 181 189 192 189 185 183 180 182 193 199 195 192 190 191 195 198 195 190 190 194 195 195 194 189 188 193 198 199 199 197 195 196 199 204 206 204 199 196 197 199 199 199 203 205 204 208 211 210 205 200 197 199 202 199 189 186 187 182 174 166 162 166 174 179 185 191 188 181 176 180 191 194 191 190 189 187 184 186 185 176 168 174 182 186 185 178 173 177 183 179 175 178 180 179 176 178 180 177 173 167 165 169 172 176 177 174 173 169 161 161 163 160 165 174 172 169 166 161 163 171 178 175 165 165 170 167 164 166 163 156 158 172 179 178 176 175 175 175 174 171 172 179 177 168 167 171 176 178 176 173 175 182 185 185 181 178 180 185 190 185 176 173 175 182 187 189 189 186 185 189 190 185 185 190 192 185 172 170 185 198 194 185 186 190 191 196 204 209 205 196 188 190 194 189 182 181 187 193 192 187 184 190 195 194 194 197 187 170 170 177 181 181 179 181 182 181 181 182 183 185 184 179 178 187 194 191 180 171 166 162 161 161 169 182 184 181 182 182 181 186 195 201 204 206 204 201 202 202 193 185 182 179 180 188 197 202 207 210 212 212 211 213 221 226 226 228 232 233 232 235 236 233 234 236 234 234 237 237 236 237 236 234 234 234 233 236 239 240 239 239 240 238 238 242 245 241 239 240 242 245 243 242 242 244 245 242 238 237 239 236 229 226 228 231 226 221 221 218 213 208 203 -9999 
-9999 154 166 173 180 184 182 177 173 171 171 175 182 190 193 196 198 199 203 207 207 210 213 210 206 204 201 201 202 197 193 192 186 183 189 194 194 191 188 186 183 179 186 194 191 183 181 182 182 177 171 168 163 153 141 139 153 169 174 172 168 165 161 157 162 169 169 169 171 176 180 177 176 179 182 184 186 188 185 183 184 186 191 194 192 189 189 190 192 194 193 191 192 196 194 185 182 188 193 197 199 196 192 191 195 198 196 195 196 197 196 196 198 199 198 198 197 198 202 207 208 207 203 200 199 195 191 189 190 191 187 180 171 159 148 151 166 176 176 181 185 178 174 175 180 183 181 181 185 186 183 181 181 182 177 178 185 186 181 175 170 172 180 182 176 175 179 181 181 181 179 177 174 171 169 169 171 172 174 173 168 165 164 162 161 161 163 169 171 164 163 163 161 164 170 173 166 158 161 166 166 164 160 158 159 168 182 185 178 173 171 174 177 171 170 179 183 175 168 169 173 175 177 176 171 171 176 181 178 173 173 175 179 182 177 169 167 174 184 190 193 189 184 189 195 192 190 192 194 196 189 179 180 194 204 196 185 187 192 192 197 206 211 207 197 191 194 197 194 194 195 196 195 190 186 186 193 195 192 196 195 182 172 178 181 179 176 174 179 184 184 182 178 178 180 178 174 178 187 191 185 173 163 161 161 162 167 180 189 189 188 189 189 191 195 201 205 205 204 203 196 195 198 191 185 185 185 191 199 203 206 211 214 216 216 214 216 223 228 229 230 231 233 233 235 235 231 232 233 232 232 234 237 238 237 237 237 239 238 238 243 242 240 242 241 242 241 240 243 245 243 240 243 244 243 243 241 242 247 247 243 239 236 238 234 221 222 230 231 226 221 222 216 205 201 199 -9999 
-9999 158 171 183 189 185 180 176 175 176 179 182 183 182 182 186 188 195 203 207 204 204 210 210 207 202 197 197 200 200 197 191 189 196 201 198 197 197 191 185 183 186 193 194 185 178 178 178 177 173 169 166 158 146 142 147 157 166 168 166 163 160 156 159 169 174 172 168 169 179 186 187 190 195 201 202 198 194 193 194 195 195 192 184 180 182 186 186 185 187 190 190 190 191 190 187 188 191 195 200 197 190 184 185 189 193 193 190 189 189 192 198 201 200 201 204 204 202 203 206 206 204 201 198 202 204 197 186 182 182 176 168 165 160 157 165 173 170 167 168 160 155 164 169 167 165 166 169 180 183 177 174 178 183 182 186 189 184 176 172 173 181 189 185 179 176 178 179 181 179 172 172 177 176 174 173 171 170 170 168 161 159 162 163 161 160 163 165 164 161 160 162 161 162 166 166 160 157 160 166 167 163 157 157 163 175 185 179 169 164 165 174 176 166 169 180 177 166 160 160 166 170 173 174 167 164 170 176 168 164 170 170 169 168 166 164 169 178 187 192 192 183 179 190 195 190 189 191 192 193 186 178 183 197 201 191 179 183 189 188 195 207 211 206 195 190 192 192 193 199 202 199 196 190 186 187 192 191 189 190 183 170 170 177 177 175 175 176 182 185 183 177 174 177 179 177 176 180 186 185 175 164 161 163 164 168 181 193 199 199 199 200 201 202 201 203 204 202 197 194 189 194 198 192 189 192 196 203 209 210 211 214 218 219 217 215 218 225 230 232 231 230 233 235 234 235 233 232 234 234 234 236 240 240 239 238 238 241 240 240 244 240 240 244 242 243 242 241 243 244 243 242 245 245 243 244 241 242 247 246 243 240 235 237 233 218 223 230 227 223 221 221 213 199 197 198 -9999 
-9999 167 175 182 185 183 181 184 190 189 185 183 179 175 174 173 180 195 208 211 206 201 204 209 209 202 200 201 199 196 193 192 193 194 192 190 191 193 192 190 189 193 197 193 188 184 179 175 173 170 166 162 158 159 163 164 162 159 158 160 164 166 165 167 170 170 169 167 168 173 177 181 187 193 200 206 205 201 199 195 190 188 186 180 177 179 184 188 187 186 188 191 193 195 200 208 212 207 200 196 192 190 191 193 193 195 199 199 195 190 194 200 203 205 211 215 212 205 201 200 203 205 203 201 205 205 199 188 179 172 164 159 158 156 162 164 154 149 153 150 128 121 130 143 155 161 164 169 177 177 175 179 185 184 179 180 183 183 183 182 182 185 187 182 180 181 180 178 176 169 166 173 177 176 174 173 171 172 171 167 159 160 167 165 162 161 164 166 166 165 161 160 159 160 162 160 157 158 161 167 169 164 158 159 165 173 176 167 160 158 162 171 168 160 166 172 167 161 159 159 165 169 171 173 168 163 169 171 159 159 170 171 167 169 172 172 174 179 185 188 186 180 182 192 193 184 181 181 182 181 174 171 178 191 195 186 176 179 185 186 195 205 204 196 189 186 185 186 191 199 201 199 195 189 185 185 190 192 188 187 180 172 173 176 179 184 187 187 186 183 178 173 174 179 183 185 183 183 185 181 174 173 176 175 172 180 194 201 202 202 202 202 205 204 202 203 205 200 192 191 193 196 195 192 196 201 206 209 212 213 215 219 223 221 218 217 222 230 234 234 232 229 232 235 233 234 234 232 235 237 237 240 242 242 240 238 238 239 238 238 242 241 241 244 244 243 240 241 244 244 242 243 246 246 246 245 242 243 246 244 243 240 230 232 232 224 226 227 222 221 222 220 210 197 196 195 -9999 
-9999 160 172 175 177 181 184 190 194 190 184 182 177 179 183 189 201 210 215 219 218 212 209 209 207 205 206 204 198 193 190 192 192 188 186 186 188 189 193 200 200 195 190 189 187 182 175 169 165 161 158 154 156 164 171 170 163 158 159 162 166 166 164 161 164 166 165 164 167 170 171 175 182 189 193 195 196 198 197 194 191 191 191 191 191 187 185 189 192 192 192 196 199 203 208 213 214 207 199 194 192 194 197 199 199 201 205 205 204 200 200 203 208 212 214 212 207 202 200 200 200 198 194 192 186 179 174 163 158 161 162 157 150 147 153 149 131 119 115 104 90 89 94 106 124 141 158 172 171 166 172 181 183 180 179 182 182 183 185 184 182 183 182 181 184 186 184 179 174 169 170 174 173 173 173 172 172 173 169 164 163 170 171 167 164 164 168 168 167 164 158 161 165 165 162 158 160 160 162 168 169 162 157 160 164 167 166 160 157 158 164 170 166 163 168 171 169 169 170 173 177 176 173 174 170 167 173 172 163 168 177 177 175 179 181 178 176 177 180 182 182 183 189 196 193 185 180 177 178 179 177 179 186 194 195 186 179 182 190 194 197 199 192 186 184 184 182 182 188 194 196 194 188 183 184 186 193 193 186 188 189 184 183 183 187 193 193 187 183 180 174 173 177 184 189 192 188 184 187 185 186 192 194 187 180 187 200 204 202 200 200 199 202 203 202 203 202 196 189 193 200 198 195 198 205 210 212 211 211 215 221 225 226 222 219 221 228 235 237 236 233 229 234 238 235 233 233 231 236 238 239 241 242 241 239 238 238 239 239 239 243 244 243 245 246 241 238 242 247 245 241 245 247 247 247 246 244 245 245 244 244 241 227 224 228 227 227 224 220 221 218 211 202 195 192 188 -9999 
-9999 158 172 180 183 182 183 184 184 185 188 185 181 188 198 209 222 225 222 223 227 224 215 207 207 213 213 205 195 187 184 187 190 192 191 192 193 191 189 193 198 199 195 188 182 177 174 169 163 160 158 155 155 160 166 167 165 167 166 164 162 159 156 160 166 165 164 169 174 178 181 185 189 190 189 185 184 188 192 197 202 204 202 202 204 201 197 193 195 202 204 201 199 201 203 205 202 197 195 193 192 194 197 199 201 204 203 201 203 206 206 206 211 216 215 211 209 208 206 203 197 189 182 177 170 164 160 153 156 163 168 164 156 150 149 143 127 104 84 70 69 76 81 86 96 114 139 160 164 165 166 166 170 174 181 184 181 181 179 175 178 183 183 182 185 185 181 177 176 175 175 175 174 175 174 171 170 170 166 162 167 171 167 164 161 162 166 164 163 162 160 168 174 169 160 156 160 160 162 167 166 160 155 162 164 164 164 161 160 164 171 173 172 176 179 178 176 175 175 173 175 174 173 173 171 173 176 174 174 182 185 185 184 183 181 179 179 179 181 183 183 185 191 194 187 181 179 179 182 186 189 192 195 195 192 186 184 189 196 198 197 193 185 181 183 185 182 179 184 189 192 191 186 186 190 194 198 192 184 190 188 182 185 188 190 192 188 181 181 180 177 179 186 191 192 191 186 185 192 194 195 198 195 186 180 191 204 206 202 199 197 197 201 202 200 198 195 191 189 197 204 202 200 205 211 216 216 212 212 220 226 227 224 223 222 225 231 236 238 237 234 231 235 239 234 232 235 235 239 241 241 240 241 240 240 240 240 241 240 240 244 245 244 247 245 238 239 244 247 245 242 247 248 247 247 245 244 245 245 243 241 237 226 220 223 224 225 222 217 216 209 198 199 197 187 181 -9999 
-9999 163 176 184 186 184 183 184 188 191 191 190 191 200 208 214 220 223 221 219 222 224 222 219 219 218 214 203 191 185 184 187 190 191 193 196 196 193 190 190 194 199 199 192 186 184 183 182 180 176 170 164 163 164 160 159 169 175 171 164 159 157 161 166 166 164 168 174 182 188 188 186 184 187 190 187 181 181 186 189 191 194 196 197 198 199 197 196 199 203 204 199 196 195 196 194 191 193 197 196 195 196 198 200 203 203 200 195 198 205 208 208 209 210 210 211 212 212 206 200 197 193 188 182 177 172 169 170 175 171 162 161 162 154 142 130 118 102 87 78 80 80 73 80 95 113 129 139 148 159 163 166 174 181 185 182 178 179 176 173 177 181 179 180 181 178 176 176 176 175 175 177 177 178 177 173 169 164 161 162 167 166 159 156 154 156 161 160 159 159 162 168 166 158 151 153 158 161 166 168 166 164 163 168 168 166 168 166 165 170 171 170 175 181 182 178 175 173 168 166 170 171 174 175 175 178 175 174 181 189 186 186 185 178 174 176 179 179 182 184 183 184 188 185 174 173 179 184 188 194 198 198 194 187 185 187 190 192 192 194 192 187 183 185 187 185 180 179 186 193 197 198 195 193 197 200 200 188 180 184 181 180 189 193 192 192 189 187 188 187 187 192 196 195 190 187 186 190 198 199 199 198 193 185 182 194 205 206 201 197 195 197 202 201 196 194 193 194 195 202 208 205 203 209 216 219 216 211 215 223 226 224 222 222 222 226 233 237 236 237 235 232 233 234 232 234 236 238 241 243 241 238 239 240 241 242 242 242 240 240 243 245 246 246 241 238 241 245 247 244 244 249 250 248 246 243 242 243 242 238 233 230 227 224 223 222 222 219 213 212 209 201 203 198 183 181 -9999 
-9999 165 184 189 187 185 184 185 187 187 187 191 198 206 213 220 224 225 223 221 220 224 230 232 227 217 206 197 191 192 194 196 194 189 190 193 192 194 196 194 191 189 188 188 186 182 179 181 183 180 171 166 168 167 162 162 169 170 167 164 162 162 165 167 169 173 171 169 175 180 180 183 188 191 194 195 190 189 188 184 180 181 186 189 190 190 191 198 203 202 199 193 191 194 195 191 187 190 196 199 200 200 199 201 203 201 197 195 201 206 209 209 203 198 199 202 201 198 197 195 192 191 188 182 179 179 176 173 172 164 152 146 138 130 128 122 112 103 104 110 116 106 90 92 98 106 115 120 132 150 163 172 179 183 182 176 171 172 170 170 176 178 175 173 172 171 174 175 172 171 173 176 176 179 180 175 169 162 160 164 167 163 155 152 151 155 160 160 158 158 162 159 151 148 149 156 163 167 169 169 170 171 172 172 168 168 168 167 168 172 166 167 175 177 174 170 167 165 162 165 169 169 172 176 180 179 172 174 184 185 176 175 177 171 168 174 178 179 181 183 183 181 180 173 166 172 184 191 195 198 197 194 186 178 179 185 191 188 186 190 189 185 186 190 189 183 181 186 194 198 201 203 198 193 194 199 194 177 170 175 177 184 193 192 186 190 196 197 195 192 194 198 199 193 185 183 186 195 200 201 199 197 193 188 188 197 204 204 200 196 196 200 203 201 197 195 196 198 200 205 208 208 211 216 221 220 214 211 218 224 224 221 221 222 223 229 235 235 234 237 235 230 229 231 234 236 237 239 241 240 238 236 239 242 243 243 242 240 240 240 242 244 244 243 240 241 244 246 246 244 246 249 249 248 247 243 240 239 237 235 233 233 233 230 226 222 221 219 212 212 211 206 204 195 182 184 -9999 
-9999 179 193 193 189 187 185 184 183 180 180 189 201 209 215 222 226 226 226 225 223 223 225 223 216 207 198 192 192 195 194 195 195 194 192 188 185 186 189 192 192 189 185 181 177 174 172 173 174 170 163 161 165 167 167 169 170 167 166 166 165 162 161 164 171 175 170 168 173 176 178 186 195 197 196 195 195 196 193 188 185 186 190 193 195 198 205 210 211 211 205 194 191 196 198 195 189 186 187 193 198 200 200 201 201 199 199 204 209 209 208 206 200 194 197 199 193 187 189 190 185 182 180 177 177 177 175 172 167 159 149 134 116 112 117 116 113 114 123 131 132 126 121 120 105 95 96 111 135 156 170 171 170 172 173 170 167 167 170 173 176 177 173 170 170 171 176 175 170 172 176 175 173 176 178 172 167 164 166 170 169 163 154 152 154 160 164 161 157 159 163 155 148 154 160 166 170 170 169 170 171 169 170 166 161 164 164 163 167 171 167 175 183 178 171 166 165 162 164 170 171 170 172 177 180 175 167 172 178 170 161 162 168 166 166 174 178 179 178 177 178 175 173 172 173 181 192 198 198 195 190 183 175 171 176 186 190 184 184 190 189 186 187 190 186 183 187 193 197 197 197 198 193 186 187 190 181 168 169 176 181 188 190 183 179 189 198 198 193 191 193 195 194 190 185 184 190 197 198 196 194 191 192 191 193 200 203 199 196 194 197 202 204 202 199 197 197 199 202 205 209 214 219 222 223 219 215 215 222 225 223 222 224 226 227 231 233 233 234 238 234 229 229 233 237 236 236 237 237 236 237 236 238 242 243 242 240 238 237 238 243 244 244 245 245 244 247 248 245 244 247 248 248 247 247 245 241 235 235 239 238 234 233 232 228 222 221 218 210 209 209 207 204 194 183 187 -9999 
-9999 186 190 190 192 193 194 193 189 184 185 197 208 214 220 222 221 220 225 227 227 225 220 209 200 196 193 190 194 195 191 189 191 197 198 192 187 185 185 190 195 192 181 174 170 169 172 175 174 168 161 162 166 167 168 169 168 167 168 169 167 163 163 165 168 171 170 173 180 185 189 192 193 194 192 188 188 193 194 195 197 201 202 203 206 211 212 210 211 213 207 200 201 203 205 199 187 181 182 188 195 199 201 201 203 205 206 206 207 208 206 203 200 198 198 196 193 193 190 183 179 178 178 175 171 166 162 161 160 151 144 139 132 125 116 115 119 122 128 128 125 127 135 140 127 107 106 129 149 155 163 167 170 171 170 170 169 169 173 174 177 179 175 177 181 183 182 178 174 176 179 176 174 178 176 170 166 164 166 169 168 162 153 153 159 167 170 164 159 160 164 156 155 167 171 171 169 166 167 168 167 165 163 156 156 162 163 164 168 171 171 181 184 175 168 168 169 165 168 171 168 169 175 179 177 169 163 169 170 159 156 163 170 168 167 172 175 176 171 169 172 171 175 183 186 189 196 198 194 188 182 176 171 172 179 188 190 184 185 189 185 183 187 189 184 183 190 192 194 194 191 188 184 181 181 180 172 167 172 180 183 186 184 179 180 189 196 195 191 189 190 192 193 191 189 191 196 196 187 184 185 187 195 198 197 199 199 195 193 194 198 202 205 204 200 198 199 204 208 211 215 219 223 225 222 218 217 220 226 227 224 225 227 229 230 232 233 233 235 236 232 230 233 237 237 235 235 237 237 238 240 239 238 240 240 239 238 237 237 240 246 247 245 247 248 246 247 248 243 243 247 247 246 246 249 247 241 236 238 242 240 233 230 231 229 222 218 214 209 208 209 209 204 194 185 187 -9999 
-9999 182 185 188 193 198 202 206 205 203 209 215 218 223 228 228 228 227 228 230 230 225 217 205 196 192 190 189 189 188 186 186 188 192 193 192 190 188 185 183 182 176 171 171 166 166 168 170 169 165 163 165 164 163 164 163 164 165 168 168 165 164 167 166 166 166 167 176 182 186 192 193 188 186 187 186 189 194 197 200 205 209 208 205 209 213 209 205 207 207 202 202 205 207 206 199 189 185 188 194 197 199 198 198 201 204 202 199 200 201 201 199 199 200 194 186 186 193 190 183 182 181 177 172 167 163 161 158 149 143 150 148 136 125 118 120 119 118 120 120 125 133 139 141 141 141 141 146 155 159 162 160 163 166 169 171 173 175 177 177 179 180 177 180 186 188 185 180 177 176 177 177 178 181 178 170 164 160 163 165 167 162 155 158 165 169 170 164 158 161 165 163 166 174 172 167 164 162 162 162 163 162 158 155 160 163 161 160 164 167 169 174 170 163 163 167 169 169 171 170 165 172 181 181 176 168 165 170 170 164 169 178 179 172 171 174 176 174 166 168 178 180 184 190 190 189 191 191 185 180 176 173 175 179 185 191 189 183 185 186 182 181 184 185 182 185 187 185 187 189 185 180 178 178 178 173 168 167 174 181 182 181 180 182 183 187 193 193 191 188 188 190 193 192 190 192 196 193 187 190 193 196 202 200 194 193 193 190 191 197 202 204 205 202 198 199 204 212 217 219 220 222 226 226 222 218 220 225 230 229 226 227 229 231 231 232 234 235 237 237 236 237 237 237 236 235 236 237 238 240 242 240 238 240 241 241 241 242 243 244 248 249 244 246 249 249 248 246 244 246 247 247 245 244 247 247 242 240 242 242 237 229 228 231 228 220 215 212 210 209 210 207 199 191 184 183 -9999 
-9999 178 186 191 191 192 197 204 212 221 229 231 230 234 235 234 235 234 228 225 224 219 206 196 193 188 183 182 183 180 180 186 187 185 185 187 188 188 184 179 173 170 173 173 169 167 163 162 161 160 160 161 161 162 163 161 162 163 163 163 162 165 169 172 172 163 162 172 181 185 188 191 190 189 189 192 197 201 201 200 200 200 201 203 207 207 202 203 205 204 202 202 203 201 197 192 192 196 199 199 196 192 192 194 197 196 193 193 195 194 192 192 192 193 190 187 184 181 178 177 182 185 178 169 167 166 166 159 146 149 161 145 125 121 120 119 113 111 117 121 126 131 131 128 133 146 143 131 130 139 145 143 150 162 172 177 180 182 184 187 185 181 177 179 183 184 181 177 175 174 176 176 176 177 173 168 162 161 165 166 167 164 158 159 160 159 160 159 157 166 169 166 174 175 165 159 159 160 158 159 162 162 158 157 161 158 153 153 159 163 165 164 159 160 167 168 171 173 171 166 165 175 182 177 170 166 167 172 172 170 177 180 171 161 165 173 173 169 166 173 183 185 186 188 187 185 187 187 184 181 179 179 182 185 189 189 186 183 186 189 185 183 184 184 184 184 179 176 180 184 180 175 174 175 172 166 165 169 177 183 181 179 181 184 183 185 192 194 190 187 187 188 190 189 187 188 192 194 195 202 204 201 201 195 187 188 189 190 195 205 209 207 205 201 200 203 211 219 223 223 223 224 227 227 222 219 223 230 232 230 228 230 231 231 231 232 235 238 239 239 240 240 237 235 235 237 237 235 238 242 243 239 239 243 244 244 244 246 247 246 247 248 242 246 251 250 249 246 246 249 248 247 245 244 245 245 243 243 242 240 233 225 227 231 228 219 213 212 214 213 208 200 193 189 184 177 -9999 
-9999 183 193 201 201 197 195 200 211 223 231 235 238 239 238 238 238 235 226 218 214 204 189 186 188 185 183 185 184 179 180 184 183 180 181 183 186 188 188 188 186 186 183 177 176 173 169 165 159 156 157 158 161 165 165 164 163 159 154 152 155 162 168 173 173 168 170 176 184 188 189 190 195 198 199 199 201 202 203 202 202 200 200 207 211 205 200 205 208 207 205 204 204 200 193 191 196 202 203 196 188 187 190 196 200 198 196 198 199 194 186 183 189 194 198 199 193 184 178 176 179 178 171 165 160 160 164 163 158 157 147 123 113 116 112 110 112 118 128 130 130 132 127 121 127 130 119 104 94 94 103 120 143 162 172 175 179 180 182 184 183 183 182 182 183 181 176 173 173 175 177 176 172 166 163 164 165 164 163 162 164 159 147 146 149 153 161 165 166 171 168 166 172 165 154 153 158 161 159 163 166 163 157 155 156 154 151 154 161 166 167 165 165 172 175 170 172 173 168 161 164 174 175 167 164 165 166 168 168 167 169 166 156 153 161 166 164 164 169 177 182 183 184 185 185 185 186 188 189 190 188 187 187 186 187 183 181 185 190 194 189 184 183 184 185 179 170 170 175 177 172 169 169 167 164 162 165 173 181 182 178 179 183 185 184 185 191 194 187 183 187 190 190 188 186 189 194 195 198 203 199 194 193 188 185 188 193 197 204 212 214 212 208 205 208 214 222 226 226 223 221 223 225 226 224 222 226 232 232 230 230 232 232 231 232 232 236 241 241 238 239 239 235 234 237 241 239 235 240 243 241 240 242 245 244 242 242 245 248 247 248 247 243 247 251 250 249 247 248 250 249 246 245 245 245 244 244 243 240 236 230 226 230 232 228 218 211 212 218 216 207 199 189 189 186 177 -9999 
-9999 191 200 204 210 214 212 212 216 221 225 230 236 238 236 234 231 227 222 217 210 197 190 190 185 181 180 179 176 177 186 190 181 176 178 181 181 182 184 187 188 184 171 163 167 171 174 169 162 159 158 159 159 158 157 155 153 151 147 147 150 156 160 160 160 167 182 190 189 189 187 185 191 201 206 201 198 200 201 203 206 207 205 205 206 204 205 210 210 207 205 207 207 200 193 196 202 206 207 199 193 195 195 195 197 200 200 200 201 198 194 193 193 193 196 195 189 185 181 181 180 171 167 167 162 159 164 163 152 139 121 103 99 104 105 110 120 129 132 131 140 144 133 127 124 112 96 87 82 80 89 107 133 154 164 167 173 178 182 181 179 184 186 186 186 182 175 172 172 175 175 172 167 162 163 166 166 160 157 161 166 159 150 156 160 166 176 177 173 167 161 163 163 153 149 156 165 168 165 169 168 159 154 154 155 154 153 155 162 166 167 167 169 171 166 163 167 170 161 153 163 174 172 165 165 167 165 163 161 160 159 155 154 161 170 175 171 171 178 183 185 187 187 185 183 184 186 188 191 191 189 187 184 180 180 179 181 184 186 186 181 176 177 180 178 170 165 167 171 169 166 165 164 160 159 164 171 177 182 182 181 185 187 186 184 184 190 194 186 185 190 188 187 186 189 194 197 197 199 199 194 191 190 191 194 198 203 205 208 213 215 215 210 207 215 224 229 229 224 219 219 222 225 227 227 228 229 230 229 230 234 234 233 233 234 234 238 242 239 235 236 238 236 236 239 241 238 235 240 242 241 241 244 244 242 240 241 246 248 248 249 248 246 249 249 248 248 248 249 250 249 246 245 245 245 243 242 241 238 235 233 231 230 231 227 217 209 212 218 216 210 203 188 186 185 179 -9999 
-9999 198 204 205 210 216 222 227 228 226 226 227 232 235 233 226 219 215 216 215 210 201 195 190 182 175 173 178 185 190 198 193 179 183 188 186 179 176 174 174 175 169 159 156 159 164 166 165 164 159 155 155 151 145 145 143 138 141 148 152 151 151 151 151 156 172 194 204 202 195 191 192 196 202 206 201 202 206 205 204 204 203 202 197 193 196 202 206 205 201 198 197 196 195 198 201 202 205 209 207 206 206 201 193 188 191 196 198 200 201 200 199 193 185 178 174 174 178 179 179 178 178 174 172 170 166 166 157 140 128 118 111 109 109 109 116 128 130 124 126 136 135 126 125 121 110 103 104 99 92 95 109 128 143 153 164 175 179 179 177 178 183 185 185 186 183 176 170 169 172 169 163 162 162 167 168 163 156 157 165 167 161 162 167 166 171 181 177 167 159 158 160 157 153 154 162 168 165 162 163 160 153 152 155 154 151 152 155 161 163 166 166 165 161 160 163 165 164 156 151 166 176 170 164 163 165 164 161 160 159 155 155 163 173 183 183 174 176 183 185 186 190 189 183 179 181 185 187 189 189 185 182 176 168 171 176 174 170 171 172 171 171 172 174 172 164 161 166 169 167 167 167 165 162 166 176 181 183 184 184 185 189 188 181 177 180 188 190 184 181 184 183 183 188 192 196 197 199 203 201 199 198 199 204 208 209 212 212 214 217 217 214 207 207 218 226 227 224 219 218 221 225 228 229 230 231 228 227 231 235 237 236 234 234 235 235 240 242 239 238 239 239 237 236 237 236 235 237 239 240 240 241 243 243 243 243 243 247 248 250 251 249 248 248 248 247 247 246 248 249 249 246 245 246 245 241 240 239 237 237 235 231 228 228 226 217 211 213 215 213 209 201 188 184 182 182 -9999 
-9999 206 208 208 212 215 218 222 226 229 231 229 230 233 230 223 219 218 219 216 208 196 189 187 183 181 183 189 195 199 202 192 186 196 197 188 180 178 174 171 169 167 167 171 170 165 162 163 165 161 157 153 145 145 150 148 147 155 160 158 150 145 148 159 175 191 202 206 205 201 202 208 209 207 208 208 211 209 205 205 204 204 201 194 191 194 198 200 197 194 193 190 191 198 205 202 197 199 200 199 200 201 198 192 188 188 195 201 202 198 193 194 197 194 180 169 171 180 181 178 178 175 168 168 172 173 171 153 132 124 116 109 107 108 114 122 130 129 127 124 119 115 113 116 126 138 145 141 119 95 90 102 119 135 149 160 168 170 167 169 177 183 183 181 180 178 174 171 172 174 168 164 165 167 168 166 162 158 163 168 165 164 167 164 159 168 175 167 156 154 157 158 157 157 160 165 163 155 152 153 151 147 146 147 146 148 154 159 162 164 167 166 162 161 164 164 160 160 157 159 172 174 166 162 161 165 165 161 161 159 158 164 173 179 181 169 159 171 181 181 179 180 178 172 172 180 187 189 191 189 182 175 167 163 170 172 162 158 163 168 171 172 171 170 169 163 163 167 169 169 169 170 170 171 179 186 187 184 183 182 183 187 186 178 176 181 186 184 178 175 179 184 189 195 196 196 198 201 202 199 200 200 204 211 212 212 214 216 217 217 215 211 206 209 219 222 221 219 217 219 225 228 228 228 228 228 227 229 235 239 237 235 234 234 235 235 241 243 241 241 241 239 237 235 235 235 237 240 240 239 239 241 244 245 245 244 245 248 249 251 250 249 247 245 247 246 247 246 247 249 250 247 245 246 245 240 239 239 238 237 234 228 225 227 227 218 210 211 210 208 203 195 189 188 187 187 -9999 
-9999 210 209 208 211 217 217 214 218 226 232 230 227 227 225 222 221 219 216 210 200 191 186 184 185 191 194 192 192 195 196 193 197 202 194 183 176 176 174 173 173 170 168 169 168 164 162 164 166 164 161 155 152 157 162 162 166 173 172 169 163 159 165 179 192 197 199 199 199 203 208 211 211 209 209 209 207 201 196 199 204 204 200 200 206 205 201 200 198 198 199 199 198 201 202 198 196 196 196 195 194 194 191 189 193 197 200 198 192 187 188 197 202 199 186 183 182 177 171 171 171 166 161 165 170 169 164 146 130 123 112 107 104 102 114 122 120 122 126 122 116 119 123 129 141 151 153 146 121 97 89 92 97 106 130 148 154 154 157 168 179 184 182 179 175 173 173 173 177 179 173 169 169 169 168 167 166 167 173 172 169 170 170 164 157 162 166 159 152 154 156 158 160 158 161 163 158 152 150 151 149 145 142 140 143 150 156 158 159 162 166 163 160 159 160 156 154 160 163 167 173 172 165 162 161 166 168 165 162 160 163 171 176 177 171 157 156 171 177 171 168 169 167 165 171 183 189 188 185 181 173 167 164 165 170 168 161 162 168 174 178 178 175 171 171 169 165 166 170 171 170 171 173 179 185 186 183 179 179 180 181 183 181 175 176 182 184 182 178 179 184 188 191 196 196 197 199 197 192 186 190 198 207 212 211 210 212 214 213 211 210 209 208 214 220 220 219 217 218 222 226 228 227 227 227 228 229 233 238 239 236 235 236 235 235 236 241 242 240 239 237 235 235 234 235 237 239 241 240 239 239 243 246 247 245 244 247 249 250 250 248 247 246 246 248 247 248 248 247 249 250 247 245 247 245 242 241 239 237 235 232 226 225 228 227 217 206 205 206 204 200 194 191 195 194 193 -9999 
-9999 218 218 215 215 221 227 227 227 227 229 230 225 222 222 220 217 211 206 199 192 188 184 183 187 192 192 191 193 191 184 179 184 188 184 176 171 173 172 173 173 168 165 162 158 158 160 163 164 162 161 163 167 170 173 174 177 179 180 179 176 180 188 191 195 201 205 207 209 211 211 211 210 206 205 204 201 199 200 201 201 198 199 208 212 210 202 201 203 203 201 200 200 202 200 199 197 197 200 200 199 199 194 192 198 200 199 196 192 189 192 197 194 183 178 188 188 176 170 170 169 167 167 167 162 153 149 141 133 124 116 111 101 101 111 113 112 116 121 124 130 137 140 143 148 149 145 147 140 133 129 112 95 97 114 130 136 138 149 166 177 181 181 178 175 176 178 178 181 182 175 168 169 170 171 175 177 179 179 174 172 170 166 161 154 158 164 162 156 156 161 167 163 156 159 160 155 150 149 147 146 143 141 142 149 154 152 153 156 160 162 161 161 160 159 157 160 169 172 170 168 164 161 162 164 167 169 168 164 162 166 173 173 169 163 158 164 171 166 159 162 168 169 171 179 186 187 182 176 170 166 165 166 168 168 167 167 172 178 186 190 186 178 172 170 167 159 164 175 173 168 169 172 179 182 179 175 174 178 181 181 183 181 174 173 179 184 183 180 182 185 186 188 191 194 196 195 191 185 185 195 207 213 211 208 207 209 210 208 207 209 213 215 220 222 221 220 221 224 226 228 228 229 229 229 231 233 236 238 238 236 237 237 235 235 236 239 239 238 237 235 233 233 234 235 239 240 240 240 240 241 246 248 248 246 246 248 249 249 247 246 248 248 248 248 248 250 249 246 248 250 247 245 247 247 245 242 238 236 234 231 226 226 228 224 213 204 203 204 203 200 195 193 197 196 195 -9999 
-9999 228 231 228 225 228 233 237 237 233 229 227 223 222 221 218 211 204 201 196 191 188 185 190 196 193 186 185 189 188 182 177 174 171 169 167 167 171 171 169 168 166 165 163 159 159 163 166 165 163 164 168 174 178 180 184 188 191 191 189 187 197 206 205 204 207 213 217 218 218 218 216 213 208 205 202 203 207 209 205 196 190 196 203 203 198 197 202 205 204 200 199 200 201 200 197 193 195 198 198 200 202 198 199 202 197 192 191 194 196 196 194 185 175 176 181 180 181 181 176 172 168 164 157 147 142 139 128 117 110 101 88 84 99 113 118 123 131 134 136 143 149 147 145 150 152 156 167 173 174 168 141 123 122 121 118 120 133 152 167 176 180 181 179 178 182 183 181 181 177 169 165 172 177 178 180 180 181 178 172 170 164 161 160 157 161 164 161 157 158 168 171 159 154 159 159 151 147 148 147 148 145 143 147 151 151 151 159 161 161 158 156 160 158 158 164 170 176 175 168 161 158 157 163 168 167 166 164 162 160 166 171 168 163 161 162 165 164 159 160 169 174 173 176 182 185 183 179 173 168 169 168 167 168 171 171 173 178 182 187 189 179 166 162 162 161 157 167 178 170 164 167 170 175 177 174 169 170 176 180 182 184 182 176 175 180 182 180 180 183 184 184 185 187 189 190 188 187 189 197 209 216 214 207 206 208 211 212 211 212 215 218 220 221 222 222 223 225 228 229 230 231 233 233 233 234 237 239 239 238 236 237 236 236 236 236 237 238 238 237 235 233 234 237 238 239 240 240 241 242 244 247 248 248 248 248 249 249 249 249 248 249 250 249 249 250 250 249 247 247 249 247 246 247 247 245 241 238 237 234 230 226 225 227 220 210 208 206 204 203 202 199 195 195 195 195 -9999 
-9999 234 237 235 231 231 234 236 236 235 230 225 223 224 222 216 208 202 200 196 187 181 179 187 191 186 183 185 189 190 189 188 181 175 170 169 171 173 172 168 168 169 170 168 165 168 172 171 165 162 164 165 169 176 180 185 190 194 197 197 199 209 216 218 218 215 213 215 216 217 218 217 214 213 209 204 208 210 208 202 191 186 191 196 196 194 198 204 204 201 198 198 199 202 204 199 196 201 198 195 199 200 196 198 200 195 187 183 187 191 190 186 181 180 183 182 177 173 173 174 173 165 154 149 147 143 132 119 109 97 83 75 88 111 125 134 143 151 151 148 149 149 148 151 157 157 161 171 177 175 162 147 141 134 124 113 115 137 162 176 181 183 182 180 182 183 180 176 175 170 165 166 174 179 178 178 176 175 171 165 165 162 160 162 161 161 159 158 158 158 162 159 151 152 156 152 142 144 153 152 150 148 151 153 150 151 161 169 166 160 154 152 156 156 159 167 169 172 171 165 159 157 158 166 167 163 160 160 160 161 166 169 165 162 163 165 165 163 164 173 180 177 173 176 180 179 175 175 170 168 171 171 169 170 174 174 175 179 178 176 172 161 152 156 160 158 155 165 171 163 161 168 173 176 178 174 166 167 174 179 182 182 178 175 177 179 179 181 186 188 185 183 181 182 185 185 186 189 194 202 211 215 210 206 208 212 216 217 217 217 219 221 221 221 222 222 224 226 228 229 231 235 237 236 235 237 239 240 239 238 237 236 235 236 237 236 236 237 237 237 236 234 236 239 239 239 239 241 243 244 246 247 247 247 249 250 248 248 250 250 248 249 250 250 250 250 249 248 248 248 247 246 246 248 247 243 241 240 239 235 228 223 221 224 219 212 212 208 205 203 202 200 196 194 195 194 -9999 
-9999 237 238 240 239 238 237 235 232 232 230 226 223 220 216 210 202 198 199 194 181 178 180 184 184 180 181 182 183 186 188 187 183 180 177 176 177 178 173 169 172 174 174 171 171 174 175 168 161 159 162 160 163 170 176 185 188 192 197 200 205 213 216 217 221 222 216 212 212 212 210 209 210 212 209 211 215 212 207 205 201 199 199 199 199 199 200 200 196 192 194 196 199 204 207 204 205 207 200 195 197 195 192 194 195 194 190 187 185 183 182 179 174 175 178 178 175 170 168 171 171 163 155 154 149 131 115 108 92 76 73 83 106 123 131 138 144 145 143 149 155 153 154 156 157 158 161 165 166 163 157 154 146 134 125 119 122 137 159 175 178 180 182 182 183 180 175 171 168 166 166 171 176 179 179 177 174 171 164 160 164 164 161 162 160 156 154 159 160 154 153 152 149 148 147 143 138 147 156 150 146 150 154 153 151 160 170 171 163 157 152 155 164 164 163 164 161 162 163 161 161 161 164 168 164 159 153 155 162 167 168 165 161 159 160 163 165 165 170 178 180 176 175 177 180 178 176 176 173 171 172 171 170 169 170 170 170 173 172 163 157 151 148 156 160 156 156 162 163 157 161 168 171 173 176 171 163 168 176 180 181 177 174 176 179 181 186 195 198 191 183 180 177 179 182 183 184 188 193 199 205 208 208 209 212 217 219 219 217 217 221 223 223 222 222 223 225 227 229 232 237 239 239 237 236 237 239 239 239 239 238 237 237 237 239 237 234 234 235 237 236 234 236 239 240 239 239 243 246 245 246 247 247 248 251 251 248 248 249 250 248 248 249 250 250 249 246 247 248 248 247 246 246 248 245 242 242 242 242 237 226 219 217 222 222 216 213 208 205 202 201 199 197 195 194 193 -9999 
-9999 243 244 245 245 244 242 238 234 231 231 230 226 218 212 206 204 204 201 191 185 192 194 191 186 181 180 177 178 180 181 178 172 173 176 177 176 174 171 172 175 174 171 169 168 168 163 156 155 157 158 153 156 164 174 185 189 193 196 202 209 216 221 222 223 223 218 214 213 213 210 206 204 203 205 213 216 212 210 213 214 217 217 211 204 198 195 192 189 188 193 196 200 201 199 194 196 199 199 200 198 194 195 199 199 198 194 188 182 180 181 176 170 167 167 168 168 167 165 161 157 152 148 141 124 106 96 89 69 64 84 106 124 127 127 131 132 129 131 144 152 152 151 145 143 151 158 159 159 161 168 174 163 143 132 132 133 130 132 143 156 169 176 177 175 172 170 169 170 168 166 170 174 179 179 174 172 169 165 164 165 160 154 154 155 153 153 158 158 152 152 151 148 148 149 144 144 155 157 147 146 150 153 152 155 164 164 159 154 150 150 160 171 170 165 163 160 161 161 159 162 166 171 172 167 161 154 156 167 171 166 160 156 155 156 161 164 168 173 176 175 174 175 179 183 185 183 180 177 173 170 169 167 163 160 158 154 156 157 150 153 153 148 153 159 161 163 162 157 155 160 163 162 161 164 163 163 171 178 178 178 177 179 182 182 185 193 199 194 183 176 174 173 177 180 180 181 184 188 194 197 200 204 209 215 220 220 217 215 215 221 226 225 224 225 227 230 231 234 239 241 239 238 237 237 238 237 237 238 239 239 238 237 238 240 237 232 233 237 239 238 236 239 241 240 240 241 246 247 245 246 249 249 250 251 249 247 246 248 250 249 247 247 248 248 248 246 248 250 250 249 247 246 247 244 243 243 242 242 238 227 218 216 221 223 219 214 208 203 201 199 198 198 197 192 192 -9999 
-9999 245 245 244 245 245 243 238 233 230 230 230 228 222 212 206 209 207 198 191 189 195 195 189 183 180 182 183 183 180 174 167 162 167 174 175 172 169 170 173 174 171 168 165 164 160 152 148 150 153 154 155 164 171 178 186 193 197 200 207 216 224 228 228 224 222 218 216 216 216 214 210 207 207 211 212 209 205 205 206 210 217 220 213 200 192 191 192 192 193 195 197 199 197 194 189 190 191 192 195 198 199 199 199 200 197 191 185 183 182 181 178 177 173 167 162 156 154 157 152 142 135 129 120 108 100 96 87 71 79 107 117 122 127 134 135 134 136 142 147 143 144 146 145 148 156 159 157 157 161 176 190 186 166 149 139 135 132 127 135 156 172 175 173 170 171 171 171 173 170 169 172 175 179 175 170 170 170 170 169 165 158 155 156 157 155 156 160 157 151 151 149 148 153 153 149 153 159 156 148 148 152 155 156 161 163 157 153 149 148 155 165 170 168 164 165 166 169 168 164 166 168 170 171 169 167 161 164 171 170 163 157 154 153 156 163 166 173 179 177 175 173 173 177 183 183 178 174 172 170 167 166 167 162 157 154 146 149 154 152 160 160 156 163 170 171 166 159 154 158 163 161 158 152 155 163 167 174 177 175 179 182 185 186 185 187 189 188 181 172 168 167 172 178 180 179 179 179 185 193 197 200 204 208 214 219 220 218 216 216 221 226 226 226 229 233 235 236 237 241 240 237 238 237 238 237 234 236 240 241 240 238 236 238 240 236 232 235 239 241 239 239 241 241 240 242 244 247 245 244 248 249 248 248 248 246 246 247 250 252 249 246 244 247 251 249 246 250 252 250 250 248 246 246 244 243 243 240 239 237 230 220 218 219 221 220 215 206 199 198 197 197 197 197 192 192 -9999 
-9999 247 247 244 243 244 240 234 230 227 223 220 219 215 207 203 200 197 196 193 186 189 191 186 183 183 185 189 190 182 170 164 165 171 175 174 170 168 169 170 170 168 166 164 159 156 154 154 155 156 157 162 170 181 191 195 199 205 211 216 221 226 225 218 216 219 219 216 216 216 213 212 212 211 210 206 201 199 198 195 195 200 200 195 190 191 194 195 195 195 196 197 195 192 192 195 197 193 188 190 193 194 188 182 185 190 191 190 186 179 173 172 172 169 164 158 155 163 166 154 141 133 127 119 107 103 108 106 97 105 112 110 119 137 150 152 152 154 155 150 144 148 154 157 163 162 155 151 156 165 173 182 191 187 164 133 123 130 139 143 155 172 180 174 170 174 171 165 162 163 168 171 175 174 171 171 172 172 170 166 162 160 161 160 159 160 163 165 158 154 157 156 155 161 160 156 157 157 153 151 152 155 159 161 162 161 158 153 151 157 168 170 167 165 164 167 169 169 165 164 170 170 167 165 165 164 161 162 165 164 159 156 154 153 160 168 172 178 179 173 171 172 173 176 179 176 170 165 166 165 162 165 167 163 160 159 155 166 176 170 170 170 170 177 180 172 163 156 155 163 168 168 164 160 169 177 176 175 169 167 177 183 187 190 189 189 187 183 176 170 166 168 177 183 181 178 176 179 191 199 202 205 209 212 215 221 223 221 220 219 224 227 227 230 233 236 238 238 238 241 240 238 239 238 238 236 233 238 242 241 241 238 235 237 239 236 233 237 240 241 240 238 239 240 242 244 245 245 242 242 248 247 245 246 246 245 247 249 251 251 248 245 245 250 253 248 245 252 251 249 249 248 247 245 243 242 240 238 236 235 229 223 219 217 219 221 216 204 196 195 195 194 194 195 193 195 -9999 
-9999 251 251 247 243 240 236 233 231 227 221 216 212 205 200 198 196 194 194 189 185 192 193 188 189 188 187 188 187 182 176 173 172 172 172 172 171 170 170 168 164 159 160 162 158 157 161 165 170 172 172 173 178 191 201 202 202 207 214 218 220 223 224 224 220 219 219 221 222 219 215 214 212 206 199 196 197 198 198 193 190 190 187 185 187 193 197 195 192 192 194 194 191 189 189 191 192 192 194 197 195 189 186 187 186 184 185 185 180 175 171 167 167 168 168 164 167 172 163 147 140 141 139 130 116 112 104 90 93 105 108 115 133 148 153 151 150 149 151 155 159 160 158 162 168 168 159 153 164 178 181 179 179 172 152 134 128 132 143 145 139 141 157 170 167 161 151 142 148 157 160 167 176 178 175 175 175 174 169 164 161 159 161 159 159 164 164 160 156 155 158 156 158 166 166 160 155 153 152 153 154 158 164 163 159 157 155 152 155 168 177 172 163 164 168 167 166 165 162 166 171 168 165 164 163 160 156 154 157 160 160 159 160 161 168 173 173 174 171 166 166 169 171 175 176 173 165 158 159 161 162 167 166 161 160 164 167 180 185 172 166 169 171 173 171 162 155 155 160 171 177 175 170 172 183 186 179 170 161 169 184 190 193 196 195 192 188 183 178 174 173 177 181 181 176 173 173 185 198 202 203 205 210 217 224 228 226 223 221 222 227 230 230 233 236 238 238 238 239 243 244 241 239 239 240 237 235 240 243 242 242 239 236 238 239 236 235 238 241 241 240 236 237 243 245 245 245 243 242 245 247 246 246 249 249 248 249 251 252 252 249 247 248 252 253 247 245 250 250 247 247 248 248 245 242 240 238 236 234 232 228 224 220 217 220 222 216 202 195 194 194 193 194 194 195 200 -9999 
-9999 253 252 247 241 236 234 232 229 225 223 222 215 204 197 196 197 192 187 186 191 196 192 188 189 188 185 182 179 175 172 172 175 176 174 173 172 170 168 166 161 155 155 155 154 158 162 166 170 173 176 179 186 196 201 202 204 210 218 223 227 230 234 235 230 222 220 223 225 223 219 217 215 210 203 198 197 196 196 196 197 195 192 191 194 197 197 192 192 195 196 193 191 190 189 186 186 190 196 198 193 190 191 192 188 179 176 173 171 174 175 169 166 169 172 170 172 167 152 144 148 155 150 137 123 108 85 74 87 100 110 130 142 142 142 141 142 148 150 155 159 159 163 174 178 174 169 169 176 179 179 177 172 165 165 172 169 161 160 161 155 150 159 167 155 142 131 130 147 159 166 176 181 184 182 180 177 173 168 165 160 160 166 161 161 164 158 158 161 158 154 155 161 165 163 157 151 149 149 151 154 158 161 159 156 151 149 150 160 173 175 168 160 164 168 165 163 162 164 169 170 166 165 166 164 160 155 154 159 165 167 167 167 163 162 164 167 170 168 165 166 168 168 171 171 166 156 152 159 166 168 169 165 159 160 165 168 175 177 162 155 161 163 160 156 150 152 162 170 175 175 171 166 170 177 174 167 163 168 186 199 198 196 198 197 193 187 180 178 178 179 180 177 175 171 169 175 189 198 201 202 204 211 222 229 230 225 219 219 225 231 234 237 240 241 240 239 239 241 244 244 241 239 240 241 238 237 242 245 245 244 240 237 239 240 238 239 241 240 240 239 236 239 246 246 245 245 244 246 248 246 249 251 250 250 250 251 252 253 252 250 247 248 252 251 249 246 247 248 248 248 249 249 246 241 239 237 234 233 231 228 227 223 221 224 224 214 202 195 194 194 194 195 194 197 203 -9999 
-9999 251 250 247 241 236 232 230 228 225 221 215 206 199 196 196 194 190 189 191 193 192 186 182 181 181 181 177 171 162 156 166 177 179 179 178 172 166 164 164 162 160 158 152 150 154 159 161 164 170 178 185 191 196 199 203 209 220 230 235 236 235 234 234 233 230 228 226 226 224 221 220 219 218 212 206 202 198 197 199 201 200 198 198 200 201 197 194 197 201 201 197 194 193 192 192 195 197 197 193 190 189 187 183 183 182 181 175 173 177 174 163 160 160 162 163 164 161 156 159 168 169 152 129 109 90 85 99 116 117 123 140 144 140 140 142 150 160 154 149 152 159 171 179 179 170 166 172 176 170 164 162 167 177 184 188 189 183 176 171 173 180 175 152 132 130 131 137 150 160 173 178 177 179 178 179 180 173 167 161 157 163 166 161 162 160 157 164 166 156 152 163 167 162 161 154 144 142 146 150 152 150 151 154 148 140 143 153 165 170 170 167 160 161 165 162 160 161 164 165 164 164 165 165 162 158 155 156 163 168 170 172 168 155 149 158 170 173 169 167 168 166 164 167 166 161 158 162 172 176 173 170 167 164 165 168 168 168 163 152 150 157 158 151 148 150 159 169 171 169 164 161 159 160 162 159 158 165 181 195 199 193 189 190 191 188 180 173 176 180 179 176 172 171 170 169 175 187 195 198 200 205 214 222 224 222 218 217 223 231 236 239 243 246 244 240 240 241 243 244 243 241 240 241 242 241 242 245 246 246 244 240 238 239 240 240 240 240 238 239 240 240 242 246 245 245 247 247 247 248 247 250 252 250 249 250 252 251 251 251 249 245 247 251 251 249 248 248 248 248 248 249 249 246 240 239 237 234 233 232 231 230 228 224 225 224 212 200 196 195 195 195 196 196 198 203 -9999 
-9999 239 239 243 241 235 230 227 226 223 215 203 194 194 198 197 193 191 191 190 188 184 181 178 177 179 179 173 163 154 155 169 175 174 177 177 171 165 165 168 168 166 164 161 159 158 162 167 176 185 192 200 206 207 207 210 219 227 231 234 234 235 235 235 235 234 232 227 222 222 223 221 218 215 213 213 211 207 204 202 199 199 199 200 201 197 193 194 197 199 198 197 195 194 195 197 200 198 194 191 190 188 185 182 184 183 178 177 182 182 171 160 162 162 160 159 160 160 159 161 166 159 137 114 96 89 105 126 131 129 132 139 138 138 141 147 153 154 152 157 163 167 170 168 164 158 158 166 172 168 160 161 168 173 175 175 179 180 176 177 182 178 159 136 129 133 143 150 152 156 161 164 170 176 173 173 177 172 165 161 161 166 164 160 162 157 157 166 163 151 153 167 165 155 152 143 135 141 150 152 151 147 150 154 142 137 151 164 169 168 167 164 160 161 164 162 158 160 161 159 158 158 158 158 156 155 154 158 164 167 168 169 164 151 151 169 181 177 169 168 168 163 160 164 164 164 170 179 184 180 175 172 170 169 169 170 167 162 159 154 156 161 159 153 156 165 168 168 167 164 159 155 155 157 162 166 169 179 190 192 188 181 177 177 180 179 169 166 174 176 172 170 170 168 166 166 173 188 197 199 201 208 216 219 218 217 217 222 231 236 239 242 245 245 240 240 243 244 244 244 244 243 242 243 244 246 246 245 244 245 244 239 237 238 240 240 239 237 238 242 244 243 244 245 244 246 248 247 246 247 248 250 250 248 249 251 252 250 249 248 247 245 247 251 251 250 249 250 249 246 245 247 248 245 240 240 239 236 234 232 232 231 229 226 223 220 209 199 197 196 196 196 197 198 198 201 -9999 
-9999 237 237 239 236 231 226 224 221 215 208 202 198 200 198 195 193 190 187 185 182 180 177 174 174 178 177 168 161 160 165 170 170 172 176 174 167 165 171 177 176 170 166 164 162 163 168 173 181 190 199 210 216 220 220 221 225 227 227 229 231 234 237 236 235 234 230 222 217 219 221 219 212 204 203 208 209 209 206 202 198 196 194 192 191 186 184 188 194 197 196 194 195 194 191 189 188 189 189 187 185 184 182 179 181 179 173 174 175 172 167 167 175 174 167 165 168 167 158 149 146 133 115 104 97 101 127 137 126 125 128 132 130 130 136 144 144 138 145 161 168 168 168 162 154 151 156 164 170 165 161 172 176 174 175 181 183 179 175 180 188 181 166 155 144 141 147 151 155 157 157 159 168 175 171 171 172 169 165 165 166 166 162 162 161 157 160 166 160 154 162 168 157 146 142 139 140 150 158 154 153 153 157 158 149 154 168 173 171 165 161 158 160 161 162 160 156 156 155 152 155 158 160 159 156 155 154 159 163 164 164 163 158 151 158 180 187 177 169 166 164 163 164 169 169 173 183 189 184 175 173 171 169 169 166 161 159 161 165 163 163 165 164 162 166 168 164 163 165 163 157 153 155 164 177 183 184 189 190 186 181 175 170 172 176 171 161 164 171 170 168 169 166 161 158 162 176 192 200 202 207 213 217 220 220 221 224 229 234 237 239 242 244 242 239 242 245 245 244 243 244 244 243 244 246 248 247 243 241 243 243 239 237 238 240 240 238 239 242 244 244 244 244 245 244 244 246 245 246 247 248 248 247 247 250 252 250 247 247 248 248 248 250 252 252 250 249 250 249 244 242 244 246 245 241 241 240 236 231 229 229 227 227 226 220 214 207 201 198 196 196 197 198 198 198 200 -9999 
-9999 239 240 237 231 223 220 219 214 208 206 202 202 200 193 189 188 185 183 182 179 175 171 168 169 172 170 169 174 178 177 172 169 169 169 164 158 160 167 172 168 159 154 152 155 163 172 176 181 192 207 218 223 226 225 228 230 231 233 236 235 233 233 231 231 232 229 224 219 216 212 209 206 201 199 199 199 200 201 199 196 194 190 185 182 182 187 193 197 197 195 195 195 194 190 187 186 187 185 183 181 180 180 183 186 182 178 177 170 169 172 177 183 183 179 178 176 164 150 142 134 117 103 99 102 118 136 124 111 120 125 127 126 129 132 133 134 138 152 160 162 161 160 156 153 159 170 176 175 167 167 174 175 175 177 185 193 197 195 190 190 186 173 151 140 146 146 145 153 158 162 170 179 179 176 177 175 168 163 163 164 163 163 164 160 157 164 168 162 160 165 164 152 145 147 151 154 159 161 157 159 162 160 157 157 166 175 174 170 165 160 160 161 159 156 155 153 153 153 156 165 169 168 160 156 156 155 160 161 161 160 158 154 154 165 181 183 172 164 162 164 169 174 180 179 184 192 186 174 168 169 168 167 165 157 151 152 159 163 158 158 164 166 164 162 158 154 155 156 152 147 150 159 175 186 185 183 183 181 179 177 172 169 174 176 170 164 167 170 170 170 167 162 158 157 167 181 192 198 203 210 218 222 224 226 228 232 234 235 236 238 240 242 241 241 243 243 242 242 242 244 245 244 244 246 247 246 242 239 240 241 240 239 240 241 240 238 241 244 244 244 243 244 244 243 243 245 246 247 248 248 247 247 249 251 251 248 246 248 250 250 251 252 252 252 251 249 249 247 242 239 242 246 245 242 242 240 234 226 225 225 225 226 226 218 209 206 204 200 196 197 198 199 198 197 199 -9999 
-9999 238 234 229 221 217 219 217 210 208 205 198 197 194 189 187 185 183 181 181 178 173 169 169 169 167 165 168 177 178 173 169 167 165 159 151 149 153 157 156 149 142 143 149 159 172 183 190 197 208 218 224 226 229 232 236 238 238 238 240 238 235 233 231 228 227 227 226 222 213 204 200 199 199 200 198 195 195 195 195 195 194 193 192 190 193 202 207 203 199 198 197 196 197 198 197 194 188 183 183 181 179 179 180 182 181 181 181 177 179 179 181 183 180 178 179 171 158 152 148 136 122 112 106 110 124 125 110 114 130 135 136 139 146 146 143 147 159 169 164 159 157 153 148 148 158 172 182 180 177 182 181 178 177 176 182 197 215 222 213 200 177 146 118 120 133 135 140 148 153 163 176 180 177 178 180 175 167 161 160 162 163 163 163 161 164 174 172 163 161 164 160 151 151 157 160 161 162 163 160 160 161 154 148 156 167 170 168 166 164 161 160 160 156 153 154 153 156 163 171 177 174 164 154 154 155 156 161 160 158 156 154 155 162 173 177 168 157 154 159 167 174 179 181 182 186 186 175 165 165 167 166 162 158 151 147 148 154 156 152 157 169 169 158 152 150 149 149 145 142 145 155 167 181 183 178 175 175 175 174 173 171 172 177 179 175 171 170 171 170 168 164 161 161 165 177 189 195 199 205 213 223 229 231 232 235 237 237 235 235 237 240 241 241 242 243 242 242 242 241 244 246 244 243 246 247 245 241 237 239 242 243 242 242 241 238 239 244 245 244 243 243 243 245 245 245 246 248 249 249 248 247 248 251 252 251 248 248 250 252 252 253 252 252 252 251 249 248 246 243 240 243 247 245 242 241 238 231 224 224 226 226 226 225 215 207 207 206 202 199 200 199 198 200 198 198 -9999 
-9999 233 226 219 215 216 220 218 213 208 198 191 191 190 188 187 184 181 180 178 175 170 167 168 168 166 162 162 164 161 158 161 165 164 156 150 150 152 153 151 144 135 144 160 175 187 196 206 217 224 229 233 235 238 242 244 244 241 238 238 236 235 235 232 228 224 224 223 219 211 205 201 198 197 197 194 191 191 193 195 196 195 195 197 203 211 213 208 202 200 199 196 197 200 200 197 191 186 185 185 182 179 176 171 171 175 180 180 177 177 175 174 174 170 169 168 164 165 170 163 149 141 132 121 121 122 114 116 136 147 148 151 161 169 163 161 162 170 172 164 158 152 150 152 158 165 171 174 174 174 180 181 178 174 169 170 182 204 224 219 194 156 131 122 125 125 127 139 145 149 162 170 171 174 180 178 171 165 162 161 160 161 162 161 163 172 178 168 155 157 160 156 150 154 158 157 159 162 162 158 155 155 146 141 155 165 163 161 161 159 157 157 158 156 155 159 163 168 174 176 172 164 155 152 156 158 160 161 155 151 150 154 162 172 176 164 150 147 157 166 169 174 176 178 179 177 172 165 162 165 166 162 155 153 152 151 152 156 157 158 167 171 159 147 146 147 148 148 150 156 163 166 173 179 177 173 173 175 176 175 175 175 176 178 179 177 172 169 168 167 164 161 162 165 171 182 190 194 199 208 220 230 236 237 237 238 240 241 238 240 243 244 243 243 242 243 244 244 243 241 244 247 245 244 246 247 245 242 239 241 245 245 244 242 240 239 241 245 245 243 243 243 244 246 246 245 247 248 249 249 248 248 250 253 253 251 249 249 251 253 253 253 252 251 251 250 249 247 245 244 243 243 245 243 242 241 237 230 225 226 226 225 223 222 213 209 212 211 206 203 202 198 197 202 200 197 -9999 
-9999 224 217 212 211 212 213 212 208 201 192 189 188 186 185 183 182 180 178 175 171 164 162 164 165 165 164 162 158 151 150 155 162 164 156 149 148 149 151 154 148 144 159 171 180 192 204 217 227 232 234 241 246 248 248 247 245 242 240 239 237 235 232 229 227 224 221 218 214 213 214 210 203 196 193 191 190 191 192 193 194 192 192 197 209 213 203 194 193 194 193 192 193 194 189 181 180 183 184 182 179 178 176 175 177 179 181 178 176 173 166 163 163 166 168 166 165 167 167 159 154 152 137 123 122 121 118 125 134 136 146 162 173 172 164 164 163 162 156 145 140 141 148 157 172 182 181 177 172 168 165 160 159 164 165 163 159 167 186 181 155 134 130 128 129 129 127 132 143 155 163 163 168 176 181 177 168 166 164 160 154 155 159 158 164 171 170 158 152 155 156 152 153 157 157 156 159 162 157 151 153 155 146 143 157 161 158 159 159 157 156 157 157 156 159 166 170 171 171 168 162 156 153 155 160 164 165 157 147 147 153 164 172 172 162 145 142 157 172 175 172 174 172 167 163 160 159 160 161 162 162 155 150 155 156 154 156 160 166 171 170 158 143 141 145 144 147 155 164 175 178 177 179 177 173 171 173 175 176 174 175 177 177 178 178 176 170 165 163 162 160 160 163 167 173 180 184 188 199 216 229 236 240 241 241 240 240 241 242 246 248 247 246 244 244 245 246 246 244 244 248 249 246 246 247 247 246 245 242 243 245 246 245 242 240 241 243 245 243 243 244 244 245 246 246 244 246 247 248 249 249 250 252 252 252 251 250 250 252 253 253 253 252 250 249 249 248 246 245 246 244 241 241 241 241 240 236 229 226 226 225 223 222 222 217 216 221 218 211 204 200 197 198 204 202 197 -9999 
-9999 212 208 206 205 206 205 201 196 190 189 188 185 179 176 174 172 169 166 165 165 160 157 161 163 164 163 161 157 152 149 151 158 157 149 148 150 150 150 150 147 154 170 180 192 207 220 230 237 240 239 241 246 249 248 247 245 242 241 239 236 232 229 227 225 222 217 213 211 213 214 210 202 196 194 194 194 192 191 190 189 188 189 193 196 188 178 182 187 187 185 185 186 184 179 177 182 183 181 180 181 182 181 183 187 187 182 178 178 174 165 163 164 165 166 166 164 158 149 143 143 138 123 117 125 128 127 129 131 133 145 155 153 147 150 160 163 154 142 144 151 156 156 156 164 175 181 182 175 168 168 167 167 172 180 178 156 142 145 149 144 139 128 117 119 121 118 122 136 152 159 161 168 173 173 170 168 166 163 159 157 163 166 162 165 167 165 160 158 158 154 154 162 163 159 159 162 163 156 152 155 154 148 150 160 161 162 163 162 159 157 154 154 156 162 167 165 158 156 157 156 155 155 156 159 163 158 146 146 159 171 176 171 159 147 143 159 176 178 174 170 168 160 151 150 152 154 158 159 159 159 155 153 158 155 151 154 160 168 173 164 147 138 144 145 143 153 163 170 175 175 176 178 175 172 172 172 173 173 170 170 174 176 176 177 173 165 159 156 157 159 161 163 167 173 178 181 190 206 224 235 239 242 243 243 242 240 241 245 248 248 247 246 245 245 245 246 246 245 247 251 251 249 248 248 247 246 246 245 245 245 246 245 242 242 244 245 244 241 242 245 244 243 245 247 247 246 246 247 248 250 252 253 251 251 250 250 251 252 252 253 252 251 248 248 248 246 244 245 246 242 238 238 239 240 238 233 228 226 225 223 221 222 225 222 219 224 221 210 199 194 196 201 205 203 199 -9999 
-9999 201 203 205 204 203 199 195 188 182 183 183 177 170 167 165 163 157 154 157 159 155 154 161 164 161 158 157 156 156 155 157 160 155 154 159 158 154 148 144 144 159 185 206 220 230 235 239 244 246 245 243 243 245 245 243 241 240 238 236 232 227 224 223 222 217 211 207 205 202 198 194 192 192 194 195 196 194 192 191 188 187 186 183 178 174 180 187 187 185 183 184 184 180 178 182 185 184 183 184 186 184 181 181 185 187 181 174 173 171 171 173 170 163 159 159 156 148 141 137 131 119 116 126 133 124 119 127 136 142 147 143 138 142 150 157 160 152 146 154 161 163 161 162 163 162 165 168 169 172 176 183 190 191 198 198 174 148 142 144 137 128 117 113 114 113 115 120 124 133 146 157 163 170 172 170 167 161 157 156 161 171 174 168 166 164 163 162 159 155 151 157 168 165 161 162 164 162 158 156 155 153 153 157 163 166 170 169 164 159 153 152 156 162 167 166 160 154 155 158 157 155 153 151 153 153 145 146 165 183 185 178 166 157 153 164 180 181 173 170 168 162 154 151 158 161 161 162 161 160 159 156 151 150 148 148 152 156 160 161 150 138 138 145 147 151 162 167 167 167 166 167 169 169 171 171 172 173 170 164 164 168 169 172 174 167 157 152 150 155 164 167 168 171 175 176 181 197 215 231 238 241 243 244 245 244 244 244 244 246 247 247 246 245 245 245 245 245 245 249 252 252 249 248 248 247 246 246 246 245 245 246 245 243 244 246 247 246 242 241 243 242 241 244 248 248 247 245 246 247 249 252 251 249 249 250 250 251 252 252 252 251 249 246 246 246 243 242 244 244 241 238 237 238 238 236 230 226 225 224 221 221 222 226 223 220 223 218 206 195 193 198 205 206 202 199 -9999 
-9999 197 203 205 202 198 191 186 180 174 173 172 167 162 162 163 161 159 160 163 159 153 155 162 165 162 158 155 153 154 157 161 160 156 158 158 152 145 142 142 151 179 210 229 237 240 241 242 244 247 247 247 248 247 243 239 239 239 234 230 227 222 218 219 216 209 204 202 198 193 188 186 189 194 198 198 199 200 199 195 189 186 187 187 185 183 186 189 190 188 186 184 181 177 177 178 178 179 182 182 179 174 173 176 179 181 179 176 172 171 177 183 179 167 160 159 152 144 144 143 134 125 127 129 117 106 115 131 140 146 149 149 151 156 158 158 161 169 174 168 162 169 177 181 180 172 161 155 163 178 184 186 191 195 199 204 197 174 160 140 105 100 106 101 96 98 111 124 130 131 136 146 160 170 172 172 169 163 154 153 161 167 169 166 164 161 160 160 155 151 154 164 169 162 159 160 159 156 156 155 153 157 163 165 165 167 169 166 161 157 155 159 163 166 165 163 161 160 162 164 160 155 151 149 152 152 153 169 189 194 184 172 165 162 164 175 180 173 168 169 169 162 155 157 165 167 166 163 160 158 155 151 146 144 147 149 152 155 155 151 140 135 138 147 153 161 164 161 161 164 165 165 166 166 167 168 171 170 164 159 161 162 164 168 166 157 151 149 148 162 178 181 180 178 177 177 189 211 227 238 241 242 244 245 244 243 244 244 243 243 245 246 246 246 245 245 245 246 248 251 252 252 250 248 247 248 247 246 247 245 244 246 246 245 246 247 248 247 245 242 242 240 240 244 247 248 247 246 245 245 248 250 249 248 250 251 251 251 251 251 250 249 247 247 247 247 244 242 245 245 242 239 238 238 237 234 229 226 224 223 222 222 224 225 224 222 221 216 206 198 198 203 207 206 200 198 -9999 
-9999 197 200 197 193 192 187 179 171 164 160 157 154 154 159 161 160 161 166 167 160 156 159 165 166 162 158 155 154 156 160 161 154 146 142 137 133 132 140 155 184 213 227 236 242 244 244 245 244 245 245 245 249 247 242 240 241 239 232 226 223 221 219 216 209 203 200 198 194 191 190 192 196 201 203 200 199 201 201 197 190 188 189 195 200 194 185 187 191 190 185 181 178 178 179 178 178 178 179 176 173 172 174 176 178 179 181 182 180 179 182 183 178 169 165 161 154 149 149 147 138 135 134 122 110 114 131 146 151 152 153 155 158 159 159 163 169 174 174 172 175 179 180 179 181 184 185 180 176 179 189 195 193 188 187 189 188 169 143 110 86 93 95 85 83 95 114 132 143 145 143 144 156 163 164 166 169 165 156 161 169 169 166 163 158 154 159 165 163 160 163 170 165 156 161 162 156 154 154 151 152 159 164 161 159 160 160 159 158 158 158 160 161 161 159 160 163 161 161 163 160 152 150 153 161 167 174 185 188 181 166 157 157 159 163 170 173 168 166 168 167 158 154 157 163 164 162 157 154 154 153 152 148 145 149 153 157 158 156 149 140 137 140 147 155 161 152 145 154 163 165 165 166 164 160 160 164 163 158 158 161 164 168 167 159 153 155 156 161 180 191 188 183 178 181 191 212 231 239 243 243 242 244 244 242 241 244 246 246 245 244 245 246 246 246 246 245 247 250 252 252 251 250 248 248 249 248 247 247 245 245 247 246 245 246 247 248 248 246 243 241 240 238 243 247 248 248 248 246 245 245 248 249 250 252 252 251 250 251 251 249 249 248 249 249 247 245 242 245 246 242 239 238 238 236 234 229 225 223 223 224 225 225 224 223 222 220 216 208 201 203 207 209 206 198 195 -9999 
-9999 197 197 192 189 187 180 170 162 156 154 154 152 155 161 164 163 164 168 166 162 162 167 172 169 162 158 158 160 162 162 159 147 137 132 126 125 133 153 182 213 228 233 239 243 245 246 247 245 244 243 241 242 242 242 242 238 233 230 228 226 224 221 213 204 201 200 198 195 193 194 196 198 200 200 198 196 193 192 189 186 187 191 196 199 195 191 191 191 189 186 184 183 185 185 184 185 187 185 180 178 177 178 180 182 181 180 180 182 181 178 174 169 164 167 170 167 159 157 153 142 139 131 119 123 134 149 157 154 152 151 154 160 160 159 158 155 150 155 165 170 168 167 171 178 186 194 196 193 193 200 209 208 197 187 174 156 129 92 59 57 78 83 77 83 107 127 135 138 144 150 150 149 151 158 160 157 154 154 164 171 167 166 165 156 150 162 173 173 168 166 166 155 153 166 163 156 155 153 151 155 158 155 151 150 150 152 154 157 160 161 160 160 162 165 167 167 162 159 161 156 146 148 161 172 179 181 180 175 163 151 146 150 157 161 165 168 163 159 163 161 154 153 157 161 161 157 154 152 153 155 155 149 144 149 155 159 161 156 145 139 139 141 145 150 151 140 142 162 169 166 164 165 162 154 155 160 159 157 158 161 166 168 164 156 157 162 166 176 190 191 183 176 176 191 212 232 241 244 244 243 241 241 240 240 244 247 249 248 246 245 246 247 246 247 247 247 249 251 252 252 252 251 250 250 250 249 247 248 246 246 246 244 244 245 246 247 247 246 244 240 237 237 244 247 247 247 248 248 246 245 248 249 250 251 251 249 250 251 251 250 250 250 250 249 246 244 242 245 245 240 238 237 237 237 233 228 224 223 224 225 226 225 223 222 221 219 215 209 206 208 209 210 204 195 192 -9999 
-9999 198 197 193 186 177 165 157 155 155 160 164 163 164 167 168 167 168 170 168 166 166 167 167 163 161 161 161 160 157 151 142 132 128 129 128 135 153 180 206 222 229 234 238 238 238 242 244 244 244 242 238 235 235 237 237 234 231 229 228 225 221 215 207 203 203 205 205 202 200 199 199 198 197 197 195 190 186 182 180 180 184 188 191 189 182 184 189 189 189 188 187 189 190 191 190 187 181 177 176 177 178 178 180 179 174 171 171 171 171 171 168 163 162 168 172 167 161 163 156 141 133 120 111 123 135 144 147 145 146 149 157 162 157 153 154 150 154 168 173 171 178 184 187 189 186 180 179 188 196 201 203 207 206 193 169 135 100 66 47 54 70 74 73 84 111 127 126 127 138 150 154 153 151 155 154 147 145 150 155 159 163 165 164 155 156 171 179 176 166 159 157 150 157 166 161 156 155 149 149 158 157 151 149 146 146 150 155 161 165 166 165 164 169 174 173 170 164 160 158 150 145 157 175 183 180 175 170 165 157 151 147 152 162 165 164 163 156 154 158 156 153 156 160 162 159 155 153 153 157 160 158 150 146 149 151 153 156 149 140 140 142 143 143 148 154 151 160 175 172 166 165 165 158 152 158 165 162 159 157 158 162 164 157 153 156 161 166 177 186 188 182 179 191 214 231 241 243 243 242 243 241 239 239 242 247 249 248 246 245 246 248 249 249 248 249 250 252 253 253 253 253 253 252 251 250 248 247 247 248 248 246 243 243 244 246 247 247 246 244 238 234 240 246 247 247 247 248 249 248 248 249 249 248 249 249 248 250 251 251 251 251 250 250 248 246 244 244 245 243 239 236 236 236 236 232 225 223 225 225 225 224 224 223 221 220 218 216 213 213 212 210 208 201 191 192 -9999 
-9999 192 191 185 176 165 156 154 156 160 168 169 167 168 168 167 166 167 168 168 164 158 154 153 151 154 155 153 150 143 136 131 128 128 132 141 159 186 211 226 233 233 235 237 233 229 234 240 240 242 241 238 234 231 230 230 228 227 226 225 222 217 211 208 207 207 209 207 205 206 203 198 195 193 193 188 182 181 182 182 181 181 181 180 179 176 177 183 185 183 181 181 184 187 190 190 180 168 165 168 175 179 180 179 171 162 160 160 160 165 170 168 163 164 164 158 152 152 155 143 128 125 119 116 125 128 126 123 128 139 147 154 154 149 154 161 166 173 175 170 171 180 187 192 190 181 173 174 182 190 196 195 196 195 184 159 123 93 72 71 77 71 61 64 76 89 100 109 125 140 150 155 155 153 154 152 149 149 154 158 165 172 170 163 158 165 175 176 169 158 153 154 154 161 163 158 157 151 141 146 158 153 146 147 148 151 156 162 167 169 169 165 164 170 172 167 164 161 158 152 147 155 171 184 180 169 166 163 161 160 158 152 157 168 170 166 161 156 157 161 159 157 162 165 163 158 154 155 159 165 164 158 150 147 149 147 150 155 151 144 145 147 147 148 160 171 168 170 174 169 166 167 168 161 157 165 170 166 162 158 156 160 159 151 147 151 157 166 177 186 191 191 198 217 233 240 243 242 242 242 245 245 245 245 246 248 248 247 246 247 249 251 251 250 250 251 252 253 254 254 254 254 254 253 251 249 247 246 247 248 248 246 242 242 244 246 247 247 246 243 237 236 242 246 246 246 246 249 250 249 249 250 250 248 247 247 247 249 251 251 252 251 250 250 248 246 245 245 244 239 234 233 233 234 234 229 222 223 225 224 221 222 224 223 221 220 218 217 218 218 215 211 206 198 190 193 -9999 
-9999 188 183 174 167 161 157 160 165 170 175 171 168 168 168 167 165 166 169 167 158 147 147 151 150 147 141 135 133 131 132 138 140 141 149 169 196 222 236 240 240 238 237 240 239 232 233 240 239 240 239 235 231 230 230 227 221 217 217 217 215 212 209 207 206 206 203 196 196 200 199 195 189 185 183 181 182 184 183 182 180 179 177 176 176 173 173 177 176 171 167 168 173 177 180 180 175 173 175 176 177 176 176 179 172 164 163 164 165 168 169 167 165 162 157 154 155 152 148 136 128 134 130 127 130 122 116 113 121 135 136 139 143 149 161 168 172 171 170 173 181 184 183 187 185 177 178 188 194 194 200 205 199 182 163 142 122 112 108 109 95 73 61 65 74 79 92 113 136 142 141 145 146 140 136 142 156 161 164 170 175 178 171 163 162 169 172 169 161 153 154 158 159 164 158 154 154 144 136 145 155 150 145 146 152 159 165 169 171 171 171 168 161 162 162 158 156 154 151 147 153 168 175 175 165 160 163 162 162 166 164 157 163 172 170 164 159 158 163 166 162 159 162 166 162 157 156 160 166 167 161 153 148 147 148 149 155 162 159 152 151 152 156 164 178 182 173 168 168 166 167 170 170 166 167 174 174 169 164 160 159 163 161 154 152 155 163 174 184 193 198 203 215 231 239 242 243 243 243 245 248 249 248 248 248 248 247 247 248 251 252 251 251 250 251 252 252 253 254 254 254 254 254 252 250 249 247 246 246 247 249 247 242 242 244 245 246 247 246 242 238 240 243 244 245 246 247 249 250 248 249 251 250 248 246 246 247 248 250 251 252 251 250 249 248 246 245 245 242 235 230 229 230 232 233 229 222 223 224 221 218 221 225 223 221 219 217 217 218 218 216 213 207 197 190 196 -9999 
-9999 187 179 171 167 164 166 171 174 176 175 170 167 169 170 170 170 171 170 163 149 141 149 153 148 140 132 128 131 135 140 147 152 160 183 213 237 245 247 247 246 242 241 244 245 237 233 237 237 236 235 233 233 233 231 224 214 211 212 211 207 204 201 199 199 197 193 188 189 193 194 194 191 187 183 183 189 191 182 172 171 174 176 176 173 169 172 176 172 165 165 169 171 172 173 169 165 172 179 180 177 171 170 173 174 176 179 180 180 178 174 171 165 158 154 157 161 156 149 139 136 137 128 124 121 114 116 119 134 141 134 145 152 155 163 168 170 166 169 178 190 198 196 189 183 184 194 204 209 204 200 200 188 165 145 129 115 117 123 119 98 84 82 87 98 106 119 131 142 143 143 145 139 132 130 138 156 162 167 171 167 167 160 159 165 169 169 166 160 156 160 160 159 159 153 152 151 145 142 149 154 153 153 156 162 167 170 171 170 168 166 160 151 152 156 154 153 151 150 156 167 172 170 161 156 159 163 162 165 170 165 157 164 170 168 164 161 162 167 167 160 153 156 162 157 154 158 163 166 164 157 151 147 146 148 152 159 165 161 155 154 157 166 176 183 178 170 168 168 170 174 174 169 166 173 179 177 172 167 165 168 172 170 167 168 171 180 189 196 206 213 217 226 236 241 243 243 243 245 247 250 250 250 249 249 248 247 248 250 251 252 251 250 251 252 253 253 254 254 254 254 254 253 251 250 249 248 246 246 247 249 248 244 243 245 245 245 246 245 242 240 243 244 244 245 245 246 249 249 248 249 250 249 248 247 248 248 248 248 249 251 251 251 248 246 245 244 243 239 231 227 227 228 232 234 231 225 224 224 221 219 223 226 222 219 217 216 216 217 218 217 216 209 198 192 197 -9999 
-9999 186 178 174 173 173 177 178 173 170 167 161 163 170 175 176 173 169 164 154 142 139 148 151 145 136 130 131 136 139 144 150 160 183 216 242 249 249 249 248 247 246 244 244 244 239 234 232 231 231 232 234 234 230 226 220 217 217 214 208 202 199 196 195 194 193 191 191 194 195 194 195 196 196 193 191 191 188 180 175 174 175 176 177 173 171 173 173 167 162 166 171 172 170 167 163 161 167 172 172 169 167 166 166 168 177 188 188 185 179 173 167 159 156 154 155 156 148 139 135 133 130 122 121 118 117 127 135 151 156 150 157 159 160 161 160 161 164 175 180 181 188 192 185 177 182 196 209 217 214 202 189 170 149 135 120 103 104 110 106 100 110 118 121 123 129 137 135 129 129 136 142 142 150 154 152 154 157 164 162 156 158 160 166 171 168 164 162 159 160 164 160 153 151 150 151 150 149 149 150 154 159 161 159 161 166 169 168 165 160 154 149 148 153 159 157 156 158 161 167 169 166 164 157 157 161 160 160 162 160 153 152 159 166 168 169 166 163 165 165 156 142 143 150 150 153 159 163 165 164 162 158 150 146 151 158 163 166 162 157 156 161 169 175 174 170 168 169 172 177 182 178 171 172 179 181 178 175 172 173 176 177 176 177 180 185 201 213 221 229 231 231 235 241 244 244 244 244 247 249 251 251 251 251 250 249 249 250 251 251 251 250 251 252 253 254 254 254 254 254 254 254 253 251 250 251 249 246 244 246 250 250 245 243 245 245 245 245 244 241 241 242 245 246 245 243 244 248 248 248 248 249 248 247 247 249 250 248 247 247 250 252 251 247 245 245 243 240 237 231 228 228 229 232 235 231 226 224 222 220 220 222 222 220 216 216 217 216 217 217 216 214 208 200 195 197 -9999 
-9999 186 180 177 177 178 179 177 172 167 163 160 166 175 178 175 168 162 154 147 143 145 151 150 140 128 126 131 136 138 146 163 184 211 235 246 249 250 247 244 244 245 244 243 243 241 237 233 230 228 228 228 224 219 216 214 218 218 211 203 199 198 196 195 192 187 185 191 197 198 196 196 196 195 194 190 185 179 179 183 183 177 175 174 170 166 162 161 162 161 164 171 176 173 166 163 165 171 171 168 165 165 168 172 173 177 182 180 177 169 164 161 155 154 154 150 147 140 132 130 126 121 121 125 126 131 138 143 156 157 147 149 154 159 159 157 161 171 181 183 180 182 187 188 187 185 187 198 213 214 199 177 154 140 135 123 105 105 111 111 115 132 144 144 137 132 137 141 135 129 131 131 135 149 157 154 151 157 165 162 159 164 169 172 169 162 160 160 158 159 160 154 148 147 150 151 151 150 147 146 153 165 166 158 158 162 165 166 163 156 151 152 156 161 162 159 162 167 166 165 161 158 159 158 159 161 158 156 150 145 147 153 158 163 165 167 161 155 157 160 154 141 142 154 159 161 163 164 166 168 168 163 154 154 161 166 168 166 163 160 161 164 169 169 167 167 169 171 175 180 183 179 176 181 187 185 180 176 176 177 178 177 176 179 185 197 216 229 236 239 237 235 239 244 245 245 245 246 248 251 252 252 252 251 250 250 251 251 251 251 251 251 252 253 253 253 254 254 254 254 254 253 252 251 252 252 250 245 242 246 251 252 247 243 245 245 244 243 242 241 240 243 247 247 244 240 242 247 249 248 248 248 248 247 247 249 249 249 248 248 250 251 251 248 242 242 242 240 237 233 231 231 233 230 230 230 226 223 219 217 217 218 217 218 218 218 219 218 217 216 213 211 206 201 199 197 -9999 
-9999 180 178 177 174 170 167 166 167 167 165 164 170 177 177 171 164 159 152 145 144 146 144 139 126 115 123 137 143 150 168 197 228 246 249 247 248 249 247 244 241 241 242 243 244 242 238 235 231 227 222 217 215 215 214 212 211 210 206 201 199 199 197 197 196 191 189 193 196 195 191 189 187 186 185 180 177 175 175 178 179 175 171 164 158 160 162 165 170 172 175 177 176 175 176 174 174 176 177 176 174 173 174 177 177 176 173 170 167 162 162 161 156 156 155 151 150 143 132 132 130 124 124 127 128 132 136 148 158 147 135 146 157 156 154 164 177 187 191 191 190 185 182 189 200 200 191 188 199 203 187 158 142 139 131 116 112 122 124 119 122 134 143 149 154 149 152 166 159 139 132 123 119 128 137 149 159 161 157 154 158 163 162 159 157 155 156 157 156 156 154 151 148 145 148 151 152 150 146 148 156 166 166 161 162 163 162 161 157 152 154 160 166 169 165 163 167 167 161 159 158 158 161 161 160 159 157 152 149 154 164 165 162 162 164 164 158 152 154 156 154 150 155 173 177 170 166 166 166 169 170 163 156 159 167 170 169 167 165 166 168 169 169 169 168 168 171 174 177 178 178 175 175 180 185 185 178 174 175 176 176 174 172 177 189 205 219 229 235 236 234 236 241 245 246 246 247 248 250 251 252 252 252 251 250 251 251 252 252 252 252 253 253 253 253 253 253 252 252 251 252 253 253 253 251 251 250 246 240 244 250 250 246 243 245 246 244 242 242 241 241 244 248 247 243 239 242 246 248 248 246 248 250 248 247 249 250 250 251 250 249 249 250 246 238 241 243 241 237 234 232 233 234 224 220 225 222 219 214 214 215 215 217 219 220 219 219 220 218 215 213 211 206 202 202 202 -9999 
-9999 176 176 174 167 160 156 158 163 168 172 173 177 178 173 165 161 161 159 153 146 142 132 123 117 122 145 160 168 186 213 235 247 251 252 251 248 245 246 246 243 242 242 243 244 244 241 237 231 224 219 217 217 218 217 213 208 205 202 199 197 196 194 196 200 199 200 199 195 189 182 178 176 178 173 170 172 170 171 174 175 174 170 163 156 156 161 168 172 173 175 171 168 174 183 183 180 181 182 179 174 176 178 178 176 172 170 168 164 160 160 159 156 156 158 159 159 146 136 143 142 132 128 127 123 126 135 149 151 141 146 161 168 166 166 173 184 192 196 197 196 192 190 198 211 218 212 196 192 190 172 155 153 148 127 112 119 125 123 128 133 138 144 150 157 159 167 169 151 132 121 111 110 115 126 144 159 167 163 156 158 159 155 152 152 154 156 155 155 155 155 156 151 147 150 155 156 152 148 151 157 161 160 159 159 161 164 162 159 159 163 167 173 170 161 161 163 161 158 159 161 164 165 164 162 161 159 158 162 173 175 168 163 165 167 168 165 159 157 158 157 153 159 175 181 175 169 166 165 167 166 159 154 157 163 167 169 169 172 176 176 173 173 174 174 174 177 178 177 173 170 168 169 173 178 178 171 168 171 174 172 169 172 183 200 215 223 227 231 231 232 236 242 245 246 246 248 249 251 252 252 252 251 250 250 252 253 252 252 253 253 254 254 253 252 251 251 251 250 248 246 247 252 254 252 251 251 248 243 245 249 247 243 244 245 245 243 242 242 243 244 246 247 246 244 241 242 245 247 247 246 247 250 249 247 249 250 250 250 249 247 246 246 243 240 241 242 240 237 234 232 232 230 217 213 220 216 213 213 214 215 216 217 219 218 216 219 221 219 214 212 210 206 204 206 206 -9999 
-9999 173 171 169 166 165 164 166 170 177 182 180 179 176 166 157 155 157 160 159 147 140 128 123 129 145 169 184 196 220 240 246 244 246 249 249 247 248 249 249 246 245 244 242 242 242 240 236 229 223 221 221 221 219 215 210 206 202 197 192 188 184 183 188 193 194 198 199 194 187 181 179 178 177 170 166 165 163 166 168 170 170 167 167 166 164 163 165 167 164 162 164 171 179 182 180 179 178 170 160 162 173 180 180 177 174 173 171 165 162 163 162 158 158 160 159 151 140 141 148 143 131 129 127 121 122 127 136 137 138 152 163 169 173 178 186 189 189 192 195 200 204 207 208 212 219 217 201 187 177 167 166 159 140 121 121 130 126 124 133 132 137 148 151 149 151 156 140 112 108 111 112 112 116 126 140 155 169 169 163 161 160 158 156 156 158 157 156 158 158 158 156 149 149 155 159 158 151 148 151 155 158 158 156 155 160 166 164 163 165 164 165 167 159 155 161 161 161 161 161 163 165 162 161 162 163 159 159 171 179 173 163 166 169 167 168 166 159 155 157 158 158 163 170 173 171 167 165 163 162 160 153 151 154 158 166 172 177 181 182 177 176 179 180 180 182 185 183 177 174 174 175 175 174 174 172 166 165 168 170 168 167 180 200 218 228 230 231 231 230 231 237 243 245 244 246 248 250 251 251 251 250 250 251 251 252 253 253 253 253 254 254 254 253 252 251 251 250 250 249 249 249 250 252 250 248 249 246 244 245 246 244 242 243 245 245 243 243 244 244 245 248 247 244 244 243 243 245 247 248 248 245 246 249 249 249 250 250 249 248 244 240 242 244 243 240 238 238 236 232 227 225 223 214 212 212 211 214 217 217 216 215 216 216 215 215 218 220 217 212 209 208 206 207 209 207 -9999 
-9999 167 160 158 163 167 168 173 177 181 179 170 169 170 162 154 151 150 148 142 128 126 124 130 149 169 190 203 217 233 240 241 240 240 239 241 245 248 250 250 247 244 242 240 237 235 234 231 227 225 225 223 218 214 210 207 204 200 196 190 185 181 181 186 189 191 197 199 194 189 187 188 187 181 171 166 162 159 160 159 157 154 153 160 166 171 171 169 169 167 167 171 175 175 173 174 178 177 167 161 168 176 178 176 173 172 173 168 161 160 161 157 154 157 158 151 139 134 138 137 127 121 123 124 121 120 125 137 144 150 160 163 166 171 177 188 192 191 193 195 198 202 205 203 204 210 210 199 184 172 164 159 141 120 111 119 127 126 123 122 120 123 128 138 154 162 150 118 93 95 104 110 113 122 134 153 168 169 155 149 154 158 161 163 163 163 158 156 158 157 153 147 145 151 154 158 157 148 144 148 155 159 157 154 157 161 161 158 159 163 159 160 162 156 162 166 162 161 161 159 161 161 157 156 158 160 156 163 179 182 171 165 170 167 162 164 161 154 151 156 164 170 170 165 163 161 162 163 160 160 158 153 153 157 162 173 182 185 185 180 177 179 182 182 182 187 192 187 183 186 188 188 182 174 172 169 165 165 168 171 170 174 194 215 227 231 232 235 238 237 239 244 246 245 246 249 251 252 252 252 252 251 252 252 251 252 253 253 252 252 252 251 252 251 251 251 250 250 250 251 253 253 253 253 251 250 249 247 245 245 245 244 243 244 245 245 245 246 246 245 246 249 246 242 243 244 245 246 248 249 250 246 243 246 250 251 251 250 248 246 242 238 241 244 241 236 235 236 233 226 220 218 216 213 207 204 210 217 219 218 214 214 215 214 212 214 218 219 217 212 208 207 206 208 207 205 -9999 
-9999 164 160 159 161 161 164 172 176 174 166 158 163 167 162 156 152 144 134 120 111 119 131 145 165 186 205 220 234 240 238 235 236 241 242 244 243 243 247 248 246 242 238 236 233 232 229 225 224 225 224 220 212 207 204 201 198 196 196 194 193 194 194 195 194 195 197 195 189 185 187 191 188 177 164 162 161 156 153 151 147 141 141 147 153 156 159 164 168 172 177 179 176 169 166 168 172 171 170 174 180 181 178 175 173 174 170 159 151 151 149 144 145 150 150 139 131 135 138 130 120 117 121 122 121 128 141 156 160 163 170 171 172 176 182 189 195 201 203 198 193 197 205 207 209 211 210 203 190 176 163 150 133 123 126 130 127 122 115 112 111 109 118 137 154 162 150 122 108 112 111 108 116 131 148 163 171 164 148 146 152 158 166 168 168 166 160 157 156 152 144 139 145 152 152 156 155 144 142 149 158 158 152 154 160 160 157 156 159 162 157 160 165 164 165 159 153 154 154 153 154 154 150 151 156 159 164 174 183 179 171 168 171 167 162 162 159 154 152 158 169 172 163 156 158 162 162 158 155 159 161 158 161 167 175 184 188 186 182 179 179 180 180 181 182 189 192 186 184 189 191 188 178 172 173 171 167 170 175 178 180 189 209 225 229 232 237 242 244 245 248 250 250 249 250 252 253 253 253 254 253 253 253 252 251 252 253 252 252 251 250 249 250 250 251 251 251 251 252 253 254 254 253 254 252 250 248 248 246 245 246 245 244 244 244 246 248 248 247 246 248 249 243 239 243 246 247 248 250 250 250 248 244 245 248 250 251 249 247 245 241 238 240 239 234 231 232 233 229 220 215 214 214 211 205 204 213 217 217 215 213 212 212 211 209 213 220 221 220 214 208 205 202 202 203 205 -9999 
-9999 163 165 166 165 162 162 167 168 164 160 160 167 167 159 155 151 142 131 122 121 130 143 161 181 197 212 228 240 243 240 237 237 241 243 244 243 241 241 241 240 238 233 229 228 227 226 222 219 219 218 213 206 203 199 194 190 191 193 195 196 199 201 201 199 196 192 186 180 179 181 181 175 162 153 153 152 151 150 147 144 142 141 143 149 155 161 167 167 170 175 178 176 170 166 165 162 160 163 172 180 181 178 175 175 175 168 159 153 151 148 146 148 146 139 130 130 138 139 133 127 126 127 127 128 134 147 157 154 152 161 168 178 186 193 203 211 215 214 209 205 208 215 217 213 206 201 198 192 180 167 150 135 133 137 134 127 123 116 108 105 113 133 143 142 142 141 133 125 128 123 114 124 144 152 145 137 132 132 140 149 158 165 162 161 161 160 160 157 152 144 140 147 150 145 148 146 140 145 154 158 154 151 161 166 160 159 159 159 160 153 154 162 162 154 145 146 151 152 152 152 149 149 154 162 169 174 176 175 175 173 171 171 170 166 165 163 158 157 163 171 168 158 156 163 167 161 156 158 165 167 164 167 174 182 186 184 181 179 179 178 176 177 180 184 190 189 182 181 185 187 181 173 174 177 175 175 178 182 185 191 204 222 233 235 238 242 244 246 248 250 251 251 252 253 253 252 253 253 254 253 252 252 253 253 253 253 253 253 253 252 252 251 251 251 252 253 253 254 254 254 254 254 254 252 249 247 249 247 245 246 246 245 244 245 247 249 249 248 246 249 249 239 236 244 247 249 250 250 250 250 249 247 246 246 248 249 248 247 244 238 237 237 231 227 229 232 231 225 218 215 215 213 210 207 209 215 217 216 213 211 209 207 207 208 213 220 221 219 211 205 203 199 199 207 212 -9999 
-9999 164 164 165 163 160 161 163 160 158 162 169 171 165 157 154 151 143 139 136 137 140 152 175 197 215 227 233 238 240 238 237 240 244 246 246 245 242 239 238 237 234 229 225 224 222 219 217 215 212 206 200 199 200 196 190 186 186 189 190 191 195 199 200 198 193 186 179 175 175 173 166 156 148 145 146 148 151 150 147 145 146 149 154 159 163 169 173 171 169 171 174 173 171 169 167 167 170 174 178 180 177 171 167 167 166 166 166 164 164 164 162 157 148 140 136 138 139 136 132 127 126 129 128 126 131 140 142 138 142 156 169 184 197 202 207 208 208 208 211 216 219 219 218 210 199 191 187 183 176 163 146 135 126 120 113 108 109 106 103 108 121 131 132 132 135 138 138 134 137 133 131 141 144 135 113 90 80 89 113 138 155 160 153 154 156 159 159 156 153 151 146 152 151 144 147 145 145 153 161 164 161 162 170 168 163 163 161 159 158 151 151 157 153 142 140 148 156 159 160 155 153 159 168 173 175 175 171 172 177 175 171 172 171 167 167 165 162 163 169 174 170 162 162 166 166 163 167 175 177 173 167 169 179 185 184 179 176 178 178 175 173 176 182 187 191 189 185 184 185 183 177 173 176 179 179 179 181 185 188 197 213 231 239 240 241 243 244 245 247 249 251 251 252 252 251 252 252 252 252 251 251 252 254 254 253 253 254 254 254 254 253 252 251 251 253 254 254 254 254 254 254 254 253 251 249 248 249 247 245 246 247 246 243 245 248 249 249 248 247 249 247 237 237 245 249 250 250 249 248 249 249 248 246 245 246 246 246 244 240 233 233 233 226 226 229 231 229 224 218 215 214 212 210 210 211 215 217 216 212 208 206 205 207 209 214 218 218 212 204 201 201 199 201 213 217 -9999 
-9999 164 163 161 158 159 162 161 158 162 165 167 165 160 156 152 145 134 133 135 137 145 167 194 213 228 235 235 236 239 237 235 241 244 245 245 245 245 243 240 238 234 230 227 224 219 213 210 208 203 194 192 196 200 198 196 193 192 192 189 186 191 196 197 196 192 186 180 177 174 166 156 148 143 142 146 152 154 154 153 152 154 159 165 168 167 170 172 168 166 166 166 170 174 176 175 176 179 181 182 181 176 170 169 169 166 167 168 168 173 174 167 156 146 144 143 140 140 133 125 119 120 122 117 117 126 135 133 134 146 158 167 180 191 196 197 195 194 196 200 209 215 212 204 196 189 184 179 176 169 156 143 127 110 103 96 92 96 100 105 117 128 130 129 137 144 147 146 140 143 143 151 147 125 111 99 75 59 63 88 118 142 151 152 156 158 158 155 152 152 153 151 158 157 152 152 149 153 162 170 172 168 166 168 164 162 161 157 157 157 153 152 153 147 140 142 151 159 164 164 155 158 173 179 178 175 173 171 175 177 172 169 172 168 165 165 163 165 168 173 174 168 161 160 163 167 171 181 187 184 177 169 173 184 189 184 178 176 178 179 176 176 181 188 189 189 189 190 189 184 181 179 178 178 178 178 178 182 189 196 207 223 235 240 241 243 244 244 243 245 247 249 249 249 248 249 251 252 252 252 250 249 251 253 254 253 253 254 254 254 253 253 253 252 253 254 254 254 254 254 254 254 253 252 250 250 249 249 248 246 245 247 246 242 244 248 249 249 248 247 247 244 238 240 247 249 248 248 247 246 247 248 247 244 244 246 244 241 238 235 231 231 230 226 226 229 229 227 222 216 213 212 210 210 209 211 214 217 216 209 205 204 205 209 212 215 217 215 208 202 202 201 198 202 212 214 -9999 
-9999 161 156 153 155 160 162 158 158 161 158 154 152 152 152 146 135 125 127 131 136 158 186 207 220 229 233 234 237 242 240 235 238 241 240 240 241 242 241 238 234 231 232 230 225 219 215 211 203 197 195 198 200 201 202 202 202 203 202 197 193 195 196 195 194 191 186 183 180 172 161 152 142 138 140 148 155 157 158 160 163 165 168 168 168 169 171 170 167 168 169 169 173 179 182 181 179 180 180 180 179 175 174 178 177 170 167 163 162 169 169 160 149 144 145 143 141 139 128 119 116 118 119 116 119 127 136 139 146 159 166 171 175 178 183 187 190 194 200 203 206 207 202 192 186 188 186 179 173 162 147 136 122 109 105 97 94 100 105 114 124 138 146 142 139 140 143 141 132 135 144 151 134 107 100 93 78 65 69 83 97 113 128 138 147 155 159 156 154 155 155 154 156 155 155 152 152 160 165 171 169 161 159 161 159 159 156 153 154 155 153 151 151 150 148 151 157 164 167 163 155 166 182 181 175 173 174 176 179 177 170 167 168 163 163 163 162 165 166 170 166 158 154 156 162 169 176 182 185 183 176 170 178 190 190 182 178 178 180 181 182 183 189 192 187 185 189 190 186 180 181 182 180 177 174 175 178 187 198 208 221 234 238 240 242 245 245 242 240 242 245 247 248 248 248 248 249 251 253 253 250 249 251 252 254 254 253 254 254 253 253 253 254 254 254 254 254 254 254 254 254 254 253 251 251 251 250 249 249 247 244 246 245 242 245 250 250 248 247 247 245 243 241 243 247 247 246 247 247 245 246 248 247 242 243 245 241 235 233 233 233 231 228 225 226 227 227 224 219 213 212 212 211 208 206 209 212 214 211 203 199 202 205 209 213 216 217 213 207 203 201 198 197 201 205 205 -9999 
-9999 155 154 158 164 166 162 154 154 154 148 146 145 146 147 142 133 128 134 140 153 184 211 225 232 235 237 238 240 244 242 236 235 238 237 234 231 232 233 232 228 227 227 224 220 219 218 212 203 200 202 204 202 201 200 199 199 201 201 200 199 199 198 196 191 185 181 182 180 167 158 150 144 144 147 151 156 157 158 163 169 175 176 174 170 169 171 173 179 184 184 184 182 178 178 180 182 180 176 174 172 170 173 176 171 165 165 161 157 157 152 148 146 145 146 142 139 133 123 120 120 119 121 123 125 127 134 142 154 167 174 179 179 180 181 182 186 197 207 211 208 202 195 186 185 188 184 178 173 159 141 129 117 109 108 104 105 113 120 117 115 133 146 142 139 135 131 122 114 123 139 144 130 116 104 85 69 65 76 85 87 97 111 128 141 151 158 157 155 152 151 151 150 151 156 158 162 167 168 167 158 150 154 158 156 157 157 153 153 155 155 153 153 156 157 160 164 170 170 163 161 173 181 176 172 174 177 179 180 175 169 167 166 162 163 162 158 159 165 166 156 150 152 158 164 172 177 176 174 172 166 166 177 188 186 180 178 180 183 186 188 189 192 190 182 184 188 188 184 181 182 184 180 172 168 171 179 189 202 214 226 235 238 239 242 243 243 239 241 244 247 249 251 251 252 253 253 253 254 252 249 252 254 253 254 254 254 252 253 253 253 253 254 254 254 254 253 254 254 254 254 251 252 252 252 252 250 249 249 248 244 243 244 243 247 250 250 248 247 246 244 242 242 243 245 247 247 248 248 244 245 247 246 242 243 242 237 232 232 233 233 229 225 224 225 227 226 222 216 212 213 213 211 205 204 207 208 209 205 198 197 200 204 209 214 216 214 208 202 200 197 194 195 198 200 200 -9999 
-9999 153 160 168 171 167 160 154 154 153 148 146 145 145 143 136 128 127 133 142 168 205 227 237 240 240 239 239 242 243 241 238 235 236 237 233 227 225 224 220 216 215 216 216 219 219 214 208 206 209 210 205 202 201 198 193 190 191 191 191 192 193 195 193 188 185 185 185 175 160 154 153 155 155 153 153 155 159 162 168 174 179 182 184 182 180 178 178 180 184 185 184 180 174 173 180 184 178 168 165 166 169 172 172 169 168 169 166 159 153 148 147 146 146 147 142 136 129 123 124 124 119 120 121 122 127 134 139 144 153 164 176 184 188 186 180 176 185 201 208 202 190 178 175 181 181 175 171 164 153 139 120 98 87 92 97 106 121 128 118 115 126 128 128 139 140 129 117 114 131 150 147 136 133 121 95 75 70 81 80 63 53 57 80 116 142 150 148 146 142 141 144 147 156 161 162 163 165 167 163 151 150 157 158 156 160 160 154 155 160 160 155 153 157 159 160 164 169 169 165 167 173 174 169 170 174 177 178 177 171 168 167 165 163 162 155 149 156 162 158 152 154 163 170 174 181 183 175 169 164 159 163 176 184 184 182 179 180 185 187 188 189 190 185 181 189 194 193 192 186 181 178 170 159 160 171 180 192 207 221 231 235 236 238 241 243 244 243 248 250 250 250 251 253 253 254 254 254 254 250 251 254 254 254 254 254 254 252 251 252 253 254 254 254 254 253 253 253 253 252 251 250 253 253 251 251 250 250 250 249 244 242 243 245 248 249 250 250 247 245 243 240 240 243 246 248 248 249 247 244 245 247 245 242 241 239 237 235 235 235 234 230 227 226 229 231 228 221 213 211 213 212 207 201 202 204 205 205 203 200 200 200 204 210 213 211 206 201 198 197 194 192 194 196 197 197 -9999 
-9999 140 145 149 148 147 147 147 150 151 150 148 147 143 132 120 114 120 131 154 191 217 229 235 240 242 239 236 242 243 240 238 234 233 235 233 229 223 215 208 209 215 217 217 216 211 204 204 209 214 213 209 206 202 194 186 185 186 187 187 187 190 194 190 184 185 187 181 168 157 153 153 156 155 158 163 166 170 176 182 184 181 181 187 193 193 188 183 180 179 179 178 180 182 185 187 184 179 173 170 172 175 176 175 174 176 174 168 162 163 163 159 153 153 155 149 141 136 132 127 118 113 113 108 110 122 138 148 147 154 165 173 182 189 187 184 181 175 170 173 179 179 177 178 180 175 167 159 151 148 135 116 99 89 90 94 101 110 115 118 126 131 128 130 140 144 143 141 138 150 161 156 156 157 139 115 96 82 82 76 55 41 31 40 66 93 113 123 133 139 145 148 153 162 162 158 156 158 160 160 156 160 161 155 153 156 153 148 154 160 158 153 151 158 160 157 161 167 169 168 167 168 169 167 169 172 174 175 173 169 164 162 158 155 155 151 153 163 167 163 162 169 178 181 181 185 182 172 169 169 170 177 184 186 185 184 180 180 186 187 188 189 188 184 183 191 196 198 196 184 172 165 156 152 161 175 188 204 221 232 237 239 239 238 240 245 248 246 250 252 251 250 251 251 252 253 253 252 254 252 254 254 254 254 254 254 254 252 249 251 253 254 254 253 253 252 253 253 253 254 253 253 254 252 250 250 249 249 249 249 246 242 241 244 247 248 249 250 248 244 240 236 238 243 246 248 247 247 246 244 245 247 244 241 240 239 238 237 237 236 234 230 228 228 231 233 229 217 207 208 211 208 203 202 202 201 203 204 204 203 203 200 203 210 210 204 199 198 198 196 191 191 193 195 196 195 -9999 
-9999 119 123 127 129 133 135 138 142 144 142 140 140 133 118 109 109 121 145 182 213 224 228 231 235 240 238 233 238 238 235 234 232 229 227 227 225 219 215 215 217 218 217 215 209 202 198 201 206 208 206 206 203 193 184 182 187 189 189 189 189 192 195 191 187 187 183 175 168 162 160 160 162 160 167 178 183 189 193 195 196 191 188 190 193 193 192 189 186 183 179 177 176 179 184 181 173 172 172 173 174 174 172 169 170 173 173 168 165 165 163 157 149 144 147 144 138 135 131 122 112 113 113 113 123 138 153 163 168 176 179 177 180 187 189 190 194 186 167 162 169 181 195 198 189 177 169 157 155 157 138 124 116 104 105 110 110 113 120 124 127 134 136 138 143 149 154 158 159 162 159 156 162 158 134 121 110 95 87 75 67 67 61 66 68 59 64 88 116 131 140 150 163 165 157 153 154 158 163 163 160 161 160 155 154 155 153 152 158 159 155 152 154 162 163 161 166 172 173 170 165 166 168 167 169 173 175 173 173 168 163 160 156 156 161 164 166 172 177 172 170 176 181 178 179 180 176 170 166 168 178 185 186 184 181 179 174 179 186 187 189 188 188 185 183 189 194 193 185 171 161 158 158 161 168 180 198 216 231 237 239 240 240 240 242 244 245 246 249 251 250 249 250 251 252 252 253 252 253 254 254 254 254 254 254 254 253 250 247 252 254 254 254 253 253 252 253 254 254 254 254 254 254 252 250 250 249 249 249 249 245 240 238 242 246 247 247 248 247 244 239 233 236 241 242 244 245 244 244 244 246 246 241 238 239 239 239 238 236 235 233 229 227 228 230 229 222 208 201 204 209 206 201 200 199 199 202 205 204 204 203 199 202 211 209 200 197 199 199 192 188 190 194 195 195 193 -9999 
-9999 113 119 125 130 134 137 139 140 137 130 124 126 123 111 109 112 126 158 195 217 225 228 231 236 240 237 229 227 229 231 233 231 226 223 222 221 218 216 217 217 215 212 209 205 201 200 202 202 198 195 196 191 185 185 191 196 196 195 195 195 195 194 192 193 193 185 177 171 167 164 167 172 172 177 187 194 201 203 202 203 204 204 201 197 196 196 194 192 188 180 173 167 165 164 158 157 163 164 169 171 170 168 166 168 171 169 164 160 153 148 147 140 134 139 135 126 126 123 115 115 124 129 137 151 162 168 172 176 180 182 184 189 194 197 193 190 192 193 192 192 194 199 200 190 177 167 155 156 152 130 125 117 101 109 118 115 123 137 134 127 126 126 132 144 150 149 149 156 165 165 162 163 149 124 120 119 118 122 114 105 108 122 127 104 81 76 91 115 133 141 155 166 160 153 156 163 170 172 167 160 159 162 159 154 156 159 158 159 159 155 152 158 166 167 166 171 173 172 169 164 168 171 168 172 177 176 172 170 166 164 164 162 166 175 177 176 176 176 171 171 176 174 172 174 175 173 168 158 163 176 179 178 178 176 175 176 181 183 185 186 186 186 184 185 192 195 187 175 165 160 160 163 165 169 183 206 225 235 239 239 240 242 246 247 245 243 244 248 250 250 250 250 252 253 253 253 253 253 253 253 253 254 254 253 252 250 245 246 252 254 254 253 252 253 252 253 253 253 252 252 253 253 251 249 249 247 246 248 247 242 236 235 240 245 246 246 246 245 243 237 232 236 241 242 246 246 244 243 244 245 244 240 237 239 239 239 237 234 232 230 226 225 227 226 222 214 206 201 204 208 205 198 196 196 197 201 202 201 202 201 198 202 209 206 196 195 199 195 186 186 193 196 196 195 192 -9999 
-9999 117 121 125 130 134 136 137 136 135 134 134 136 126 114 115 123 146 177 199 212 222 229 230 235 239 237 232 229 231 232 232 229 226 224 221 218 215 213 211 213 214 211 207 203 199 199 201 200 195 192 192 189 189 193 196 197 196 198 198 196 193 192 191 193 191 184 177 172 168 165 168 175 179 183 189 198 205 206 206 208 209 208 205 200 194 194 198 199 194 184 176 174 173 167 158 164 167 164 170 175 175 171 169 175 176 166 155 149 146 151 152 145 146 151 137 125 131 131 122 125 134 139 144 150 156 165 171 172 175 184 193 195 195 195 193 191 191 193 193 196 195 184 173 171 172 164 152 153 145 124 117 103 92 104 112 111 116 122 123 123 122 127 141 150 152 153 154 158 163 158 150 148 131 116 124 128 132 148 164 166 159 153 143 130 129 129 125 127 141 157 169 168 159 158 167 170 170 166 163 163 165 165 157 149 155 158 154 155 158 156 158 168 176 171 166 165 163 162 162 161 168 172 170 175 179 174 168 166 167 169 166 163 170 180 183 178 170 167 169 168 168 168 169 171 171 167 159 156 169 181 178 178 179 179 180 182 183 182 184 186 186 185 184 186 192 191 181 174 168 163 160 162 166 175 196 221 234 240 241 240 241 244 247 249 247 245 245 247 248 249 250 251 252 253 253 253 252 252 252 251 250 251 252 251 247 245 244 249 252 252 253 252 252 253 252 252 253 252 251 251 252 253 251 248 246 243 245 247 245 238 233 235 241 246 246 244 243 243 240 234 234 241 244 243 245 247 245 243 244 244 243 240 238 237 237 237 234 229 226 226 225 226 228 225 218 216 211 202 202 204 202 195 192 194 196 197 197 198 201 200 199 201 204 201 192 191 194 190 182 186 193 195 192 192 189 -9999 
-9999 121 123 126 128 130 130 127 124 128 135 140 138 126 117 123 144 176 200 206 208 217 227 228 230 232 235 235 235 234 231 228 227 226 223 217 214 214 215 215 214 210 208 208 205 200 201 203 201 197 196 197 195 193 193 192 191 194 196 194 190 187 188 191 193 187 179 174 170 166 164 168 174 178 182 192 202 206 205 207 207 205 203 201 195 188 190 195 196 192 188 184 183 180 174 180 185 173 164 171 177 174 167 167 171 167 157 149 149 156 160 155 148 151 151 138 132 138 133 122 127 134 136 136 138 145 161 168 168 175 189 196 195 192 189 187 193 198 197 196 199 195 177 165 168 172 166 161 163 151 124 108 97 94 104 109 109 106 109 118 125 132 147 157 154 154 160 167 171 166 145 129 119 106 112 127 134 143 158 166 165 163 155 146 145 147 151 147 141 143 154 163 166 167 166 165 161 159 158 158 161 162 157 150 150 157 156 153 158 161 160 164 174 176 164 158 159 160 163 164 164 169 172 171 174 174 168 164 167 172 169 160 162 174 183 183 170 156 160 167 162 161 167 171 171 171 167 164 170 180 186 185 184 185 185 185 185 184 184 186 187 186 184 182 182 187 186 179 174 168 160 158 164 174 187 208 230 239 242 243 242 243 244 245 247 246 245 245 245 246 248 248 249 250 251 251 251 251 251 252 253 253 253 252 248 243 243 248 252 252 251 251 251 251 252 251 251 252 252 252 253 253 253 250 245 241 241 246 247 242 236 233 236 242 245 242 238 238 239 237 234 237 243 246 242 241 245 245 242 243 244 243 240 237 234 233 231 227 223 223 225 227 229 230 223 214 214 208 199 197 198 198 195 192 193 195 194 194 197 199 199 199 199 200 197 192 190 192 189 184 185 188 186 182 184 185 -9999 
-9999 125 129 133 132 129 126 121 118 124 127 124 121 118 119 134 165 194 212 221 220 221 227 231 232 233 234 235 235 232 230 229 229 226 221 217 217 217 215 212 209 206 208 209 206 204 207 207 203 199 198 199 197 195 196 196 196 197 195 191 188 188 190 192 193 186 177 173 169 165 164 166 173 181 188 200 207 205 204 204 202 199 196 194 190 189 191 191 188 185 185 184 181 176 178 190 190 174 172 178 178 171 165 167 166 161 156 154 160 167 163 155 150 147 144 135 132 136 127 120 126 131 132 133 137 150 167 172 173 182 193 199 202 203 201 199 204 210 212 212 209 197 183 179 174 166 160 161 158 136 114 106 101 98 99 99 96 96 108 124 129 137 156 161 156 154 157 162 165 158 136 125 119 113 121 133 142 159 170 164 163 168 159 149 151 154 155 151 148 145 146 150 157 161 154 152 154 160 159 155 155 153 147 147 152 154 152 156 161 161 160 164 167 161 151 154 161 165 170 169 170 174 175 173 172 170 166 167 171 174 167 157 164 175 178 173 158 151 163 170 165 167 174 173 172 177 174 169 175 181 186 186 183 185 187 187 188 187 187 188 186 185 184 180 178 182 183 178 171 162 156 158 168 181 193 211 230 237 239 239 239 242 245 246 244 243 242 243 244 246 248 248 247 248 249 249 249 249 250 252 254 254 254 252 247 243 245 250 252 252 251 251 249 250 250 250 249 249 250 251 252 252 251 246 241 240 242 246 244 237 235 236 236 241 242 238 235 237 238 236 236 239 242 242 239 239 244 245 243 244 246 243 239 236 231 228 226 223 222 225 227 228 228 225 214 207 208 204 196 193 196 199 198 194 193 193 192 194 197 199 199 198 197 196 194 191 191 194 194 188 185 186 184 181 184 186 -9999 
-9999 144 145 146 141 135 129 124 124 126 123 121 121 122 131 160 193 213 224 234 235 229 228 229 232 233 231 229 226 224 223 225 224 219 216 215 214 209 204 201 201 205 210 209 204 205 211 213 208 202 200 199 198 197 198 199 200 198 192 187 187 193 196 198 197 188 180 174 169 166 165 170 180 189 197 206 209 205 203 201 198 195 192 189 188 192 194 189 184 183 183 184 182 179 182 185 180 177 186 190 184 176 172 171 166 163 159 157 162 164 158 152 149 146 142 130 129 136 128 123 127 129 131 135 146 165 177 178 183 193 200 204 206 209 211 213 216 217 218 213 199 184 179 177 166 155 150 140 125 109 105 112 106 91 81 81 86 98 117 134 135 139 153 161 163 166 165 163 160 141 113 115 126 128 130 135 142 153 157 157 166 168 160 153 150 151 148 142 138 133 137 153 159 152 144 149 159 160 152 148 156 159 152 154 160 155 153 157 159 158 160 162 159 152 150 159 164 164 167 169 173 177 178 175 170 169 169 172 175 176 167 160 168 175 173 166 156 156 166 168 167 174 178 174 176 182 172 162 171 181 186 184 181 188 192 190 188 186 187 188 187 189 187 180 177 181 182 177 164 154 156 163 175 188 200 218 233 237 238 236 236 240 244 245 242 240 241 243 245 248 250 250 249 248 248 249 249 248 249 250 252 253 252 249 246 244 247 251 252 252 251 250 248 249 250 249 249 249 249 248 248 248 245 241 239 240 242 243 239 234 236 237 236 240 240 237 237 240 240 237 237 238 238 239 238 240 244 245 243 245 246 240 236 234 230 227 226 225 226 228 228 227 224 216 209 208 207 201 194 194 202 204 199 196 194 191 192 195 199 202 201 199 197 194 191 188 190 194 194 188 186 187 188 189 190 190 -9999 
-9999 177 167 158 148 140 133 129 130 128 127 132 137 145 166 202 226 235 236 239 240 236 232 227 227 231 231 227 225 225 223 219 215 214 213 210 205 201 198 198 199 205 208 204 200 203 209 209 205 204 203 201 200 199 198 198 197 194 188 184 188 196 199 200 198 188 177 173 170 168 170 177 187 195 202 206 206 204 201 198 195 191 189 187 187 190 192 188 184 181 180 182 183 184 178 168 166 177 191 188 178 173 173 169 162 161 158 156 160 157 145 138 142 143 136 126 133 140 127 120 125 129 132 137 150 166 174 175 181 191 199 199 200 203 208 214 217 214 212 203 185 169 164 158 152 146 133 112 106 105 105 109 97 75 68 78 92 110 129 149 155 155 160 158 163 175 182 187 178 145 115 125 137 137 137 142 144 148 149 155 163 161 163 169 166 159 150 135 124 123 136 155 162 158 155 160 164 160 150 151 166 166 153 157 159 150 149 154 157 159 162 159 154 155 158 164 164 164 169 172 175 176 175 172 169 168 168 172 176 177 170 166 174 178 173 166 160 158 163 165 169 176 175 173 179 179 164 158 174 187 187 185 186 192 194 188 184 184 185 186 187 190 183 174 176 180 180 173 156 149 159 170 183 197 213 229 239 241 240 239 241 243 243 242 242 242 244 245 247 249 250 251 250 248 247 248 248 246 245 247 249 248 246 243 241 242 247 250 251 251 251 249 248 249 249 249 249 249 249 247 245 244 241 239 238 238 239 239 237 234 237 237 235 238 238 237 239 241 240 235 235 237 238 240 240 240 241 242 242 243 242 236 233 232 229 227 227 227 229 229 227 224 220 214 211 212 207 198 193 196 202 201 196 195 194 191 191 196 201 205 203 200 196 191 188 187 190 193 191 186 184 185 189 194 195 193 -9999 
-9999 195 185 167 152 143 136 135 137 137 141 149 160 185 216 237 244 245 243 243 240 236 235 232 231 234 236 237 237 236 232 223 217 216 215 209 203 200 200 202 202 204 204 200 198 199 199 196 196 202 204 200 198 194 191 191 191 189 189 193 199 200 198 197 194 182 175 174 172 173 177 183 190 198 202 200 198 199 198 195 191 188 186 185 185 187 188 186 184 179 175 177 182 187 181 174 168 173 178 170 168 169 168 164 161 164 163 163 163 156 148 143 147 141 131 132 144 143 127 121 124 128 135 146 155 163 169 174 181 189 193 190 190 198 207 215 216 208 201 195 184 171 159 149 145 138 118 102 108 105 96 96 83 72 81 100 111 120 134 150 158 166 168 161 164 180 197 202 179 136 122 135 140 141 152 163 165 164 164 164 165 166 173 188 190 175 157 136 122 116 115 125 146 154 158 161 162 156 152 161 172 161 149 154 149 140 146 154 157 157 157 152 152 157 159 166 168 169 175 177 173 166 166 167 168 168 168 172 177 178 173 172 178 178 172 166 160 159 161 164 169 171 172 172 175 172 160 162 182 193 190 188 190 192 190 185 182 182 183 186 188 184 174 169 174 177 173 164 151 148 160 175 190 207 225 237 243 244 244 243 245 246 246 246 246 246 246 247 248 247 247 246 245 244 244 245 247 246 244 244 244 240 237 235 234 237 243 246 247 249 248 247 247 250 250 249 249 249 247 246 245 243 241 240 238 237 237 237 235 234 236 235 234 234 235 237 238 239 237 233 237 241 242 242 239 238 240 242 242 242 240 234 231 229 227 226 227 227 228 228 225 222 219 216 214 213 205 193 189 194 195 192 191 191 191 190 192 195 200 203 200 196 192 187 187 189 190 191 190 185 183 183 190 198 200 196 -9999 
-9999 193 188 173 160 156 153 151 151 151 162 174 191 220 242 249 250 247 246 248 239 230 229 234 239 240 240 241 241 239 233 226 221 218 214 209 205 201 198 197 200 204 203 199 198 197 196 192 192 197 199 197 196 192 191 193 192 191 194 199 201 198 193 191 187 180 177 174 171 172 176 184 194 199 194 188 189 189 188 185 184 184 184 185 184 181 180 182 184 179 175 176 182 187 189 190 183 171 159 155 163 166 161 158 162 168 166 162 157 155 158 157 153 141 136 143 143 132 124 121 121 124 133 145 151 159 169 179 189 195 194 192 196 202 208 213 214 206 196 188 180 172 163 152 143 128 108 103 107 101 102 106 97 93 100 109 119 129 139 147 151 158 167 177 187 198 201 186 139 112 118 129 133 138 148 156 160 167 171 174 178 178 182 193 200 189 166 147 133 119 103 104 122 141 152 156 156 151 153 160 160 154 153 154 145 142 151 158 156 155 154 148 151 158 163 172 174 173 175 172 160 153 160 168 172 171 171 175 179 176 172 173 174 169 164 161 161 162 162 165 166 169 175 173 171 166 160 172 190 195 190 188 189 189 189 185 182 184 187 191 190 181 172 170 171 166 162 158 153 154 169 187 203 220 236 244 248 249 246 243 245 247 249 249 248 247 248 250 249 246 243 242 241 241 242 245 248 249 246 243 241 238 234 231 232 235 239 240 240 242 243 243 245 247 248 249 249 247 244 244 245 244 241 239 236 236 236 235 232 231 232 233 232 233 235 237 238 238 237 237 241 245 244 242 239 239 242 243 241 239 236 229 224 223 223 225 226 225 224 225 223 219 218 217 213 208 201 189 187 193 192 190 191 191 192 192 192 193 196 197 193 190 187 185 188 190 190 189 188 186 182 183 191 202 205 197 -9999 
-9999 190 186 179 177 180 178 174 172 176 195 218 237 246 249 250 250 246 246 249 246 241 237 233 235 235 235 236 236 231 225 221 218 214 208 204 203 203 200 198 200 203 203 202 200 198 199 197 194 192 190 192 196 197 200 201 200 197 196 196 195 194 191 192 190 182 176 170 169 170 174 184 192 192 189 189 188 184 179 174 172 174 176 177 176 171 172 176 177 175 174 175 176 177 182 187 183 170 154 150 155 155 153 157 164 166 162 154 152 156 155 153 149 143 142 142 130 120 119 118 121 129 139 144 148 162 178 188 194 197 201 211 215 211 207 206 206 202 193 182 172 164 158 149 134 112 96 97 102 109 120 121 116 110 104 108 127 138 140 148 153 158 171 190 201 197 183 151 119 119 132 133 133 136 139 140 143 153 161 173 189 194 190 188 195 196 178 159 145 137 131 124 122 136 155 162 162 159 162 156 152 150 147 142 139 146 155 157 156 159 156 147 155 167 171 173 170 165 163 162 152 154 171 179 180 175 174 176 176 171 168 169 167 162 161 165 168 167 166 167 166 170 176 167 156 152 163 182 193 193 191 189 188 187 188 186 185 188 190 192 188 178 172 170 160 152 155 160 160 163 178 199 215 230 242 248 250 250 246 245 247 247 248 248 246 246 248 249 248 244 241 241 241 241 242 244 248 249 246 242 239 236 233 233 235 236 237 236 235 235 237 239 241 242 242 243 243 241 240 241 243 242 240 237 233 234 235 232 229 228 229 231 232 234 235 237 239 240 241 241 243 244 242 241 241 241 241 240 237 233 229 222 218 221 224 226 225 223 222 223 221 217 215 213 206 202 199 191 189 194 194 193 195 197 196 194 192 191 192 192 189 189 188 188 190 191 192 192 192 188 183 183 191 200 199 183 -9999 
-9999 191 190 187 192 198 197 198 204 216 232 243 250 252 252 251 250 247 245 250 253 251 248 241 235 235 234 231 226 220 214 212 212 210 205 201 202 203 203 206 206 201 198 200 201 202 204 202 198 193 190 190 193 195 198 200 200 198 194 192 193 191 187 185 180 179 177 170 169 172 179 185 187 188 192 193 190 187 179 171 167 165 163 162 162 165 170 171 168 164 166 172 175 174 172 169 161 156 155 154 153 154 157 161 163 163 158 156 157 155 149 147 147 145 144 139 129 126 128 129 136 145 148 149 157 174 186 192 195 200 209 218 219 212 205 199 193 187 180 171 161 151 140 128 115 99 90 95 104 108 112 121 123 115 107 115 130 129 132 145 155 164 171 179 187 186 170 141 123 129 139 143 151 160 162 159 153 153 159 173 183 189 194 189 181 173 155 143 140 148 158 156 143 141 156 166 169 167 162 157 155 148 139 137 140 148 155 155 154 156 152 151 161 166 165 164 163 161 165 169 164 171 184 188 183 175 174 174 172 170 171 173 171 164 165 170 170 167 164 162 163 170 170 153 142 156 178 190 192 191 192 191 188 188 190 188 187 190 190 190 185 175 170 168 159 156 164 166 161 162 180 209 228 238 244 247 248 247 245 246 247 246 246 246 246 247 246 244 243 241 239 239 240 240 238 239 242 242 239 234 232 231 232 235 237 238 238 237 235 235 236 240 243 242 240 238 237 237 238 237 237 238 237 231 229 233 232 227 225 226 229 232 233 233 233 236 240 241 240 240 241 239 237 240 240 238 238 237 234 231 228 224 222 226 228 225 223 221 221 222 219 213 212 209 203 201 201 195 190 192 195 196 198 199 196 191 190 190 189 187 186 189 190 188 189 192 196 198 194 188 183 183 189 193 183 164 -9999 
-9999 193 195 193 195 206 213 218 227 240 248 249 249 252 253 252 251 250 249 249 250 251 249 246 241 238 235 229 222 214 210 209 207 205 203 204 204 199 199 203 207 204 201 201 204 207 207 203 199 197 195 192 190 187 187 189 189 187 185 187 189 186 186 181 177 181 177 170 170 176 187 193 194 193 193 190 189 187 180 173 169 163 158 156 156 162 170 172 165 157 163 173 177 174 164 152 145 151 158 157 156 159 164 164 159 158 157 154 154 150 145 146 146 142 138 132 128 132 137 140 143 146 148 156 169 183 190 193 196 202 207 212 213 209 203 196 186 177 171 164 150 135 122 114 108 103 105 121 128 120 129 141 128 115 108 109 115 119 130 147 161 167 166 167 176 183 173 143 126 123 131 148 164 174 174 171 167 164 163 161 152 151 170 177 163 140 122 123 135 156 171 170 165 165 169 165 166 161 158 162 161 155 151 151 152 156 159 155 151 150 150 155 162 162 160 161 165 169 175 178 174 177 184 184 175 168 170 170 169 172 176 177 173 163 161 163 162 161 158 155 160 166 159 148 156 179 192 191 188 189 191 189 187 189 191 187 186 188 189 188 183 172 167 169 165 162 167 166 160 171 203 228 237 241 244 245 244 242 238 241 245 246 246 247 247 247 245 241 238 237 235 235 237 239 235 228 227 229 228 226 226 227 231 234 237 237 237 239 239 239 240 243 244 242 239 236 237 237 237 238 237 235 230 226 226 227 225 222 222 223 226 228 229 230 232 237 239 237 236 237 236 234 234 237 236 234 236 236 233 230 229 228 227 229 228 223 220 222 223 222 217 213 214 211 204 204 202 196 190 190 195 197 196 194 189 186 187 188 185 184 186 187 187 186 188 193 199 199 191 182 180 182 185 186 176 166 -9999 
-9999 194 197 196 196 210 224 229 235 245 248 247 250 251 252 251 250 249 249 247 246 246 244 242 238 235 229 221 212 206 207 208 205 202 202 203 201 198 200 200 200 204 205 205 206 207 203 198 194 197 198 194 191 188 186 183 180 179 182 185 187 187 187 187 188 184 174 172 177 185 195 199 199 198 196 192 187 181 175 170 165 160 158 156 155 157 163 166 163 163 170 173 170 163 155 148 149 158 161 161 164 166 165 161 157 161 159 152 152 148 145 146 144 134 125 124 127 132 137 135 133 138 144 154 171 186 193 194 195 198 200 202 202 200 197 193 187 180 174 166 150 133 125 124 121 116 121 137 140 144 160 152 124 111 104 106 116 129 140 148 155 157 160 171 183 189 176 143 123 120 132 145 151 158 159 155 155 157 154 143 127 125 135 135 126 118 118 135 153 170 182 183 183 183 180 167 159 152 152 158 159 160 159 157 159 159 157 151 148 150 154 160 163 164 163 164 169 170 171 170 167 170 175 171 163 165 167 164 164 167 168 170 169 161 158 159 160 160 156 155 157 154 151 158 175 190 192 185 182 186 188 185 184 188 188 185 187 189 189 188 183 172 168 171 167 158 159 163 174 202 228 238 239 241 243 243 242 239 237 241 245 247 247 246 246 246 246 243 240 238 236 233 235 238 236 228 224 225 225 224 225 226 229 232 233 232 233 238 241 240 238 236 235 235 235 237 239 239 240 241 238 231 225 224 224 223 222 224 225 226 227 228 229 231 234 237 236 234 234 236 235 233 237 240 238 236 236 234 231 228 228 228 227 226 224 220 221 224 225 223 218 217 216 210 206 206 202 194 188 186 191 195 193 187 182 182 185 186 183 186 187 185 187 190 192 196 200 196 184 176 176 179 182 182 177 174 -9999 
-9999 194 200 200 202 216 231 235 241 250 247 246 250 252 252 250 249 247 247 246 245 246 245 242 238 233 222 211 202 200 202 203 202 203 203 201 198 199 203 203 203 203 202 201 201 198 192 188 190 194 195 193 192 192 190 185 182 183 185 185 187 187 185 186 185 180 175 176 183 192 199 200 199 199 198 194 186 178 170 164 159 158 158 158 157 154 152 151 155 165 170 166 159 153 149 147 152 156 155 160 168 169 166 161 162 165 161 158 157 150 146 146 143 136 132 136 137 133 127 121 124 135 142 153 175 188 190 188 188 191 194 195 194 191 189 186 182 177 173 163 147 132 128 129 128 123 122 127 135 148 156 140 117 104 99 106 119 137 147 154 157 153 157 172 184 191 179 141 125 131 145 148 146 151 153 151 156 162 160 155 153 153 148 136 129 127 130 143 152 161 176 187 185 177 168 154 149 145 145 147 141 141 144 146 148 145 146 146 147 153 161 165 163 161 162 167 170 167 163 161 162 164 165 161 163 169 166 161 161 162 165 170 169 162 157 158 163 162 157 156 158 158 160 172 184 192 188 178 180 185 185 181 182 187 187 187 190 190 190 189 183 173 169 171 166 157 157 168 195 221 232 236 237 239 241 243 243 241 242 246 247 247 246 244 244 245 247 246 245 244 243 241 238 238 237 235 231 227 225 223 222 224 228 229 228 226 228 231 233 234 232 228 227 230 235 236 236 236 238 237 234 228 224 224 225 226 227 227 226 228 230 233 234 236 236 237 236 235 236 237 236 236 241 244 240 237 235 232 230 229 230 227 223 221 219 219 223 225 225 223 220 216 213 208 205 204 199 192 186 183 187 194 192 184 181 182 187 187 185 188 188 184 188 193 194 198 199 190 179 175 176 178 182 182 179 179 -9999 
-9999 201 204 203 208 223 235 240 249 252 249 247 249 253 253 251 249 248 247 245 244 246 245 242 234 222 208 202 200 200 202 201 198 196 196 194 192 195 201 205 207 204 200 197 194 189 181 178 181 186 189 189 190 189 187 185 189 190 187 185 188 188 183 180 180 179 177 177 183 192 198 198 198 198 198 192 182 172 163 159 160 163 166 167 165 162 160 158 160 161 159 157 154 148 142 145 158 159 153 153 157 163 168 166 161 161 159 157 158 154 149 146 147 146 143 141 139 133 125 120 127 142 155 169 184 188 186 184 184 185 186 187 189 188 186 180 173 168 165 156 138 123 121 123 122 122 125 130 137 146 144 123 97 84 88 101 115 131 142 156 167 166 168 177 181 176 158 129 124 134 147 155 158 159 160 165 174 181 179 179 189 200 194 177 165 156 148 144 140 145 156 163 159 148 144 146 147 147 144 138 131 137 141 137 137 139 143 147 151 158 163 164 162 161 162 169 172 168 164 165 166 164 162 163 169 171 163 159 163 168 172 171 165 159 153 156 162 161 161 164 169 169 169 180 188 191 185 176 185 191 187 185 189 192 189 188 188 188 188 185 179 171 166 163 158 156 159 178 209 225 231 234 236 239 242 243 242 242 245 248 248 247 246 245 244 244 245 247 247 247 246 245 241 236 233 233 231 228 225 221 218 218 221 223 221 220 223 224 225 228 229 229 230 233 234 231 226 225 229 231 230 225 222 223 226 228 228 225 223 226 229 233 236 237 238 237 237 237 237 237 237 238 240 241 238 235 234 231 229 229 229 226 223 222 218 220 224 225 222 220 216 212 209 206 203 200 196 192 187 184 189 196 193 186 183 186 192 192 191 193 190 185 187 192 194 196 194 185 179 177 178 181 186 184 180 182 -9999 
-9999 209 209 206 210 222 233 244 251 251 250 248 248 250 251 251 250 249 249 249 245 241 236 230 221 208 200 200 201 200 199 197 195 195 195 194 194 198 203 205 204 203 199 195 192 187 182 182 183 183 184 183 183 183 182 184 192 194 190 187 188 187 179 175 176 175 176 178 182 187 188 189 191 194 192 185 177 166 158 161 167 173 175 171 164 163 166 166 161 154 151 151 147 143 139 149 164 164 158 154 151 155 160 159 157 158 156 155 158 156 150 151 155 153 140 128 127 128 130 134 142 152 160 165 173 179 182 187 189 185 180 177 177 178 182 182 174 166 159 145 127 118 119 123 120 119 121 122 129 134 117 83 63 63 81 101 113 124 135 152 165 173 188 195 187 166 137 112 112 125 139 148 155 159 164 173 183 187 186 189 196 203 196 182 172 163 159 156 150 151 150 144 137 132 135 147 157 157 149 141 143 154 149 138 139 145 149 151 153 158 162 162 161 159 162 171 174 169 167 169 169 167 164 167 170 167 159 158 167 174 173 167 161 157 154 158 160 160 164 168 169 167 169 182 191 192 188 186 195 198 193 194 199 198 193 189 185 184 182 177 170 163 155 150 150 155 166 192 219 228 231 235 239 242 244 243 242 244 248 249 249 248 248 248 248 247 246 246 246 246 246 245 241 236 233 231 229 227 225 222 218 215 216 218 218 218 221 223 224 227 231 233 234 235 235 232 227 227 230 232 230 225 223 225 228 230 228 224 223 225 227 230 233 234 235 236 238 237 236 237 238 237 238 237 234 231 230 228 227 227 228 226 226 225 221 223 225 223 219 217 213 209 206 201 199 198 195 192 188 185 189 194 193 187 185 189 193 197 200 199 193 188 189 193 194 194 192 185 181 182 182 186 188 182 177 181 -9999 
-9999 214 215 208 207 215 230 243 249 250 250 249 249 250 250 250 251 249 248 248 243 232 221 213 206 201 202 203 202 200 196 194 195 203 208 205 201 202 203 202 200 198 196 194 191 188 187 192 195 194 188 182 181 181 179 181 188 188 185 185 187 186 179 180 181 178 178 178 178 178 178 178 180 180 178 174 168 160 161 169 171 170 167 164 159 161 163 160 154 151 153 152 145 144 147 159 163 155 155 155 152 150 152 156 159 161 160 158 156 148 145 152 155 148 135 126 128 130 130 132 139 147 150 154 165 174 181 189 192 191 186 178 171 168 171 175 172 165 153 135 122 121 126 128 122 114 112 111 115 109 75 49 52 67 88 104 112 123 138 153 159 164 178 185 176 153 123 101 108 127 141 146 148 157 169 180 188 193 198 204 198 185 172 168 163 158 159 157 149 147 144 139 137 141 148 162 174 170 158 154 158 158 148 141 143 146 149 148 148 154 159 159 156 157 165 172 171 165 164 167 168 166 164 168 169 163 157 160 172 175 168 160 159 160 163 164 159 156 157 159 160 162 171 183 191 194 194 195 199 198 193 195 199 196 191 189 187 184 178 172 167 159 151 146 148 159 181 208 229 236 239 241 243 245 245 244 244 247 249 249 249 248 247 247 249 249 248 246 245 245 244 242 240 237 234 232 230 228 227 227 225 223 218 214 215 218 222 225 227 229 231 233 235 237 237 235 232 232 233 234 232 225 224 227 231 232 229 225 223 224 227 229 230 231 233 235 236 235 236 238 238 236 236 234 231 227 226 225 225 226 227 227 226 223 221 223 224 222 219 216 213 210 204 197 197 197 192 189 188 185 185 188 188 187 187 189 192 198 203 199 194 190 189 192 194 195 196 191 188 188 187 187 187 180 175 180 -9999 
-9999 223 223 211 207 219 235 242 246 249 251 249 249 249 248 248 247 245 242 238 229 218 210 205 200 199 202 202 200 198 197 195 200 212 215 206 202 205 206 202 197 195 195 192 188 183 183 190 196 198 193 187 185 182 178 179 180 178 177 180 184 182 177 182 185 182 181 178 177 178 178 173 167 159 155 156 153 153 161 169 169 164 163 166 167 168 164 163 166 167 165 159 156 159 160 165 161 152 151 151 153 156 159 163 166 167 162 155 147 136 135 146 148 141 133 130 133 134 128 126 132 142 151 160 172 183 190 193 195 199 200 194 185 180 178 173 168 164 148 131 130 134 135 134 131 127 123 113 106 88 60 59 79 99 109 112 114 126 140 146 148 151 152 144 128 113 97 88 105 124 141 154 163 173 184 192 197 201 207 209 194 172 164 160 158 157 152 146 145 153 151 146 150 158 167 177 184 176 166 163 164 158 149 148 149 151 152 151 151 157 159 156 155 160 166 167 164 162 163 165 164 163 163 168 164 156 155 164 173 169 159 154 160 165 164 159 151 151 157 162 164 170 178 184 190 194 194 193 194 192 189 190 192 189 188 190 190 180 167 166 167 161 155 152 155 173 198 218 232 241 245 247 247 246 246 245 246 247 248 248 248 247 247 247 248 248 247 246 245 243 240 238 237 236 235 234 232 230 230 232 233 231 224 217 216 220 227 231 232 230 229 231 234 235 234 232 231 230 231 233 230 222 221 225 228 227 223 221 223 227 230 231 232 234 235 234 234 235 236 237 236 235 234 231 228 226 223 222 223 226 228 226 223 220 221 222 223 223 220 214 211 208 201 196 196 196 190 188 188 182 178 181 184 190 192 191 191 196 200 198 193 187 185 189 194 197 199 195 190 189 187 187 187 181 177 183 -9999 
-9999 234 227 211 209 230 240 240 243 248 251 250 249 248 248 244 239 236 232 224 214 209 208 205 204 202 198 195 196 197 198 200 207 206 197 194 200 207 208 206 204 202 198 193 188 182 185 190 193 193 191 189 189 184 179 178 177 175 176 181 182 178 175 177 178 176 177 179 182 184 179 165 154 147 146 149 149 154 162 168 170 171 175 174 171 167 164 168 173 173 169 163 164 169 172 171 164 156 155 156 163 169 169 168 169 167 161 149 142 143 148 153 150 145 140 133 130 131 128 128 135 148 164 175 184 193 198 198 201 205 204 200 198 199 194 181 167 154 135 129 133 130 126 128 133 133 127 115 106 92 88 102 118 128 123 116 119 135 146 153 158 160 158 140 115 100 92 96 117 131 145 162 174 182 192 201 204 202 197 191 182 171 159 156 162 158 148 147 162 178 174 169 175 181 182 182 179 169 165 163 163 159 155 155 154 155 157 158 158 159 155 152 159 164 163 160 160 163 164 163 161 161 163 165 160 155 161 168 169 164 157 155 164 163 153 147 147 159 169 174 175 179 181 182 188 192 191 187 186 187 185 187 189 186 186 186 181 166 153 161 163 155 150 153 165 191 214 224 233 239 243 245 245 246 246 247 248 249 250 250 250 250 250 251 250 249 247 247 245 242 239 237 236 237 238 237 233 230 230 232 234 232 229 226 225 227 231 232 232 231 230 230 230 226 224 226 229 232 230 229 223 218 220 224 224 221 217 219 225 230 232 234 235 238 237 234 234 237 236 234 234 235 234 230 228 225 222 222 224 227 228 226 222 220 223 223 222 221 218 211 206 204 199 195 196 196 192 189 185 178 175 181 188 198 200 193 191 193 197 196 189 182 182 189 193 196 197 195 189 185 183 184 186 182 179 183 -9999 
-9999 240 222 207 216 239 240 238 239 245 250 250 250 249 246 240 237 233 226 215 207 206 206 207 207 204 194 192 199 202 202 205 205 194 184 187 195 200 201 201 202 202 198 194 192 191 193 192 191 189 187 189 188 184 184 184 183 181 180 182 180 175 174 177 175 170 170 175 181 181 173 158 153 156 157 158 157 159 164 168 171 175 176 169 162 156 164 171 161 155 158 159 160 165 168 164 156 151 151 154 159 162 166 168 165 159 156 146 149 161 162 158 151 144 139 134 130 130 130 133 146 162 176 185 192 198 199 198 198 196 192 191 192 191 182 167 154 142 131 134 133 119 111 114 118 115 109 107 106 104 114 127 132 126 114 118 137 153 161 171 167 159 158 146 121 107 107 121 138 149 160 174 182 190 200 208 210 202 187 178 175 168 160 160 162 157 156 161 170 173 171 179 190 197 196 191 179 163 157 156 160 161 161 160 157 158 156 154 154 154 155 157 163 164 161 160 160 161 160 157 156 156 157 162 164 160 165 169 167 165 163 165 168 157 145 149 164 176 176 171 171 179 181 182 187 191 188 183 185 187 185 187 190 186 183 178 168 155 148 160 162 151 146 155 180 207 225 232 237 239 239 238 240 243 245 247 249 250 251 251 249 250 252 253 251 249 248 247 245 243 241 240 238 237 237 235 232 228 224 221 223 226 229 231 231 231 232 231 229 227 227 226 224 218 212 214 225 230 225 219 217 219 224 227 225 220 218 220 225 229 231 232 233 235 234 233 235 235 233 234 237 235 230 226 225 224 222 222 225 228 228 226 221 221 223 221 219 219 215 209 205 204 200 195 197 197 190 184 180 177 179 185 192 202 201 195 194 196 198 197 192 188 189 191 191 193 195 193 189 183 179 182 184 180 179 183 -9999 
-9999 241 213 209 229 242 238 237 239 244 247 247 245 242 235 232 235 233 222 209 204 204 203 203 204 203 198 205 206 201 202 202 199 192 189 190 191 192 191 191 191 192 195 196 195 194 193 190 186 181 181 186 185 181 183 183 181 179 176 176 175 171 170 171 170 166 167 173 174 165 159 157 163 171 170 168 166 164 167 169 171 172 166 158 155 160 174 175 162 159 162 162 158 156 152 144 142 143 143 142 141 144 153 159 152 148 149 145 156 164 157 155 153 144 138 134 135 137 136 139 152 168 180 186 192 195 196 198 197 193 188 183 179 174 165 155 147 142 140 142 138 128 125 124 121 112 100 100 100 100 109 120 124 115 114 134 151 154 154 150 139 139 141 133 122 118 120 128 137 147 162 178 187 197 204 211 214 200 184 179 168 159 167 171 162 153 157 163 160 153 161 178 193 202 203 198 182 166 159 160 162 165 165 159 159 162 159 158 159 159 162 163 163 161 160 159 156 156 154 149 147 147 151 162 165 157 158 161 162 164 166 167 161 148 148 168 186 183 171 162 168 180 182 183 187 189 188 186 187 187 183 184 187 184 181 175 166 156 149 160 167 162 159 172 199 220 232 237 242 243 242 241 244 246 248 250 251 251 251 250 250 252 253 252 251 249 248 247 245 242 241 240 239 237 235 231 229 226 218 213 216 221 226 231 232 232 230 227 223 219 219 220 221 221 223 224 225 224 221 217 218 222 227 227 223 220 220 223 226 227 228 229 230 231 232 233 234 233 233 237 237 229 222 220 221 222 221 224 228 229 228 225 219 219 220 217 216 215 212 208 207 207 202 196 196 194 186 181 180 182 184 187 194 201 199 195 195 194 194 196 197 196 195 190 187 191 193 193 191 184 180 182 185 181 179 183 -9999 
-9999 229 207 218 241 246 242 241 243 245 243 237 232 228 223 221 220 214 206 203 204 202 199 202 205 201 198 200 194 194 200 199 198 196 195 194 194 195 193 188 185 186 191 194 194 192 192 191 189 185 186 188 184 182 184 183 183 185 184 182 177 168 167 172 172 171 176 180 170 156 154 161 169 172 166 166 169 167 168 170 172 171 164 160 165 174 176 168 166 172 176 174 167 164 161 157 157 155 148 142 145 149 149 147 147 151 145 142 158 165 161 161 154 144 137 134 135 135 129 131 142 156 171 182 189 193 194 198 202 198 189 181 176 170 164 159 157 155 152 150 147 145 146 141 131 115 105 107 103 97 107 121 126 124 133 147 146 140 131 121 121 128 130 123 119 123 128 131 132 140 157 165 173 189 200 204 200 175 161 159 154 156 162 160 154 155 160 163 159 155 151 149 159 181 194 192 180 172 169 168 160 157 157 153 157 159 158 160 159 155 158 161 160 158 154 149 150 157 157 151 151 157 164 167 164 156 155 160 162 161 162 161 152 148 165 185 190 181 168 163 172 181 182 184 187 188 189 188 186 182 178 180 182 179 177 175 170 161 152 161 171 170 171 189 217 231 237 241 244 244 243 244 247 249 250 251 251 250 251 251 253 254 253 251 249 248 247 246 244 241 240 240 243 243 239 234 232 229 224 223 224 226 229 232 233 234 231 226 221 218 218 220 222 226 230 229 223 220 223 224 223 223 223 220 220 222 222 223 225 225 224 227 230 233 234 233 234 236 237 236 232 226 224 223 224 223 223 226 228 227 226 223 216 216 217 216 215 213 210 208 207 205 198 191 192 191 185 183 185 186 188 190 195 199 199 196 195 193 194 196 196 196 192 184 185 194 196 195 192 186 182 184 188 184 179 183 -9999 
-9999 214 204 228 245 244 242 245 248 243 233 228 225 218 211 211 207 201 199 200 198 195 198 205 203 196 192 191 190 194 195 192 191 193 199 204 205 204 198 191 186 186 191 193 192 192 193 196 198 198 195 189 183 182 184 186 190 191 187 182 175 169 177 187 185 181 181 180 169 162 167 172 173 170 162 167 171 168 170 174 175 173 171 172 177 177 168 162 164 168 173 170 163 167 167 165 164 161 152 153 158 157 153 144 142 147 147 151 159 160 155 147 137 133 132 128 130 129 122 128 140 156 170 180 188 193 194 193 192 186 181 180 177 172 167 167 170 168 163 160 153 146 137 123 115 109 106 107 100 100 117 127 128 130 141 148 143 133 123 125 129 132 132 124 119 125 135 144 149 155 165 174 184 193 196 181 153 134 140 144 145 158 163 153 151 159 164 165 165 166 155 138 138 158 174 172 174 173 170 166 158 159 159 154 154 152 148 148 148 150 158 164 160 152 150 149 155 164 161 157 162 168 170 166 160 155 156 164 168 165 164 162 155 162 181 189 183 171 166 167 175 183 186 187 188 188 188 185 179 177 177 180 181 180 178 177 174 165 154 160 169 169 176 202 228 237 240 242 244 246 247 248 248 249 249 247 247 247 248 250 252 252 251 249 247 246 244 243 241 240 240 241 245 245 243 240 238 236 235 239 238 235 234 233 234 235 232 227 225 227 227 225 223 222 223 223 223 223 224 225 224 222 219 218 221 222 221 221 221 219 220 226 230 232 231 231 234 236 236 233 230 228 227 226 224 222 222 225 225 223 221 218 214 215 218 216 215 212 208 206 202 196 190 187 189 188 187 186 186 187 188 190 193 198 201 200 199 199 199 197 195 194 189 184 190 197 195 190 190 188 184 186 190 185 178 180 -9999 
-9999 205 209 238 242 239 235 237 239 233 228 226 223 213 211 214 212 209 207 201 192 190 198 201 194 190 191 194 197 196 192 188 188 190 198 204 201 197 194 192 192 194 195 194 192 193 197 199 199 196 192 186 180 178 178 181 183 181 176 173 173 177 187 189 182 178 176 171 164 166 173 175 176 174 173 179 177 174 176 178 179 176 175 174 175 173 168 169 169 166 164 156 149 157 156 149 150 154 158 165 163 156 152 142 131 133 144 148 148 146 143 136 131 131 129 123 125 126 129 142 153 167 174 178 185 189 188 183 178 177 179 182 179 174 171 169 162 154 153 148 136 124 111 100 101 102 100 96 96 107 121 120 116 120 132 142 140 134 133 129 124 138 148 146 151 155 156 160 168 175 181 190 200 196 185 160 138 134 147 151 150 157 163 159 161 163 161 161 167 174 174 167 149 139 144 158 171 169 164 161 162 167 160 152 153 151 146 149 153 154 160 163 156 151 157 161 164 165 159 159 163 163 160 155 151 154 157 164 169 166 164 160 159 173 187 185 173 162 163 167 172 181 186 190 190 185 184 181 175 176 180 184 186 184 181 179 176 165 152 160 172 173 185 214 232 237 239 242 245 248 250 251 250 249 248 247 244 242 242 245 247 246 244 243 241 239 239 239 240 241 240 241 242 240 239 239 238 238 240 243 242 237 233 230 229 228 226 225 227 230 231 227 219 216 218 222 225 224 223 223 221 220 218 218 219 220 220 222 222 223 227 231 231 229 228 228 231 233 232 230 228 225 224 223 220 217 218 220 221 220 219 217 215 215 216 214 212 209 205 201 195 188 187 189 188 187 189 191 190 192 191 191 193 199 203 203 202 199 197 194 192 192 189 189 194 193 187 185 187 187 185 185 185 178 171 176 -9999 
-9999 200 221 241 239 236 227 224 226 225 226 224 219 216 217 215 212 210 205 197 196 200 201 194 188 189 192 198 202 202 199 196 198 200 198 194 192 191 191 194 199 202 200 195 191 193 198 198 194 188 184 183 180 177 178 181 180 177 174 175 180 183 184 181 178 179 177 172 168 169 171 171 173 173 173 181 182 181 182 180 179 175 170 165 166 169 172 173 168 162 160 154 152 159 154 148 152 153 155 154 148 147 148 144 138 136 131 128 135 142 145 144 140 132 125 121 127 132 143 153 156 165 172 177 181 184 183 180 177 175 177 178 174 166 159 151 138 130 130 123 111 105 99 96 101 103 95 92 100 110 116 112 115 126 131 131 129 131 135 128 131 148 154 157 166 166 162 166 172 178 184 190 195 189 175 160 152 153 158 157 153 152 151 154 162 163 161 166 172 175 179 184 167 142 140 153 163 165 166 166 165 157 149 149 154 153 151 158 160 155 159 161 156 158 168 169 164 160 158 160 160 158 158 156 155 161 163 164 166 160 156 158 168 182 187 175 159 155 160 164 168 175 181 186 185 178 178 178 176 178 183 187 186 182 180 176 168 155 148 161 176 183 203 226 234 235 239 242 245 248 250 250 249 249 248 248 247 246 245 245 245 242 239 236 236 237 238 240 241 240 239 240 240 238 235 234 236 238 239 239 236 232 230 228 226 223 223 224 224 225 225 221 216 214 214 216 217 218 217 215 213 215 216 216 218 219 220 224 227 230 233 233 230 228 228 229 230 229 226 226 224 220 220 219 217 217 219 220 220 220 219 217 214 213 212 209 207 204 199 196 191 186 190 193 189 188 194 196 195 195 193 192 193 199 204 203 199 194 191 191 191 191 188 189 193 190 186 187 187 186 185 182 178 172 171 178 -9999 
-9999 204 231 237 234 232 227 225 225 222 220 220 219 216 213 209 205 202 195 191 198 204 200 192 190 192 196 202 207 207 204 200 202 199 191 188 192 195 195 198 202 204 201 192 187 189 194 194 191 188 186 186 185 183 183 183 180 176 177 182 184 181 178 177 176 178 177 174 172 170 169 170 176 174 170 179 184 185 185 183 179 172 165 165 168 173 176 175 171 170 172 169 168 165 157 157 156 149 143 139 139 145 149 149 149 145 134 131 143 149 147 142 134 125 122 125 134 141 146 144 143 158 173 178 180 181 182 184 183 178 176 171 163 156 150 144 138 136 133 119 110 111 111 108 112 115 101 96 107 114 117 121 134 143 137 128 125 131 137 143 161 170 164 161 159 148 151 165 172 177 187 194 198 192 178 160 148 150 157 158 155 154 153 154 160 160 162 171 172 168 171 179 176 161 151 151 156 158 162 165 159 153 153 156 156 153 151 152 151 153 163 166 163 166 172 169 160 155 157 158 159 160 162 163 164 169 165 161 159 153 156 170 181 184 177 161 153 153 160 166 171 176 181 184 179 172 171 174 177 185 190 190 183 177 174 168 155 145 147 162 179 196 218 232 235 237 242 243 245 248 249 249 248 248 248 249 249 251 251 249 246 243 240 238 239 240 241 241 241 239 238 241 242 240 236 235 235 234 233 233 231 230 228 227 226 227 228 227 223 218 214 214 217 221 222 220 217 218 216 210 207 208 211 214 217 218 220 225 229 232 233 232 230 230 229 229 229 226 221 221 219 216 216 215 217 220 222 223 223 221 218 214 211 210 209 207 204 199 195 193 192 190 194 196 191 191 196 198 195 193 191 191 195 202 206 203 197 190 188 191 190 188 186 188 191 190 188 187 186 185 184 181 177 177 180 182 -9999 
-9999 211 236 236 232 228 225 222 221 218 217 216 211 204 201 202 201 195 189 188 192 192 191 193 193 195 198 202 203 202 202 202 201 198 193 190 189 193 198 200 203 206 201 190 185 189 193 192 192 192 192 192 190 189 191 189 185 183 186 188 186 183 182 178 173 174 173 171 171 173 172 176 181 177 175 184 188 187 187 185 181 174 172 178 182 182 181 178 178 181 185 183 178 173 170 169 160 147 141 143 148 150 149 147 148 147 141 144 145 141 137 130 121 118 121 125 130 132 130 129 136 159 179 183 182 179 181 186 188 185 178 166 157 154 156 157 156 154 145 130 125 128 126 116 114 112 97 101 122 129 130 134 144 147 141 134 136 148 156 163 178 181 171 163 155 148 159 168 170 182 197 203 203 195 177 158 149 150 149 149 150 158 162 160 161 164 172 176 175 170 173 180 179 170 160 162 167 164 165 162 156 156 158 159 153 150 147 146 153 160 164 167 167 165 164 160 154 156 161 163 165 167 169 168 170 169 163 156 151 152 165 177 176 169 163 158 156 157 164 172 174 176 179 182 175 165 167 174 182 188 192 189 181 173 169 160 148 144 150 167 190 210 226 235 238 242 245 247 249 249 248 246 246 247 249 250 250 250 251 249 245 244 243 242 242 242 241 240 239 238 240 243 242 239 236 235 234 231 230 230 230 230 230 227 226 228 231 230 226 219 214 215 220 225 226 225 223 221 218 212 211 211 212 215 218 220 223 227 229 230 231 231 232 232 229 228 228 225 222 220 217 217 220 218 218 221 221 222 222 221 217 213 210 209 208 206 204 200 196 195 194 193 196 197 194 194 197 197 194 193 192 192 198 204 205 202 195 189 189 193 191 187 186 188 191 190 189 187 185 183 180 180 180 183 183 178 -9999 
-9999 214 232 232 231 227 224 221 215 212 212 209 201 194 194 196 197 193 189 190 192 189 187 190 192 195 197 198 198 198 201 202 202 200 196 193 192 194 195 193 196 199 195 192 194 196 194 190 188 187 186 184 183 188 192 193 191 190 190 187 185 187 189 184 180 179 175 173 175 179 180 185 183 179 183 192 196 192 191 188 185 182 183 187 189 187 183 179 179 180 182 178 172 174 175 167 154 145 147 152 153 152 153 152 149 140 139 144 140 134 132 126 121 120 121 124 128 131 134 140 148 164 179 185 183 178 176 171 164 163 162 157 153 152 155 156 155 149 140 136 137 133 122 111 107 101 90 102 126 132 123 124 134 138 139 138 142 150 157 167 174 170 163 160 157 160 170 175 181 195 203 204 195 179 164 155 156 157 150 142 142 157 166 165 166 172 177 177 178 185 198 201 194 185 180 184 191 192 187 172 165 160 155 157 155 155 154 158 169 170 167 172 170 162 161 160 158 164 168 170 171 171 171 171 170 164 157 154 154 163 172 168 155 151 154 156 152 151 164 174 173 172 175 175 166 161 170 183 190 192 190 184 178 170 161 151 141 140 152 178 207 224 233 240 244 247 249 251 252 249 246 247 248 248 250 251 250 247 245 243 241 241 241 240 240 238 237 236 236 237 240 241 238 233 232 233 234 233 233 233 233 235 233 228 226 228 230 231 228 226 223 220 219 218 218 220 222 220 217 215 219 222 223 223 222 223 225 227 226 225 224 226 230 229 226 228 228 224 222 221 220 221 221 216 217 218 216 216 217 217 215 212 212 210 207 207 205 202 197 194 193 194 196 197 196 196 197 197 196 197 195 194 200 204 202 198 193 190 191 195 192 188 188 190 192 190 187 182 180 179 177 180 184 188 182 173 -9999 
-9999 212 224 225 229 228 226 222 212 204 201 200 199 198 198 196 195 194 194 196 197 192 187 189 193 195 194 192 194 197 200 200 198 195 194 199 201 197 191 189 190 189 186 192 199 202 197 188 181 178 178 177 182 188 189 189 187 184 181 179 182 185 189 187 188 188 182 180 180 181 185 191 191 189 192 201 203 198 196 193 191 190 189 189 191 188 179 176 175 176 174 168 163 162 157 149 147 155 167 167 159 158 162 157 145 136 138 143 140 139 135 128 124 126 129 133 137 140 144 146 147 160 175 181 179 174 168 153 138 138 139 143 147 147 147 145 142 138 133 134 134 128 119 114 114 105 101 114 123 120 109 117 131 132 132 133 137 145 154 164 167 165 165 162 160 166 177 187 198 206 204 194 174 155 150 153 155 152 148 143 145 160 169 170 171 173 175 177 182 194 201 196 196 203 203 203 206 203 188 171 164 156 157 163 160 158 158 163 167 162 162 168 164 161 168 169 166 166 166 168 167 166 168 167 163 155 152 156 162 170 169 156 146 150 153 150 144 149 168 175 172 172 172 171 168 167 178 191 196 194 186 177 171 163 146 131 128 140 167 202 224 232 238 244 247 249 250 250 249 247 248 250 250 250 250 250 250 247 242 239 238 237 235 233 232 231 230 230 231 233 235 234 230 228 230 234 235 234 234 235 235 235 230 222 222 223 224 224 223 223 223 221 217 213 211 214 219 220 218 217 222 225 226 224 222 223 224 224 224 222 221 222 223 221 224 228 225 221 221 222 222 219 213 212 217 219 216 214 213 215 216 214 211 205 201 203 204 201 195 192 194 197 198 198 198 196 195 196 199 199 197 196 201 202 198 195 193 191 191 193 190 188 189 192 193 188 183 177 176 179 179 182 186 189 179 171 -9999 
-9999 220 230 229 231 230 226 218 207 199 194 192 194 197 198 196 193 191 194 197 197 193 191 194 197 195 190 188 191 196 199 202 203 202 202 203 201 194 189 189 190 186 184 186 188 194 193 182 170 171 177 180 188 194 193 191 183 175 171 176 184 188 190 186 188 192 186 181 180 180 183 189 192 196 203 208 205 199 197 196 195 193 189 189 192 187 179 179 180 179 175 172 168 163 155 151 153 161 166 163 158 158 156 146 137 135 138 137 132 126 122 122 124 127 126 127 136 143 140 135 143 166 180 178 172 165 153 139 133 129 126 129 134 135 138 138 139 136 130 129 128 126 124 128 127 113 110 117 115 107 104 123 136 130 127 129 137 150 163 166 167 170 171 171 175 180 189 199 206 208 206 193 172 159 155 154 150 147 149 151 155 158 159 162 169 172 174 180 189 196 193 186 195 206 211 210 205 198 180 165 159 155 162 161 150 147 150 157 157 150 153 156 152 157 167 169 166 164 163 163 163 164 166 163 158 154 158 165 170 170 161 151 152 160 160 154 148 157 173 174 172 172 171 169 171 172 179 188 188 183 175 168 165 156 135 127 139 168 202 226 234 235 240 245 247 247 247 246 245 247 249 251 251 250 249 249 249 247 244 240 238 234 230 227 226 226 226 226 227 229 230 229 225 224 229 233 234 232 230 232 231 227 219 214 218 219 216 214 214 216 218 221 221 220 217 216 218 218 218 219 221 219 216 215 217 220 221 222 222 223 223 223 223 224 227 227 223 221 223 224 222 216 213 215 218 217 214 214 214 215 213 210 205 198 199 203 203 198 194 195 199 201 201 199 197 196 198 201 203 201 200 197 198 199 196 193 193 191 188 190 189 186 188 189 187 184 183 178 177 183 182 181 183 183 173 168 -9999 
-9999 226 232 234 235 232 224 209 199 195 191 188 188 190 193 195 196 194 195 195 193 192 195 196 193 191 193 197 198 195 197 203 208 205 198 196 195 190 189 190 187 182 182 184 186 186 180 173 175 184 187 188 192 191 188 186 179 177 178 184 190 193 190 184 189 190 180 176 178 182 190 194 194 198 207 210 204 197 196 197 196 193 189 192 196 190 184 186 189 188 184 182 179 176 171 165 159 156 157 157 156 154 146 137 136 137 133 125 116 113 114 117 124 128 119 118 128 133 134 140 162 183 186 177 169 160 148 139 129 119 116 117 122 130 136 135 134 133 129 127 129 127 126 130 125 111 105 110 111 108 113 127 132 126 123 129 143 155 163 166 171 174 170 173 180 184 189 195 201 204 203 193 182 169 155 144 144 152 158 160 167 168 162 162 170 175 178 180 184 192 202 210 211 206 209 205 196 185 165 157 157 160 164 156 146 143 147 155 155 154 158 157 154 156 161 162 160 160 160 161 164 167 166 163 160 163 170 174 173 168 161 157 160 164 164 159 157 165 170 165 163 165 165 164 167 171 176 182 180 176 170 167 162 150 135 135 161 198 221 230 235 237 242 245 246 246 247 248 249 250 251 251 251 249 248 247 246 243 241 239 236 231 229 229 229 228 227 227 229 229 228 225 220 221 227 232 233 230 227 226 222 217 214 215 220 219 215 212 211 214 217 219 220 220 219 218 213 207 209 215 217 214 211 213 217 220 219 217 218 221 223 225 227 227 227 225 224 224 224 225 220 215 216 216 216 215 213 212 213 211 206 201 196 195 201 202 199 195 195 197 201 201 200 198 197 199 202 206 204 203 201 194 194 197 193 191 193 189 184 186 186 184 184 183 180 182 185 178 178 183 182 181 181 178 173 170 -9999 
-9999 225 225 231 237 233 219 202 195 197 199 198 195 192 192 192 195 197 196 193 190 194 195 191 191 192 197 203 203 196 192 192 196 195 190 194 192 193 198 197 190 185 185 188 190 187 181 183 193 198 192 188 188 182 176 175 177 183 191 199 200 195 187 185 189 183 173 175 183 190 198 201 198 199 202 202 197 196 196 195 193 189 189 194 197 191 186 187 190 190 187 185 184 180 174 168 164 164 167 165 159 153 144 136 132 135 133 127 126 123 117 117 126 130 124 128 135 135 140 153 172 183 184 183 178 167 157 156 146 136 128 116 114 122 131 134 136 138 140 142 142 140 137 132 117 102 101 112 120 120 117 119 124 128 133 142 150 150 148 151 161 166 161 161 164 166 165 162 170 182 189 183 173 159 144 135 139 151 157 161 169 173 169 169 177 185 187 181 177 184 199 216 221 211 210 205 190 169 153 155 163 165 162 154 149 150 157 162 161 162 165 164 159 158 159 158 154 153 157 161 165 169 168 163 162 168 173 171 170 168 165 164 163 159 154 157 164 169 165 158 156 159 162 165 170 174 174 176 176 172 169 167 162 150 137 140 172 209 223 230 236 242 247 248 249 250 251 251 252 253 253 252 251 249 246 244 241 238 237 236 234 230 231 234 234 231 228 228 231 233 231 225 220 223 228 230 228 225 224 222 217 214 215 217 219 218 216 212 211 213 215 214 212 210 213 216 217 216 217 217 217 217 217 218 220 222 221 220 218 217 219 223 225 224 223 225 227 226 224 221 217 214 211 209 213 215 214 214 212 209 205 201 196 198 202 200 199 199 199 198 199 200 201 202 202 203 208 208 204 203 199 192 193 195 191 191 193 187 181 183 183 183 182 180 179 185 186 178 177 180 181 182 182 180 175 172 -9999 
-9999 221 216 216 220 214 204 199 203 207 208 205 200 194 189 189 191 193 192 190 192 198 197 198 202 200 198 197 197 196 194 188 185 186 191 196 192 195 200 198 196 197 196 193 190 186 185 189 190 188 187 186 182 176 174 176 180 186 193 197 195 192 193 198 198 188 182 190 200 206 207 202 198 199 200 195 192 193 195 196 193 188 189 193 194 189 185 185 186 185 183 184 179 171 167 168 168 168 171 168 162 153 141 131 133 144 143 146 146 130 125 132 138 133 126 135 146 148 152 159 171 180 184 180 171 163 164 163 150 145 138 120 118 123 129 136 140 142 142 139 138 138 131 121 110 99 99 109 116 115 113 122 134 139 146 149 146 142 148 148 138 136 140 146 148 149 146 142 141 144 151 141 121 118 130 140 147 151 154 159 163 166 172 178 182 187 188 187 193 194 195 205 210 202 196 191 181 165 157 161 167 168 161 151 152 159 167 168 164 163 165 164 161 162 165 163 156 157 162 165 170 174 169 163 162 164 162 157 159 161 158 157 151 143 147 159 167 168 165 159 155 157 164 169 171 172 167 163 161 159 156 149 143 136 135 156 191 221 230 235 241 246 249 251 251 251 251 251 252 252 252 251 249 247 244 241 238 236 234 233 230 229 231 233 232 228 226 226 230 233 232 226 225 227 228 226 222 219 221 221 217 215 216 217 218 218 218 216 213 211 211 213 212 213 215 216 219 223 223 221 220 221 221 220 219 218 220 223 221 216 217 219 221 221 222 223 223 219 217 215 214 211 208 210 213 212 211 212 212 210 207 205 204 206 206 204 205 206 204 202 204 207 207 206 205 208 212 210 205 202 197 193 195 196 191 190 189 182 180 182 183 184 183 181 182 189 190 181 174 175 177 179 181 179 170 168 -9999 
-9999 213 206 198 197 192 190 194 200 201 197 195 196 194 194 194 194 192 190 189 190 192 194 196 199 200 198 194 193 195 198 197 191 188 192 196 194 193 189 186 191 199 201 193 187 183 182 183 181 179 182 181 177 174 175 177 181 184 184 183 181 185 197 201 196 190 191 201 208 210 205 198 198 204 205 200 198 198 201 202 200 195 193 195 193 188 184 183 183 183 184 183 176 170 174 178 174 175 175 170 163 153 140 137 146 151 144 143 139 137 148 153 147 131 126 144 154 154 158 165 174 181 175 158 143 139 142 137 126 125 122 125 142 150 148 143 140 137 132 126 131 135 127 118 110 101 100 106 110 113 119 137 147 142 139 136 132 141 159 165 155 146 142 146 151 152 151 150 141 122 107 96 99 120 141 155 162 160 156 157 160 167 180 190 189 184 185 193 199 199 198 199 195 185 179 174 166 161 161 164 164 162 158 156 165 170 169 167 162 162 164 163 164 168 169 163 158 163 170 172 177 176 166 161 162 163 156 150 151 150 146 146 141 146 163 170 168 164 161 158 156 157 162 161 161 162 155 149 150 151 143 128 122 123 138 174 209 229 236 240 244 247 248 249 250 250 250 251 251 250 249 247 244 243 242 240 237 233 230 226 223 225 227 228 224 219 220 224 227 226 221 218 220 222 223 221 218 216 217 215 211 213 216 219 220 220 219 218 219 220 219 219 221 222 219 214 211 213 217 219 219 219 219 217 214 212 215 218 216 216 217 218 218 219 218 216 212 210 212 213 212 209 211 216 213 208 207 209 209 208 206 206 207 208 207 206 208 209 208 208 211 211 208 206 208 211 212 210 205 201 196 194 196 196 191 189 186 180 180 183 184 186 184 183 186 191 192 181 170 170 174 176 178 175 163 161 -9999 
-9999 207 201 196 199 194 189 189 189 187 186 188 190 193 195 195 194 192 189 190 191 194 194 191 192 192 191 192 195 198 198 198 197 195 195 196 194 192 187 184 186 189 188 184 181 179 178 179 179 177 175 176 176 175 175 176 179 183 186 185 183 184 186 178 171 175 181 192 199 197 192 194 198 202 205 207 208 208 207 204 201 195 192 194 191 187 185 186 186 188 186 182 178 180 185 184 180 179 179 175 166 154 145 150 154 146 138 138 144 152 155 150 138 124 135 153 152 151 158 169 179 180 162 138 129 125 118 110 106 102 102 118 138 150 155 151 144 140 134 130 138 146 140 131 120 106 106 114 119 122 129 143 150 140 131 128 131 146 157 165 173 167 157 155 153 149 142 138 138 124 102 98 121 148 155 155 155 157 154 155 167 181 190 194 194 189 190 198 198 190 186 190 190 181 177 171 163 159 156 158 161 158 154 159 172 173 166 158 156 162 167 168 168 169 167 163 162 168 173 174 176 170 161 158 165 165 157 153 152 148 143 142 150 167 177 171 166 163 161 162 164 167 166 160 154 152 144 138 142 142 132 128 134 141 157 193 219 231 238 242 244 244 245 246 248 247 246 246 247 247 245 242 241 241 240 237 233 229 224 220 221 223 224 222 216 211 216 223 225 220 212 208 210 214 216 217 216 213 210 206 205 211 215 217 218 221 222 222 225 226 224 222 222 220 216 211 211 214 217 218 218 216 214 212 213 214 216 216 216 218 220 221 220 218 216 214 213 214 215 215 212 210 211 214 212 211 210 208 205 203 204 206 207 207 206 207 210 212 212 211 212 210 208 208 211 213 212 208 203 200 197 195 200 198 191 190 187 183 183 187 190 189 184 184 189 193 192 182 171 172 178 179 178 174 161 156 -9999 
-9999 205 204 196 196 193 191 191 189 186 184 184 186 187 187 189 189 188 187 190 195 199 196 194 194 192 192 194 198 198 196 196 196 195 195 194 193 192 191 189 185 181 176 175 178 179 178 178 177 175 175 179 181 180 177 176 176 180 185 186 185 184 178 170 170 173 172 179 187 188 190 197 198 201 208 210 209 206 204 202 198 192 190 193 191 187 187 187 186 186 183 178 176 177 179 180 178 177 180 176 167 157 152 157 157 150 146 151 157 152 144 136 126 125 139 141 135 141 151 161 166 163 149 132 124 120 112 104 96 89 94 108 118 130 144 146 142 140 133 129 137 140 135 133 123 111 116 122 121 122 129 141 146 135 129 129 129 140 144 146 149 145 149 154 150 143 140 138 137 134 129 131 139 143 141 139 143 151 153 162 178 189 193 194 195 198 200 201 202 197 183 177 186 188 180 174 176 174 163 162 164 160 157 160 166 163 154 151 161 170 173 171 167 165 164 167 173 176 172 168 164 159 154 156 164 162 157 159 159 155 148 147 160 175 173 165 165 168 168 168 170 173 173 166 156 151 139 132 135 131 128 140 157 166 182 210 224 231 237 241 243 243 242 241 240 241 241 242 244 245 243 241 240 238 234 230 227 224 220 219 221 221 221 219 215 215 221 225 221 213 207 206 208 212 213 214 213 210 208 205 205 212 216 217 217 220 220 219 219 217 219 219 216 215 216 215 213 213 214 216 218 218 216 215 217 218 219 220 224 225 226 227 224 221 219 219 219 220 219 216 212 209 209 211 212 214 212 207 202 201 203 205 207 206 206 207 211 213 210 208 210 210 210 210 211 212 210 205 201 199 196 196 202 197 188 187 185 182 184 189 192 187 179 182 191 191 189 182 173 173 177 179 177 170 159 156 -9999 
-9999 204 206 192 188 192 194 193 191 189 187 186 187 187 188 189 187 186 188 191 195 197 194 193 192 192 195 198 197 193 192 193 193 193 193 191 190 189 189 187 184 180 176 175 177 181 184 185 184 180 180 182 180 177 177 177 177 178 178 176 176 177 176 179 184 182 178 184 191 192 196 200 200 205 208 206 203 201 200 199 197 194 193 194 192 188 187 185 181 180 179 177 174 172 176 179 178 177 178 173 165 157 156 160 159 157 156 155 148 139 138 132 127 132 135 128 127 136 143 148 149 147 138 123 115 111 106 105 104 100 111 128 137 143 144 136 130 130 125 125 134 134 129 128 121 115 122 119 110 110 118 128 132 127 129 132 133 137 134 133 134 131 141 149 148 147 152 159 160 159 161 162 155 149 146 145 153 160 162 170 179 183 188 193 197 201 201 198 199 203 197 180 180 189 189 183 182 180 179 181 175 165 161 161 160 154 149 157 171 175 172 167 164 163 165 169 173 172 169 166 163 159 156 160 167 165 163 166 165 162 157 159 172 176 169 166 173 177 172 166 166 169 170 165 158 153 141 132 134 133 140 161 177 186 203 221 225 230 236 239 241 241 239 236 235 237 241 243 244 243 239 237 234 230 226 222 219 218 215 217 220 221 221 221 220 223 225 222 214 206 204 204 206 209 209 208 207 204 204 203 206 213 216 217 217 217 217 218 216 214 215 213 212 215 218 217 213 211 211 213 217 221 221 220 220 220 220 221 223 225 227 225 222 221 221 220 219 219 218 214 212 211 210 212 212 212 210 206 203 203 204 205 206 206 208 211 213 212 207 207 209 209 206 205 208 209 206 202 200 198 194 193 196 190 181 181 181 179 181 185 186 182 173 181 189 184 181 178 171 168 171 171 168 162 157 161 -9999 
-9999 198 201 189 189 197 196 193 192 191 192 192 191 188 185 184 185 187 191 195 196 193 191 192 191 194 197 197 195 193 192 191 190 190 190 188 187 189 193 191 187 181 175 177 179 182 188 190 187 183 182 182 174 171 176 180 184 184 179 173 170 172 177 185 190 188 191 201 203 203 205 205 203 206 205 201 199 198 196 195 197 198 194 192 190 185 182 178 174 176 178 176 172 173 180 181 179 177 176 172 162 153 154 159 161 164 164 159 150 145 142 136 138 141 138 133 135 138 137 138 139 135 120 108 105 106 109 114 116 114 126 143 154 155 145 130 123 127 127 129 135 130 125 125 119 116 115 106 96 98 111 120 122 120 123 130 141 145 141 143 141 138 147 153 153 155 160 167 175 178 175 169 161 161 163 161 165 169 172 178 182 186 190 194 196 197 198 201 205 207 208 197 184 180 179 176 173 172 177 183 176 164 162 162 162 158 156 165 175 176 172 167 165 165 168 172 174 174 173 174 173 169 167 171 175 171 168 167 164 163 163 169 180 179 171 172 177 177 170 165 165 166 163 156 149 145 133 125 133 145 164 188 201 211 224 235 236 237 238 238 238 238 238 239 241 244 244 243 241 237 234 233 230 226 222 219 217 216 216 219 222 223 223 223 223 222 219 213 207 206 205 204 206 208 207 204 202 200 200 203 206 212 214 214 213 213 215 219 217 214 214 214 215 217 217 214 214 214 213 212 213 216 217 219 221 221 220 220 219 220 221 219 218 219 218 215 214 215 216 213 210 209 209 211 211 209 205 204 206 207 207 208 208 210 212 212 212 209 207 209 208 204 199 200 205 205 202 200 198 194 189 187 187 184 178 177 177 176 177 178 181 181 174 182 186 178 178 176 170 166 165 163 160 158 160 168 -9999 
-9999 192 197 191 187 190 189 192 193 193 194 195 195 190 185 183 185 187 192 196 194 188 187 191 194 196 196 194 194 195 194 189 185 185 185 184 187 193 195 192 188 182 179 181 182 184 186 184 181 181 181 179 176 176 178 183 187 186 180 175 176 181 186 189 190 190 197 203 203 202 202 202 204 208 209 203 197 190 189 192 195 191 185 184 185 180 177 174 172 177 179 174 171 177 185 184 181 180 178 174 163 157 162 167 171 173 168 160 156 151 140 137 142 144 141 135 134 131 125 122 119 111 101 99 101 105 112 121 121 122 136 150 156 155 146 134 132 137 140 141 137 127 122 126 123 116 108 97 87 96 113 115 117 117 120 126 133 140 152 158 151 148 154 161 162 162 164 165 165 163 159 154 150 146 147 155 166 170 175 183 188 190 189 188 189 192 198 204 208 207 204 200 191 178 169 165 163 165 166 168 164 162 161 159 162 161 161 171 177 176 170 169 172 169 169 174 175 175 175 177 176 170 170 175 173 168 165 163 161 161 164 172 180 179 174 174 173 170 166 164 165 161 152 140 132 129 120 119 141 171 198 216 225 232 238 242 244 244 241 238 237 238 238 240 242 243 242 239 235 231 230 230 228 225 220 216 216 219 221 223 224 223 221 220 217 214 211 208 209 210 208 207 208 209 205 201 198 197 201 203 205 210 211 210 208 208 210 213 212 212 218 220 219 216 211 210 214 215 215 214 212 211 212 217 219 217 215 218 220 220 220 221 221 219 216 213 213 216 216 210 206 206 208 209 207 204 202 204 207 209 209 209 209 209 210 208 207 207 209 210 207 202 199 201 205 202 198 196 195 190 183 180 181 181 178 176 175 174 174 176 182 182 177 182 182 177 179 179 172 165 162 161 160 160 164 174 -9999 
-9999 192 194 188 169 168 181 192 194 195 195 195 197 198 197 195 193 194 198 199 191 185 187 190 192 191 190 188 189 191 190 186 181 182 183 184 185 185 183 182 183 181 182 183 178 180 180 177 177 179 176 174 177 179 179 180 179 176 175 177 183 190 193 192 191 193 196 198 200 200 200 202 205 207 204 200 195 192 192 192 188 181 176 178 178 176 178 179 178 180 180 177 178 184 187 186 185 183 181 179 173 173 179 181 181 176 165 158 156 148 140 140 140 140 136 127 121 114 112 113 110 105 100 96 96 104 118 128 130 139 157 170 172 166 156 146 143 143 142 139 132 123 120 125 120 107 100 89 82 102 116 115 119 122 128 131 134 146 163 165 157 154 159 164 161 156 157 160 160 152 142 142 146 141 141 152 162 165 171 180 188 190 181 174 179 188 194 196 197 200 196 195 194 185 177 172 170 167 160 153 150 156 158 159 165 164 165 171 171 167 165 169 172 168 171 173 169 170 169 171 171 167 172 176 171 167 164 163 164 163 165 170 174 175 171 169 166 162 161 164 163 151 138 125 118 121 123 136 172 205 225 235 240 242 244 246 248 248 245 242 240 239 238 236 233 232 232 230 228 226 226 226 223 219 215 214 219 222 221 221 221 219 217 214 209 208 210 214 216 214 210 208 208 207 201 197 197 199 201 203 205 209 210 210 210 211 211 212 214 219 222 219 215 210 206 208 210 208 208 210 210 210 212 216 217 215 215 218 220 221 220 220 218 217 217 215 216 217 213 207 206 210 211 209 204 200 201 204 207 208 208 207 206 206 205 205 206 207 208 208 204 201 200 203 204 199 193 191 191 185 176 175 179 179 178 177 175 174 174 179 186 185 179 180 179 175 177 178 170 163 164 164 164 165 173 182 -9999 
-9999 193 190 188 176 174 186 192 193 193 193 193 194 195 193 193 196 198 201 197 189 188 192 190 186 186 187 189 190 187 184 183 187 191 188 183 181 177 174 178 183 184 184 181 178 180 178 174 172 170 169 172 177 176 176 177 174 173 177 182 186 191 191 189 192 196 199 201 205 207 207 209 210 205 199 199 201 202 200 194 185 179 177 177 174 176 182 184 182 181 183 185 186 189 191 189 187 186 187 188 186 185 187 185 180 168 157 158 162 156 149 147 145 144 138 123 115 114 115 115 116 116 104 93 98 114 127 134 140 155 169 176 174 166 157 151 146 143 139 136 135 135 137 133 115 98 96 87 88 110 111 109 114 121 129 135 139 149 158 160 158 159 161 162 159 159 161 165 168 164 155 160 169 168 167 168 168 167 174 181 184 183 179 177 181 187 189 188 187 188 187 185 186 187 180 173 169 163 158 156 156 158 161 166 171 170 171 169 164 165 168 171 169 167 171 170 169 170 167 166 167 169 177 180 175 172 169 169 169 165 163 166 169 168 165 163 161 159 161 163 155 139 128 119 114 119 133 164 205 229 239 244 247 248 249 249 249 249 246 245 243 242 240 237 231 226 224 223 222 222 222 219 215 211 210 214 220 219 214 213 214 214 214 211 209 210 212 215 215 212 208 205 203 201 197 197 202 205 205 204 207 210 211 213 214 213 213 214 217 221 221 217 216 212 209 211 212 210 207 204 206 211 213 211 213 216 218 217 216 217 216 214 213 215 215 213 215 215 211 208 212 214 211 206 204 204 206 207 207 206 204 203 204 206 206 206 206 206 206 205 200 197 198 199 199 194 189 188 187 181 174 174 178 177 177 177 175 173 174 178 183 181 177 178 176 173 178 180 171 166 170 169 169 173 180 187 -9999 
-9999 195 190 195 201 183 172 172 179 185 188 189 190 188 186 190 193 190 189 188 187 192 194 191 189 190 192 197 195 189 188 191 193 190 186 184 180 175 177 182 183 181 185 189 191 191 186 179 173 169 170 178 178 168 168 174 177 182 185 187 187 187 188 193 197 197 199 200 203 204 203 203 205 205 207 209 202 195 194 190 186 184 183 180 180 185 186 182 178 178 185 189 187 185 187 187 185 189 193 193 188 185 184 182 178 168 160 166 167 159 151 148 148 143 132 124 131 141 135 125 124 123 116 110 116 120 125 135 146 157 165 167 165 158 151 145 138 133 130 130 133 139 141 129 109 97 90 70 67 92 101 106 117 125 134 141 148 155 155 153 155 158 161 162 167 175 176 171 167 167 176 184 181 177 175 171 166 168 173 176 180 185 195 201 193 184 178 177 176 174 171 170 169 171 169 161 151 148 156 163 161 158 160 164 167 169 168 158 158 166 168 169 170 174 176 174 176 176 173 172 176 181 186 184 179 175 172 173 171 165 166 172 172 166 162 161 160 160 161 158 146 132 123 116 111 125 160 201 229 239 243 247 249 249 248 246 245 244 243 244 243 241 239 238 234 229 223 220 219 219 216 209 207 207 209 213 214 209 206 208 211 211 211 212 213 212 210 208 205 203 202 202 203 204 203 203 205 207 207 207 208 208 209 211 209 208 211 214 216 218 216 212 210 210 212 211 213 218 215 208 209 212 213 212 212 215 218 219 216 213 213 216 217 215 210 210 214 214 212 212 214 212 207 206 209 212 212 211 209 206 203 201 203 207 208 207 207 207 208 205 197 194 193 194 195 191 188 187 183 178 174 175 178 178 177 177 175 171 170 174 178 176 173 172 170 172 179 180 171 167 173 174 174 178 182 187 -9999 
-9999 189 188 194 198 176 160 166 174 176 180 183 184 184 188 193 193 190 190 189 189 192 193 193 196 198 200 200 195 192 193 192 186 180 179 180 181 180 183 184 175 172 179 188 192 191 188 187 185 181 182 183 175 168 176 179 178 180 182 184 184 184 189 194 195 197 198 198 198 194 192 196 199 200 204 199 185 181 185 185 186 190 188 183 186 189 186 180 176 179 186 190 187 184 187 189 189 196 198 195 190 185 184 182 181 175 171 176 171 160 151 145 137 126 122 130 148 159 146 132 129 133 134 131 131 132 138 146 154 160 163 162 160 155 150 140 128 123 123 122 124 128 123 108 97 99 91 64 59 85 100 112 128 136 141 145 156 167 166 158 156 158 161 164 169 176 177 171 163 162 171 176 169 163 162 156 154 161 167 170 176 182 192 197 188 174 170 172 171 169 167 162 151 144 147 153 152 150 147 140 136 144 154 161 163 161 152 146 162 174 172 172 175 179 179 179 181 180 181 185 190 194 191 183 177 171 168 169 169 170 175 178 173 170 165 161 162 163 160 151 140 129 121 116 124 158 202 228 240 243 244 245 247 247 243 238 236 238 241 241 239 237 235 235 234 232 227 221 219 218 213 208 211 213 212 212 208 203 208 215 215 210 209 209 209 206 204 201 198 197 199 201 205 207 207 207 208 211 212 211 208 206 207 207 205 205 206 209 212 213 210 205 203 208 213 213 211 210 211 211 210 209 210 212 216 219 221 223 221 219 220 219 216 214 212 215 216 213 210 210 212 211 210 213 214 213 211 210 208 207 205 203 205 210 210 209 208 208 208 204 195 193 191 192 195 193 190 185 179 176 177 179 181 179 177 178 176 171 171 175 176 175 172 171 170 173 178 177 168 167 175 179 179 180 181 182 -9999 
-9999 192 197 196 191 186 175 171 168 167 172 178 180 180 183 187 189 191 194 193 192 193 194 196 199 201 200 197 192 189 188 185 185 186 182 176 173 175 178 173 167 172 177 178 179 181 186 188 184 183 185 181 173 179 188 183 177 177 181 185 189 190 190 189 192 196 195 195 195 195 199 205 205 199 193 183 177 182 183 179 179 182 181 181 188 188 184 181 182 185 188 189 187 187 192 194 196 200 198 196 194 189 185 182 181 178 173 173 170 161 154 147 137 132 136 142 147 146 134 133 141 143 139 136 145 160 166 165 164 164 164 161 158 155 147 135 128 131 130 125 122 125 116 95 93 105 106 84 87 116 121 120 127 138 142 143 147 152 156 161 163 163 164 166 167 167 168 170 166 162 163 161 156 159 162 159 159 162 165 168 168 166 168 175 178 178 176 168 157 148 140 132 122 120 127 135 139 139 136 128 132 147 157 161 163 164 159 163 179 182 179 184 186 184 180 178 179 182 186 190 194 194 185 175 171 166 165 168 171 172 175 174 171 170 163 162 165 164 156 139 127 120 115 123 153 199 229 238 244 247 248 247 245 242 237 233 234 237 237 236 236 235 235 234 231 229 227 223 218 213 209 212 217 215 212 209 206 209 217 217 212 207 205 203 200 197 198 199 198 198 198 202 206 206 205 207 210 212 211 209 207 209 213 213 211 211 213 214 211 207 204 205 210 214 217 218 213 206 207 211 211 209 209 213 217 218 217 216 217 224 226 222 219 216 219 221 218 216 214 213 213 213 213 216 215 212 209 207 204 203 201 201 207 211 210 209 207 205 203 201 194 190 190 192 195 194 189 180 175 177 182 182 178 175 174 176 176 174 175 176 174 174 174 173 177 182 181 177 172 173 180 183 181 181 177 171 -9999 
-9999 189 195 195 192 194 184 161 154 162 171 178 182 183 185 186 186 188 191 192 193 193 194 194 193 190 187 185 184 184 184 184 189 190 184 178 172 172 174 172 173 177 179 179 176 174 175 171 168 171 178 180 182 189 188 179 177 181 183 186 189 190 192 194 196 195 193 192 194 201 209 211 205 199 193 186 185 187 185 184 183 181 180 186 191 187 182 181 185 189 190 192 191 190 191 193 199 198 193 193 192 187 181 177 177 176 166 161 162 158 154 152 150 155 161 158 151 142 138 147 154 152 152 158 166 170 169 168 166 165 166 163 161 157 148 138 137 142 136 123 114 107 90 79 90 104 103 85 92 121 130 122 125 138 142 142 142 146 155 166 170 167 166 167 167 167 172 181 181 176 173 167 166 175 179 178 176 171 167 165 165 162 155 159 168 174 169 153 135 119 106 99 101 111 119 119 117 120 132 142 156 164 164 160 161 170 175 182 187 183 183 187 186 184 182 178 179 185 188 191 192 187 177 171 171 172 173 174 172 170 174 173 169 165 161 165 165 157 144 127 118 112 110 135 180 219 236 241 245 249 250 248 243 234 228 228 233 236 233 232 233 234 233 230 226 223 223 223 216 209 208 211 212 210 210 209 208 213 214 209 206 206 205 203 200 197 198 201 202 202 203 207 207 203 203 206 207 206 202 201 205 212 217 218 217 217 219 218 213 207 203 206 212 214 215 215 212 212 213 211 210 211 214 217 217 214 210 210 214 218 219 219 216 213 214 214 214 216 217 217 215 211 209 212 213 210 207 205 202 199 198 202 208 208 205 204 202 198 196 195 187 182 184 187 189 186 178 172 172 176 178 174 167 168 172 176 175 172 171 171 172 176 176 175 181 183 179 178 178 178 178 179 178 176 170 162 -9999 
-9999 175 175 186 193 193 189 171 162 167 175 182 188 192 195 192 189 190 193 193 192 191 191 190 190 189 183 180 179 178 180 183 188 189 185 187 186 183 180 180 180 179 180 180 178 173 166 164 168 170 174 182 189 192 182 174 174 177 178 178 179 183 190 197 200 200 198 196 197 201 206 204 197 192 188 185 185 187 191 192 192 191 188 189 188 183 181 183 188 191 193 197 195 190 188 193 197 192 186 186 185 177 170 167 167 165 154 151 154 152 150 152 156 164 172 169 159 152 153 159 163 168 177 181 178 175 171 164 163 164 163 161 163 162 153 147 145 140 130 117 108 100 86 80 91 104 101 82 81 100 112 114 126 140 142 146 155 166 172 174 172 167 168 167 168 168 169 176 183 185 180 175 176 179 176 173 174 174 174 171 169 161 151 151 153 152 149 142 126 109 100 95 99 106 112 120 118 117 126 141 159 168 167 156 153 161 168 175 180 181 183 181 178 180 182 181 186 191 194 195 193 187 180 175 174 175 172 170 169 172 176 171 163 163 164 167 163 152 142 138 138 133 136 172 212 231 238 240 242 245 245 241 233 223 219 221 226 229 229 228 228 228 225 220 218 218 219 217 212 211 211 210 210 209 209 211 212 213 209 208 209 206 204 205 203 202 202 202 200 199 200 199 195 193 198 203 204 202 197 196 201 207 212 213 213 215 214 212 210 207 205 207 209 206 203 204 209 212 211 207 208 212 214 216 215 211 211 214 215 212 209 209 210 211 211 210 212 212 210 210 209 207 207 210 211 207 205 203 201 200 200 205 205 202 200 198 195 191 192 190 182 180 186 188 184 179 172 168 170 171 172 169 165 170 176 176 172 167 166 168 173 177 175 174 179 180 179 178 176 173 170 173 174 172 167 162 -9999 
-9999 176 177 188 198 196 192 193 184 178 180 184 189 196 200 198 196 197 196 194 190 188 189 189 192 192 185 181 178 176 181 187 190 186 181 186 188 186 181 176 176 178 178 176 176 175 171 169 168 167 171 172 174 171 165 167 172 176 178 177 178 183 190 198 205 209 206 202 200 200 199 195 191 188 184 181 185 190 190 187 190 191 189 190 187 183 186 191 195 195 195 196 193 187 186 190 189 182 181 181 177 170 163 160 157 152 149 146 146 145 148 155 162 170 175 171 162 158 163 169 175 184 187 181 176 175 172 167 170 171 164 160 163 162 155 149 142 130 119 115 116 119 110 96 94 100 92 72 70 86 102 112 124 134 137 148 165 178 182 177 168 166 171 173 176 177 172 168 171 176 175 170 169 162 151 146 150 154 162 169 169 159 154 155 153 146 141 137 123 113 110 107 106 101 106 116 108 103 113 128 147 161 163 155 154 162 167 171 177 178 179 177 177 182 182 182 187 193 197 195 190 187 185 178 174 168 166 167 172 177 175 168 164 166 168 170 166 156 153 157 157 150 161 199 225 236 240 239 237 236 232 226 218 211 211 216 219 219 218 218 218 215 211 208 211 214 213 208 205 206 205 206 206 205 204 208 210 209 205 203 197 186 183 186 190 194 195 192 191 188 185 183 183 187 194 196 195 197 196 198 199 200 201 202 203 205 205 202 201 203 205 207 206 202 199 202 209 211 210 210 214 215 215 214 212 211 215 217 216 213 210 211 214 215 213 212 211 209 206 203 205 208 209 210 208 203 202 202 201 202 203 205 201 198 198 196 193 189 192 190 184 185 189 187 181 177 173 169 168 168 169 168 168 175 177 172 167 164 166 171 174 173 171 171 176 179 177 173 170 169 169 176 180 178 172 167 -9999 
-9999 179 182 190 201 198 191 198 197 185 180 179 182 187 190 191 194 196 195 191 188 185 184 186 189 186 180 181 179 173 178 185 186 176 168 172 176 177 176 175 179 180 175 173 171 170 172 170 167 168 170 168 161 154 161 174 182 185 182 177 180 187 194 200 207 210 207 204 202 201 196 193 192 191 187 187 191 193 190 187 187 187 189 194 193 190 192 196 198 196 193 192 189 186 186 186 184 181 179 176 173 169 163 160 154 150 150 143 139 141 152 165 172 176 176 171 169 173 183 189 193 194 188 180 176 173 169 170 176 172 162 160 160 155 149 142 132 122 119 122 127 127 114 96 94 93 76 57 60 82 102 114 124 131 137 147 160 168 172 173 171 172 179 184 186 186 180 175 174 174 171 166 160 149 141 145 150 147 145 151 156 153 158 159 154 147 139 128 124 130 134 131 120 111 113 108 90 96 108 119 130 138 146 153 164 176 174 174 181 181 181 182 184 184 180 180 188 194 195 190 184 185 181 173 169 167 172 174 174 175 173 172 172 172 171 170 164 157 156 156 149 145 161 203 226 233 237 237 234 229 221 215 210 205 206 207 206 206 206 208 209 206 201 201 206 209 210 206 205 204 203 203 200 198 199 201 194 189 187 182 171 161 159 162 165 170 174 177 176 172 172 176 180 188 193 191 191 195 199 203 202 199 197 196 197 199 200 202 203 204 205 207 207 207 209 210 211 212 214 219 222 217 211 209 210 212 215 215 214 213 212 213 214 213 213 214 214 211 206 205 208 210 210 207 201 197 201 203 203 205 208 209 205 201 199 197 194 190 191 190 186 186 185 177 173 172 168 167 169 171 169 167 172 177 173 169 166 166 171 176 174 169 167 168 173 174 172 170 171 173 174 182 186 179 171 169 -9999 
-9999 180 178 183 194 198 191 193 194 183 174 172 174 178 182 184 188 191 191 189 185 183 182 185 187 187 185 185 179 175 180 181 177 171 167 171 175 177 178 178 179 176 172 173 168 165 168 170 173 175 175 174 165 163 177 188 191 187 180 179 187 194 198 201 203 203 199 200 202 202 198 198 198 194 190 190 192 192 191 188 186 185 189 193 193 193 196 196 195 193 189 187 183 182 182 185 186 183 178 173 170 166 160 156 150 150 151 140 136 145 162 174 177 176 175 174 181 190 199 202 198 193 189 188 185 179 175 179 179 168 159 158 153 144 136 128 127 130 131 134 131 120 105 94 97 92 74 62 70 93 113 123 132 143 148 147 149 154 160 169 178 183 186 189 192 189 181 177 175 172 168 162 154 147 151 159 161 157 151 146 143 145 157 157 145 135 130 126 129 138 144 142 134 131 125 109 97 112 119 115 109 108 118 135 160 176 171 170 176 177 181 184 184 182 179 182 189 192 190 185 182 181 177 170 169 175 181 177 171 171 173 175 174 170 167 163 158 155 154 149 144 150 172 212 228 230 233 234 233 227 215 211 208 204 202 199 197 197 201 207 209 205 200 200 203 204 206 206 204 203 204 204 199 196 197 192 178 170 168 161 152 150 154 158 156 150 152 161 162 159 162 168 174 182 185 188 193 197 199 199 200 201 202 202 202 201 203 207 210 209 210 212 210 210 213 214 210 207 210 216 219 213 206 204 206 210 212 212 210 208 209 211 212 215 217 218 216 213 209 209 209 208 206 201 198 199 203 202 201 203 206 205 203 201 197 197 195 190 189 188 184 184 178 169 167 167 165 166 174 177 173 174 181 178 170 169 169 170 176 178 172 166 167 171 171 170 172 176 179 178 178 184 184 173 166 168 -9999 
-9999 185 179 177 181 191 191 192 191 187 176 172 175 178 181 184 187 187 186 185 184 184 187 190 191 190 189 187 185 187 190 183 175 173 173 175 178 179 180 179 179 177 176 178 175 175 177 177 180 178 177 177 173 179 187 186 182 179 179 187 195 199 200 200 200 197 196 200 203 202 199 198 197 193 191 191 192 191 188 186 187 189 189 188 189 191 195 196 194 190 186 182 178 177 177 179 180 179 177 172 166 160 154 150 146 148 145 136 140 160 177 182 178 176 177 183 190 196 201 201 194 189 191 193 188 181 180 182 180 174 170 166 156 143 132 125 134 141 138 134 121 108 98 94 96 88 82 87 101 120 128 131 138 144 144 143 152 161 165 168 173 180 186 189 191 188 181 176 170 167 166 164 158 158 164 164 160 162 164 154 150 157 159 152 138 127 127 128 124 126 133 138 142 148 139 118 110 114 105 95 94 97 105 120 143 162 169 175 175 175 182 183 179 180 183 188 190 185 180 176 175 178 179 175 175 183 185 178 171 173 177 176 170 164 161 158 158 159 158 151 150 164 182 210 223 227 229 229 226 218 207 205 204 199 199 199 195 192 194 201 204 203 205 206 205 203 202 201 198 198 200 199 194 194 190 176 164 158 152 141 135 136 143 149 146 141 145 154 160 164 170 173 175 174 173 176 182 187 189 187 190 196 203 206 206 204 204 204 207 211 214 214 212 210 209 208 205 203 203 203 204 206 207 204 202 204 206 206 207 209 210 209 210 213 215 214 212 211 212 213 213 209 203 199 201 204 204 200 197 199 199 196 195 194 192 195 193 189 188 186 184 180 173 168 169 172 173 173 175 175 172 176 181 176 167 166 168 170 176 178 170 166 173 178 175 174 181 186 183 178 179 181 177 169 166 169 -9999 
-9999 189 185 175 172 182 191 193 192 193 188 179 177 179 182 185 189 190 186 183 185 186 186 190 191 187 183 179 178 184 189 188 183 176 172 174 174 172 172 174 177 177 173 175 174 176 181 182 180 173 171 173 176 183 184 176 170 171 181 193 199 199 200 200 199 196 196 199 200 196 195 196 194 192 192 192 191 190 188 188 189 191 190 188 187 189 193 195 193 188 185 182 179 177 176 175 174 176 177 167 159 155 152 149 147 147 143 141 156 177 184 179 177 182 188 194 197 199 201 198 192 190 192 191 184 179 178 180 179 174 170 164 154 141 129 129 139 137 127 119 106 100 96 94 92 90 101 113 121 129 129 131 139 143 147 159 176 180 172 164 166 176 184 186 179 173 169 167 165 161 160 161 163 167 168 163 161 165 162 156 158 161 159 151 142 137 136 130 121 121 127 137 148 158 152 134 126 120 107 107 114 114 115 122 134 151 172 182 180 183 187 182 180 185 189 189 186 180 176 175 176 183 185 178 178 184 183 177 170 173 179 178 172 167 163 163 166 167 163 157 156 169 184 207 216 217 218 219 215 204 197 198 194 191 194 195 192 193 196 199 197 193 197 201 203 205 201 194 190 194 197 195 190 186 173 157 148 142 135 125 120 121 126 131 134 138 143 147 154 161 170 180 183 177 169 166 166 167 167 169 177 185 192 196 199 201 201 200 207 213 211 208 210 209 206 202 200 202 201 196 197 204 208 204 201 202 203 204 207 210 209 207 208 207 207 210 211 211 212 214 214 210 203 201 205 207 205 201 199 198 195 192 189 187 188 192 191 189 189 187 183 176 172 171 170 178 180 174 173 173 171 172 173 168 160 160 164 165 169 171 169 170 177 184 183 185 193 192 184 178 177 176 174 170 169 172 -9999 
-9999 183 182 178 175 177 185 190 193 193 193 187 180 181 184 188 193 195 192 188 189 188 187 188 184 179 178 177 173 175 180 185 185 177 172 172 171 171 169 169 170 168 166 166 167 168 166 165 167 167 170 172 172 179 182 175 171 176 189 197 198 198 199 200 198 194 192 193 193 191 194 198 197 196 194 192 191 190 190 192 193 194 196 195 192 193 197 197 190 185 185 183 181 178 174 172 173 174 165 151 147 151 150 148 149 152 155 160 171 180 176 171 180 192 196 198 197 199 202 200 197 196 196 193 185 179 177 177 175 169 160 150 140 130 123 131 136 124 108 99 95 90 90 95 100 104 110 113 114 122 130 135 141 146 157 172 183 184 179 177 179 182 180 175 168 161 154 156 159 155 148 146 148 153 157 159 162 165 166 171 167 155 154 155 145 138 138 134 131 134 137 145 153 150 150 154 155 152 152 155 147 136 133 133 139 152 169 181 185 189 186 180 183 189 189 184 180 179 181 182 184 186 182 174 174 178 177 170 162 169 181 182 178 173 171 174 175 172 168 161 158 170 190 210 209 197 195 200 201 195 192 192 190 187 185 183 187 197 205 205 200 195 194 192 196 199 194 186 186 193 195 191 180 166 150 140 137 130 125 121 119 120 121 127 137 141 135 132 135 139 148 160 165 166 165 164 160 158 155 157 163 171 177 182 188 194 195 197 204 207 203 203 206 208 207 205 205 206 202 199 202 205 204 202 201 201 204 207 209 208 208 209 206 203 206 211 211 210 209 209 209 206 205 206 208 208 205 203 202 198 197 196 191 188 188 189 190 189 187 183 178 172 172 171 172 181 178 168 173 178 174 169 167 161 155 159 164 162 162 163 165 168 173 182 186 189 193 189 181 176 177 178 176 173 170 172 -9999 
-9999 178 174 175 175 170 170 180 192 195 194 195 184 180 186 193 196 196 197 197 197 195 195 190 180 180 183 182 177 176 177 177 174 168 172 179 180 176 173 174 171 167 166 167 171 169 165 162 162 169 178 178 178 186 184 173 176 186 195 198 197 196 196 195 192 187 184 183 186 192 199 200 196 195 192 190 190 190 191 195 198 198 200 200 199 198 198 192 184 183 185 184 179 169 162 162 167 163 148 140 144 149 147 145 149 157 163 165 168 171 167 173 190 196 193 191 190 197 204 204 202 200 200 197 190 184 181 181 180 174 165 155 148 140 135 135 125 112 100 94 92 92 100 108 110 109 108 106 105 120 134 137 146 157 167 174 180 184 184 187 193 190 178 168 165 161 155 156 158 153 143 136 134 140 152 161 168 172 172 173 169 159 152 147 139 135 133 129 135 142 142 149 153 145 149 157 157 153 157 164 164 161 154 144 146 157 169 179 186 189 187 187 193 193 189 186 183 184 185 183 183 182 174 170 171 171 169 162 160 171 181 181 178 175 175 178 176 172 168 162 156 165 186 201 200 191 180 170 169 172 180 190 192 188 182 181 187 196 203 205 206 207 202 195 192 190 186 185 188 189 188 180 162 144 131 128 129 124 122 123 125 124 123 134 147 143 132 131 134 134 138 141 139 144 153 158 162 163 163 164 167 171 175 177 181 188 193 195 195 194 197 202 201 202 205 206 206 205 204 206 207 205 204 204 206 210 216 216 214 216 220 218 210 206 207 209 211 212 209 206 204 205 209 212 212 209 205 203 201 198 200 199 194 191 190 189 190 188 181 175 173 171 170 169 171 176 170 166 172 174 169 166 164 160 159 163 165 162 160 162 165 166 169 177 182 182 182 179 175 176 180 182 180 174 169 169 -9999 
-9999 184 173 169 168 164 162 170 186 196 194 198 192 181 183 189 192 194 192 188 188 190 190 187 185 185 185 181 174 173 177 176 170 163 163 166 165 167 172 175 171 166 167 172 174 171 172 172 171 175 181 179 180 181 170 166 175 183 188 189 188 187 186 183 179 177 177 177 180 186 189 187 186 188 187 187 189 191 192 196 197 197 201 204 201 197 194 187 181 181 181 175 165 154 153 161 164 151 141 147 152 151 145 143 148 153 153 153 157 163 165 179 191 190 187 186 190 200 204 201 196 196 198 197 193 189 187 189 187 180 173 171 171 164 153 142 128 117 108 102 104 113 123 122 112 109 110 111 116 131 135 141 160 168 169 176 184 188 187 186 183 178 174 170 165 159 159 164 160 153 150 151 153 156 162 164 170 172 162 156 162 166 156 141 137 143 138 129 130 131 136 146 150 149 153 151 148 151 157 165 176 179 169 163 164 165 172 181 183 183 187 190 194 193 190 189 188 190 189 186 186 184 178 177 175 171 169 165 168 177 180 177 175 173 174 174 171 170 167 162 153 157 173 182 188 196 192 177 167 169 179 184 182 178 181 186 190 191 190 192 197 196 193 193 193 189 188 190 191 188 179 167 150 132 120 120 120 121 121 118 120 122 122 128 127 120 125 140 144 140 139 142 141 144 152 159 162 161 160 164 173 178 177 175 177 180 185 189 188 187 193 199 196 194 198 205 209 208 206 204 202 203 206 212 218 220 218 213 212 214 214 211 207 206 206 206 208 209 207 204 204 211 216 214 211 207 202 200 198 196 197 196 193 191 191 190 189 183 174 171 171 170 168 167 167 167 164 164 165 164 164 165 164 160 162 166 167 164 164 168 172 171 170 172 174 176 175 172 171 174 177 178 178 172 165 164 -9999 
-9999 182 176 175 174 170 167 169 179 192 197 197 200 190 177 174 181 187 185 182 187 192 191 189 188 185 181 175 169 170 175 176 172 168 168 165 161 169 173 170 165 163 167 173 175 176 174 173 178 183 180 172 171 168 161 165 173 175 176 173 170 170 170 167 166 168 174 178 180 180 177 175 178 182 183 185 188 189 190 192 192 196 202 201 195 192 191 187 182 179 172 160 151 148 156 164 157 142 144 154 155 150 146 148 155 159 157 155 158 161 166 179 187 185 185 188 195 200 198 193 188 189 195 196 193 189 186 185 181 176 173 174 171 162 151 144 142 134 123 124 126 125 124 119 115 116 122 131 147 158 152 156 167 169 169 175 182 185 182 180 174 167 166 166 161 150 143 149 151 151 156 163 170 172 166 159 162 164 162 166 166 164 159 150 145 143 134 130 125 120 125 133 138 143 157 163 164 168 169 170 174 174 171 172 171 169 171 177 180 185 186 180 180 184 187 188 188 193 194 192 192 189 184 180 174 169 170 171 177 183 184 182 179 176 173 168 166 166 161 157 152 157 171 180 183 191 200 200 196 193 189 181 174 173 180 188 191 192 191 190 187 183 185 192 193 190 187 187 189 184 170 154 135 115 107 110 110 108 102 98 107 117 124 125 112 104 114 127 131 132 134 139 143 149 160 166 161 152 152 159 166 172 172 172 174 175 176 177 181 184 187 188 188 189 194 202 207 209 209 207 204 202 202 207 213 212 203 202 206 205 200 197 198 201 203 203 201 200 201 202 207 214 214 206 203 198 195 194 193 191 191 193 193 192 192 189 185 177 171 170 171 171 170 168 165 163 164 166 166 166 167 169 166 161 163 168 170 170 173 178 180 178 174 171 174 178 175 169 169 171 170 171 174 170 162 162 -9999 
-9999 172 178 185 185 178 173 173 178 191 202 199 199 196 177 170 178 186 188 192 198 202 200 194 188 184 178 172 170 175 182 182 178 173 174 176 176 176 172 164 157 159 171 175 170 166 165 166 172 173 167 162 167 168 163 165 169 169 167 163 161 161 159 157 158 165 174 179 180 179 178 177 178 181 185 189 188 186 187 190 191 193 195 193 191 191 190 187 183 178 169 159 155 152 155 155 143 139 150 157 152 148 150 157 163 165 165 163 160 158 164 177 182 182 183 188 194 194 192 191 188 191 197 196 191 185 180 175 172 171 168 162 153 145 141 141 144 138 137 145 137 125 120 115 117 124 133 143 150 154 156 161 161 160 164 170 172 170 169 175 180 175 168 164 155 144 141 149 154 157 157 160 168 169 165 163 163 163 169 174 167 158 157 159 156 143 130 124 117 114 119 127 130 140 163 175 175 170 166 168 171 172 173 169 166 172 181 186 191 195 189 183 188 192 191 190 192 195 192 189 187 184 177 171 166 166 170 174 181 187 188 186 184 182 177 168 164 162 158 158 155 157 168 179 186 185 185 190 196 195 187 180 177 178 183 187 189 195 201 198 189 184 187 191 191 190 186 183 183 178 166 147 122 101 102 110 108 97 86 90 105 114 121 125 124 122 121 122 123 127 134 139 142 149 158 163 158 154 161 165 169 172 171 173 177 179 178 180 183 183 180 178 181 185 186 190 196 203 208 211 209 202 197 197 198 198 198 203 207 206 202 198 198 200 201 199 199 200 202 208 212 212 204 196 194 192 191 190 188 185 185 185 184 188 190 187 184 179 175 177 179 177 175 171 169 171 174 175 171 169 172 176 170 163 168 173 174 176 180 183 183 182 179 178 181 181 173 166 169 170 167 165 169 168 161 161 -9999 
-9999 171 176 180 183 180 176 174 177 185 195 198 198 198 190 177 177 184 185 187 191 195 196 191 188 185 180 180 183 185 183 180 178 173 168 172 175 172 168 161 157 164 174 172 162 155 157 162 165 162 158 159 162 160 157 162 165 165 163 161 162 163 164 166 170 176 179 178 178 179 179 179 182 186 191 194 193 192 192 194 192 191 192 192 193 193 192 190 186 179 169 163 161 155 152 149 143 149 160 162 156 155 158 161 162 161 162 163 160 162 175 183 183 180 181 186 191 192 191 190 188 192 195 191 184 177 174 173 174 172 161 150 143 141 143 143 140 137 140 139 121 115 117 115 119 128 137 141 134 135 148 157 158 155 157 163 167 167 173 183 185 182 180 175 162 154 159 163 160 156 151 149 154 161 167 168 162 157 159 161 161 158 154 151 148 142 137 134 129 125 126 134 137 142 154 161 166 169 170 170 168 167 168 168 166 168 177 185 191 192 185 186 194 193 190 189 192 193 187 180 177 171 167 169 172 176 179 180 184 186 184 182 184 186 179 169 166 167 164 160 151 150 157 170 181 182 179 183 188 190 187 183 180 180 184 186 185 190 196 196 190 186 187 189 191 191 189 184 177 168 153 133 110 98 107 118 115 101 94 104 116 116 116 125 139 147 141 137 138 137 134 132 139 147 150 145 139 150 167 173 178 177 173 178 182 182 180 180 182 185 183 180 183 186 188 189 193 197 198 200 202 201 199 198 195 194 200 206 206 202 198 198 201 203 201 199 200 203 206 210 211 207 200 194 193 192 190 188 186 183 183 180 180 187 190 187 186 182 180 183 183 181 180 177 178 182 182 176 170 169 174 177 169 165 175 180 177 178 178 179 179 179 177 178 182 180 171 169 174 172 166 163 166 167 161 162 -9999 
-9999 176 176 178 182 184 181 179 180 180 186 198 200 197 196 183 170 171 175 179 182 183 180 178 180 185 186 188 188 181 176 175 173 169 169 176 176 174 173 170 168 172 170 162 157 159 164 166 167 165 160 156 153 150 151 158 161 162 163 164 166 167 171 176 180 180 176 173 176 179 179 180 184 187 189 190 191 193 194 193 192 194 196 194 191 191 191 190 184 174 163 156 155 152 149 150 153 158 165 164 160 160 162 161 158 157 157 155 154 165 181 184 179 179 184 192 196 195 193 190 190 192 192 187 180 173 172 170 169 167 157 151 148 148 148 142 139 141 137 123 109 108 116 121 127 134 139 136 132 145 161 166 171 178 178 181 187 190 190 189 186 184 184 176 162 157 159 155 149 149 148 148 150 154 159 155 149 145 142 144 149 150 144 137 133 132 132 133 131 126 121 127 133 134 135 135 138 144 152 158 159 159 159 161 157 145 141 151 162 166 171 181 185 186 186 185 185 184 180 176 174 172 172 178 183 186 185 184 185 184 180 178 180 183 177 168 171 174 167 156 149 152 157 168 178 183 184 186 188 189 188 184 181 180 182 183 179 185 191 191 191 189 188 189 191 193 190 182 168 148 126 109 96 96 113 124 120 107 105 118 122 120 123 130 140 142 136 131 129 128 125 128 135 143 145 138 136 150 163 165 164 162 164 171 173 172 171 170 173 182 185 184 186 188 191 192 194 197 194 190 192 196 198 201 201 200 202 206 203 195 194 200 207 208 205 202 203 204 206 206 202 200 199 196 193 190 188 187 187 186 187 186 190 195 191 185 183 180 179 182 181 180 180 180 181 182 178 173 171 170 171 169 162 164 176 179 176 175 173 172 172 170 170 174 178 174 171 176 178 173 166 163 165 167 163 164 -9999 
-9999 175 176 181 186 188 188 188 187 184 183 190 197 195 195 192 175 166 169 175 180 177 170 167 170 176 179 180 178 173 175 175 169 163 163 167 166 166 163 158 160 166 164 158 156 162 167 166 164 159 152 147 146 148 150 155 159 162 166 171 172 171 173 174 173 171 167 168 173 178 181 183 185 183 177 173 175 180 186 189 191 196 198 193 189 188 187 182 174 167 157 148 146 146 145 150 156 160 163 161 157 157 158 154 150 151 148 141 142 155 167 167 165 174 186 195 198 194 189 188 190 192 191 188 182 175 172 167 164 162 158 155 154 154 150 144 145 144 128 118 118 119 126 131 137 141 139 135 141 156 164 163 171 182 185 190 199 205 205 199 188 177 168 157 147 146 148 145 145 147 147 150 150 145 143 145 151 147 134 130 132 136 141 142 134 129 125 118 111 107 110 119 118 112 114 112 107 106 111 121 132 141 149 157 161 148 133 131 140 151 163 177 183 184 185 183 183 184 183 181 183 184 185 188 191 188 184 183 183 181 178 177 176 177 172 168 171 172 163 155 155 158 161 168 178 187 190 189 186 185 182 178 178 178 181 181 183 193 195 192 193 193 192 191 190 187 180 170 156 134 111 96 89 95 111 114 102 92 101 114 118 120 124 129 130 126 121 122 121 118 122 129 131 132 133 137 147 156 158 154 154 156 158 161 165 170 175 175 175 174 177 181 182 184 190 193 193 193 189 185 187 190 194 200 202 203 203 203 199 195 198 202 207 210 209 206 204 203 203 201 197 196 199 198 191 186 185 187 189 190 191 194 196 196 189 182 181 180 180 182 182 181 180 179 177 175 174 172 172 173 173 170 165 169 176 176 173 171 170 169 168 165 169 174 174 169 171 177 175 168 163 162 165 167 168 168 -9999 
-9999 172 176 180 182 185 188 189 187 182 176 177 188 196 198 198 191 172 167 174 182 182 174 169 166 168 171 171 171 169 169 167 164 160 158 159 160 157 150 146 151 156 155 152 153 159 163 162 162 161 155 150 148 152 160 164 163 162 166 170 170 172 175 175 171 167 167 172 177 180 184 187 185 175 165 162 165 171 178 184 191 197 196 191 188 188 185 178 171 165 153 144 147 148 145 149 155 159 161 161 156 152 152 146 145 152 148 143 146 152 155 157 162 174 183 187 187 182 178 178 182 183 185 185 179 173 172 171 167 163 159 156 153 148 145 144 144 136 119 123 133 133 135 135 137 140 140 144 152 158 160 161 165 170 174 184 193 200 202 197 183 168 156 144 140 147 154 156 159 155 146 143 141 140 147 157 161 147 130 127 127 131 142 142 130 127 124 115 112 115 128 135 118 106 106 101 95 94 90 91 105 122 137 149 162 168 155 141 146 158 165 173 179 184 186 186 190 193 194 194 194 192 190 194 194 187 181 179 178 179 180 178 178 176 170 166 167 166 160 157 157 155 156 165 178 192 193 188 183 180 178 176 179 181 182 179 185 197 199 195 191 190 194 193 187 178 166 155 145 127 106 95 92 95 103 101 90 86 100 112 118 121 126 133 133 130 130 137 140 137 139 140 138 132 130 139 148 150 153 156 163 170 170 170 173 177 181 184 182 174 171 177 184 188 192 194 191 184 180 189 195 194 195 199 200 200 200 198 197 202 206 204 204 205 206 205 202 199 197 194 191 191 194 192 186 185 187 189 190 190 192 194 193 190 184 180 182 181 181 184 185 183 182 178 173 173 173 172 174 176 177 176 175 178 180 178 173 169 167 166 163 163 170 176 175 171 174 176 172 167 164 165 168 172 178 178 -9999 
-9999 177 182 181 180 181 185 185 181 175 170 174 183 192 199 198 197 177 159 160 169 176 176 171 168 171 173 172 169 164 159 159 162 162 160 158 156 151 151 156 158 154 147 142 143 151 155 156 159 159 156 153 156 165 172 171 166 163 164 164 164 168 174 173 168 166 170 178 182 181 184 186 180 168 165 170 172 169 169 174 182 186 181 180 186 190 187 176 164 154 143 140 146 147 145 147 151 150 153 157 153 151 150 143 146 151 147 147 152 155 159 163 169 176 181 180 176 171 170 175 176 172 173 174 168 163 164 165 162 161 161 159 152 143 141 142 137 128 120 131 137 133 132 133 140 144 147 150 153 158 168 171 173 181 189 197 198 193 186 179 165 156 151 138 136 150 162 170 169 158 150 150 149 150 158 162 154 135 132 133 125 125 127 119 114 122 123 122 127 139 157 158 142 127 114 103 101 107 105 102 106 113 123 136 150 163 161 150 146 154 164 169 174 184 188 190 194 196 198 200 197 191 190 192 189 181 179 179 178 181 183 182 182 178 172 169 169 166 161 159 157 149 148 158 170 184 184 179 180 182 182 180 180 181 183 184 186 189 190 190 190 191 192 186 179 170 158 148 136 120 105 103 104 102 106 107 101 104 115 120 125 131 137 139 135 134 137 141 145 149 152 155 154 146 145 147 145 148 154 159 169 178 183 184 182 179 177 179 184 184 178 178 188 195 194 191 190 190 192 198 201 201 199 197 197 197 197 195 199 207 207 202 197 195 196 197 196 193 189 187 186 185 184 182 179 183 188 190 189 190 191 192 190 185 180 180 181 178 179 182 184 184 183 178 174 174 173 173 177 179 179 178 176 178 181 178 173 169 168 168 167 169 174 178 178 175 177 178 174 169 166 167 173 181 189 187 -9999 
-9999 187 188 183 183 185 187 186 180 174 174 177 179 186 197 199 197 186 162 146 146 162 176 172 173 176 173 171 167 163 161 162 164 162 159 155 150 146 148 152 151 149 142 137 144 150 150 146 142 140 141 149 163 173 171 167 166 166 165 163 164 167 169 166 164 169 175 179 181 180 181 180 177 175 180 181 174 163 158 161 168 171 166 169 176 179 173 159 145 137 133 135 139 142 143 146 146 144 151 157 151 147 144 139 138 140 140 142 146 154 166 174 177 180 183 182 176 172 177 180 176 171 167 160 154 154 157 157 156 157 161 160 150 140 140 141 135 129 127 135 137 132 128 132 142 145 148 153 156 161 167 170 171 175 183 194 196 189 178 167 155 151 141 125 133 139 143 151 154 156 156 156 154 154 152 147 140 136 145 145 132 127 119 110 111 125 132 134 138 141 145 146 150 146 135 127 127 134 138 141 134 121 119 132 146 151 149 147 142 143 157 170 173 174 178 186 191 190 192 195 191 185 182 181 179 176 177 179 180 183 184 182 179 175 172 171 170 165 163 163 155 143 141 151 162 176 180 180 190 195 191 187 184 182 185 190 193 192 190 192 194 194 188 178 170 162 155 143 124 110 111 118 119 113 115 113 102 108 119 120 127 135 138 136 134 135 134 132 136 143 150 152 151 156 159 149 144 152 156 160 167 173 177 179 178 175 173 174 178 184 187 186 185 186 186 187 191 196 201 203 202 203 205 202 200 201 199 195 194 195 192 192 190 190 190 187 186 185 183 184 187 188 186 182 180 183 186 187 185 185 188 191 188 182 182 182 179 176 178 183 185 184 181 178 174 171 169 172 179 182 177 171 171 176 178 175 173 171 172 175 176 179 182 183 182 177 176 176 172 169 168 172 179 183 186 186 -9999 
-9999 195 195 191 192 194 194 188 181 180 183 182 180 183 195 202 199 194 190 165 147 149 153 159 175 178 174 172 168 165 165 166 168 165 158 151 148 147 148 150 147 143 140 145 160 163 154 146 144 145 148 157 168 168 161 159 162 163 163 165 166 168 167 162 162 172 179 180 181 181 178 174 176 182 185 180 168 156 152 150 154 160 164 165 163 159 151 140 134 132 133 138 143 142 140 140 143 146 157 161 152 144 137 132 131 133 135 138 144 159 175 183 182 181 183 179 173 178 184 176 165 165 163 155 155 157 158 158 157 159 162 157 142 131 135 142 139 137 134 137 138 132 128 137 146 147 154 159 161 164 167 168 161 155 158 172 185 183 166 155 149 140 126 130 143 139 137 141 150 162 170 168 166 165 157 148 149 157 167 160 149 146 138 130 125 130 137 142 142 135 134 138 145 149 152 154 156 157 158 164 164 152 146 147 144 140 142 146 143 140 148 163 167 165 172 184 189 187 187 184 177 169 167 172 176 176 176 175 176 177 177 174 172 170 170 171 169 164 164 162 145 130 131 144 159 174 183 193 199 199 195 194 191 189 188 189 195 199 196 192 191 189 183 177 171 167 161 140 119 113 111 110 108 107 113 109 94 103 116 125 135 137 137 135 131 132 137 138 140 147 155 156 155 161 159 144 139 146 156 164 165 163 161 162 164 165 169 172 172 176 186 191 187 186 188 189 191 193 196 200 201 201 205 207 204 203 202 199 193 187 187 193 195 192 188 186 190 192 191 191 192 191 190 187 183 183 187 188 187 186 185 184 180 177 181 181 178 178 181 186 184 179 175 174 171 165 164 171 179 180 170 166 172 176 174 172 171 171 172 175 176 180 183 187 186 179 177 175 171 172 176 180 181 178 178 177 -9999 
-9999 197 190 187 194 199 198 194 192 190 188 186 183 185 192 202 202 197 200 197 173 151 146 165 181 179 175 172 168 167 166 165 165 159 151 145 144 151 160 161 152 149 155 163 164 152 143 147 159 166 164 166 167 161 156 156 159 161 164 166 167 168 164 157 162 174 175 169 168 170 171 171 173 176 179 179 170 161 157 155 157 160 158 155 158 154 141 135 137 145 152 154 147 137 137 143 150 156 164 165 155 146 140 138 140 141 142 145 153 166 173 173 172 175 173 166 164 171 170 160 157 164 160 158 163 161 157 157 158 161 159 151 137 129 139 146 142 145 141 135 133 129 135 151 160 159 162 160 156 156 157 155 148 157 168 174 174 155 137 142 141 129 130 145 151 153 160 157 151 149 152 158 165 173 171 162 154 151 147 139 141 149 151 148 141 139 138 141 140 140 147 147 148 156 166 173 172 166 164 169 176 183 178 164 150 145 149 151 145 141 146 160 169 174 181 187 190 187 186 182 172 167 171 180 184 180 175 172 171 172 171 170 170 169 169 167 162 158 155 143 123 114 121 133 146 164 184 196 193 191 194 194 193 192 194 201 206 205 199 194 188 181 177 178 177 173 160 135 123 115 102 93 91 97 110 111 106 118 129 136 142 146 148 144 136 134 140 139 131 135 146 154 156 148 138 138 148 160 171 173 165 157 157 164 166 165 167 169 170 175 180 182 188 196 200 195 184 178 184 191 195 196 199 201 199 196 199 201 198 194 196 200 200 189 181 189 202 205 202 199 195 189 186 189 187 186 190 191 189 187 182 178 176 176 178 178 178 181 185 186 180 173 172 175 175 170 170 178 182 177 168 170 178 176 170 169 170 171 171 172 174 177 181 186 187 181 178 175 173 178 181 180 178 177 180 173 -9999 
-9999 195 190 197 202 199 192 188 187 188 191 188 185 184 187 194 199 197 200 202 194 174 156 155 162 167 166 162 162 164 161 158 153 148 148 152 155 159 157 149 146 156 165 162 149 134 132 141 152 154 153 156 156 156 157 159 164 171 175 175 173 171 164 161 170 176 174 169 165 164 166 170 172 170 172 176 173 175 179 179 177 167 154 149 154 146 134 139 151 164 169 160 144 138 147 156 160 163 167 170 159 149 145 147 150 148 152 158 163 166 161 158 161 166 169 168 167 164 160 162 166 165 157 156 162 160 155 151 153 156 152 146 138 136 147 147 136 138 134 128 132 134 143 159 164 162 160 156 149 146 142 132 123 125 133 136 127 107 113 133 139 138 149 154 153 160 168 163 154 144 133 131 142 156 160 154 144 132 126 129 139 146 151 152 149 153 152 147 142 145 154 158 159 161 169 173 169 167 169 174 178 181 176 161 148 147 151 155 159 161 160 162 171 180 185 187 186 185 187 185 180 181 187 192 189 182 176 172 173 176 175 174 173 170 168 161 150 143 132 117 109 111 116 118 133 163 192 199 191 190 193 193 192 196 203 210 211 207 204 203 197 184 179 180 179 171 150 124 113 108 105 108 110 115 121 119 118 131 146 149 149 157 162 159 157 154 145 133 128 139 136 132 134 132 131 143 164 172 168 162 155 155 166 178 183 181 175 171 171 171 171 174 179 184 184 182 178 180 186 190 191 192 193 193 192 195 197 197 195 195 197 201 200 190 185 190 194 194 195 195 191 184 185 186 181 182 185 181 180 181 179 180 181 182 184 184 183 184 184 180 174 170 174 181 181 177 176 182 182 175 169 172 179 177 169 168 171 170 170 172 175 180 184 186 186 181 177 176 177 181 182 178 175 176 178 171 -9999 
-9999 176 185 202 204 191 183 184 185 194 199 194 186 182 180 184 191 195 198 201 200 193 170 145 138 142 145 143 147 150 147 144 142 142 148 156 157 153 147 142 145 152 151 146 141 146 153 154 150 143 142 146 150 156 162 167 174 177 176 178 179 176 169 172 180 179 176 174 169 165 166 171 174 175 175 172 172 182 190 191 182 168 156 152 150 142 139 149 160 165 158 145 135 142 157 161 163 168 171 170 158 148 149 151 151 150 158 165 166 165 163 166 171 172 173 176 175 167 164 164 161 157 154 156 158 153 146 144 152 155 148 144 141 144 151 144 131 133 133 131 138 140 149 160 162 160 160 157 153 153 149 136 122 116 117 112 97 90 107 123 127 135 149 155 158 158 152 148 154 152 146 146 152 150 141 138 137 139 149 160 170 175 170 157 149 154 158 151 143 144 156 169 176 173 167 164 167 173 177 179 176 171 167 158 151 152 154 155 167 178 177 174 176 176 180 183 186 191 191 186 182 186 192 194 186 179 175 172 175 175 173 173 170 166 165 156 143 134 121 112 113 118 112 115 149 188 209 210 201 192 189 188 192 199 203 206 207 207 205 201 192 182 178 175 168 155 134 114 109 116 126 133 136 135 134 125 121 134 150 154 153 158 162 160 161 163 157 148 152 159 141 125 126 134 145 155 161 159 153 148 148 158 167 170 171 173 171 168 167 168 172 177 176 173 171 176 192 202 198 192 191 192 190 188 193 198 194 189 189 191 194 198 196 193 196 191 181 182 189 190 186 182 184 181 175 179 180 175 175 177 178 183 186 188 192 191 188 185 181 177 173 173 180 183 179 174 171 176 181 177 170 172 177 175 168 168 172 174 175 175 176 182 187 187 184 179 177 177 177 180 182 178 171 170 170 167 -9999 
-9999 176 176 180 181 179 183 191 199 204 201 194 188 180 176 175 174 175 185 196 199 198 194 174 144 127 122 123 131 135 132 130 130 134 140 142 138 140 148 150 150 147 142 137 138 153 165 165 157 151 150 152 157 162 165 169 173 170 167 172 174 169 166 174 180 177 171 168 169 172 173 174 175 177 174 171 174 180 183 179 171 163 159 158 158 155 155 159 159 154 144 137 137 149 159 161 168 178 179 172 159 154 158 159 158 159 166 169 167 166 167 173 179 178 176 173 169 163 161 158 154 152 153 155 153 146 139 140 146 141 137 140 139 142 140 128 125 138 144 141 142 145 158 168 165 162 161 163 164 165 156 141 142 153 155 138 115 104 114 118 118 130 141 144 152 157 153 148 151 155 163 170 167 150 137 136 140 149 158 165 174 178 170 158 151 151 151 146 144 147 157 167 173 174 173 176 182 184 183 180 177 173 172 173 170 165 160 159 164 169 173 176 178 181 185 188 196 198 192 184 182 186 189 185 176 174 173 170 170 168 164 164 161 159 161 154 143 138 129 124 124 122 108 119 167 199 208 203 198 194 189 189 194 198 201 207 212 208 201 192 181 176 177 171 157 140 125 120 124 133 137 136 133 134 136 131 135 149 159 161 162 164 160 153 154 159 166 171 169 164 157 156 154 151 155 160 159 155 155 154 155 159 157 150 148 153 159 162 166 177 185 184 181 181 177 177 184 190 191 190 191 194 195 195 197 196 189 182 183 185 190 191 188 190 194 189 185 187 191 190 185 181 181 182 180 180 181 179 178 178 178 182 187 189 191 190 188 184 180 179 179 181 183 180 174 172 171 177 184 179 171 173 174 169 164 168 179 182 179 176 179 185 187 184 181 178 176 176 178 183 185 176 164 163 165 167 -9999 
-9999 195 188 178 174 177 183 189 191 190 188 189 189 184 179 174 167 166 177 191 199 199 197 191 171 143 124 119 121 121 121 121 125 130 135 136 133 138 148 150 147 143 138 131 130 141 152 157 156 156 157 159 163 164 162 164 164 165 168 170 166 162 165 172 175 171 165 164 169 174 174 173 173 172 169 172 178 181 177 169 166 167 167 168 167 164 163 161 157 151 146 146 152 160 164 166 175 181 177 170 168 169 168 164 161 160 166 170 171 171 169 171 175 176 174 168 164 163 166 167 160 154 152 154 152 147 142 140 137 133 139 140 136 138 133 126 135 146 146 143 145 149 161 169 167 160 159 163 166 159 142 135 149 163 165 155 140 135 139 133 129 133 132 134 146 155 156 152 149 152 161 162 154 145 152 160 162 159 153 152 152 149 146 152 156 157 157 155 159 165 169 171 169 168 173 180 184 183 181 180 179 179 178 174 167 162 158 155 156 158 160 161 167 183 194 196 197 193 188 185 186 186 177 168 166 170 172 170 170 168 166 165 163 163 166 159 148 143 135 130 127 122 107 124 170 188 188 189 196 200 198 197 201 203 204 209 208 200 194 189 184 183 184 176 160 145 138 137 136 135 134 130 128 133 138 141 152 166 171 175 178 178 171 164 163 164 168 173 172 170 174 178 173 163 157 156 155 153 154 160 167 168 162 156 155 156 158 163 175 182 183 181 179 172 164 161 161 162 168 176 181 186 191 194 195 193 190 190 194 195 191 185 183 187 189 191 194 194 193 189 182 178 181 183 178 178 181 181 181 179 177 181 184 182 181 181 179 176 175 177 177 178 177 173 171 174 176 181 183 176 171 177 179 172 166 174 187 186 179 178 181 186 186 182 180 176 174 176 181 186 184 171 159 163 168 170 -9999 
-9999 191 189 186 183 182 184 187 185 182 184 190 194 194 190 183 177 177 183 190 199 202 197 196 194 181 162 145 127 118 118 120 123 127 133 138 142 148 152 148 144 142 138 132 129 137 146 151 153 154 154 156 159 159 160 161 163 167 169 166 162 160 163 169 172 166 160 159 159 159 160 163 168 167 165 173 180 179 172 167 171 178 179 176 173 167 161 159 156 152 151 155 158 160 163 168 178 184 178 176 179 178 169 161 154 153 162 170 171 170 170 175 179 177 170 164 164 166 168 169 164 158 155 155 153 151 150 149 149 152 155 149 144 146 143 143 147 148 145 143 148 153 161 169 163 152 154 162 163 152 133 133 151 161 163 159 156 164 167 153 140 134 131 134 144 149 149 152 155 155 155 151 151 163 180 185 179 170 161 157 151 147 148 155 162 168 170 169 173 177 178 178 175 175 177 177 173 170 174 177 175 171 164 154 148 153 155 154 154 156 157 163 174 184 193 198 192 185 184 184 184 180 168 162 161 166 172 172 173 174 174 174 173 173 174 166 153 145 134 125 122 117 109 137 183 191 188 193 200 202 202 204 208 208 204 200 194 190 191 191 188 185 182 173 159 149 145 142 133 126 127 130 130 137 145 151 162 171 174 181 184 181 180 180 179 174 170 166 167 170 174 175 170 166 163 165 165 159 153 155 164 172 172 169 167 163 156 158 169 173 167 164 161 155 150 157 159 155 154 158 169 176 178 182 187 190 193 196 200 198 192 185 184 188 192 196 199 198 194 187 182 177 176 177 174 177 182 184 186 183 179 183 184 178 172 167 165 167 172 175 175 174 172 172 175 178 179 179 177 170 172 181 185 179 176 185 190 182 176 180 183 185 183 179 177 174 171 175 180 181 175 163 160 167 172 173 -9999 
-9999 183 185 190 193 190 186 186 187 189 191 194 198 199 193 184 179 179 184 191 197 199 197 197 197 197 193 179 160 146 136 125 118 123 130 137 143 148 147 144 143 143 141 138 139 149 153 153 156 158 155 153 157 162 162 159 162 164 164 162 161 160 160 162 162 159 156 157 157 154 153 159 165 163 165 176 181 174 168 166 174 182 182 180 175 165 158 158 157 156 157 159 158 159 164 170 184 191 186 186 183 172 159 152 150 154 163 164 160 160 167 175 177 172 165 162 163 164 165 167 166 165 165 164 160 159 163 167 168 166 162 155 152 155 155 150 144 145 149 149 155 160 164 165 155 147 154 159 155 143 132 141 150 149 151 156 159 163 162 149 143 145 146 148 150 150 154 161 164 164 161 158 165 177 180 175 170 169 169 166 163 162 161 160 161 168 172 173 171 170 175 176 172 172 173 171 168 169 174 174 168 159 151 147 152 160 163 165 166 164 165 172 183 193 199 200 192 183 182 183 183 179 171 169 168 169 172 172 174 177 176 174 175 178 177 168 156 143 128 116 112 111 116 152 192 200 202 201 199 199 203 207 209 208 203 200 196 194 194 192 185 178 171 161 148 141 139 136 125 117 126 135 137 145 153 160 168 173 178 185 186 180 179 182 182 175 170 167 167 167 166 166 168 169 169 173 173 165 155 147 149 157 165 170 173 171 164 158 153 147 142 138 140 151 162 171 170 162 158 157 163 170 173 177 185 193 196 194 190 185 185 185 183 188 191 192 193 192 186 184 183 179 180 181 180 184 188 189 189 185 182 187 187 181 174 169 168 172 176 177 177 175 172 172 177 179 177 173 168 166 171 180 182 177 178 186 186 176 173 178 182 182 179 176 175 173 170 175 178 174 166 159 163 171 174 174 -9999 
-9999 189 191 194 196 195 193 194 194 198 199 199 201 198 191 183 177 176 178 182 186 189 192 195 195 196 195 192 186 182 171 147 130 129 131 134 139 146 148 148 147 144 143 145 151 160 161 161 164 166 164 161 162 161 157 159 163 162 163 167 169 172 173 169 165 160 159 161 159 157 157 159 159 159 169 179 180 173 171 170 176 178 178 180 175 165 159 159 160 160 163 166 166 167 170 179 191 190 184 181 171 158 151 150 155 163 165 159 155 160 169 171 167 164 162 164 164 165 169 171 172 177 176 171 168 170 175 179 177 171 166 159 155 154 152 143 140 152 159 157 160 163 164 162 152 147 153 154 147 137 136 149 150 147 153 159 159 156 151 146 152 156 154 153 154 155 156 157 161 167 166 166 169 169 166 163 164 168 168 165 168 170 168 164 160 159 162 168 171 176 178 171 165 165 168 170 173 178 178 171 165 161 162 166 171 173 169 170 173 175 179 182 188 199 205 201 190 183 183 185 183 180 174 176 179 178 175 172 173 175 171 168 171 176 174 167 155 139 124 109 106 112 126 159 188 199 206 206 201 203 208 211 211 209 209 210 209 205 201 192 181 172 165 153 142 136 133 130 120 118 135 143 144 153 163 169 174 177 183 186 183 179 179 180 174 168 165 164 166 166 163 166 173 173 170 166 159 155 151 149 152 157 163 171 176 176 173 167 153 139 135 135 138 150 166 177 179 179 175 169 168 171 174 182 190 197 198 194 190 187 188 186 184 187 186 182 183 181 178 179 181 183 189 190 187 189 191 186 181 178 179 186 186 181 178 179 182 182 178 176 174 171 171 173 177 177 174 169 166 167 167 171 169 166 172 179 178 172 171 176 178 177 176 179 181 178 173 176 177 171 163 162 168 174 175 174 -9999 
-9999 198 197 195 193 195 199 200 200 200 199 197 193 185 182 179 173 171 171 173 178 184 187 187 187 190 193 193 193 195 192 181 169 158 145 135 135 143 150 150 149 148 149 150 151 153 158 164 165 164 165 166 165 160 157 163 168 169 171 174 175 177 178 179 177 170 167 168 166 167 167 163 158 161 170 174 173 172 173 174 178 177 179 179 172 167 165 167 167 166 168 172 174 173 175 185 190 181 172 165 157 152 152 155 162 164 154 149 152 160 166 163 161 165 167 168 168 171 173 172 176 181 178 172 173 176 179 181 176 169 161 151 145 142 140 137 141 156 160 157 159 163 165 164 153 144 150 155 150 144 147 153 152 159 167 167 163 161 159 161 165 164 160 160 162 160 159 159 166 175 179 179 176 171 165 163 167 170 166 166 172 175 174 171 165 156 153 158 166 174 173 167 166 167 167 168 171 173 173 171 168 170 177 181 178 173 171 175 177 177 182 185 186 190 196 194 187 186 188 187 183 178 175 178 181 179 179 177 175 175 170 166 169 172 170 163 151 138 127 116 116 126 137 161 187 198 204 204 204 209 216 218 216 214 213 214 213 211 205 193 180 171 163 153 144 135 128 126 121 127 143 149 151 162 171 174 176 181 184 184 180 180 183 178 167 164 165 166 165 160 161 171 172 165 162 158 152 151 155 161 162 161 163 166 167 166 165 163 158 154 152 148 147 152 159 168 176 185 193 192 185 180 184 195 200 197 192 194 194 190 186 182 186 189 185 183 184 184 185 185 184 184 186 185 180 181 182 175 172 171 176 183 183 180 180 184 188 184 173 169 165 165 170 172 175 175 173 170 168 167 166 167 165 166 173 176 174 171 172 177 180 180 183 187 186 181 176 177 177 172 168 168 174 178 175 172 -9999 
-9999 197 197 193 189 188 189 192 195 194 190 186 180 174 174 173 174 176 176 177 180 184 181 173 174 184 189 189 192 194 194 192 189 184 176 160 143 133 129 132 137 142 148 151 149 150 158 162 162 161 162 166 168 171 175 177 177 176 176 173 171 172 172 175 177 174 171 171 173 177 179 174 170 171 170 167 168 169 170 172 175 176 180 176 166 164 165 168 170 172 178 178 174 169 173 185 187 175 170 168 161 154 152 154 156 155 147 146 152 155 156 155 159 166 169 170 171 174 174 172 174 176 173 170 175 178 175 174 168 158 147 138 139 144 145 142 141 149 156 157 158 162 163 156 141 137 154 162 159 158 159 157 154 166 172 166 159 159 161 164 165 166 170 175 178 178 178 172 165 166 175 184 191 188 175 169 169 167 164 168 175 179 175 167 160 157 156 156 157 157 155 163 177 179 173 169 165 163 167 172 176 182 183 179 177 174 174 179 180 178 180 183 183 182 187 191 186 187 192 193 187 177 172 177 183 184 184 183 182 180 175 170 170 170 165 156 146 138 131 120 117 121 135 165 189 197 201 204 210 213 215 216 215 213 212 211 209 205 199 188 178 170 163 152 139 126 123 126 128 136 148 157 165 175 177 175 178 181 183 181 178 181 179 168 162 165 169 169 162 156 160 166 162 159 166 171 170 165 170 172 162 155 153 153 155 153 149 145 148 152 154 156 161 162 161 162 164 169 184 199 196 187 191 197 198 191 187 190 190 186 181 181 187 188 186 189 191 191 194 193 189 184 181 180 180 181 177 171 170 172 178 182 179 178 178 182 183 174 163 162 161 165 171 171 175 177 176 171 168 170 174 176 176 179 181 178 174 173 176 180 183 185 188 189 185 180 177 177 178 178 176 176 177 175 171 171 -9999 
-9999 190 193 192 188 185 184 188 189 184 179 176 176 178 177 178 184 186 182 180 178 174 164 156 159 164 168 176 188 193 191 187 183 186 190 185 173 151 130 124 128 137 149 159 163 170 175 169 162 159 160 165 166 170 176 176 172 172 172 170 168 171 175 180 181 176 172 171 175 181 183 180 180 179 171 168 168 166 164 164 164 167 173 167 158 159 159 162 167 174 178 175 171 170 175 183 181 174 172 171 163 151 145 142 141 145 146 148 151 152 151 152 159 167 171 171 170 172 172 171 172 171 170 171 178 178 173 172 160 142 132 133 146 155 152 141 135 145 159 163 162 162 154 140 131 138 158 165 162 162 160 154 155 166 164 152 150 160 167 166 167 175 180 176 176 176 173 170 169 171 172 179 188 184 179 178 172 169 168 170 174 173 166 157 156 159 162 162 160 158 158 166 174 174 171 165 163 166 170 178 186 186 180 174 177 185 187 187 191 192 189 188 186 184 191 198 194 196 201 199 190 177 172 178 185 185 182 180 179 178 175 170 168 167 161 151 142 136 124 110 104 109 132 167 188 196 198 202 212 214 212 213 215 213 210 206 204 200 192 181 173 167 162 151 137 130 135 143 146 151 158 167 176 182 184 183 184 186 187 185 183 186 178 165 166 173 172 165 161 166 172 170 165 170 184 192 187 177 175 172 168 165 156 151 148 142 137 135 137 146 157 165 166 165 162 159 163 168 171 179 182 183 184 184 185 183 181 181 182 183 186 189 190 186 186 192 196 194 193 191 187 183 181 182 185 185 178 174 177 180 182 179 176 176 174 173 169 162 157 159 164 170 175 177 180 180 175 167 167 174 179 181 183 185 182 177 175 176 178 181 185 187 187 185 183 181 178 177 179 180 180 178 176 174 172 173 -9999 
-9999 191 192 192 192 192 189 186 181 181 183 182 182 183 182 183 187 184 179 175 170 161 150 145 145 140 139 151 167 171 169 169 173 183 187 187 189 184 168 149 139 145 162 176 179 176 176 172 166 161 159 166 170 169 165 165 171 173 173 170 169 173 180 185 182 173 168 170 172 173 176 180 184 179 173 176 174 168 163 158 159 167 167 155 150 154 155 160 167 172 171 167 167 171 175 177 174 170 164 158 154 148 145 142 141 146 146 142 149 153 153 157 163 170 174 175 171 168 169 170 171 170 170 172 173 170 167 163 148 133 134 140 148 153 146 138 144 160 170 166 158 147 134 128 134 147 158 161 157 152 143 139 149 158 152 145 154 169 175 172 172 178 178 170 167 166 166 166 167 171 175 179 170 156 163 170 169 171 174 174 171 164 156 153 157 157 158 159 159 161 167 177 179 178 173 163 166 176 181 183 184 175 164 166 178 190 196 196 202 201 192 187 186 182 185 193 195 200 201 196 188 180 179 185 184 178 172 171 173 174 170 164 162 160 158 154 145 135 119 103 99 107 132 160 178 193 199 204 211 212 213 218 219 214 207 203 203 201 190 176 167 163 159 148 140 144 152 157 159 164 168 174 180 184 188 190 190 192 193 192 192 190 180 171 177 181 173 162 165 176 180 178 176 178 184 188 186 183 175 168 172 168 156 149 146 145 146 143 136 138 147 156 166 173 173 168 167 173 174 166 164 173 177 181 186 186 185 184 181 183 189 192 190 186 184 187 189 189 189 188 187 184 181 181 183 182 179 180 183 185 184 178 173 169 166 162 158 158 160 168 176 180 179 176 175 174 173 170 170 174 177 182 185 184 181 179 178 179 180 181 185 187 185 180 178 180 177 173 175 176 177 177 177 179 177 174 -9999 
-9999 196 196 197 198 196 193 188 185 190 193 188 182 180 180 185 188 183 179 173 166 157 148 144 141 136 133 135 135 129 128 143 161 174 179 184 190 191 189 178 161 155 157 160 156 153 161 169 170 166 164 169 173 174 175 177 178 177 177 175 175 181 185 183 176 171 172 177 178 174 172 176 182 183 187 188 177 169 165 163 163 164 158 149 149 146 144 155 167 173 171 166 165 168 170 170 170 165 155 148 147 146 145 146 151 156 149 138 143 148 150 158 162 165 167 169 166 166 171 170 170 168 168 165 160 156 153 146 137 135 144 143 140 146 147 148 159 169 168 155 137 124 124 135 144 149 146 144 142 141 135 134 143 151 155 159 168 170 166 162 164 167 166 168 171 173 175 171 164 164 167 161 151 153 159 159 165 172 177 178 173 160 149 150 158 163 163 156 151 154 167 183 191 193 192 188 182 177 177 176 174 171 172 176 181 186 190 190 191 193 188 183 183 181 175 176 185 195 195 190 183 180 185 188 181 170 164 166 170 170 161 154 156 155 160 164 153 138 123 107 103 111 133 156 179 197 207 213 215 217 219 219 217 211 205 202 202 196 185 175 168 161 152 143 140 146 151 153 159 166 170 176 182 187 190 190 191 195 197 197 195 189 178 177 183 183 174 170 177 181 181 181 182 181 179 173 170 173 173 164 157 151 147 146 145 144 146 147 151 161 164 169 174 174 172 171 166 166 167 163 160 168 179 188 191 189 191 194 193 192 191 190 188 185 182 178 176 181 187 188 183 177 179 183 185 185 184 184 183 180 178 175 169 164 161 159 163 168 172 178 183 179 169 165 166 169 174 175 175 177 181 187 186 182 183 182 182 182 181 180 181 180 179 179 179 179 173 171 176 178 179 179 179 178 173 172 -9999 
-9999 194 197 197 194 191 190 192 195 194 186 179 178 176 177 182 183 181 182 180 174 165 153 148 145 139 138 136 127 115 113 124 135 147 164 178 184 185 185 184 181 174 153 132 125 134 157 173 175 172 172 172 170 175 184 184 179 177 178 178 183 189 189 184 176 172 177 185 187 181 175 172 173 175 180 175 163 160 164 169 169 167 158 150 148 140 145 165 179 181 174 168 168 170 170 169 169 165 153 146 146 145 145 148 155 158 146 134 138 144 150 159 162 161 158 156 157 167 174 170 169 168 167 164 159 157 150 142 138 139 144 139 142 157 160 156 159 161 155 141 130 131 140 148 145 140 128 123 128 133 134 138 147 156 165 174 179 178 176 170 167 169 170 172 172 170 167 169 179 185 178 161 157 169 177 180 183 183 182 178 173 169 164 163 166 172 171 169 170 174 180 184 186 188 192 197 198 190 180 172 172 182 195 195 189 186 189 192 189 191 196 195 192 188 180 179 188 195 197 190 182 181 184 178 168 166 166 168 169 164 156 156 163 162 167 168 154 139 129 117 112 125 146 162 185 197 201 207 214 221 223 219 211 207 204 203 199 190 182 176 170 158 146 143 143 147 154 157 160 162 168 179 188 194 195 193 196 202 202 199 196 189 183 185 189 188 184 185 189 186 181 181 181 179 176 168 158 155 162 163 156 152 151 149 138 132 137 148 168 182 183 186 184 178 177 183 186 176 165 165 171 175 180 186 189 185 185 186 188 190 188 187 187 186 183 178 176 181 187 187 179 179 185 188 189 189 186 183 179 175 173 171 168 169 168 168 173 177 178 181 182 173 166 170 173 173 175 175 176 181 187 192 185 181 183 182 183 185 184 182 180 178 182 188 188 184 179 181 186 186 185 183 180 173 168 172 -9999 
-9999 189 191 189 184 183 189 198 199 188 178 179 184 186 186 184 181 181 186 186 182 172 160 157 152 147 147 145 138 129 124 120 119 130 145 155 159 164 171 180 186 186 174 157 148 156 175 181 176 174 174 174 177 181 183 183 182 181 180 182 189 191 187 182 178 176 179 184 183 176 169 163 158 156 156 152 146 151 162 169 169 171 166 158 153 151 165 184 189 184 175 172 173 174 170 169 170 165 152 146 150 153 153 153 156 156 147 141 150 161 164 166 166 164 160 157 157 165 167 165 167 168 169 168 168 163 151 144 139 136 136 132 139 152 151 145 148 147 140 134 136 141 141 134 127 126 122 126 137 139 135 140 154 165 171 178 184 189 192 190 185 179 174 173 173 168 164 172 184 187 184 177 173 173 181 188 187 182 177 172 169 172 173 173 174 176 178 186 192 193 188 182 182 183 183 191 200 200 191 182 182 192 205 208 202 195 193 194 199 198 197 199 200 199 197 193 192 191 188 184 182 180 176 166 162 168 174 176 172 166 162 165 167 166 166 160 147 135 128 120 116 126 142 151 172 184 187 195 206 214 220 218 211 207 202 198 194 188 182 176 165 148 143 146 140 143 156 159 160 167 178 190 200 204 203 202 205 208 204 200 199 196 193 193 195 194 193 195 196 193 191 188 184 182 175 166 160 159 164 168 169 170 169 164 155 154 159 165 172 171 169 168 172 185 196 196 188 174 165 168 176 177 168 167 175 179 181 177 172 175 181 185 188 189 189 188 187 188 187 182 181 188 191 189 189 186 182 176 172 172 172 170 169 172 176 179 182 179 178 181 179 173 174 183 185 183 180 178 179 181 185 186 181 181 182 182 186 189 187 186 186 189 197 198 193 188 188 192 191 187 185 183 178 171 173 179 -9999 
-9999 188 191 189 184 185 192 197 194 183 178 184 192 194 191 187 185 186 188 184 176 169 165 163 159 156 156 155 151 145 138 129 131 138 135 129 131 141 152 166 177 185 189 188 181 177 178 175 171 172 173 178 183 184 185 184 183 184 186 189 190 186 181 177 176 175 177 179 176 170 164 156 150 151 155 153 151 158 163 166 168 172 172 168 164 165 174 181 181 175 171 170 171 169 164 166 168 161 151 152 157 158 157 156 156 157 157 154 161 173 172 164 161 161 163 164 162 162 158 156 163 167 169 171 170 161 151 146 137 129 127 123 127 133 134 137 143 138 129 130 136 133 124 118 116 121 128 139 151 146 137 143 153 162 167 170 172 178 183 184 186 185 180 180 182 178 175 179 183 182 181 176 173 173 174 174 172 169 163 161 163 164 165 167 173 179 186 192 192 187 181 177 180 184 188 196 195 190 191 194 196 202 213 219 212 201 198 195 201 205 199 196 200 207 207 200 193 187 182 177 174 171 167 163 163 170 176 178 174 169 164 161 158 160 160 150 138 125 119 118 119 125 136 143 166 185 188 193 199 204 211 214 211 206 195 190 192 188 181 174 158 143 148 149 139 148 162 162 166 181 192 201 210 212 209 208 212 212 208 205 205 204 199 196 198 198 197 200 199 197 198 197 193 190 183 176 173 175 174 170 173 182 182 177 176 177 177 177 179 181 179 165 163 179 187 180 169 171 175 175 178 182 180 176 178 182 186 184 179 179 182 185 187 191 194 195 196 194 188 182 183 188 189 190 190 188 181 174 173 176 177 175 175 177 180 184 184 180 179 180 178 177 183 188 185 181 180 179 179 180 181 180 177 177 178 183 188 190 189 189 191 195 200 195 187 183 184 185 181 178 178 179 177 176 184 185 -9999 
-9999 192 192 192 193 196 196 192 187 182 184 191 196 194 188 184 184 184 180 174 168 170 170 167 165 163 160 158 155 147 141 140 150 149 135 128 131 138 145 155 167 180 188 187 188 178 162 154 157 166 174 179 178 180 185 185 184 186 187 186 184 181 177 175 173 174 177 177 172 167 164 160 156 159 164 165 165 164 157 155 164 176 178 171 165 164 170 176 175 170 164 160 159 158 158 161 163 158 155 160 162 161 159 157 157 161 163 159 162 171 166 155 153 159 165 168 166 164 156 155 163 163 161 162 160 151 141 135 127 125 130 129 132 136 141 144 144 141 135 142 144 130 121 120 120 126 133 139 141 132 131 140 146 154 164 168 169 174 174 171 175 181 181 183 186 185 183 182 179 180 181 180 181 181 175 170 168 164 156 156 158 162 163 160 168 178 185 188 186 185 189 189 185 187 194 195 188 181 185 194 197 196 199 206 207 200 200 202 203 206 204 201 203 211 215 214 205 193 186 179 174 170 168 166 169 175 179 177 171 166 160 157 155 155 149 135 125 114 113 121 127 133 142 147 168 187 189 190 194 199 205 206 203 199 190 192 193 186 177 169 157 151 159 158 152 162 172 172 180 195 204 210 214 211 209 213 217 218 216 214 214 212 204 200 203 201 200 202 199 196 200 202 200 196 192 190 189 186 181 172 174 180 180 176 173 171 168 167 176 185 181 174 176 176 171 169 176 189 197 196 192 191 193 195 195 190 187 186 188 189 186 185 186 189 192 195 195 193 187 185 188 191 191 192 194 192 183 176 180 187 191 189 186 185 185 185 181 179 181 180 177 179 185 183 178 178 180 180 179 180 182 183 181 181 182 185 188 189 190 191 191 194 194 188 181 179 178 177 175 172 172 175 178 180 185 184 -9999 
-9999 189 187 190 196 200 198 192 188 190 196 196 192 189 186 185 183 178 171 168 172 174 173 170 169 167 162 158 152 144 140 147 155 151 144 146 150 150 150 153 158 169 182 187 191 188 172 152 146 154 168 175 177 183 189 188 186 184 180 176 176 177 176 174 174 178 182 179 171 166 165 166 167 167 166 163 158 149 142 145 156 167 169 165 159 159 167 175 175 168 156 147 150 155 160 164 162 157 158 162 164 163 159 156 160 167 167 162 162 164 160 156 159 165 170 171 169 165 159 159 163 156 147 143 138 129 119 115 116 124 130 133 137 141 144 140 136 136 137 146 142 121 118 124 124 130 134 134 127 119 126 133 141 156 167 169 174 178 176 173 173 175 179 182 183 185 187 189 186 180 181 184 189 190 183 176 175 173 165 163 164 169 168 161 170 177 180 181 183 191 198 196 188 186 191 193 191 186 183 187 191 186 177 181 198 205 203 201 201 205 207 203 204 215 225 222 212 200 191 184 178 175 173 174 178 184 185 177 169 164 161 163 161 152 135 119 114 114 124 133 133 137 141 142 164 190 193 191 193 197 201 202 197 191 188 194 193 186 175 167 159 156 162 162 157 163 172 177 189 204 213 216 214 211 214 220 224 225 225 225 224 220 211 206 207 204 204 204 198 196 200 205 206 205 201 203 203 199 193 185 179 176 175 174 173 168 162 160 165 172 175 179 181 175 169 174 182 188 196 205 202 189 181 185 191 189 185 183 186 189 185 184 185 184 185 187 188 186 185 189 196 197 192 189 191 189 182 184 192 197 196 190 185 185 187 186 183 183 183 180 177 179 182 179 181 187 186 182 181 185 187 186 188 190 189 188 189 190 191 190 189 191 191 186 181 181 183 182 179 175 171 176 180 179 178 177 -9999 
-9999 189 182 182 186 189 189 190 192 194 196 194 188 182 182 187 186 180 174 178 181 179 177 174 174 170 163 157 151 144 146 154 157 155 159 163 163 159 153 149 148 154 171 186 190 191 187 174 160 152 154 167 183 191 190 185 182 180 177 176 176 175 176 178 179 177 175 171 166 164 162 162 164 167 165 158 151 149 157 167 170 164 158 153 144 149 162 168 166 161 150 142 148 156 163 168 166 161 160 163 163 160 155 156 165 174 172 165 160 158 158 158 159 161 167 170 172 167 159 158 156 148 140 137 127 116 110 110 119 125 126 129 129 130 133 131 129 130 126 127 119 104 111 118 116 123 127 124 114 113 123 131 147 166 173 173 177 180 181 184 183 179 179 179 179 179 182 186 182 177 179 185 189 188 184 182 182 179 173 170 165 170 177 178 177 170 169 175 185 195 195 187 182 178 181 191 197 192 189 193 197 191 183 186 200 208 202 197 198 205 208 204 201 211 221 214 203 197 190 183 176 172 176 183 187 187 180 170 164 164 164 168 165 154 140 129 127 135 146 147 140 139 139 138 159 194 199 196 194 190 189 190 188 185 186 188 186 181 175 169 159 152 154 150 142 149 166 178 192 207 215 217 218 221 225 229 232 232 232 231 230 224 214 208 209 207 208 204 197 197 202 206 210 212 212 216 215 210 202 191 187 181 172 168 173 178 178 177 174 173 177 182 182 180 179 181 186 192 195 200 201 198 191 186 184 185 187 188 189 188 185 186 186 182 180 179 179 178 181 187 190 187 181 179 180 181 182 190 195 195 190 181 178 181 184 185 185 184 182 182 183 184 185 185 189 191 187 186 190 194 192 188 191 193 189 190 191 191 191 187 183 187 189 186 184 187 190 186 181 177 176 182 183 175 172 172 -9999 
-9999 193 184 177 177 180 183 187 191 190 189 189 186 181 181 183 183 183 184 186 185 183 183 178 173 169 165 160 154 150 155 163 162 163 169 169 162 155 148 145 145 151 165 176 182 189 190 190 188 172 160 166 181 186 183 179 177 177 179 183 186 184 182 181 179 174 166 160 162 163 158 156 161 167 165 160 156 163 178 185 178 162 151 140 130 143 154 152 150 148 145 145 152 155 157 161 162 163 165 166 162 156 154 160 172 178 173 163 158 158 158 155 150 152 161 167 168 160 151 151 145 134 132 134 124 113 112 117 124 127 127 129 128 126 132 135 136 133 125 119 112 105 112 117 116 123 127 122 110 114 128 141 161 176 180 183 186 188 189 191 189 182 179 180 178 175 178 178 175 177 181 183 187 186 182 181 180 174 170 172 172 171 174 177 175 170 170 173 177 179 179 179 179 176 175 182 188 190 194 196 201 207 215 215 210 203 197 197 199 197 194 198 198 201 205 195 187 183 179 177 176 174 179 183 182 174 166 161 163 167 167 166 165 158 150 147 151 155 157 149 140 137 136 137 156 187 195 193 191 187 183 180 181 185 188 188 184 181 177 163 144 133 134 131 132 153 176 190 204 215 220 223 227 231 233 235 236 235 233 231 229 222 211 207 208 208 206 201 198 201 207 212 217 220 223 225 222 215 208 202 202 192 177 170 172 178 184 189 192 191 187 184 185 185 185 188 193 197 195 187 186 194 195 190 186 185 188 191 190 186 187 190 190 186 182 178 176 174 176 177 175 171 173 181 185 182 181 182 182 185 187 180 180 183 183 184 185 186 186 188 191 192 192 193 192 190 191 195 200 201 196 192 195 193 189 191 193 192 190 184 181 186 190 188 187 191 192 186 181 178 179 186 184 174 171 172 -9999 
-9999 198 194 189 185 182 181 184 187 189 191 191 188 184 181 179 181 185 184 182 181 180 178 173 169 170 170 164 158 157 162 165 158 158 165 164 155 149 148 153 156 160 166 167 172 187 192 191 193 185 172 163 160 163 169 171 171 174 181 188 192 190 182 175 169 163 159 160 161 157 155 162 168 164 155 150 152 162 167 167 163 154 149 140 140 153 154 151 151 147 143 146 153 156 155 155 159 165 168 167 162 157 158 167 175 177 170 159 155 156 156 150 144 147 157 161 157 146 142 143 135 126 127 130 123 119 122 122 124 129 127 126 123 123 135 142 141 136 129 123 118 117 121 126 128 132 138 126 116 132 142 153 171 179 182 185 188 192 194 193 190 184 183 180 176 175 179 181 184 187 188 185 180 184 187 181 173 167 168 174 179 174 166 163 166 177 181 175 165 163 174 191 195 191 188 183 182 188 192 187 189 200 212 216 208 194 187 185 188 190 191 195 193 190 192 189 185 177 172 173 174 173 175 173 165 160 160 166 173 176 170 165 167 162 145 140 150 154 150 142 134 129 129 135 155 181 193 189 189 190 189 188 191 194 192 192 189 183 170 146 128 129 137 140 153 178 197 207 218 223 224 225 229 232 235 238 238 235 232 227 222 212 203 204 206 204 198 196 195 198 209 218 226 230 231 229 225 219 217 219 219 207 195 188 184 183 188 194 195 194 194 195 192 186 181 182 188 189 183 173 169 175 178 178 181 184 185 186 183 182 186 191 192 193 192 188 183 181 182 181 177 175 180 187 189 183 177 174 173 177 179 178 182 187 186 186 186 188 191 194 194 193 194 195 193 193 197 200 199 196 193 192 194 191 188 190 191 191 190 187 187 194 196 191 189 192 191 186 182 176 177 185 184 174 172 176 -9999 
-9999 203 201 199 197 192 190 191 191 190 191 192 190 186 183 185 189 188 183 182 183 180 179 175 173 179 176 165 159 158 161 162 156 158 161 155 150 154 164 176 178 176 175 168 167 178 186 188 190 188 182 165 151 153 162 167 171 176 181 185 184 179 174 167 160 156 157 161 161 159 161 169 173 165 153 146 150 159 161 160 159 154 150 148 154 161 159 159 158 150 144 146 158 171 173 173 174 170 168 166 162 159 163 172 176 173 166 155 149 150 148 143 138 143 155 157 151 142 140 142 139 138 138 134 128 127 131 131 134 137 127 121 121 128 143 147 140 134 130 127 124 125 130 137 135 133 132 119 126 150 151 159 172 175 176 179 184 189 189 189 186 187 189 181 176 180 184 185 183 181 183 182 180 178 171 165 163 163 164 170 170 158 155 159 170 182 185 179 170 169 177 183 185 191 192 183 178 180 183 178 176 180 185 191 197 195 184 174 172 183 192 187 179 173 165 163 165 163 164 167 168 166 169 172 168 165 168 173 178 179 170 165 164 152 134 131 139 139 136 134 128 126 133 143 164 189 205 205 199 193 192 194 196 196 194 192 180 164 148 131 130 149 161 164 175 192 203 212 220 224 224 227 229 232 237 238 234 230 224 218 213 206 200 202 201 194 187 187 188 193 207 221 230 235 235 230 225 221 223 225 222 213 206 204 203 203 203 201 197 195 197 198 196 195 193 192 190 183 178 175 171 170 169 169 175 183 186 184 182 186 188 188 189 192 194 193 190 191 196 196 192 188 187 184 180 177 175 174 176 181 181 181 184 188 188 190 190 191 194 195 195 193 194 196 196 198 201 198 193 190 188 188 187 186 187 189 191 193 196 195 195 197 197 193 190 192 191 186 182 175 176 185 185 178 179 184 -9999 
-9999 198 196 197 198 196 197 197 191 186 186 190 194 193 192 195 196 190 185 187 186 183 183 179 181 186 178 168 165 163 164 165 164 164 160 152 155 169 180 188 187 185 185 175 167 162 163 175 187 190 189 183 167 159 162 172 177 178 176 172 165 159 159 160 159 157 159 163 164 164 162 163 169 172 169 163 158 159 161 163 160 155 154 154 158 160 158 157 154 150 151 160 172 182 181 183 180 170 169 169 167 165 168 173 175 171 161 147 140 141 140 138 133 140 151 151 153 151 149 152 150 145 142 136 128 126 134 143 141 132 121 126 138 146 153 148 138 131 130 129 129 131 136 139 135 133 128 121 138 152 151 166 178 178 176 178 182 186 190 191 185 185 193 193 190 190 189 184 179 178 177 177 179 170 160 164 172 171 172 176 167 157 162 170 179 183 180 178 180 182 178 169 170 180 181 179 180 185 185 178 171 168 166 169 184 197 196 188 179 183 193 189 177 158 139 132 135 142 151 161 167 167 172 177 177 175 174 172 172 170 162 158 153 141 134 137 144 145 141 138 134 141 150 156 174 189 195 192 186 185 188 187 179 177 182 184 166 145 135 128 136 151 158 164 178 193 202 211 221 224 226 230 232 236 237 232 223 219 216 210 207 202 198 199 193 182 180 184 187 192 206 223 233 237 233 223 216 214 218 219 212 204 207 212 211 208 204 204 205 205 203 199 199 202 202 196 194 200 203 196 187 182 181 179 181 188 193 190 187 188 187 185 186 187 186 185 185 189 193 197 197 191 186 182 178 176 179 183 188 192 191 189 187 186 186 189 192 195 196 195 194 196 198 201 201 201 199 195 192 191 189 186 184 187 189 189 192 198 202 200 194 191 191 188 189 193 190 184 181 177 180 188 188 184 186 189 -9999 
-9999 195 195 198 201 197 195 193 187 186 190 190 191 193 198 201 197 190 188 186 184 184 181 179 183 184 177 173 172 168 168 168 166 161 160 163 171 180 182 181 176 176 181 175 165 155 152 163 180 189 186 189 179 158 148 154 166 171 169 161 155 155 157 160 161 157 159 164 165 164 161 161 162 161 162 164 162 161 160 158 155 154 154 155 158 157 152 151 157 162 167 174 178 179 179 179 175 171 174 173 169 166 167 169 167 162 151 139 136 136 134 130 128 137 145 146 152 153 147 149 146 140 137 132 129 130 134 134 124 115 113 122 130 136 144 141 134 131 130 132 133 135 137 138 137 140 139 141 153 150 147 163 177 182 183 183 182 184 189 191 191 193 200 202 198 193 188 184 181 178 176 178 175 168 168 173 175 176 181 183 176 181 189 188 185 179 172 172 181 188 184 177 174 172 174 178 184 190 192 190 185 175 169 172 176 175 179 182 182 181 186 188 175 154 146 142 141 145 153 160 162 164 174 179 176 174 172 172 172 165 155 152 151 147 146 147 152 157 157 150 148 157 159 157 167 171 166 166 168 172 176 175 173 176 173 168 148 131 129 125 132 140 146 158 177 192 199 207 217 223 227 231 232 231 228 220 212 213 215 209 204 200 196 195 184 177 180 183 186 194 209 224 231 231 222 209 203 203 206 205 198 198 206 209 206 205 203 202 203 206 207 208 208 208 206 196 185 188 193 196 200 198 192 187 190 195 199 196 191 188 189 191 192 190 185 180 176 177 182 187 187 184 186 184 182 182 186 192 196 195 194 192 187 184 189 193 194 196 195 191 191 195 200 203 201 197 194 192 192 192 188 187 190 196 196 192 194 199 199 193 186 185 188 188 190 192 187 182 181 181 183 188 187 185 185 186 -9999 
-9999 200 198 201 201 197 195 196 196 197 193 184 182 186 193 197 196 192 189 184 185 187 182 181 180 179 177 175 168 163 163 165 165 163 167 175 183 185 180 176 171 169 172 170 163 160 165 173 182 188 186 187 186 165 142 136 143 154 165 170 170 170 168 166 162 158 161 163 162 163 164 165 161 153 151 154 157 160 157 154 154 154 152 151 154 152 146 151 167 177 176 176 180 182 183 181 177 175 175 169 162 159 160 158 153 150 143 139 138 132 129 128 133 143 150 155 160 156 147 149 150 146 142 140 141 141 136 124 111 108 107 108 113 124 135 136 134 136 138 139 139 140 141 143 145 146 147 154 160 146 137 151 165 177 186 188 187 188 186 185 187 194 198 194 189 189 187 186 184 185 188 187 178 171 171 171 170 171 173 170 174 189 195 189 181 175 176 179 184 192 193 190 186 184 181 180 183 188 191 197 200 192 185 182 176 168 167 170 177 177 171 166 161 157 157 154 153 157 161 165 165 168 174 176 175 175 175 178 176 164 156 154 154 156 159 157 151 151 152 144 145 154 149 144 152 159 165 182 183 175 167 160 167 175 169 157 136 126 132 131 138 144 150 161 178 191 196 203 210 217 222 224 223 220 217 212 210 212 211 205 202 201 195 186 176 175 180 181 185 197 209 218 222 217 207 199 198 201 204 201 195 197 201 200 201 203 203 200 197 198 202 206 210 213 218 214 193 172 165 181 202 211 209 199 193 192 193 193 192 191 194 200 203 198 192 188 185 187 188 184 178 180 187 190 192 192 191 191 192 193 195 191 182 184 192 195 195 194 191 188 190 196 198 197 193 190 190 190 190 188 185 189 197 202 201 197 198 198 194 186 182 185 190 189 189 191 189 185 185 184 184 186 187 186 185 184 -9999 
-9999 205 202 199 195 192 194 195 196 195 187 180 180 183 186 187 187 189 187 186 189 187 182 178 177 179 178 171 160 157 160 163 164 165 169 176 181 179 175 173 172 171 172 170 167 169 177 181 178 178 181 186 189 184 169 149 136 142 161 174 175 171 169 167 159 156 161 161 159 160 163 167 164 157 153 152 149 148 149 154 158 158 155 153 152 146 140 150 168 174 175 183 186 183 178 173 171 174 173 167 160 157 153 148 146 146 141 134 129 123 125 132 141 150 157 164 170 169 163 163 161 152 147 149 146 141 132 120 111 110 111 118 132 142 145 142 142 148 149 148 147 146 147 150 153 149 144 147 145 132 138 161 176 184 186 186 188 190 187 183 182 187 189 187 191 197 194 190 190 191 191 182 170 169 177 181 173 166 166 163 166 173 173 172 174 178 182 184 188 192 195 197 201 199 194 192 190 187 190 199 204 201 189 176 173 180 180 178 175 169 161 159 165 172 168 160 159 159 163 174 183 184 179 172 171 175 175 174 170 163 162 161 162 163 164 160 151 149 145 135 136 143 139 136 145 156 168 185 186 182 174 166 164 164 161 153 137 133 143 146 149 153 160 170 184 193 194 201 211 215 217 216 215 212 209 206 206 209 207 203 201 198 189 177 172 175 181 184 189 199 205 212 216 213 207 201 200 206 209 205 198 198 199 199 200 200 199 198 196 191 190 197 204 208 211 212 210 203 199 198 201 208 213 206 192 181 177 178 182 184 186 193 199 197 196 195 197 200 197 190 186 186 189 189 190 189 185 184 183 183 187 183 179 188 190 190 192 194 193 191 192 196 195 190 185 186 190 189 187 184 185 191 198 202 200 199 199 198 194 188 185 187 188 187 191 197 194 188 187 186 186 188 188 188 187 185 -9999 
-9999 204 200 194 189 189 191 191 189 190 189 186 185 185 185 182 181 182 184 187 190 186 180 178 178 179 173 162 155 156 159 164 164 161 165 172 176 172 170 172 174 175 174 171 169 171 176 174 167 162 167 183 191 191 190 169 145 140 145 150 153 157 163 162 154 154 159 159 158 159 163 163 163 160 155 153 151 150 153 159 163 162 158 155 152 144 142 156 168 172 181 192 190 180 171 165 165 170 170 164 156 147 141 139 141 144 138 127 121 120 126 132 138 147 155 161 169 171 167 163 158 152 149 147 137 131 124 121 119 124 134 149 166 169 164 157 156 157 152 149 149 147 147 152 153 145 139 140 136 131 148 175 188 189 186 186 190 190 188 187 187 188 188 188 194 200 196 190 185 179 177 171 168 176 182 178 166 165 167 165 168 163 155 159 170 178 180 182 185 186 186 187 188 188 196 204 201 192 193 197 198 199 194 185 183 183 178 172 163 148 140 144 159 174 169 161 161 163 168 177 181 179 174 170 171 171 168 167 167 169 169 166 166 166 165 161 153 150 146 137 139 144 142 141 149 157 164 178 185 188 189 186 179 172 165 153 140 139 145 144 146 158 171 183 193 196 197 207 212 212 212 214 213 208 204 203 204 205 203 202 201 194 182 174 177 182 187 189 193 203 209 216 222 220 215 208 207 211 212 206 199 200 200 199 201 200 198 198 198 195 195 196 196 194 193 197 209 219 222 214 199 192 190 186 179 170 168 169 171 173 178 183 185 189 193 195 198 199 197 192 189 187 187 186 184 182 179 178 176 177 180 178 181 188 185 187 191 192 195 195 195 197 195 190 187 188 189 187 186 187 190 194 199 201 199 195 193 192 193 191 187 188 189 191 198 199 192 187 185 185 185 187 187 186 185 183 -9999 
-9999 197 194 191 188 189 192 192 193 193 190 190 195 195 190 185 183 182 181 184 186 182 177 178 181 177 164 154 153 156 160 165 161 156 163 170 172 170 171 175 176 175 172 168 165 166 168 165 159 156 163 178 189 190 189 185 169 148 134 132 141 153 158 155 153 162 166 162 159 161 163 163 164 163 163 162 160 163 167 171 170 164 158 155 150 145 153 169 175 175 180 184 179 172 165 161 162 165 162 151 140 133 130 132 138 140 131 122 121 122 124 129 138 149 155 159 165 164 163 161 157 156 153 144 134 132 133 138 134 134 149 166 177 177 172 167 165 161 153 148 146 143 145 151 150 139 135 138 137 140 155 169 175 177 179 186 193 197 196 194 192 190 189 189 190 189 187 187 184 179 181 183 189 190 182 170 166 175 176 169 168 166 165 169 174 178 180 182 182 179 177 178 180 184 192 198 199 198 195 189 186 193 198 194 190 186 181 175 166 151 142 146 158 167 161 162 170 177 181 178 171 164 162 166 171 169 167 166 167 167 160 159 165 168 170 169 159 151 147 143 148 155 153 150 155 159 163 185 195 195 194 187 179 174 167 152 141 141 140 139 148 167 183 193 198 199 204 212 211 206 205 207 207 202 201 205 205 201 197 198 198 193 185 181 185 188 192 192 195 209 219 225 230 228 221 213 211 210 208 201 196 199 201 203 204 203 205 204 200 201 203 196 187 182 176 179 189 199 203 198 187 177 173 170 166 161 161 163 165 172 180 180 181 185 188 190 194 196 193 187 182 183 187 188 188 187 184 181 179 181 182 179 183 186 185 189 187 184 189 191 194 196 191 185 182 185 188 188 187 190 193 196 198 200 194 188 186 185 191 194 192 192 194 197 201 198 191 186 184 184 185 188 187 185 183 180 -9999 
-9999 191 191 191 191 193 193 193 195 193 188 191 198 197 190 184 183 181 179 179 178 174 173 180 183 177 163 156 156 159 162 162 155 154 163 169 171 170 171 173 170 168 168 166 164 165 167 162 155 156 167 175 179 185 188 192 187 164 142 134 139 150 157 155 158 168 171 167 166 167 168 168 167 165 167 170 172 179 184 184 177 164 159 159 157 156 167 177 179 177 177 174 169 166 163 161 160 157 150 138 132 131 132 137 139 134 124 120 121 117 115 127 145 155 157 157 162 164 164 162 159 157 152 144 139 138 142 147 136 134 153 164 165 165 167 169 170 167 158 151 147 145 150 153 145 137 139 143 143 149 160 165 167 170 172 178 185 193 198 196 193 191 190 191 189 184 184 188 185 181 181 186 190 185 174 168 171 179 179 176 178 180 183 185 184 181 179 180 179 176 176 179 185 189 187 183 186 192 193 186 183 186 190 187 185 187 190 189 183 174 171 170 169 167 162 168 171 174 181 181 173 165 163 165 168 168 166 163 160 153 146 151 161 165 168 168 155 145 145 148 155 158 155 151 153 156 167 198 205 199 189 178 171 166 158 144 137 138 139 145 161 177 186 189 194 198 203 207 207 206 204 201 196 194 199 204 200 195 197 198 199 197 192 188 191 193 195 195 201 218 227 231 232 227 219 212 209 206 201 193 193 198 200 202 203 202 208 212 209 206 206 200 191 183 177 176 177 176 177 181 183 175 168 164 159 156 156 158 164 176 181 180 182 188 189 190 193 194 191 187 186 188 190 192 190 186 182 183 190 192 187 183 187 189 189 191 187 185 185 184 184 181 167 155 156 167 181 188 190 192 193 193 193 193 186 185 187 188 194 194 191 192 195 198 200 196 192 188 185 186 188 190 188 184 181 179 -9999 
-9999 190 191 191 193 196 196 193 193 192 191 194 193 189 186 184 182 181 179 175 172 170 174 181 182 174 165 162 160 158 157 155 152 155 163 168 168 166 164 163 160 161 163 165 169 171 168 159 153 155 161 162 163 175 185 187 186 178 161 143 137 140 146 154 162 166 165 165 168 172 172 167 162 161 167 176 188 197 198 194 185 174 172 172 170 172 181 183 180 183 183 176 169 164 159 156 155 151 146 143 142 142 143 143 137 128 122 120 118 112 115 135 149 149 149 153 162 165 162 158 153 153 150 146 140 137 132 119 108 120 142 151 153 158 168 172 176 176 166 157 154 157 162 160 150 147 150 152 152 157 159 160 167 170 171 174 177 184 192 195 197 195 194 194 191 187 183 178 175 175 175 173 169 164 163 166 167 167 167 172 180 183 182 181 182 180 177 179 180 182 187 192 197 200 197 190 187 188 187 185 185 182 181 179 179 185 192 190 185 187 189 181 173 168 166 168 161 157 165 172 171 169 169 172 176 175 170 164 158 152 149 155 160 156 156 155 144 139 144 149 151 150 149 145 145 151 174 204 208 194 175 165 163 160 153 142 135 136 141 154 170 179 181 183 189 194 198 201 203 205 205 201 195 195 198 200 197 196 201 202 204 204 199 195 196 198 200 203 210 222 228 228 225 218 211 207 203 199 194 190 194 197 194 193 193 194 201 206 208 204 198 195 191 185 184 185 182 175 172 179 186 181 172 162 157 162 164 160 160 170 180 184 187 189 191 194 195 194 193 191 191 191 191 189 184 179 177 181 190 195 192 189 189 188 187 190 192 194 191 182 174 161 139 132 138 146 159 174 185 191 193 191 190 188 184 187 191 193 195 192 189 191 193 194 194 191 189 187 185 186 189 189 186 183 180 180 -9999 
-9999 194 194 192 193 196 197 195 193 191 192 193 191 188 187 187 186 184 180 176 175 176 178 182 182 175 168 162 154 149 147 146 149 156 164 170 169 163 161 161 162 162 159 158 162 162 157 151 152 157 158 153 153 163 175 183 188 188 180 163 147 139 140 151 163 164 160 161 167 173 174 168 168 169 172 182 193 200 201 196 191 186 187 186 183 181 183 182 182 187 186 176 167 156 145 144 144 143 143 143 140 140 143 139 129 124 122 120 117 115 125 142 144 139 142 152 163 161 155 153 151 155 154 148 138 133 120 97 96 111 125 138 153 166 172 173 175 177 169 161 160 167 172 167 160 158 157 155 155 158 153 153 165 174 179 183 185 188 189 193 200 201 202 201 195 190 186 180 177 181 184 177 167 161 163 172 174 169 163 164 168 172 175 181 185 181 177 181 185 191 197 202 203 202 200 198 197 195 193 195 197 195 191 184 178 181 190 191 188 191 192 183 173 167 162 164 164 162 162 163 167 172 175 181 186 182 173 168 165 164 165 169 169 164 162 157 148 147 149 149 147 146 147 146 149 161 185 205 204 192 181 173 167 165 159 148 139 139 145 156 168 176 180 185 190 193 196 199 202 203 203 201 201 204 199 191 189 195 198 197 199 203 203 201 201 204 207 210 214 220 221 217 214 213 210 206 199 195 192 192 195 195 190 189 189 194 197 194 195 190 178 177 181 182 185 184 179 171 166 169 174 177 174 167 168 172 172 169 166 168 172 180 185 185 185 188 189 189 189 188 190 190 188 183 178 178 181 184 187 190 194 193 190 188 188 192 196 199 195 186 176 164 148 149 151 146 148 158 177 192 195 193 192 189 187 188 191 192 194 194 194 195 194 193 191 187 185 184 184 185 186 188 186 183 181 182 -9999 
-9999 197 197 195 194 194 196 196 192 189 189 191 191 191 191 190 187 183 179 178 179 181 180 181 179 171 163 155 148 147 148 147 146 152 162 168 167 164 165 169 170 165 157 151 150 150 150 150 156 163 164 157 152 153 163 178 187 189 188 181 163 144 141 151 161 164 164 166 172 177 177 174 173 173 177 184 190 194 194 193 190 189 190 191 186 183 180 182 191 195 188 173 161 147 139 138 136 136 136 133 128 128 131 127 122 119 120 120 118 122 132 142 145 145 152 162 164 157 153 155 160 163 160 154 147 139 122 107 120 131 133 147 162 170 175 175 173 173 170 165 165 171 173 166 161 158 156 155 156 157 149 156 174 184 191 197 199 193 186 189 195 200 202 196 189 189 192 191 188 190 186 175 173 170 168 170 171 173 175 173 170 170 181 195 197 189 187 191 194 194 196 200 199 195 194 196 197 196 198 198 194 193 198 202 200 190 191 198 203 204 200 193 181 169 163 166 172 177 175 170 173 177 179 184 184 175 165 162 163 166 170 175 177 176 175 168 162 159 152 146 145 147 152 155 158 164 189 206 203 196 192 186 180 177 168 154 143 142 146 156 167 175 182 188 192 196 200 203 205 205 202 198 199 200 195 190 193 200 200 199 201 203 205 204 205 207 210 211 213 215 215 214 216 218 213 204 196 193 193 194 196 194 192 192 196 203 202 195 194 190 184 178 174 172 175 177 176 174 174 169 161 163 169 175 177 171 165 167 174 171 164 168 175 176 178 180 181 180 180 183 186 186 183 180 180 183 189 193 193 194 197 196 195 192 191 195 199 198 194 189 185 179 171 173 173 170 171 170 179 195 196 192 192 191 189 189 190 192 194 197 199 197 194 193 189 186 185 185 185 184 186 189 188 184 182 183 -9999 
-9999 199 199 196 193 193 196 196 190 185 185 188 189 190 190 188 185 181 180 180 177 174 174 174 170 164 157 152 153 158 160 157 155 159 163 168 169 167 170 172 169 162 154 152 156 160 160 160 164 165 163 160 152 152 165 177 177 183 189 185 178 163 153 148 149 159 166 169 171 173 172 171 172 173 178 179 180 184 188 190 190 190 191 186 177 174 172 175 180 181 174 164 156 147 141 140 141 142 141 139 136 132 126 121 126 129 131 131 127 129 136 144 151 156 164 171 166 159 161 168 170 165 162 160 149 131 116 114 131 145 150 160 166 171 178 177 174 175 176 171 167 168 167 163 159 156 154 156 159 157 150 160 175 179 185 191 191 186 185 190 192 192 191 185 183 187 188 187 186 185 172 163 170 171 169 166 161 166 175 179 176 175 180 181 176 177 188 197 201 199 196 197 195 194 196 198 197 194 192 188 184 186 193 205 211 199 185 180 185 194 198 194 186 180 183 187 187 187 183 177 176 174 172 171 167 160 156 157 160 163 165 170 175 175 173 167 158 152 143 140 144 149 153 151 142 143 177 199 198 192 187 188 192 188 173 156 147 149 156 166 174 179 186 193 199 202 204 204 204 203 199 196 196 196 199 206 212 211 207 209 211 212 212 210 209 208 209 212 212 211 211 216 218 216 209 198 191 191 194 196 195 191 190 191 196 197 192 185 181 189 199 198 189 184 181 177 175 178 177 166 152 150 160 171 172 164 158 159 162 161 164 168 170 174 180 183 180 177 178 181 183 184 183 183 183 186 194 201 202 200 195 189 189 193 195 198 198 196 194 192 192 189 184 187 191 197 202 198 195 197 193 190 194 195 193 193 195 196 196 197 196 194 191 189 186 186 187 188 189 188 191 194 189 183 182 183 -9999 
-9999 193 191 190 191 194 197 194 186 180 183 187 186 185 185 183 181 180 182 182 175 172 172 171 170 167 163 161 165 168 167 170 172 172 172 172 172 172 171 164 153 149 149 151 157 161 160 159 161 162 162 157 147 153 165 163 154 171 189 188 188 188 170 149 143 154 165 171 172 170 167 170 179 187 189 188 184 181 183 187 190 192 191 182 175 180 180 177 170 160 151 146 145 144 144 148 153 153 150 146 140 133 127 123 126 132 144 151 143 139 140 147 154 160 166 168 161 161 169 170 165 159 155 147 130 113 105 109 124 135 142 159 174 182 181 177 176 178 180 175 165 162 164 166 160 156 158 163 164 159 153 157 166 168 172 177 182 189 195 199 199 194 189 185 185 183 179 178 178 173 162 159 167 168 170 166 162 164 167 173 177 176 174 167 164 173 190 200 204 201 193 190 192 194 197 198 198 198 194 189 190 190 193 200 202 197 190 182 179 178 180 184 183 175 179 193 198 196 196 193 186 178 172 166 161 160 161 164 165 162 159 163 166 163 161 154 143 140 139 142 148 153 151 138 122 129 170 192 194 191 188 191 194 188 176 164 160 164 170 177 181 185 191 200 205 207 206 202 199 197 195 197 200 202 205 210 214 211 205 206 210 213 215 213 211 208 208 207 207 207 206 211 210 203 194 182 175 182 189 193 192 186 185 185 186 186 186 183 179 180 182 187 191 192 187 177 171 170 167 166 165 160 159 161 160 156 154 152 149 154 161 161 161 170 176 175 177 183 186 185 184 186 187 188 189 190 194 198 197 194 187 180 185 195 200 198 193 194 197 199 200 197 195 198 202 205 208 208 202 192 191 197 201 200 198 197 200 201 199 197 194 192 190 188 186 186 189 193 193 193 196 196 187 182 183 184 -9999 
-9999 184 183 186 192 193 189 183 178 186 194 191 182 178 177 177 177 179 183 184 181 182 182 177 175 173 170 169 170 170 171 174 171 168 171 170 168 168 164 156 150 152 152 147 147 147 147 150 156 160 158 149 144 156 159 149 150 175 193 192 190 192 182 169 167 168 168 172 177 177 176 178 185 193 199 201 198 191 186 186 189 191 187 181 187 195 191 184 176 160 146 140 139 141 147 153 158 157 153 145 131 120 118 123 132 143 154 153 146 143 146 153 157 162 164 162 161 167 170 162 157 153 146 131 117 110 107 111 120 122 132 164 184 186 181 178 179 180 180 174 163 162 166 167 161 158 164 167 163 156 151 153 162 170 178 183 188 196 201 204 205 201 194 188 186 184 177 168 162 160 155 158 168 172 172 171 168 167 169 176 179 184 187 186 189 194 199 199 199 194 183 179 185 192 194 194 194 194 195 194 193 187 186 193 196 196 197 199 199 189 178 177 180 178 177 177 183 193 198 196 187 181 178 175 169 167 165 161 156 153 154 158 158 153 149 146 143 147 152 154 153 149 130 110 110 136 182 197 195 195 196 196 194 192 189 177 171 170 171 176 180 184 188 192 198 203 203 200 198 195 195 197 201 203 203 202 204 202 198 202 208 211 211 209 206 204 200 199 202 201 196 200 201 192 178 162 159 170 177 182 184 180 178 176 175 184 193 197 193 184 177 178 183 186 182 176 171 168 168 169 170 167 159 151 145 141 141 142 146 154 155 150 151 160 169 171 176 186 192 192 190 190 191 192 191 190 186 182 183 186 186 185 190 194 194 193 192 199 208 210 208 203 201 202 201 199 200 203 203 195 194 198 198 198 198 197 200 203 202 199 194 193 193 192 190 191 194 196 195 194 195 194 185 184 189 187 -9999 
-9999 190 191 192 191 188 183 178 180 191 193 181 173 173 173 176 180 184 187 186 185 187 186 181 177 176 174 171 171 172 174 169 160 162 168 167 163 157 152 152 155 161 154 149 154 154 153 155 158 157 152 148 154 167 164 154 158 172 181 188 190 190 192 195 189 179 169 167 172 178 183 185 186 187 191 197 199 199 196 192 189 185 181 183 189 189 181 174 169 161 152 148 147 148 150 154 157 156 150 139 124 115 115 123 138 153 155 148 146 148 154 164 171 175 174 171 173 176 168 157 153 150 138 126 123 125 117 118 119 116 133 166 179 174 176 181 182 182 181 172 162 161 163 163 160 157 160 162 160 154 151 154 164 180 194 199 197 195 197 200 201 196 189 184 181 180 172 158 156 160 158 162 170 173 174 175 178 180 183 186 186 191 192 190 193 196 194 189 190 192 187 182 185 190 192 192 190 189 190 193 193 190 183 181 183 184 185 189 195 196 189 180 176 182 181 166 165 177 182 178 175 174 173 170 167 164 161 153 148 152 156 158 155 150 150 150 151 156 162 162 153 136 108 96 113 149 191 199 193 195 199 199 197 195 188 173 166 165 170 179 183 186 185 186 191 198 201 200 199 197 195 196 197 199 203 206 206 198 195 202 207 209 208 203 198 196 194 195 197 191 184 189 189 183 172 161 162 170 174 175 175 170 163 161 164 175 183 189 189 190 194 197 195 191 186 180 176 170 166 161 157 158 155 147 138 137 144 149 151 151 153 155 154 154 161 171 178 182 189 193 189 186 185 186 187 185 182 181 183 185 188 190 190 187 187 189 197 210 218 215 210 206 203 202 200 197 197 202 204 200 195 192 190 191 192 193 198 202 202 196 192 193 196 196 195 196 197 197 195 195 193 188 182 184 190 188 -9999 
-9999 193 193 190 185 184 185 186 187 187 177 169 171 176 179 181 182 184 184 182 184 186 184 181 179 179 177 174 173 173 171 162 158 166 168 161 156 152 148 146 149 153 148 152 161 163 162 157 154 154 155 158 167 174 168 159 157 159 165 178 186 190 194 201 190 175 166 164 168 176 183 186 184 180 181 188 195 198 198 196 190 181 174 174 175 173 170 167 167 164 157 154 154 156 159 160 158 152 145 135 124 122 127 133 141 149 150 151 154 157 164 177 188 189 182 176 174 170 158 149 146 141 133 129 133 135 118 115 111 106 130 160 181 186 188 190 188 186 183 172 162 161 162 159 153 150 151 159 162 155 152 156 167 187 203 208 205 201 198 196 191 184 181 179 175 171 165 163 170 171 166 168 168 162 163 168 175 177 178 181 186 188 186 191 199 201 197 188 185 196 205 201 196 196 197 194 188 188 191 195 197 196 188 176 168 171 180 182 181 187 192 191 184 177 168 159 157 161 165 168 170 167 164 162 161 161 157 147 146 153 155 156 155 154 154 155 154 155 161 160 144 123 108 111 131 164 190 194 192 193 195 196 192 182 168 158 159 166 177 186 191 197 198 200 201 201 202 204 207 206 202 199 198 199 203 207 206 197 199 206 208 210 207 198 192 189 188 188 184 179 177 179 180 178 172 169 172 177 178 175 170 163 152 152 163 178 179 173 176 188 196 196 191 185 179 174 173 171 167 162 160 158 155 148 139 144 156 161 159 154 150 154 160 160 156 159 166 173 179 183 182 178 173 173 178 185 189 189 187 187 191 193 191 188 188 193 203 214 216 211 208 205 202 200 198 196 198 204 205 201 198 199 195 191 190 192 196 199 196 189 186 191 196 196 196 197 196 195 195 193 188 182 179 181 186 185 -9999 
-9999 190 185 181 179 182 186 189 192 187 177 174 180 184 186 185 181 177 176 176 178 179 180 182 183 183 179 176 174 170 165 159 161 168 163 155 155 153 148 142 142 146 148 152 156 157 158 156 153 156 162 167 170 170 164 158 158 165 170 171 176 187 191 195 189 171 161 162 168 176 183 186 184 182 184 188 190 190 190 189 184 173 164 161 160 160 161 163 164 164 164 164 164 164 164 164 160 153 146 139 134 136 139 144 153 156 153 153 158 161 168 181 187 183 174 167 162 157 149 142 138 135 135 135 136 131 112 103 97 97 121 156 182 191 191 189 189 187 180 166 159 161 157 150 144 144 148 156 155 146 146 154 167 188 203 207 207 208 206 196 183 177 178 174 167 165 165 167 172 169 165 166 165 161 163 170 174 169 170 176 181 185 192 202 207 207 204 196 192 198 211 213 207 204 200 194 190 192 195 197 198 199 193 181 175 180 189 188 180 177 183 187 184 179 174 173 173 167 165 168 167 160 154 152 155 158 154 145 145 148 148 150 153 155 156 156 155 159 162 151 129 113 112 118 135 166 184 189 191 190 190 189 183 172 160 156 162 173 183 188 194 202 208 211 210 205 202 203 208 211 210 208 205 203 203 201 196 194 203 207 207 208 204 193 188 187 185 181 176 175 172 171 174 175 174 175 178 180 175 168 164 158 152 158 175 188 186 177 177 181 183 180 178 176 173 171 171 169 162 153 156 161 156 144 138 147 153 157 160 152 140 138 145 154 157 156 158 161 163 166 169 171 174 174 178 186 193 193 190 189 187 187 189 190 191 193 199 205 208 208 206 203 200 199 197 197 199 204 207 206 206 207 203 197 193 193 194 195 191 186 186 191 191 190 192 195 192 192 194 190 183 179 179 181 184 182 -9999 
-9999 186 182 182 185 188 188 188 189 187 183 187 190 190 187 183 176 173 173 175 175 173 176 182 185 182 175 172 172 170 167 167 169 167 160 156 154 150 143 136 138 146 151 155 158 158 159 160 158 159 165 166 164 163 162 162 167 174 173 168 174 186 190 192 191 175 163 165 172 179 183 183 183 187 191 192 189 185 182 178 169 161 158 158 157 157 157 157 157 161 169 176 175 169 164 163 163 161 154 149 150 150 150 152 156 155 153 157 163 165 169 176 176 171 163 158 154 150 141 132 130 134 139 140 138 127 107 94 92 97 113 147 166 171 177 182 185 180 165 148 145 145 142 140 141 145 147 146 138 133 139 147 160 182 198 203 205 208 206 199 188 182 178 169 160 159 157 155 157 158 159 160 162 166 172 176 176 174 185 192 191 191 196 200 199 200 203 205 204 202 206 209 206 202 197 196 200 201 198 199 203 207 205 199 197 193 196 200 189 173 169 172 176 182 189 194 194 187 179 175 167 155 147 150 155 156 151 145 146 149 151 152 154 155 155 156 157 160 154 135 118 112 115 122 136 159 177 187 190 188 188 187 181 171 166 167 172 184 193 197 201 204 207 209 209 205 202 200 199 200 205 208 208 207 205 202 196 197 203 204 203 203 196 186 184 186 183 178 174 172 167 168 174 177 179 181 180 174 166 161 157 152 150 159 172 178 180 186 187 179 172 171 173 174 176 182 181 173 159 149 152 155 154 148 149 154 155 153 150 141 133 131 132 137 146 153 156 153 149 147 152 162 173 178 180 186 189 188 191 189 183 182 186 190 191 191 189 191 200 208 207 203 201 199 198 198 199 202 205 205 206 207 208 203 199 199 199 197 195 194 195 195 191 189 191 192 189 190 192 187 180 178 179 181 182 177 -9999 
-9999 184 180 182 186 187 185 184 183 181 184 193 193 187 180 172 168 171 175 176 175 173 175 178 179 176 171 170 170 169 168 170 169 161 158 156 146 141 137 134 142 153 154 153 157 158 159 160 157 157 161 161 160 161 162 166 173 170 163 171 185 191 193 195 192 184 175 170 172 180 185 186 189 194 194 190 187 184 179 171 163 161 163 163 160 158 157 157 156 157 163 174 174 169 167 167 169 165 158 160 163 158 157 162 165 162 163 169 174 172 173 175 172 165 157 154 149 140 124 116 123 133 138 140 138 120 100 92 92 95 108 147 173 181 187 188 185 176 156 141 139 138 138 137 138 139 136 131 124 130 140 141 150 173 190 195 195 196 196 195 193 186 175 165 163 164 157 149 149 152 158 161 163 166 169 171 173 179 193 198 198 196 193 191 194 199 203 205 206 202 198 197 197 197 198 203 206 204 201 203 207 210 212 212 209 198 191 195 190 176 169 170 176 184 193 198 196 190 181 170 160 152 153 157 154 147 141 139 143 150 157 160 161 160 159 159 156 149 138 127 121 119 121 128 138 152 178 190 193 191 193 191 185 178 176 178 186 198 206 209 211 210 205 203 205 208 211 210 205 202 202 206 209 209 208 206 204 206 207 205 204 202 192 182 182 182 178 174 171 167 165 170 177 181 184 184 181 171 165 160 151 145 141 144 151 157 171 184 188 185 177 175 176 176 180 184 182 178 170 166 156 147 152 164 174 174 167 157 145 136 135 140 141 141 140 142 144 143 140 140 142 148 159 169 177 181 174 169 179 184 185 187 188 188 189 192 191 192 196 203 204 202 201 200 199 199 199 203 205 204 209 212 213 207 204 207 206 203 203 202 201 199 195 195 195 192 189 190 190 184 179 178 178 179 178 175 -9999 
-9999 184 179 179 181 182 181 181 180 178 180 183 179 174 168 163 169 180 183 180 177 177 180 180 179 180 181 182 177 171 167 165 159 152 152 149 140 142 143 145 157 161 154 146 147 151 154 155 152 153 157 158 160 162 161 162 161 156 157 169 179 182 186 192 192 191 185 173 169 176 184 191 197 199 195 190 183 177 173 168 165 168 173 172 166 160 158 161 162 159 162 168 167 166 172 177 174 162 157 163 163 156 157 168 175 175 178 181 179 175 173 174 169 163 160 155 146 130 111 111 124 130 128 126 120 101 86 83 82 85 105 151 183 189 186 181 173 160 144 141 146 147 146 137 132 128 121 114 112 125 137 138 150 175 191 195 194 193 192 189 184 173 167 166 169 172 167 161 160 159 160 164 167 166 165 168 172 178 184 187 186 186 187 189 198 205 209 208 204 199 198 200 202 201 203 206 208 210 211 207 201 201 211 217 214 205 194 188 187 188 186 182 181 182 185 187 187 184 173 161 156 155 160 160 151 142 139 141 145 151 159 165 163 161 162 160 149 137 133 132 131 126 124 128 131 145 181 195 197 196 197 195 190 185 184 187 196 204 208 210 212 210 205 204 206 210 213 212 213 214 212 210 210 211 211 210 209 211 211 209 206 200 190 181 181 177 170 169 169 169 171 178 181 182 183 183 177 169 162 154 143 139 137 141 147 155 169 177 179 179 176 174 173 176 178 168 158 161 168 172 167 163 163 166 172 173 169 159 147 141 142 149 155 153 143 135 133 134 139 141 139 142 150 158 167 168 158 162 174 180 183 186 185 183 186 194 200 202 198 197 201 203 203 201 199 197 197 201 201 201 215 222 218 206 202 207 208 206 205 203 201 197 195 197 197 195 192 191 188 181 178 179 180 179 177 178 -9999 
-9999 183 183 186 188 185 184 186 184 181 178 171 165 166 167 173 185 190 187 181 179 183 188 187 188 193 198 197 188 179 170 161 154 147 141 139 141 151 157 164 171 167 154 145 148 151 147 149 151 155 159 158 158 161 163 161 152 151 161 165 162 163 173 183 193 194 189 185 177 172 176 185 192 192 191 188 179 171 170 170 170 171 173 175 173 171 170 170 167 165 170 171 166 167 176 183 177 165 162 165 160 154 157 170 173 176 183 182 176 172 171 170 164 161 158 155 151 126 105 115 127 128 121 108 94 80 72 73 75 85 115 158 179 177 173 168 156 141 132 138 143 143 143 131 124 118 111 104 104 119 130 136 154 181 197 205 208 205 198 188 176 165 165 166 166 165 159 158 160 159 155 154 155 155 161 170 173 175 178 181 181 183 189 195 200 202 202 201 199 198 205 211 207 203 205 205 206 210 213 209 199 193 200 210 213 209 201 193 192 198 201 195 185 179 173 167 167 166 160 156 154 155 159 161 155 148 145 146 147 150 158 158 151 150 153 147 134 129 134 139 137 131 126 124 126 148 185 197 196 196 198 198 193 186 186 192 199 203 203 205 207 208 207 205 204 204 202 201 207 213 212 210 209 211 212 210 211 212 213 208 201 193 184 177 175 172 171 170 173 176 178 185 186 184 183 178 171 164 151 140 138 142 146 153 159 166 172 169 166 166 165 160 159 165 167 159 154 157 165 169 173 177 170 159 154 152 149 145 148 149 147 154 158 156 150 144 142 145 150 151 153 156 155 159 164 165 166 176 181 178 174 178 183 184 185 189 194 199 199 196 199 204 204 202 198 195 194 193 189 197 218 225 216 202 201 204 204 200 200 201 198 194 193 195 196 195 195 192 184 178 179 183 184 181 182 185 -9999 
-9999 178 182 185 187 187 188 186 179 175 174 172 175 178 181 186 188 183 180 180 183 188 190 190 192 198 198 193 184 176 165 156 150 143 136 140 149 154 158 165 166 160 155 156 165 163 155 158 164 166 163 159 155 154 154 152 152 156 162 162 156 155 162 178 196 198 191 194 189 171 168 176 180 179 181 181 176 172 173 174 172 170 168 167 169 175 177 175 173 174 176 172 167 169 175 173 164 160 162 162 157 157 163 167 166 170 177 176 173 172 172 167 159 160 157 159 155 126 115 129 137 132 121 101 81 73 72 72 78 94 129 165 178 174 169 162 147 137 136 143 142 141 139 124 120 117 111 103 104 119 129 133 152 183 204 214 215 210 201 190 175 163 156 151 148 144 138 137 138 139 140 140 143 147 159 168 170 173 178 182 185 190 195 194 189 184 184 188 193 198 202 206 204 200 199 199 202 203 205 210 211 204 198 200 208 210 207 201 196 197 198 194 188 181 169 158 151 149 152 155 154 153 154 150 143 139 140 144 145 147 149 144 138 139 140 132 124 130 140 145 144 135 123 114 122 155 186 194 192 195 199 196 190 187 191 196 200 202 203 204 205 209 212 212 210 208 206 206 208 209 209 208 208 207 207 207 209 211 210 200 189 184 178 172 171 173 176 178 180 180 182 184 180 181 181 172 163 157 145 140 150 156 155 155 160 167 170 170 167 160 158 160 161 158 159 166 171 171 170 172 175 168 151 145 146 147 148 152 156 151 151 158 157 154 156 153 151 154 156 156 160 160 159 160 157 157 163 173 177 170 170 184 190 189 191 192 193 196 199 199 200 202 199 198 196 193 192 189 185 197 215 218 208 203 203 204 201 197 197 197 193 191 191 194 194 195 196 191 182 180 185 188 187 184 186 187 -9999 
-9999 182 179 179 183 186 185 178 171 172 175 182 192 192 186 182 179 181 183 185 189 191 188 186 188 190 188 183 176 166 157 153 149 145 146 155 159 156 155 158 157 156 159 167 174 175 174 180 182 175 168 167 166 167 168 171 178 182 181 175 169 170 170 174 189 200 196 194 196 183 169 165 165 168 175 179 178 178 178 176 171 167 163 157 159 164 167 172 175 174 172 167 165 166 164 159 156 153 149 149 150 152 155 156 158 165 173 175 173 174 174 168 162 163 159 155 142 123 124 140 150 144 125 98 80 82 83 78 83 105 143 170 176 175 169 156 143 139 141 145 141 136 127 116 118 118 114 106 107 122 130 135 160 191 208 212 210 208 199 181 163 150 141 131 122 118 118 124 126 131 145 153 150 153 165 170 169 173 180 184 185 191 195 190 181 178 184 191 198 199 193 192 200 203 201 205 211 212 210 213 218 214 208 209 215 212 205 200 196 194 190 187 187 180 168 163 157 151 152 154 150 145 137 128 124 127 134 141 141 142 142 136 133 136 136 132 134 143 150 154 147 134 116 101 117 158 182 189 191 194 194 189 188 192 196 196 198 203 207 210 214 218 218 218 218 217 217 216 215 212 210 210 211 209 205 202 202 203 198 186 181 181 177 173 175 178 180 180 175 174 175 170 168 173 172 168 166 161 149 148 159 157 147 145 154 161 168 179 181 173 170 175 177 173 170 169 174 177 170 165 168 168 161 156 152 152 161 173 176 172 174 176 172 166 162 158 153 149 148 152 158 160 164 164 158 156 162 171 177 180 188 194 192 192 193 190 186 189 198 204 203 197 192 193 193 189 189 188 189 203 214 211 206 205 203 201 200 197 195 193 191 190 192 196 196 197 196 190 184 186 191 190 185 183 184 182 -9999 
-9999 183 181 183 186 185 180 175 175 180 184 187 188 183 178 179 181 185 185 184 190 194 193 190 188 184 180 176 168 159 156 158 157 155 156 161 161 160 159 160 162 165 171 176 176 174 177 183 181 175 175 180 186 188 185 185 189 190 188 183 179 178 173 171 178 192 196 194 197 195 171 152 152 162 173 182 190 196 194 183 172 167 165 163 164 166 168 171 172 168 164 163 166 167 164 165 163 148 140 145 149 151 156 161 165 173 178 176 174 175 171 161 155 155 151 145 138 121 119 137 152 151 127 101 91 97 93 87 98 126 151 155 153 155 148 139 137 139 140 136 125 115 110 110 117 118 108 98 103 121 132 145 175 198 207 208 203 193 177 158 144 137 132 121 109 106 112 123 132 142 152 156 158 167 174 172 170 173 178 178 180 185 190 191 191 188 187 194 202 203 199 197 202 209 211 210 211 212 209 207 209 211 214 213 209 202 198 197 198 198 194 185 175 166 162 161 156 146 142 142 142 146 143 138 139 143 147 147 142 142 142 138 139 143 146 145 148 154 158 159 150 137 121 102 126 164 175 180 185 185 180 180 189 198 202 201 207 212 213 215 219 221 220 219 219 219 219 218 218 217 214 213 215 217 211 202 199 197 194 186 183 184 181 182 187 187 184 178 169 170 171 166 169 173 170 172 175 167 154 149 151 144 137 140 154 162 170 181 181 178 175 170 171 172 167 167 175 179 174 161 153 164 179 178 167 161 162 165 168 174 181 181 173 163 156 154 156 153 149 152 155 151 154 164 166 169 173 176 177 184 191 187 185 191 192 186 183 186 192 197 194 185 184 187 188 187 188 188 193 207 215 209 203 199 196 197 197 194 194 195 195 193 195 199 199 197 195 190 188 190 190 187 183 181 180 180 -9999 
-9999 176 181 185 184 177 173 174 178 183 183 181 180 179 177 179 185 186 180 179 187 193 194 195 194 189 183 176 167 160 161 165 164 159 158 159 158 161 164 166 171 174 176 177 175 175 178 179 176 174 178 186 195 194 182 173 171 172 172 172 169 164 165 177 185 186 189 194 194 191 177 159 155 163 173 184 192 198 196 185 175 170 174 178 181 180 174 170 169 166 164 165 170 171 172 175 167 147 147 158 158 161 169 169 170 177 179 177 174 171 161 148 143 145 142 139 134 120 127 145 149 140 116 99 96 101 102 99 113 138 149 144 144 147 141 138 139 139 136 128 115 106 105 108 107 96 80 80 98 120 136 158 187 202 207 205 191 173 158 145 136 132 128 122 126 132 129 124 126 134 136 134 144 158 159 158 165 170 170 169 170 174 178 187 195 194 188 189 193 196 199 202 205 210 211 207 205 206 206 203 203 208 208 201 194 192 193 190 191 193 191 181 167 159 160 157 148 143 143 142 145 157 161 160 161 161 159 153 149 150 148 147 150 153 150 145 146 152 156 157 149 136 122 105 131 168 174 176 179 176 173 177 185 193 199 204 215 217 215 216 218 218 218 219 220 220 217 216 217 218 218 214 212 212 212 209 206 201 197 188 183 184 183 186 188 184 178 171 169 177 180 177 178 176 172 172 170 160 156 151 145 141 137 143 154 162 169 174 173 171 167 162 166 171 175 180 181 180 179 173 165 163 166 171 171 167 163 157 155 160 171 176 167 157 149 147 152 154 153 155 150 140 144 152 157 165 168 165 163 166 172 178 182 188 193 196 199 197 189 183 178 174 177 183 189 190 190 188 192 202 206 200 192 189 190 194 195 194 195 198 197 193 195 198 197 193 193 191 191 190 187 184 184 184 184 185 -9999 
-9999 179 183 183 177 171 171 175 179 181 177 176 183 185 179 181 186 186 181 183 189 190 188 189 193 196 193 183 171 164 165 166 160 156 156 158 162 170 176 180 182 181 179 178 179 182 182 178 175 178 185 188 190 186 182 185 185 181 176 169 158 157 167 178 183 182 189 199 196 191 190 183 174 174 178 183 184 183 180 178 176 175 178 178 179 180 175 170 167 165 164 166 169 169 171 171 163 152 157 164 160 162 165 162 166 174 179 178 172 169 158 147 147 148 142 132 122 122 135 141 132 117 102 91 90 101 113 117 132 147 149 150 156 160 158 155 148 138 131 121 112 107 108 109 101 86 81 91 105 119 138 170 197 205 201 191 179 167 154 143 137 136 135 140 156 157 135 116 109 111 115 122 131 136 138 151 164 168 169 170 171 178 185 187 191 196 195 189 187 191 190 190 198 206 210 210 208 209 207 205 203 203 202 200 200 196 190 187 187 186 182 178 176 174 167 158 153 155 160 157 154 157 159 163 164 162 158 150 148 146 146 150 151 148 143 135 134 140 146 147 137 118 101 96 128 172 185 187 183 178 178 181 186 193 196 201 208 211 215 219 219 217 216 218 224 226 224 223 222 220 218 216 211 207 207 210 209 204 196 186 183 186 189 189 183 176 168 164 171 180 181 177 178 177 175 170 164 158 156 148 142 143 141 148 157 163 167 167 166 167 167 169 172 175 181 184 184 182 178 177 177 168 159 160 164 164 162 161 158 157 162 165 163 159 155 155 153 148 149 151 151 158 159 147 145 157 163 159 158 162 169 176 180 185 191 193 196 195 189 178 170 174 183 190 195 195 193 190 191 197 199 196 193 193 194 195 196 195 195 196 193 189 194 197 193 189 191 193 192 188 183 183 187 190 189 189 -9999 
-9999 188 185 180 175 174 177 182 184 183 180 183 187 184 181 188 190 185 180 185 188 185 183 184 190 193 188 179 172 167 165 161 156 155 158 166 177 186 188 187 185 183 182 184 184 181 179 177 178 185 191 190 185 181 186 194 196 191 189 182 171 173 175 170 169 177 187 194 196 193 193 200 189 180 177 180 184 182 176 176 180 182 183 179 175 175 174 173 171 165 159 162 166 168 169 164 156 153 158 163 162 162 165 167 173 178 179 174 172 172 161 154 158 154 146 134 128 130 128 125 116 109 105 93 92 112 131 139 150 149 138 140 148 156 159 157 149 136 124 116 111 114 117 115 108 101 104 107 107 118 145 180 198 196 186 177 170 157 143 137 133 131 134 145 156 143 115 105 105 105 111 125 134 133 136 146 152 156 163 172 181 189 191 185 186 192 199 201 198 199 198 194 195 201 210 216 213 206 204 206 205 202 200 200 198 194 191 191 189 183 178 178 185 184 169 159 159 165 169 166 157 149 145 147 149 151 148 143 139 134 135 135 130 134 139 136 130 131 138 142 135 110 88 92 128 167 185 190 188 185 187 192 199 207 212 212 214 218 224 227 224 221 219 223 227 226 225 225 222 218 216 214 213 211 208 208 207 204 197 188 185 188 191 189 182 178 174 175 180 179 174 171 173 172 170 168 169 166 158 146 141 143 146 154 160 162 165 169 171 170 172 177 174 168 170 176 178 177 177 179 179 174 165 158 157 161 164 162 156 151 149 149 150 149 152 156 153 148 151 153 159 169 167 155 149 151 152 152 162 172 174 173 177 184 187 188 190 192 189 181 177 180 184 190 194 195 196 193 191 194 196 202 205 202 198 198 198 197 196 195 192 191 196 196 190 188 192 194 190 183 180 183 189 190 188 189 -9999 
-9999 190 185 181 182 184 189 191 189 185 186 190 191 187 186 192 193 187 184 187 186 183 183 185 189 189 182 176 173 168 163 160 158 160 167 175 183 188 185 181 178 176 179 183 180 177 179 181 186 192 193 189 187 191 192 187 186 191 199 200 198 197 186 178 177 174 171 176 190 196 195 201 196 175 168 173 182 184 180 180 184 184 185 184 180 177 173 174 174 166 161 164 169 171 169 164 160 160 162 168 169 170 173 176 177 178 177 176 177 171 158 156 159 152 145 135 130 126 121 121 116 115 115 101 105 132 148 148 143 133 129 138 145 152 154 150 141 131 125 122 118 120 118 114 114 106 104 106 108 122 153 181 189 185 180 176 164 147 138 136 130 125 126 131 133 121 102 105 111 115 125 133 135 135 138 141 143 148 158 168 180 183 180 181 186 193 201 207 205 202 205 204 197 192 197 205 207 205 205 207 206 203 198 192 190 189 188 186 181 176 176 180 180 167 155 156 159 163 162 156 149 144 139 133 132 137 138 138 137 135 131 120 121 132 133 132 130 135 145 152 144 118 94 100 131 157 173 184 193 196 198 203 213 221 224 224 227 230 232 231 228 226 225 226 224 217 215 216 214 213 214 214 215 214 211 209 207 203 195 188 187 189 187 182 179 180 181 182 180 174 170 170 173 171 169 172 176 173 160 149 145 146 150 158 162 164 172 185 189 184 179 177 175 173 174 177 177 175 177 179 177 175 170 160 157 163 167 166 162 156 153 154 153 146 147 150 150 156 168 173 167 156 154 163 166 158 148 149 162 171 174 177 184 188 189 191 194 194 193 191 189 181 179 183 185 189 194 193 187 185 197 213 217 207 200 200 201 199 197 196 195 196 196 191 186 188 191 189 181 175 176 181 185 186 184 185 -9999 
-9999 186 182 185 190 192 192 191 186 184 186 187 187 185 184 187 188 187 188 191 188 185 186 188 192 190 182 177 174 168 165 164 163 167 172 175 179 183 178 171 170 172 177 180 176 176 180 183 190 193 191 189 191 197 193 187 190 195 192 191 197 200 193 192 187 171 164 173 187 197 196 198 200 184 172 169 172 179 182 184 183 181 183 181 176 174 169 168 172 170 170 174 175 173 169 163 162 165 167 171 175 177 178 179 180 181 180 180 177 164 151 153 153 144 137 133 126 122 125 127 122 121 118 107 114 139 149 143 134 126 132 147 153 156 154 147 138 134 133 132 128 123 115 116 116 104 106 114 112 124 160 180 186 186 188 186 172 157 154 151 140 133 136 137 133 120 102 110 127 141 142 136 135 139 144 145 147 152 161 169 175 177 177 181 184 187 191 195 198 199 201 203 202 198 193 192 198 205 207 206 205 203 198 189 185 181 179 176 173 171 172 173 165 148 140 149 156 155 149 144 144 148 146 141 139 139 139 142 143 143 134 123 127 128 121 123 131 147 162 163 151 125 100 108 141 160 175 191 206 213 211 210 218 227 230 228 230 231 230 227 226 226 225 226 223 218 216 214 212 215 217 216 216 214 211 207 203 198 192 191 191 186 179 177 178 178 176 174 169 167 169 174 178 177 176 176 175 169 157 149 148 150 155 160 163 169 180 195 198 192 184 177 174 175 178 184 185 179 176 174 168 161 158 158 165 171 171 168 164 159 155 154 153 147 148 149 153 165 172 169 150 138 139 148 163 172 171 169 165 164 171 182 189 190 188 190 190 192 196 196 189 183 188 190 187 188 193 193 184 184 206 219 217 203 201 203 203 201 199 198 198 197 193 187 186 189 187 180 174 174 179 181 183 183 183 184 -9999 
-9999 177 175 179 183 182 179 180 181 185 187 184 180 177 177 181 183 184 188 191 189 188 188 189 188 183 178 177 176 173 170 168 170 174 175 175 182 188 179 167 170 173 175 178 176 178 181 184 188 190 189 192 198 200 196 196 199 196 186 182 186 191 193 193 188 183 186 189 191 195 197 198 198 197 185 172 169 175 181 182 178 174 174 174 172 168 161 163 168 170 174 177 173 170 167 162 164 168 170 175 180 181 182 183 182 180 178 176 169 155 146 150 147 140 139 138 129 126 132 131 129 127 121 115 119 134 143 139 130 125 131 144 152 154 154 154 152 149 146 139 133 125 123 125 117 107 112 114 106 129 180 192 194 195 195 190 178 169 168 165 154 151 155 151 144 129 115 126 151 166 156 142 141 147 153 153 154 160 167 173 179 181 183 188 192 188 181 183 192 196 197 204 210 210 203 197 199 207 211 209 203 199 196 192 186 177 172 168 166 166 164 159 151 141 142 154 159 154 148 146 148 152 152 150 148 145 145 146 143 135 123 117 121 117 114 124 136 152 162 157 138 113 89 101 140 169 190 204 213 221 221 219 222 229 230 226 226 225 223 223 225 226 223 222 223 223 220 215 215 219 220 218 216 212 208 202 196 190 188 190 188 181 178 178 178 175 171 167 163 164 166 170 172 169 166 165 164 159 151 148 147 151 158 158 162 169 177 189 193 190 185 180 176 177 181 185 182 174 174 172 166 160 157 163 170 172 170 167 164 161 159 157 154 155 163 161 155 155 152 140 124 132 141 144 154 166 176 177 170 167 174 184 186 182 183 186 189 196 204 199 192 195 201 198 192 189 190 191 185 189 210 216 207 197 201 203 203 201 199 199 198 196 191 188 190 189 184 180 179 182 186 186 183 184 186 186 -9999 
-9999 175 176 175 171 165 165 171 177 181 182 179 175 175 181 185 187 191 198 197 192 190 188 185 180 174 174 180 183 182 179 175 177 179 177 179 186 188 175 165 171 174 173 173 173 175 178 181 184 184 183 190 198 198 195 196 201 202 199 195 189 184 184 186 186 192 193 183 180 189 198 200 197 198 193 177 169 172 176 176 171 167 168 171 172 168 167 170 169 167 172 173 170 170 168 168 173 176 180 185 184 178 180 181 179 179 178 171 161 151 146 145 143 142 143 143 134 131 134 133 136 131 123 123 128 135 143 139 130 125 127 138 147 148 152 161 166 162 152 140 131 128 130 128 117 111 113 110 106 150 195 197 192 188 185 179 169 162 158 152 147 153 157 151 147 139 134 143 158 162 159 162 162 162 165 169 176 179 179 182 185 188 193 201 204 200 194 192 194 196 197 200 206 207 207 205 202 201 205 205 199 191 188 188 182 175 170 164 160 158 154 146 139 138 147 156 153 147 148 152 154 154 153 153 151 146 143 142 134 121 111 112 118 116 119 131 138 145 149 143 125 99 83 97 143 185 200 203 206 214 223 229 229 230 230 224 224 224 224 224 226 225 219 219 221 221 220 219 219 219 220 219 216 210 204 197 191 187 184 185 183 182 182 180 179 175 169 165 163 163 163 163 161 157 154 156 160 158 152 148 143 149 155 154 159 167 171 177 181 179 173 173 173 171 172 173 170 172 177 177 171 168 172 175 168 162 162 162 159 159 165 168 165 164 170 166 149 136 133 133 135 148 149 149 154 155 161 170 179 182 181 182 181 179 182 187 191 194 194 190 193 201 202 196 189 187 186 187 186 187 200 204 200 195 197 199 200 198 197 198 198 195 190 189 188 185 183 184 185 188 192 190 187 190 191 188 -9999 
-9999 181 182 178 172 169 174 178 177 174 173 172 174 180 186 190 194 198 197 190 186 185 181 182 185 186 187 189 186 182 179 175 178 181 175 174 177 176 163 159 169 174 172 168 165 167 171 174 180 182 184 192 197 193 190 191 195 197 196 195 190 185 186 185 182 182 176 167 166 170 180 191 196 197 194 178 159 155 161 168 169 170 175 176 174 173 177 176 170 166 167 167 169 171 173 178 186 190 190 185 179 176 176 176 180 185 179 170 164 155 148 146 147 146 146 148 140 136 139 139 140 132 126 129 130 133 141 144 139 132 131 140 147 150 156 161 160 150 137 129 130 135 134 125 117 114 117 119 128 172 193 187 179 170 162 157 152 147 138 128 129 144 152 150 149 151 149 152 162 166 173 185 188 183 182 187 194 195 193 193 196 198 200 204 203 203 207 207 205 205 204 203 204 203 204 204 200 194 191 194 192 183 176 176 175 172 169 166 161 154 147 138 132 132 138 141 140 144 153 159 158 156 153 152 150 145 144 143 134 121 115 115 121 126 126 127 129 132 140 147 136 109 92 107 162 200 204 202 204 210 219 228 230 229 228 224 228 230 229 226 221 215 212 215 218 216 218 219 218 218 218 214 207 200 196 193 190 187 184 180 177 178 179 178 176 170 165 163 163 165 165 164 162 159 156 158 164 162 152 144 142 150 154 154 159 165 168 169 170 168 165 173 180 180 175 171 171 175 179 180 176 174 179 176 164 156 156 152 151 158 170 174 167 163 163 155 141 138 138 136 145 158 157 157 157 153 156 165 179 186 184 178 176 180 182 185 190 189 184 185 194 201 198 191 188 187 187 187 188 184 189 194 193 192 193 194 196 194 194 196 196 192 189 187 181 180 185 188 187 189 192 192 191 193 191 187 -9999 
-9999 177 176 177 178 181 186 185 180 176 174 174 178 183 184 184 190 193 189 183 184 183 182 187 191 193 194 193 188 183 180 175 180 180 169 168 170 165 157 159 167 170 167 160 161 164 167 172 178 183 190 195 194 191 190 191 192 188 184 187 188 191 194 189 184 180 176 175 171 163 162 175 192 197 194 188 167 145 140 148 162 176 183 181 180 185 185 177 170 166 163 162 163 170 179 187 191 190 183 171 165 166 172 180 184 181 172 165 163 157 151 154 161 161 161 157 144 141 142 142 141 140 146 147 141 139 143 151 146 135 134 136 140 149 158 160 153 135 118 118 127 129 123 119 119 119 120 123 137 172 189 188 184 173 158 149 146 139 130 129 140 147 143 140 146 151 146 150 166 170 171 179 193 200 199 200 201 202 203 202 203 206 208 209 210 209 208 208 212 215 209 203 204 205 200 194 193 189 184 179 172 168 171 173 172 169 169 167 158 146 139 133 129 130 131 129 135 147 156 158 156 154 154 154 153 149 147 142 129 114 105 100 106 112 110 114 110 97 105 129 134 106 88 116 176 201 208 215 217 213 211 216 220 220 220 219 225 227 225 219 212 209 211 216 214 210 209 210 213 214 210 203 197 194 194 192 190 187 184 181 182 182 179 173 170 167 164 166 168 167 164 161 162 162 160 158 159 152 143 142 145 151 155 157 160 163 165 163 164 165 172 188 198 200 192 180 175 177 180 179 174 170 172 168 162 162 162 160 161 166 170 165 158 157 154 149 151 162 159 146 142 150 162 173 171 160 156 160 169 177 179 173 170 171 169 171 181 186 187 188 194 197 196 195 192 189 191 193 194 189 189 193 189 186 187 190 192 191 192 194 192 189 187 184 181 186 193 193 188 188 189 189 189 188 185 184 -9999 
-9999 172 169 174 181 187 189 186 182 180 179 180 182 186 185 183 185 188 189 191 193 193 195 195 191 187 185 185 187 190 187 180 181 175 165 166 165 161 160 161 165 165 155 151 160 168 175 182 185 186 188 188 190 193 195 199 201 198 194 192 190 191 190 188 186 183 182 182 179 172 167 172 186 198 196 196 193 164 137 134 148 163 169 169 175 180 174 166 165 166 164 160 159 169 180 186 186 181 173 164 164 168 177 183 180 171 164 160 153 146 149 159 168 170 165 151 139 141 144 147 150 154 160 151 142 145 146 150 140 128 126 120 127 148 161 161 149 125 115 124 128 124 122 125 128 129 124 123 141 172 194 204 205 193 173 164 159 150 142 143 152 151 139 138 141 134 123 122 129 137 154 173 191 204 208 208 207 209 211 206 204 210 215 218 220 217 212 207 208 212 209 201 200 203 196 185 179 178 176 171 165 162 162 164 168 171 170 161 149 137 125 119 121 130 137 139 139 135 135 140 146 151 151 150 146 142 140 134 120 107 101 100 103 100 95 100 94 82 91 105 111 96 91 132 180 194 202 209 209 205 202 203 206 207 208 212 219 218 212 207 205 207 210 213 212 208 204 206 210 209 200 191 189 191 194 194 192 192 192 191 192 190 180 169 166 164 164 166 164 160 158 158 163 165 161 156 153 145 143 147 149 152 156 162 164 164 162 162 168 176 183 192 198 198 191 181 176 177 179 175 169 165 167 167 171 174 169 167 167 170 167 159 157 158 158 154 155 158 154 151 150 150 153 159 161 162 165 166 167 169 170 171 173 173 172 175 178 181 185 189 191 192 195 195 193 196 200 204 204 199 192 191 187 184 186 191 193 192 190 188 186 184 181 180 184 192 195 190 183 183 185 186 184 181 180 183 -9999 
-9999 182 182 183 187 188 187 185 184 184 186 188 189 190 189 189 187 184 182 182 185 192 198 195 188 182 177 176 179 181 178 176 175 168 163 163 161 162 163 161 164 162 152 154 163 173 182 188 190 194 195 194 198 199 197 199 201 199 194 189 189 191 189 185 183 180 177 176 173 169 168 171 180 194 198 197 197 190 172 154 143 137 136 142 153 160 158 157 165 172 176 172 168 169 171 174 174 171 166 165 174 179 179 174 168 167 164 158 151 147 153 158 161 160 152 143 139 143 146 146 144 143 146 139 136 143 140 140 138 132 126 119 129 152 157 150 137 123 129 143 144 141 138 137 135 129 124 132 157 182 199 206 208 195 184 183 180 173 163 157 156 150 143 143 132 114 107 112 119 137 170 198 207 211 216 218 218 217 220 217 212 212 215 218 222 223 221 215 208 208 213 209 199 193 188 179 170 168 168 165 164 164 163 163 166 167 161 152 147 134 120 118 127 139 149 150 140 131 131 137 145 148 144 137 131 130 130 124 114 105 100 101 107 110 106 104 95 96 112 114 107 97 101 140 175 185 189 191 191 195 197 199 200 199 199 207 214 211 203 201 202 204 206 209 213 212 212 212 207 199 192 186 181 180 187 192 193 194 193 191 193 188 175 166 163 162 163 161 156 155 159 163 166 165 160 157 156 154 154 153 150 153 159 166 166 163 165 172 183 189 196 198 193 188 184 180 178 178 177 173 170 168 168 168 171 172 165 158 155 159 161 162 163 162 160 154 153 156 157 156 152 147 147 149 152 162 172 173 169 166 167 174 182 188 194 196 191 188 191 195 195 194 193 193 196 202 206 210 209 201 189 186 190 190 191 196 198 194 189 184 181 178 175 177 182 188 189 184 181 183 187 187 185 180 178 183 -9999 
-9999 193 192 192 190 187 185 186 187 188 192 197 200 199 195 193 191 185 178 175 178 185 190 189 183 177 174 178 179 173 167 167 167 164 163 164 165 165 166 164 162 157 155 162 171 182 189 192 195 198 199 201 204 201 197 194 193 192 191 196 199 198 190 181 174 169 168 170 171 170 168 166 167 175 187 194 197 198 200 178 145 128 125 130 141 153 158 160 167 173 177 177 171 167 165 166 163 160 164 173 181 181 175 169 166 169 167 164 161 162 166 164 161 154 145 143 143 146 148 145 138 138 144 144 140 139 135 137 146 139 130 129 139 154 152 143 139 138 146 155 158 154 146 139 132 126 130 146 164 180 184 181 177 169 170 179 186 185 173 162 153 137 129 126 113 100 107 126 148 182 211 228 233 232 232 234 233 229 230 228 222 218 215 214 216 216 215 210 204 205 210 207 195 185 181 181 179 175 168 158 157 171 181 174 163 155 147 142 141 134 128 134 138 140 139 134 138 151 154 149 147 143 137 131 126 125 122 115 109 103 97 100 107 110 111 113 109 114 124 123 112 98 103 139 171 179 183 186 188 193 197 198 195 189 186 192 199 199 197 198 199 204 210 211 209 208 211 209 198 188 182 183 183 186 190 193 194 196 194 192 193 183 169 163 164 167 167 161 155 155 159 162 163 162 160 160 159 160 160 155 150 152 156 160 162 165 174 185 190 192 200 201 191 182 180 178 179 180 177 173 171 168 167 167 165 163 164 162 158 157 150 147 151 151 147 147 155 161 163 160 153 156 162 166 170 172 169 164 162 164 170 177 186 195 202 204 199 195 196 200 200 198 198 199 199 201 202 202 200 193 187 188 194 195 197 202 202 197 192 188 183 178 175 177 182 186 186 184 184 187 190 191 190 185 182 188 -9999 
-9999 191 192 191 190 189 189 190 189 189 192 198 202 202 200 196 194 190 184 182 183 186 188 188 187 184 188 191 186 179 175 173 169 166 165 166 167 168 169 165 158 156 159 166 179 193 195 196 197 198 197 196 195 194 193 194 197 197 200 204 205 202 194 183 174 171 173 176 178 176 171 166 163 162 169 184 195 197 199 187 162 145 138 138 143 147 150 156 165 168 167 163 163 169 172 165 159 160 166 176 183 182 178 174 175 175 174 173 171 170 173 171 166 157 149 145 142 145 152 152 147 148 154 153 144 140 139 139 143 135 127 132 139 146 153 154 149 147 152 158 160 155 146 140 141 143 152 160 167 176 173 169 165 156 158 170 181 184 171 154 136 118 111 104 93 91 109 138 172 212 229 238 243 242 239 239 238 235 235 235 231 226 220 215 214 213 210 204 202 202 203 201 194 186 181 181 181 177 173 171 177 185 182 168 154 144 137 133 131 125 124 133 131 124 121 121 134 148 148 146 141 135 136 139 136 129 121 113 109 104 102 105 104 97 98 111 124 132 130 122 113 104 111 141 171 178 178 179 182 185 187 186 180 174 171 176 183 184 188 195 199 204 205 202 198 197 199 199 193 187 183 184 189 196 200 201 202 202 202 200 192 178 165 162 166 170 167 159 155 157 161 162 162 160 158 158 157 159 158 152 152 154 156 162 168 174 183 188 188 189 197 196 187 181 180 179 179 179 177 174 170 165 162 164 165 165 166 163 160 158 150 146 147 148 152 159 161 153 152 155 164 175 172 166 166 168 164 159 162 169 177 184 192 200 203 200 198 199 200 201 202 201 198 193 193 199 199 194 187 183 186 190 194 199 202 202 200 197 197 194 188 182 179 182 186 187 184 182 184 186 189 191 190 185 184 191 -9999 
-9999 185 189 189 189 190 190 191 190 190 192 193 193 195 196 195 194 193 190 190 190 192 192 191 190 192 197 198 190 185 186 183 173 167 165 165 166 166 166 160 159 165 167 170 183 193 194 191 192 195 196 195 192 191 193 196 199 200 199 196 195 194 190 186 185 185 186 183 179 175 173 173 171 169 167 172 183 193 197 195 188 177 162 151 146 143 143 152 160 162 161 159 164 174 172 164 163 163 162 167 173 176 175 175 177 176 174 175 172 169 169 167 166 165 163 158 150 153 159 157 149 147 156 157 152 146 136 132 136 131 125 129 133 138 152 160 155 153 154 155 152 146 141 145 153 156 157 159 166 180 188 187 180 169 170 178 183 178 155 131 119 111 106 92 83 92 121 163 202 223 226 232 238 240 240 239 238 236 237 237 234 230 226 222 218 216 215 214 210 202 192 187 187 184 179 176 171 168 168 177 188 180 161 152 146 141 134 129 124 118 120 127 119 116 119 120 128 132 138 145 143 141 147 153 146 131 123 115 107 103 98 92 87 84 97 113 118 117 115 115 116 118 126 146 166 170 166 165 167 166 164 163 160 158 161 169 174 175 183 192 198 199 194 188 186 187 189 188 184 184 189 195 200 204 206 205 204 202 200 193 184 174 163 161 165 166 162 158 157 162 168 168 160 156 157 155 154 155 153 153 160 165 167 175 181 184 187 186 186 190 195 195 189 187 187 186 184 183 180 177 175 170 165 168 170 170 168 162 159 158 158 161 157 156 164 170 172 168 165 161 166 172 167 160 159 161 163 168 175 182 185 187 193 201 201 194 196 198 196 194 196 196 191 184 188 197 198 193 187 187 192 196 195 200 200 195 190 189 195 194 190 188 189 191 191 188 184 184 187 188 190 190 186 183 183 187 -9999 
-9999 185 184 184 186 188 190 192 193 195 195 192 190 190 192 193 193 191 191 193 197 198 195 191 190 193 196 196 191 191 194 185 170 167 167 165 164 162 162 161 165 171 171 174 184 190 190 189 192 196 196 196 194 197 199 195 193 193 192 193 193 188 181 183 186 185 183 180 177 174 173 172 174 175 172 171 178 190 197 197 197 195 186 164 149 147 148 148 149 153 156 156 160 160 156 161 165 156 151 155 159 160 161 171 180 176 169 168 165 162 163 163 164 167 168 163 159 161 163 158 148 147 159 162 156 146 136 138 139 126 120 132 142 148 154 160 164 165 163 156 146 139 139 149 154 148 144 150 164 184 197 194 182 171 176 184 184 168 130 101 104 114 106 88 84 101 144 188 214 224 223 225 230 235 237 238 237 235 234 233 231 228 222 216 209 206 206 209 208 199 182 170 167 167 168 166 162 159 159 166 167 151 140 142 143 141 136 128 121 119 118 119 118 124 126 126 137 149 159 160 153 154 160 154 135 123 123 119 114 107 97 86 82 87 98 97 90 89 98 113 127 137 145 158 166 164 158 153 150 151 151 148 146 147 156 166 169 173 183 190 193 191 185 181 181 183 183 179 178 183 192 201 205 205 203 201 199 197 195 187 178 171 161 159 162 163 162 160 160 167 172 167 160 161 160 154 153 151 153 159 164 169 174 181 185 187 187 187 188 190 189 188 194 198 197 193 188 184 180 178 180 178 174 173 175 176 171 166 167 171 171 166 162 161 159 159 162 168 171 166 163 162 165 169 169 167 168 173 179 180 177 177 181 187 188 190 196 199 196 193 193 193 186 184 192 199 199 195 194 196 201 201 193 192 194 192 188 189 190 188 187 191 193 193 191 188 188 191 192 191 190 188 186 184 183 184 -9999 
-9999 187 186 186 189 192 195 198 198 197 197 194 192 192 193 193 193 192 193 196 200 201 198 195 196 197 198 197 194 197 197 185 173 174 170 165 165 164 163 164 167 170 172 180 189 191 189 191 197 199 199 200 201 204 204 195 192 193 191 193 197 196 190 187 186 185 183 181 180 179 177 177 181 181 177 178 183 191 198 198 197 198 196 182 167 156 143 132 133 142 146 147 150 147 147 157 155 145 144 149 150 147 151 171 183 175 165 161 157 158 162 162 162 164 166 165 161 163 163 158 150 151 162 163 155 150 146 147 137 122 125 143 154 154 152 160 171 171 168 157 146 143 144 149 146 136 133 143 163 180 189 186 173 164 171 181 177 156 125 111 128 133 99 75 86 126 175 202 214 219 218 219 221 225 229 232 231 228 224 223 223 218 209 200 193 190 189 190 191 185 173 160 150 149 154 155 153 152 156 155 139 129 138 143 142 135 128 123 117 111 111 120 131 141 142 142 148 156 163 165 162 161 162 150 128 117 119 118 112 105 97 87 85 88 85 84 87 94 109 127 136 140 147 158 161 155 155 155 151 149 151 147 146 155 166 172 173 177 184 190 193 191 188 189 188 185 184 186 190 195 200 201 199 196 195 194 194 196 194 184 175 167 159 160 166 169 163 156 161 167 168 165 163 164 156 151 153 157 164 166 163 168 172 175 180 184 188 191 192 189 183 185 199 207 204 197 191 185 180 180 183 182 178 174 172 169 165 163 168 176 173 165 164 163 158 156 155 155 158 161 165 167 171 177 179 178 178 180 179 174 172 173 171 167 170 185 196 200 201 200 198 195 188 191 199 200 197 196 197 199 203 201 190 187 191 192 193 194 191 187 187 189 190 190 188 188 189 190 188 186 186 186 185 185 183 186 -9999 
-9999 185 187 189 194 200 201 199 195 196 196 194 193 194 195 195 195 198 200 202 204 202 200 200 200 199 198 196 196 196 190 179 176 178 171 165 168 166 162 161 164 169 177 186 192 192 192 195 198 199 201 203 202 206 203 197 202 205 202 204 204 200 196 195 195 194 191 187 184 185 186 191 193 187 182 185 186 187 191 196 198 199 199 195 195 178 147 127 123 125 131 139 146 149 154 155 147 144 146 150 152 153 162 176 177 166 158 160 163 162 160 161 164 170 176 174 166 164 162 157 154 158 163 158 151 149 146 142 130 122 136 152 155 149 144 156 170 169 163 155 145 145 146 144 135 128 132 147 164 174 180 177 164 159 170 175 164 146 136 138 153 137 79 59 100 172 207 214 216 217 214 215 215 213 216 220 221 218 212 209 209 204 195 187 182 179 177 173 167 158 153 146 139 141 146 146 144 147 149 140 126 132 141 141 134 123 120 121 118 116 122 130 133 139 151 157 152 142 137 144 154 158 153 140 124 115 115 109 99 92 87 83 86 86 83 90 100 109 122 128 126 124 134 148 153 152 161 169 162 157 158 159 162 167 172 174 177 183 189 194 195 193 194 196 193 189 190 195 201 206 206 203 200 195 192 190 189 188 183 174 170 168 165 166 168 166 156 154 162 165 168 165 161 158 154 157 165 172 174 169 168 173 175 176 179 182 186 191 192 186 179 187 206 212 207 200 194 188 183 183 185 184 177 172 169 163 159 163 169 170 167 166 166 163 163 162 160 154 151 156 166 173 178 178 176 177 181 183 179 177 179 179 173 169 172 183 190 195 197 199 198 197 196 201 203 196 190 190 193 195 196 195 188 185 188 189 191 195 194 192 190 188 187 187 186 187 187 186 184 183 184 185 185 185 185 186 -9999 
-9999 189 186 184 188 196 199 195 192 194 196 194 193 192 193 194 195 198 200 202 201 197 196 199 200 198 196 193 193 191 182 177 179 177 169 168 169 165 160 162 167 175 184 189 190 191 195 199 200 200 202 200 197 200 199 200 207 208 206 206 201 194 194 196 194 192 192 189 186 185 188 193 192 185 185 187 183 178 178 186 195 198 197 197 201 199 179 157 137 120 113 120 129 134 137 134 136 142 146 153 159 164 170 173 166 153 148 157 165 161 159 165 175 183 189 180 164 162 163 160 163 165 162 158 155 150 143 137 127 126 142 152 150 143 137 146 157 155 152 149 142 142 144 142 137 136 143 155 167 172 174 170 162 163 169 162 148 138 135 128 124 96 54 58 129 193 208 213 215 215 209 206 206 208 209 209 206 203 199 195 193 190 183 177 174 173 169 160 148 141 140 141 144 146 141 135 133 133 129 122 123 133 133 131 129 129 129 124 118 123 130 131 131 145 159 162 158 153 154 159 163 160 145 127 115 113 113 103 92 83 75 75 83 91 97 103 104 110 116 115 114 113 120 134 146 155 158 156 160 166 163 162 164 161 161 168 179 189 196 198 198 196 197 197 197 198 200 202 206 206 203 201 199 196 193 191 187 182 174 168 169 170 169 165 160 153 152 164 170 170 169 162 158 156 157 167 176 179 175 171 174 179 181 181 181 182 186 190 191 182 177 189 204 208 203 201 200 196 190 188 191 189 179 175 177 176 174 173 169 166 164 162 162 162 166 167 166 169 172 170 171 176 177 173 170 173 176 179 181 185 187 186 183 179 178 179 184 190 194 196 197 196 197 206 205 195 189 188 188 188 189 191 191 186 185 187 191 196 196 192 188 184 183 184 185 186 187 186 184 184 187 188 188 186 186 187 -9999 
-9999 197 196 197 198 197 196 197 199 201 200 198 198 195 191 190 191 193 194 194 191 187 187 187 188 191 190 188 189 188 185 183 180 173 166 168 169 165 161 165 172 178 182 185 188 191 198 202 202 202 203 200 196 196 198 201 203 201 199 196 192 192 192 187 182 185 189 188 186 184 184 185 183 182 180 177 174 171 171 180 191 196 196 196 198 199 194 186 172 148 127 121 120 118 114 108 112 124 143 160 163 161 161 160 153 145 148 161 167 166 168 177 187 192 192 176 160 163 168 166 167 165 159 158 156 148 139 133 128 131 139 142 140 138 135 140 148 151 153 146 134 134 142 146 147 149 153 160 168 171 168 164 162 166 166 153 138 131 122 106 93 66 41 66 145 190 197 202 204 201 192 183 186 201 212 210 198 189 186 183 180 176 169 167 166 165 161 152 144 141 141 146 147 140 132 123 119 116 116 116 118 127 133 134 136 138 133 120 111 113 120 129 144 163 168 164 166 173 180 181 172 156 139 124 113 106 102 98 91 86 82 83 89 95 105 108 109 114 113 110 108 107 110 116 128 143 146 143 151 157 157 160 163 165 169 176 183 190 193 194 196 199 202 205 205 204 206 208 207 202 199 198 196 197 199 200 199 195 185 177 174 170 165 156 150 150 157 168 170 167 162 157 158 157 158 170 179 177 174 173 176 178 181 182 181 183 189 191 187 179 178 188 198 199 196 199 204 205 201 197 196 193 183 179 178 181 180 173 165 162 156 153 159 163 168 171 172 174 179 180 179 178 173 168 169 170 172 176 185 192 191 187 182 178 177 180 185 189 191 192 193 193 195 200 201 196 193 192 189 186 190 200 202 190 184 189 193 192 190 188 184 180 180 183 184 186 188 187 185 187 191 193 190 185 186 189 -9999 
-9999 200 203 205 204 200 198 201 205 207 204 198 197 196 192 190 193 196 195 193 190 188 186 181 179 183 185 185 186 187 187 183 179 174 167 169 168 164 161 163 170 173 176 181 185 192 200 203 204 206 206 203 199 201 204 203 202 202 202 199 199 199 194 188 190 193 190 186 185 184 183 185 186 187 183 179 181 181 178 177 181 186 191 193 195 196 196 196 193 189 178 160 138 122 107 99 107 119 134 148 153 153 153 152 148 146 156 168 173 173 173 178 184 188 185 171 161 167 169 165 163 161 157 155 150 143 137 136 136 136 134 130 129 134 139 144 157 162 157 141 125 129 142 153 160 162 164 168 171 167 163 159 157 158 156 146 133 124 116 105 97 74 54 92 168 194 191 185 183 183 178 163 161 174 188 195 195 193 186 176 168 158 154 157 159 158 154 149 150 152 152 146 132 124 123 116 109 111 121 120 115 123 132 136 137 133 122 111 109 118 131 141 153 164 165 164 169 173 171 163 151 143 139 135 122 105 97 93 90 93 95 98 104 110 111 103 105 116 115 112 111 110 113 119 134 151 151 146 146 155 168 173 175 184 189 186 182 181 181 184 190 196 201 206 207 206 206 205 202 199 201 205 206 207 207 206 206 201 194 186 178 170 161 151 149 157 166 171 165 157 155 155 159 158 160 170 171 166 165 166 169 173 178 180 181 186 191 191 184 176 176 183 192 193 191 195 200 202 201 200 198 189 175 171 172 173 168 163 162 158 152 155 163 166 169 170 168 167 177 188 187 178 168 167 165 164 170 181 192 198 188 173 170 172 175 179 180 178 181 186 189 192 195 197 196 195 196 196 195 194 198 205 203 188 182 188 191 180 172 175 178 180 183 185 185 187 189 187 187 190 192 189 183 182 187 190 -9999 
-9999 199 197 197 198 203 206 203 199 200 197 190 192 194 194 195 198 199 196 194 194 195 191 184 182 182 180 180 187 191 186 176 178 179 173 172 166 161 159 160 168 174 179 181 184 189 193 196 201 206 207 205 203 204 204 200 198 201 203 205 208 205 200 199 202 200 193 187 185 184 186 189 188 190 196 195 189 183 178 174 172 173 181 188 191 195 197 198 198 199 201 195 173 140 114 115 130 140 147 148 149 151 156 157 152 152 161 169 173 170 168 173 178 181 178 166 161 166 167 165 164 162 157 153 150 148 145 146 145 140 138 135 135 144 150 150 157 159 150 133 133 152 169 181 182 174 167 161 153 155 160 157 151 147 144 134 123 118 121 120 108 76 63 118 183 197 193 180 172 177 177 167 162 156 149 149 163 176 175 168 161 151 146 151 154 153 152 151 150 151 157 153 134 122 116 114 114 120 128 131 134 135 131 130 130 128 117 109 116 130 144 151 151 150 152 161 170 170 163 154 148 147 147 139 128 117 100 90 87 92 97 101 107 108 105 98 100 111 113 114 121 130 135 139 151 164 165 160 159 169 178 177 182 189 190 184 178 175 176 182 187 192 199 206 208 206 206 203 202 204 208 211 211 212 213 213 209 201 194 185 175 169 162 154 152 158 166 168 159 154 155 157 159 159 160 163 162 160 162 164 168 173 176 178 180 185 189 188 184 179 178 183 191 194 196 198 194 189 189 193 192 177 162 162 168 166 153 145 147 152 157 159 157 162 171 174 173 176 182 188 185 177 176 183 187 185 182 181 175 172 175 175 173 175 179 180 173 168 177 190 195 193 191 191 190 188 186 187 193 197 197 192 189 186 183 183 184 175 169 172 178 183 186 187 189 191 192 191 192 193 191 182 179 188 194 192 -9999 
-9999 197 195 196 201 208 209 204 196 193 191 192 201 201 197 194 194 194 192 193 194 193 190 187 189 190 186 182 189 193 185 180 184 180 170 164 159 158 160 163 171 176 178 180 185 188 190 196 199 199 199 200 200 200 200 198 199 202 204 208 210 205 200 199 199 199 200 200 198 196 195 189 185 191 195 190 178 166 167 176 179 178 179 181 185 191 195 196 197 197 198 198 189 168 156 158 154 154 160 162 157 158 164 166 161 163 169 174 177 175 173 176 180 181 176 163 162 169 169 168 167 161 156 155 156 157 151 149 148 148 153 147 142 153 157 150 148 153 149 139 149 168 184 191 184 170 159 148 142 156 166 158 150 150 145 133 122 124 132 127 98 63 68 132 183 191 191 183 173 168 166 171 172 160 142 127 127 132 140 152 156 150 147 152 152 153 155 159 157 154 152 144 134 127 115 108 112 120 130 137 142 141 134 126 121 119 111 116 131 141 146 148 150 152 151 161 175 177 166 155 150 150 144 127 120 112 92 89 96 104 108 104 100 90 86 85 91 110 113 116 128 145 162 168 164 163 170 181 181 175 172 178 187 187 184 180 176 176 179 184 188 191 195 202 207 209 211 212 214 213 213 213 212 216 217 213 206 198 190 178 168 165 159 153 148 151 158 155 150 154 156 158 160 160 160 159 162 166 170 175 180 184 184 183 181 181 182 181 183 184 186 191 197 204 209 208 201 193 189 186 180 169 163 164 166 163 152 150 157 167 171 166 165 171 176 180 183 185 180 176 173 175 187 198 199 190 179 171 155 147 160 179 182 180 183 182 176 177 186 195 197 194 190 187 184 181 179 180 182 186 187 182 180 187 183 181 183 183 186 187 187 187 187 187 189 192 194 195 196 196 193 186 188 195 194 189 -9999 
-9999 196 195 196 201 203 200 194 192 197 199 201 208 203 195 191 190 190 193 196 195 192 189 191 197 201 197 191 191 187 182 183 186 178 164 158 160 162 164 166 171 176 181 184 186 186 189 198 200 196 192 189 190 195 200 202 205 207 208 209 205 198 196 196 197 201 205 206 207 208 204 197 194 191 183 176 172 171 173 174 173 174 169 165 167 176 189 193 194 194 194 192 189 186 190 191 177 163 155 151 153 163 172 174 174 179 183 184 183 179 178 184 187 185 178 170 170 174 171 168 164 158 157 160 163 166 156 151 153 158 162 150 139 146 153 150 150 155 150 146 152 162 172 174 166 156 150 148 153 169 169 158 158 159 150 138 135 144 139 112 78 61 87 154 191 192 186 184 176 161 158 168 169 158 136 113 105 106 120 136 141 140 147 152 150 150 154 159 161 158 143 121 114 121 121 118 116 118 127 126 118 123 126 119 113 111 109 120 134 139 141 142 149 157 155 162 177 182 175 170 164 155 141 126 120 105 89 100 114 116 112 106 100 86 81 84 100 117 114 119 130 146 168 180 173 164 166 176 179 173 173 182 189 189 184 179 178 179 181 185 189 191 192 196 202 206 211 217 219 218 218 217 216 215 209 198 190 185 179 166 157 153 150 146 144 147 155 152 150 154 155 159 162 163 163 164 167 168 173 178 182 186 186 185 183 180 177 177 181 185 188 194 201 208 212 213 210 206 201 192 182 174 169 171 174 172 167 172 179 179 172 173 188 192 183 178 181 185 183 176 169 173 183 189 183 178 179 178 172 162 162 176 186 184 181 180 185 192 193 191 189 189 187 184 182 183 188 193 188 182 181 180 180 185 186 183 184 187 192 192 191 188 184 185 189 190 191 191 191 193 194 190 192 194 189 186 -9999 
-9999 195 195 198 203 201 194 188 191 200 204 205 207 199 193 194 197 197 196 194 193 192 191 196 201 201 193 189 191 189 186 184 183 175 166 166 170 169 165 167 171 180 189 188 187 189 195 202 201 196 193 191 191 195 199 201 203 203 201 197 192 190 193 198 202 206 206 205 207 208 207 206 202 193 185 181 180 186 185 175 167 162 156 153 153 162 173 179 186 190 192 191 192 195 198 198 190 180 167 156 162 175 180 180 184 192 197 195 187 179 182 191 193 190 185 178 174 174 172 168 163 160 161 163 171 171 154 145 152 159 159 144 132 139 149 149 150 152 148 145 147 157 165 161 152 144 142 148 161 173 170 163 164 158 146 138 141 144 128 100 80 79 110 173 197 195 188 184 169 153 153 160 160 145 120 105 107 116 127 131 128 131 141 147 147 146 146 146 147 142 129 114 108 112 112 113 108 102 108 105 103 113 116 114 116 116 116 121 124 127 131 138 146 150 155 167 171 165 166 174 172 158 144 134 125 107 99 109 112 107 104 100 94 80 83 98 112 110 107 124 139 153 165 169 166 159 157 160 165 169 173 179 187 191 188 183 182 182 181 182 185 187 188 189 191 196 204 213 217 217 217 213 209 204 197 189 182 174 165 153 146 146 146 145 144 149 156 153 151 152 153 159 161 161 163 164 167 169 172 171 174 180 179 181 182 182 182 183 185 186 189 192 196 201 203 204 202 202 203 199 192 183 176 178 179 175 171 175 183 179 169 176 189 190 184 180 180 184 186 180 173 177 179 178 177 187 193 195 196 186 174 174 180 182 181 184 192 195 189 183 181 182 181 180 181 183 187 191 190 185 183 182 183 185 187 182 180 183 186 186 187 185 182 185 189 189 188 186 187 191 191 185 186 190 188 186 -9999 
-9999 194 196 202 205 201 193 191 194 198 200 201 197 192 194 202 206 202 196 190 187 188 192 199 203 199 192 190 191 190 187 185 181 172 167 168 168 162 157 162 169 178 187 187 188 197 206 209 203 197 199 201 202 203 202 202 202 197 192 190 193 194 195 199 202 205 205 206 207 206 204 203 201 199 195 189 186 185 180 174 165 156 149 149 158 165 161 158 164 174 184 188 190 194 196 193 187 186 184 175 176 182 184 185 189 197 201 196 188 186 192 197 196 192 187 178 172 173 174 170 164 161 162 168 174 165 144 138 148 155 150 135 127 135 145 146 146 147 145 143 144 153 156 149 140 135 137 147 163 170 165 160 154 143 138 140 143 138 125 112 104 102 130 181 192 185 177 170 155 144 143 147 145 127 117 122 133 140 139 130 125 131 137 142 144 142 139 136 135 127 118 113 107 104 100 104 107 108 110 105 105 112 113 115 122 122 119 121 123 126 133 146 160 169 179 181 170 155 157 161 158 155 149 135 117 102 98 100 101 105 105 94 78 69 82 97 98 95 112 145 162 168 166 163 160 157 153 154 164 175 181 185 188 189 190 192 190 185 181 181 183 185 184 184 190 198 207 213 214 211 207 201 196 192 189 186 178 168 158 148 144 147 149 149 146 145 148 149 149 150 154 159 158 156 159 162 164 167 172 174 179 181 179 179 178 180 184 188 190 189 188 185 186 189 191 190 187 186 187 186 185 183 180 181 177 169 165 172 184 190 191 189 183 184 191 191 188 187 185 184 185 183 174 172 181 192 197 200 205 203 188 170 167 176 179 182 186 184 178 173 174 177 179 182 184 182 181 182 184 185 185 184 184 183 182 182 182 182 184 185 185 184 185 189 192 190 188 188 190 190 183 176 180 187 186 187 -9999 
-9999 197 202 204 201 196 194 196 197 197 195 189 183 185 195 203 203 197 191 186 186 190 194 197 198 197 196 195 193 188 184 182 177 172 169 166 162 154 154 164 173 180 184 184 187 197 205 204 200 199 201 201 203 206 206 204 198 192 190 194 198 199 198 197 197 199 201 203 204 204 202 198 198 198 194 187 183 181 178 176 171 165 160 161 168 169 159 149 145 150 160 168 179 191 192 189 187 189 195 193 182 179 183 189 193 195 195 191 190 195 199 196 190 187 184 179 175 175 175 173 164 160 165 170 167 150 135 136 146 154 147 135 132 140 145 145 148 151 149 146 147 152 152 146 139 138 144 150 157 148 135 135 132 130 136 144 147 144 137 128 117 108 132 168 171 167 170 166 156 157 157 148 132 122 131 138 145 146 137 126 128 136 136 134 131 125 124 127 128 118 110 106 94 93 101 115 124 131 126 116 117 120 115 113 115 114 113 115 116 118 131 150 167 182 189 184 178 172 170 165 160 159 149 130 114 104 101 104 113 121 114 94 71 67 74 80 87 103 138 171 180 174 163 158 159 159 158 163 177 193 200 199 195 192 193 193 191 185 180 178 178 180 181 187 196 205 208 207 204 203 201 195 189 184 183 179 170 160 153 149 148 149 148 145 139 136 143 147 148 151 156 158 154 153 159 164 166 168 177 184 184 180 178 178 178 179 183 188 190 189 185 177 175 178 181 183 182 178 174 174 177 178 180 180 174 166 164 171 182 194 204 203 193 189 192 194 195 190 182 183 190 189 178 176 187 195 193 187 182 187 189 179 172 170 167 169 171 172 171 170 171 174 178 184 186 183 182 183 186 187 186 184 185 186 185 190 188 181 184 189 189 187 188 193 194 189 186 187 189 186 181 179 184 187 187 191 -9999 
-9999 200 202 200 198 196 198 199 200 198 192 183 181 192 201 201 197 192 188 186 191 195 194 192 192 191 188 186 186 187 186 182 177 174 170 166 161 159 164 172 180 183 181 182 187 197 203 201 197 196 196 197 200 200 198 196 192 189 192 194 192 191 191 192 197 200 202 204 203 203 200 197 197 196 192 185 183 184 183 180 178 177 174 167 164 162 155 152 149 146 145 149 164 181 187 189 191 192 195 201 196 186 187 192 195 195 193 191 193 197 198 192 185 183 183 182 179 176 174 171 162 158 164 165 155 141 134 139 151 156 147 139 140 144 146 150 154 154 157 148 144 151 152 152 149 151 156 155 144 118 103 108 118 132 148 154 150 145 139 126 106 96 121 151 155 161 169 163 161 172 171 149 126 130 145 146 141 136 126 123 130 132 130 127 124 116 112 115 117 111 109 107 98 105 112 113 119 130 128 126 130 128 119 113 111 110 110 112 115 121 138 154 165 171 176 176 174 173 174 173 168 158 141 125 118 114 114 117 124 123 107 84 61 60 66 79 104 130 157 174 175 169 162 162 164 166 167 171 183 196 203 201 197 195 193 188 180 177 176 172 167 167 170 178 187 194 193 190 192 195 193 189 189 186 179 170 159 151 148 147 143 141 139 134 129 134 149 154 152 151 151 150 148 151 159 166 171 175 183 183 175 173 175 178 180 181 183 188 190 189 185 178 174 176 181 185 185 183 182 182 179 175 174 174 172 167 167 178 189 197 202 206 202 188 179 183 191 190 185 183 184 181 181 182 184 185 179 165 157 167 179 184 179 171 166 166 170 175 175 175 175 176 178 183 187 186 185 184 184 184 183 183 185 189 192 193 186 177 181 186 188 190 192 194 191 185 184 186 188 186 185 186 188 188 188 190 -9999 
-9999 196 194 196 199 200 201 201 202 201 196 191 194 205 208 203 199 196 193 196 200 197 192 191 190 185 180 180 183 188 191 187 180 174 168 163 160 162 168 173 180 181 179 183 187 194 198 197 195 195 196 200 202 197 191 188 183 183 187 188 187 187 187 187 194 200 203 205 204 203 201 199 197 193 186 182 183 183 177 170 165 164 163 157 157 155 149 152 156 158 158 160 165 172 179 185 191 192 192 196 203 198 196 198 198 195 193 192 193 196 195 189 186 186 184 183 180 174 170 166 159 157 162 160 153 143 140 148 157 156 147 143 144 146 149 157 154 148 156 142 136 153 153 151 154 161 166 159 128 94 85 98 123 150 169 168 155 146 133 106 78 74 103 138 155 163 161 155 157 161 154 137 131 139 140 130 129 133 129 127 129 127 123 126 132 122 107 106 107 108 107 104 112 124 118 111 120 133 141 145 139 132 126 119 115 114 115 121 133 148 161 164 164 163 165 167 162 159 165 167 158 144 130 122 120 118 117 116 113 105 92 71 49 56 80 111 143 164 176 176 176 179 182 178 174 171 169 170 173 178 181 183 184 185 184 180 173 169 168 162 156 155 158 164 169 173 175 179 183 182 177 178 184 179 166 155 147 142 139 134 127 128 132 130 130 139 151 151 146 144 140 140 144 152 161 168 173 177 180 173 167 169 171 176 180 181 185 192 191 188 186 183 183 189 191 190 188 191 195 193 184 175 172 173 173 169 171 184 194 199 202 205 204 192 182 183 187 191 192 189 182 176 179 185 188 185 176 168 169 175 178 181 186 188 190 190 190 192 190 187 185 182 181 184 188 189 187 184 182 181 184 186 186 187 189 188 183 180 181 184 187 189 190 190 188 184 185 187 186 185 184 185 186 184 182 181 -9999 
-9999 191 194 199 201 201 198 197 199 201 200 200 205 209 205 197 195 195 198 205 205 198 194 194 195 191 188 190 192 197 198 189 180 175 169 162 160 160 162 169 178 179 178 184 187 191 191 190 194 195 193 196 200 196 192 188 182 183 187 190 194 198 196 193 197 198 197 199 202 203 200 199 198 194 185 181 181 179 172 167 163 163 163 164 170 166 156 155 162 166 163 162 163 165 166 175 189 191 191 189 197 200 194 190 189 192 192 191 192 193 191 187 187 186 184 184 178 171 169 167 162 161 162 160 155 147 145 153 155 148 142 145 148 149 154 157 148 141 148 139 140 153 143 143 158 169 170 157 110 80 84 104 136 160 167 156 147 144 129 98 79 86 114 146 160 163 159 153 148 143 132 128 140 143 126 111 121 130 127 126 127 124 119 122 125 116 110 114 107 99 93 96 105 102 96 107 122 132 138 139 137 133 127 118 114 115 120 133 146 157 164 160 153 151 155 158 157 152 148 140 132 130 127 122 119 116 113 107 98 95 90 73 56 68 102 135 162 180 193 197 196 193 192 187 179 173 174 180 179 174 171 173 176 177 175 173 170 165 157 151 149 150 155 161 163 163 168 174 174 167 161 164 168 158 146 141 137 133 126 120 120 124 128 130 136 144 145 138 134 134 133 140 151 160 165 167 169 169 167 165 168 172 175 179 181 183 190 193 188 184 184 186 189 192 190 188 189 193 196 194 186 181 183 183 178 172 176 186 189 188 191 196 202 202 194 182 175 179 188 192 193 196 196 192 191 185 178 177 182 183 182 186 190 194 201 204 202 200 199 197 195 190 186 188 191 190 187 184 182 183 186 189 188 186 185 182 183 184 186 188 189 188 183 180 180 183 187 187 182 177 177 180 183 182 180 178 -9999 
-9999 191 197 200 200 195 192 191 191 192 196 199 203 200 189 184 188 194 199 201 201 201 200 198 198 197 198 197 197 198 194 185 178 175 168 163 165 165 166 173 179 179 181 185 188 191 192 195 197 190 187 190 190 187 189 188 184 189 194 196 199 199 196 195 198 199 199 204 205 201 196 195 195 192 188 185 181 176 172 173 176 175 170 171 172 166 156 155 164 167 158 154 158 162 166 179 192 191 191 188 190 198 189 184 186 187 187 189 191 192 193 193 191 188 187 186 177 169 170 169 164 162 162 160 157 150 148 149 144 137 137 143 147 149 151 149 141 137 143 144 144 143 135 144 163 168 161 131 78 70 97 121 139 140 131 125 127 128 117 103 102 117 144 172 174 165 156 148 143 136 128 133 140 133 117 112 113 110 108 112 118 117 112 112 110 106 110 113 98 85 84 96 98 84 80 98 115 124 133 140 145 141 131 123 125 128 130 136 142 145 146 140 131 134 143 150 150 148 141 132 129 131 129 122 114 108 103 96 93 97 92 72 58 70 109 142 163 178 194 202 200 192 187 187 186 184 187 191 187 179 176 178 181 180 176 172 167 158 147 140 141 148 156 161 162 160 163 167 164 159 156 158 157 146 136 134 132 126 118 119 124 126 124 125 129 133 130 128 132 134 140 155 169 172 169 167 167 163 163 172 179 182 187 189 186 188 194 196 192 188 187 186 182 177 178 184 190 192 192 191 190 191 193 189 182 179 183 189 190 188 185 183 185 190 193 182 164 159 169 181 192 203 203 192 183 180 179 179 179 184 187 189 185 180 179 176 176 184 191 194 194 192 191 191 189 186 185 186 186 184 184 188 190 187 181 175 176 182 190 189 185 184 176 170 172 177 183 182 176 173 175 179 182 183 182 182 -9999 
-9999 193 196 195 193 189 189 191 191 191 194 197 196 194 192 196 200 202 199 194 196 199 200 200 194 191 194 195 194 191 188 184 177 170 164 166 173 173 174 182 185 184 185 185 187 191 195 199 196 189 190 197 196 190 187 183 184 191 194 195 198 197 194 194 197 203 207 209 205 199 197 197 194 191 191 187 182 177 178 181 178 173 167 165 161 153 151 157 163 162 152 152 158 163 171 179 183 186 190 190 188 200 200 200 198 190 188 190 193 194 195 195 193 191 190 186 176 172 174 170 163 160 159 160 154 146 142 144 141 134 137 143 144 144 142 140 140 142 147 146 140 134 133 144 160 165 144 90 48 60 106 137 148 134 120 120 119 113 107 106 113 125 153 180 178 165 154 147 144 141 139 144 144 126 109 107 106 106 107 112 118 113 105 98 89 86 89 88 78 74 80 86 88 87 88 99 110 119 127 134 138 138 137 133 128 123 123 133 140 137 136 135 137 142 142 136 130 134 139 138 135 132 128 120 108 101 96 93 97 101 93 68 49 59 108 151 168 181 191 197 198 195 190 189 190 191 194 189 182 179 179 181 180 176 173 170 161 153 146 140 141 149 158 162 162 161 161 158 155 156 154 149 143 136 131 130 134 130 124 127 129 128 126 130 130 128 126 131 144 152 158 168 173 173 171 170 167 164 170 177 177 179 185 188 190 196 200 201 198 194 192 186 177 172 180 189 191 191 189 189 190 192 191 187 184 185 187 189 193 194 190 185 181 181 188 193 186 169 164 175 186 193 191 179 174 178 183 186 185 181 180 182 181 178 175 170 167 172 181 185 184 185 189 187 182 178 179 180 181 181 182 188 191 189 184 179 178 183 187 184 179 180 178 175 176 178 178 177 176 181 185 185 184 184 183 183 -9999 
-9999 202 199 195 194 194 195 198 197 196 197 196 195 196 201 203 203 201 197 195 195 192 193 196 194 195 196 195 194 194 193 187 176 170 171 174 176 173 175 182 184 182 180 179 185 191 194 195 191 189 194 199 197 192 186 181 185 192 192 192 197 196 194 195 200 204 203 203 200 198 198 197 193 187 183 181 183 184 180 174 172 174 173 171 168 167 171 174 172 162 146 146 152 155 163 168 174 185 192 192 188 200 211 206 204 202 199 199 198 196 195 193 191 191 189 183 177 178 178 169 161 158 160 159 149 139 138 145 143 137 145 149 143 139 135 135 137 141 142 137 137 138 140 142 150 148 113 69 52 79 129 149 154 148 138 131 120 110 107 110 117 128 155 176 171 165 160 153 147 144 139 131 119 109 108 107 105 109 114 120 118 104 95 89 83 83 82 75 66 62 67 70 75 86 101 122 133 134 132 129 128 132 135 130 117 105 105 117 127 130 140 154 165 164 149 134 129 134 143 147 141 134 128 120 114 111 105 99 98 94 84 62 39 57 119 161 181 193 198 199 200 197 190 185 184 187 191 188 185 184 182 178 167 159 159 163 163 164 163 159 158 157 156 156 160 163 163 158 153 154 151 141 135 132 130 133 140 139 134 132 132 133 136 139 136 132 134 141 152 160 160 160 162 164 166 165 163 165 170 171 169 172 177 183 193 201 202 200 197 195 193 188 182 183 191 196 194 190 188 186 185 185 185 184 183 184 185 184 189 190 187 185 184 186 188 196 203 193 180 177 181 185 182 177 178 188 196 199 199 188 179 182 188 189 187 183 175 172 173 173 176 180 182 181 176 171 171 173 175 178 181 182 184 189 192 194 194 193 190 185 184 183 184 188 189 186 184 183 185 189 191 189 187 185 182 181 -9999 
-9999 210 206 203 205 205 204 201 197 195 195 194 195 199 200 200 199 196 193 195 195 191 190 188 191 198 200 197 197 198 195 189 181 180 184 180 176 175 175 178 177 176 175 180 189 194 197 199 197 196 197 196 189 184 182 183 188 191 190 191 193 190 191 196 199 201 198 195 194 193 191 188 181 174 173 177 187 189 180 173 173 174 171 170 173 174 175 174 173 164 150 153 158 159 163 171 182 191 195 194 192 200 212 209 210 212 211 209 206 202 198 194 193 193 190 182 178 179 172 161 158 161 162 159 150 142 146 149 142 142 150 147 139 137 135 131 130 134 133 130 134 139 140 131 126 120 96 79 86 123 156 149 142 140 131 127 119 109 108 114 122 134 158 175 174 169 164 155 145 137 130 118 106 108 116 117 115 114 114 114 106 91 81 80 83 84 74 60 56 62 73 76 81 95 110 132 148 150 147 144 139 138 140 136 124 119 121 121 124 134 149 162 169 167 156 149 149 151 152 151 144 137 131 126 123 117 107 97 87 78 67 47 35 79 152 184 200 208 205 201 198 196 193 187 187 190 190 190 189 186 184 180 168 157 156 159 160 163 161 161 171 167 153 151 159 166 168 161 153 151 149 146 144 141 137 139 142 141 137 135 135 136 137 135 125 120 128 136 144 145 140 144 154 159 161 160 160 166 170 171 173 178 185 192 197 201 202 204 204 198 192 189 189 193 199 202 198 192 189 186 184 182 182 182 184 185 185 185 187 186 184 183 176 172 176 185 195 201 194 175 170 176 178 181 181 183 189 193 195 192 186 184 188 193 193 189 184 178 173 173 178 180 179 178 174 175 177 180 183 185 184 180 179 183 189 194 197 195 190 190 191 186 187 194 193 190 190 191 191 189 189 189 184 182 182 184 -9999 
-9999 203 198 199 202 201 197 193 192 192 193 194 199 204 204 205 206 202 197 196 196 195 191 185 189 196 199 199 198 198 195 191 182 181 183 179 177 178 178 178 175 174 177 184 191 192 195 199 200 200 199 195 191 188 187 189 192 192 190 191 190 186 187 192 198 204 201 195 192 190 187 184 179 178 180 183 190 190 185 182 174 164 159 163 170 168 162 161 162 160 159 167 174 179 181 184 190 192 194 195 194 196 205 207 206 208 211 214 212 207 201 197 194 192 185 174 172 170 162 158 161 165 163 157 151 145 149 149 144 146 143 133 132 139 138 130 133 144 140 131 131 136 130 115 109 110 104 105 117 139 152 143 136 130 120 115 106 98 107 119 126 137 155 170 173 171 165 153 140 129 121 118 121 125 121 119 122 122 119 113 103 93 83 79 80 76 63 52 59 80 99 99 98 107 112 120 126 128 128 127 133 143 146 140 134 146 158 155 148 149 157 159 159 157 151 149 152 156 155 148 141 142 139 131 120 104 94 84 75 65 49 36 44 108 179 201 210 212 207 204 204 206 207 203 202 202 199 195 190 184 179 176 172 169 168 162 152 146 139 146 160 162 159 161 166 171 166 154 149 149 147 146 150 153 147 143 141 136 131 128 126 128 129 125 120 123 133 137 142 140 134 142 154 159 163 162 162 170 173 174 176 182 190 198 205 206 206 209 208 201 197 196 198 201 205 207 203 199 199 197 193 189 186 186 188 191 192 191 191 191 187 177 167 162 166 177 188 198 198 184 168 163 171 179 175 168 166 169 171 176 183 182 182 189 195 198 193 182 177 182 183 179 177 178 180 186 186 185 187 186 184 185 185 181 177 179 182 176 171 177 185 185 186 188 188 189 190 190 188 187 188 186 182 186 192 193 -9999 
-9999 184 181 185 189 190 188 186 189 192 196 196 196 198 198 201 203 203 201 200 198 196 194 195 200 201 200 196 193 192 191 189 181 180 185 182 181 182 182 178 172 175 183 187 190 191 194 197 196 194 191 191 194 197 198 198 199 196 193 193 192 188 187 191 201 206 200 195 194 192 189 186 186 188 189 189 189 183 177 175 167 161 163 168 173 169 161 159 160 161 166 173 177 183 188 189 191 192 194 196 195 192 192 192 190 195 204 212 213 206 200 194 188 183 173 164 164 164 162 164 167 166 159 154 152 149 153 155 151 149 139 129 134 143 141 133 143 157 145 130 135 141 129 113 107 105 105 108 115 129 141 145 144 134 123 110 94 90 106 119 128 142 156 166 168 163 156 146 133 120 114 112 115 119 114 105 105 113 121 121 113 101 90 88 92 85 74 71 79 92 101 102 102 102 98 96 101 106 107 110 125 138 137 133 139 158 171 173 167 165 169 169 161 149 142 144 149 152 150 141 139 144 140 127 112 95 88 81 74 60 45 43 70 143 196 205 207 207 206 205 208 208 205 203 200 201 204 199 189 179 168 159 155 159 163 158 148 144 145 152 152 153 165 171 170 168 158 148 151 154 150 146 150 152 144 139 134 126 121 117 115 122 126 125 126 136 144 147 147 141 139 147 155 161 163 158 160 171 175 177 180 183 190 200 207 208 209 210 208 203 202 204 205 206 206 206 205 206 208 207 205 199 195 194 194 192 188 186 187 189 179 163 164 171 173 171 172 184 196 195 178 162 165 174 180 183 178 166 161 167 174 173 176 182 187 190 188 184 184 189 188 183 180 179 179 181 179 179 181 181 180 180 181 181 180 181 178 166 162 169 177 182 184 184 187 190 191 192 191 191 192 189 189 196 198 193 -9999 
-9999 175 177 185 188 187 185 186 192 196 199 199 196 193 191 193 194 193 194 198 200 201 203 205 205 199 194 191 191 191 190 189 185 187 191 188 185 183 181 174 168 175 183 185 191 194 197 201 199 195 191 193 198 200 201 202 201 197 195 196 196 195 195 198 202 198 191 192 194 194 192 189 187 186 188 188 183 173 165 164 163 167 174 176 176 170 163 162 164 165 167 170 170 175 184 187 188 190 194 199 199 193 189 194 191 188 194 201 201 195 190 187 183 177 169 162 163 165 166 168 166 159 152 154 156 156 162 165 158 152 143 134 138 142 140 135 145 157 145 132 142 147 129 111 102 95 91 93 102 122 140 154 159 149 142 134 122 113 119 124 133 147 152 156 153 148 141 130 118 114 117 115 110 105 95 88 91 101 111 116 108 95 81 83 97 98 94 95 95 96 98 105 111 106 96 92 100 105 103 112 126 129 125 128 138 152 159 161 166 177 182 181 173 161 160 165 162 151 139 133 134 136 130 120 107 94 91 91 77 54 47 63 115 183 208 208 206 205 203 200 201 203 203 200 194 188 188 186 180 171 162 154 145 138 135 131 131 139 149 154 152 154 162 166 163 156 146 146 154 158 155 153 153 146 135 133 129 124 122 119 120 125 128 128 126 131 139 147 145 139 141 147 154 156 153 150 157 167 172 177 182 190 197 200 201 202 206 207 205 205 206 207 207 206 204 203 204 206 206 205 204 200 199 198 192 185 178 176 175 172 162 161 171 175 172 168 166 174 189 193 186 175 162 164 178 185 181 176 174 177 180 178 176 178 186 193 195 195 194 192 190 187 184 178 174 172 173 178 182 181 179 177 178 183 187 190 186 178 178 182 182 184 188 187 189 193 192 192 194 195 195 193 194 197 194 187 -9999 
-9999 181 184 192 193 188 188 192 196 196 197 201 201 195 193 195 193 188 189 197 203 208 210 206 200 195 192 192 194 195 194 191 185 186 188 186 181 179 177 170 170 178 182 184 188 190 195 201 200 198 199 201 201 197 196 197 196 193 193 194 195 195 197 199 197 190 187 192 195 194 189 184 182 180 180 175 171 168 163 162 164 172 179 178 174 169 167 171 172 169 168 168 169 177 185 186 183 184 190 199 204 199 193 200 198 188 187 187 182 179 181 183 183 181 173 163 163 166 166 165 159 152 153 161 163 161 168 169 159 149 139 131 134 140 139 133 141 153 145 137 146 144 126 107 95 87 82 89 107 134 157 173 182 177 175 176 170 158 153 146 146 147 144 145 141 134 127 120 113 114 112 105 100 93 87 85 94 102 104 100 88 78 72 82 100 104 99 97 97 102 105 113 123 120 110 106 110 107 106 118 125 121 122 132 141 147 150 156 166 178 184 182 177 169 169 170 164 153 143 141 144 139 130 120 107 93 90 87 64 41 46 81 147 194 206 208 210 205 197 189 189 197 206 210 205 191 178 173 169 165 163 158 143 134 132 129 129 137 145 150 155 157 157 157 153 145 138 142 147 150 149 150 150 144 135 134 133 130 130 129 127 126 129 130 125 125 134 142 141 142 151 157 157 151 147 148 153 160 167 175 181 190 199 203 203 203 205 205 206 210 210 207 207 206 203 202 204 202 198 196 194 193 193 191 185 179 176 172 168 162 158 165 170 171 171 171 174 175 179 188 196 192 177 171 173 172 168 173 179 185 188 191 190 185 184 190 194 194 190 184 183 184 185 181 179 179 181 184 184 182 181 182 182 182 184 188 187 185 188 192 192 193 195 191 187 192 191 187 185 186 187 188 190 191 188 183 -9999 
-9999 181 181 187 189 189 194 197 196 194 195 198 198 196 198 199 195 192 194 198 202 206 207 205 205 204 202 200 200 199 194 186 181 179 179 179 174 170 169 167 173 181 186 188 189 191 196 200 200 202 204 204 200 195 192 190 189 190 194 195 194 193 195 195 192 187 187 193 196 193 183 176 175 176 176 171 174 177 171 168 171 176 176 171 168 164 164 168 168 167 167 169 175 184 188 186 181 182 188 196 203 200 194 194 196 190 185 180 176 175 179 183 186 185 177 167 167 169 166 163 157 154 158 163 164 164 169 166 151 138 129 126 131 138 139 135 145 154 147 142 144 138 121 101 90 84 86 106 140 169 181 193 207 201 191 194 190 184 185 178 167 153 142 141 138 129 124 120 110 107 102 99 100 97 98 100 104 103 100 96 85 79 79 92 101 89 80 86 91 94 100 108 109 94 82 86 103 118 127 131 128 126 132 143 153 158 166 174 172 170 179 181 173 166 161 156 153 151 148 148 147 140 133 122 102 88 82 69 43 33 52 100 163 197 203 200 200 195 187 180 181 188 197 204 207 200 186 174 166 162 162 157 146 146 149 147 144 146 149 155 162 165 163 158 152 144 138 140 140 134 129 134 140 137 133 134 133 131 130 129 126 126 130 131 128 130 139 141 142 149 160 164 161 157 155 154 156 163 169 175 181 189 199 207 211 209 208 209 209 209 206 203 204 204 201 200 201 197 193 191 188 186 186 184 179 174 171 167 160 154 159 167 169 169 171 174 180 178 173 182 200 207 200 184 171 170 172 171 173 176 180 186 190 187 182 179 180 182 181 177 174 175 179 182 184 186 186 184 180 179 179 180 181 179 179 181 182 181 186 192 195 198 199 192 184 186 186 184 182 181 183 184 185 185 183 180 -9999 
-9999 189 188 187 185 189 195 192 186 190 197 200 199 197 199 200 197 196 197 199 201 202 204 207 211 212 210 207 205 200 191 184 181 179 178 177 172 169 171 174 180 185 188 191 194 198 200 201 202 203 205 204 201 197 195 192 191 193 195 194 193 192 191 190 189 188 190 196 199 192 181 175 176 176 174 174 180 180 174 174 177 175 169 166 167 164 162 163 166 169 167 169 179 187 190 189 188 191 195 198 203 202 195 190 193 191 185 182 180 181 182 184 187 187 179 172 172 171 168 165 160 158 159 162 164 167 168 161 143 130 129 129 132 139 140 140 152 160 151 146 146 136 115 94 87 87 99 136 178 196 195 197 212 214 192 188 190 189 192 195 189 170 149 141 139 136 135 129 121 127 136 145 149 145 144 141 132 117 111 104 90 81 72 76 79 71 73 85 91 91 95 97 90 74 72 90 112 132 144 143 139 138 142 151 162 173 187 194 184 170 173 177 165 156 154 153 152 150 143 140 138 132 126 113 95 84 74 54 39 43 70 124 176 194 197 189 183 180 183 188 185 181 184 188 187 182 174 165 159 156 152 147 140 143 147 148 148 154 163 165 166 169 171 169 161 152 147 147 141 129 124 132 136 132 129 127 124 124 124 124 124 127 130 130 129 135 142 145 149 155 161 160 160 162 162 162 168 174 176 180 191 202 206 206 209 209 208 207 205 204 201 199 198 197 195 196 196 193 191 192 190 186 183 179 171 165 161 157 149 147 155 166 174 179 183 188 192 193 184 178 190 206 206 196 179 170 169 174 179 176 175 179 181 180 176 170 168 172 174 169 164 165 172 176 180 184 184 178 175 176 175 176 179 180 180 181 181 182 186 192 198 200 198 191 185 185 185 186 186 185 186 185 184 184 182 180 -9999 
-9999 200 199 196 192 192 193 190 190 200 206 205 202 198 197 196 195 197 198 200 201 202 204 206 207 206 205 203 198 191 188 188 188 187 186 184 180 179 181 183 186 186 187 191 196 199 199 198 200 202 204 204 200 199 200 198 199 200 197 192 189 189 192 195 198 200 203 203 196 185 178 180 183 182 176 175 178 173 168 169 171 171 168 167 167 163 162 164 167 168 167 174 182 185 188 195 203 207 206 204 204 204 197 189 189 193 188 186 186 186 185 186 188 186 179 174 172 170 170 169 163 161 162 166 171 172 168 159 142 135 138 136 135 138 138 137 150 162 152 143 141 128 104 84 81 88 108 150 189 197 193 196 202 209 188 166 175 186 192 198 199 186 172 169 169 174 181 185 190 200 209 213 213 208 205 199 188 177 165 142 118 102 89 86 83 77 82 89 92 94 98 92 83 87 107 128 132 132 138 147 151 147 148 158 171 183 192 198 195 178 163 159 155 154 157 162 162 158 152 150 144 133 121 108 95 86 71 49 42 55 88 147 183 188 188 178 170 176 187 193 188 178 175 175 169 160 156 153 149 146 141 130 121 128 133 133 140 164 184 184 180 182 181 175 167 160 158 157 147 134 142 149 141 135 131 128 127 125 122 123 124 126 129 130 131 134 139 147 154 158 160 162 165 169 170 171 177 180 182 188 197 205 202 198 201 203 203 203 202 202 200 195 191 190 192 192 190 188 190 192 190 185 179 172 163 155 151 147 140 140 150 159 168 180 192 197 195 191 186 184 186 195 205 205 192 182 183 191 194 189 181 175 174 172 161 154 160 165 162 159 160 166 171 173 176 183 184 183 182 180 179 180 182 183 184 185 185 184 185 190 194 195 192 188 187 188 187 189 187 185 186 184 182 182 181 179 -9999 
-9999 192 193 193 193 194 195 194 199 206 208 206 204 201 200 199 198 198 199 199 199 200 199 197 197 196 197 197 193 190 190 191 191 192 190 188 187 186 185 185 184 183 186 192 196 197 199 201 202 200 201 200 197 199 198 197 200 201 198 193 191 194 197 200 204 209 212 205 194 184 181 185 187 184 180 182 179 170 168 167 165 170 175 175 169 162 163 166 166 167 173 184 191 190 196 205 213 215 210 205 202 202 197 192 186 190 191 191 192 188 186 188 189 186 181 177 173 172 175 173 166 164 166 171 175 172 164 156 142 139 143 139 136 135 132 130 144 159 145 129 126 112 85 64 67 81 104 146 183 191 181 190 198 195 178 145 158 180 187 195 201 198 199 213 225 229 229 229 229 229 228 225 223 222 222 222 221 219 215 205 193 184 177 168 148 124 111 103 93 93 104 110 99 92 102 118 123 117 120 137 153 159 158 156 161 165 159 161 173 180 164 144 143 158 174 182 177 169 168 164 153 141 131 118 107 92 70 49 51 73 116 172 192 190 185 177 174 181 190 190 188 182 173 166 159 155 157 154 144 137 131 124 129 146 147 142 154 174 191 203 206 198 185 177 174 168 161 157 150 151 160 156 146 143 141 138 134 126 122 127 127 129 131 132 133 136 144 151 155 160 162 166 170 176 179 180 185 191 195 199 199 194 188 191 195 196 198 199 197 194 190 186 187 188 187 183 179 181 184 184 178 172 170 165 159 153 146 136 128 132 144 151 161 176 188 193 188 181 183 188 184 186 200 204 196 195 201 201 197 192 182 171 170 173 168 168 172 167 157 155 161 169 172 171 175 177 176 181 187 185 183 185 185 185 186 186 186 185 186 189 188 186 186 186 187 187 183 184 185 184 182 178 177 178 178 178 -9999 
-9999 184 184 185 186 190 195 197 200 202 200 200 202 204 206 209 206 202 202 203 204 204 200 197 194 194 197 198 193 193 192 190 190 191 190 190 190 186 183 183 184 186 193 199 199 201 207 209 206 202 199 195 193 194 191 190 193 191 189 187 190 195 198 199 199 199 195 190 190 187 186 187 186 180 178 184 180 174 176 174 172 177 179 175 168 165 169 173 180 184 188 195 200 202 208 211 212 212 209 205 202 200 198 194 186 187 203 204 199 191 189 192 192 188 183 178 176 179 180 174 166 164 167 171 173 167 159 152 144 143 144 140 135 133 131 134 152 163 142 123 115 99 74 60 73 96 126 171 203 209 194 192 201 191 177 151 163 185 187 194 202 205 211 224 238 239 232 225 221 219 217 214 213 214 215 217 219 220 220 222 223 222 221 219 213 201 179 153 131 124 127 129 121 115 115 109 97 91 100 116 134 151 152 137 126 111 102 107 127 155 153 137 145 166 177 171 161 156 155 151 149 149 142 125 111 90 61 44 53 90 142 183 195 192 187 182 181 182 183 186 189 189 181 170 157 156 163 160 147 142 135 129 141 159 167 174 185 186 188 196 203 199 189 177 163 155 148 144 148 161 165 155 148 148 148 144 137 127 129 136 135 135 133 134 136 140 154 159 160 161 160 163 167 174 179 182 192 200 204 206 202 193 191 199 200 197 195 192 187 182 178 177 177 176 172 168 167 169 170 165 158 153 153 151 147 146 141 133 129 137 149 159 169 174 174 175 178 185 192 187 179 180 187 194 195 187 181 184 189 189 183 184 186 182 184 188 183 175 169 167 167 167 167 166 168 167 167 175 183 182 181 184 185 183 183 184 183 181 183 183 178 173 177 187 192 189 183 180 183 184 179 175 176 179 179 178 -9999 
-9999 188 185 185 186 189 191 196 202 204 197 193 197 200 203 206 204 203 207 210 212 210 208 206 201 198 199 197 193 193 191 188 188 190 192 191 187 181 179 182 184 187 195 200 200 202 206 206 203 203 201 197 192 188 185 188 190 185 183 184 187 192 197 198 197 191 182 181 182 180 182 184 184 180 181 181 175 174 177 179 181 182 175 166 163 167 172 180 190 193 195 200 201 205 210 209 206 207 207 205 202 201 201 197 190 190 212 209 197 193 194 195 193 188 183 181 184 187 182 171 162 160 166 170 169 162 157 154 151 148 146 140 132 132 134 141 158 166 148 125 110 93 78 75 90 119 158 205 232 231 212 196 194 193 178 162 169 185 192 201 205 205 209 218 224 223 216 212 211 209 207 206 206 206 206 208 210 211 212 215 218 219 220 222 225 225 222 214 200 185 167 149 138 135 129 115 99 88 86 92 100 103 95 88 84 73 78 93 104 115 128 149 168 176 171 158 148 144 144 145 142 136 125 111 104 85 57 44 60 105 155 183 190 190 187 183 182 179 174 174 179 183 185 180 169 165 164 154 144 139 127 125 137 151 171 193 201 198 189 183 184 185 176 159 147 143 142 144 147 155 161 159 155 153 152 147 139 137 141 146 146 142 139 140 143 150 159 157 157 158 155 158 161 167 172 178 188 195 199 201 199 195 198 202 200 197 192 186 182 179 176 171 166 163 162 160 159 159 156 152 150 150 149 141 138 137 134 133 139 147 158 171 179 178 178 181 186 195 199 192 185 181 183 188 191 181 168 168 178 186 187 186 183 179 181 183 178 176 183 187 182 172 165 164 168 170 174 180 184 184 188 190 186 179 177 180 181 181 181 178 172 166 168 177 185 186 184 180 182 185 181 178 179 182 182 178 -9999 
-9999 189 193 196 196 196 197 199 202 202 197 197 202 202 200 200 201 206 211 212 211 209 210 210 208 207 204 199 197 198 196 194 193 194 193 188 180 177 180 184 183 186 194 197 197 200 204 203 201 202 201 197 189 186 189 192 191 187 186 187 188 193 195 194 195 192 187 185 181 177 177 181 182 180 180 177 172 174 179 182 183 180 173 165 164 168 175 182 183 183 190 199 205 211 216 216 213 212 211 208 206 205 205 200 193 191 199 194 187 190 194 194 192 187 185 186 189 188 179 167 159 161 168 171 169 165 163 161 156 148 144 138 131 131 134 141 156 166 152 125 107 92 84 86 100 134 181 225 243 238 222 198 176 183 178 162 166 177 189 200 203 203 204 206 208 208 206 205 205 202 198 196 197 195 192 192 195 196 195 198 206 210 212 212 215 220 224 225 224 219 209 195 175 151 132 115 103 93 85 80 78 81 77 75 75 67 75 89 86 78 88 122 149 154 153 157 159 160 159 151 136 123 111 104 104 89 64 56 81 133 176 191 190 186 184 187 187 179 170 165 164 169 175 176 172 170 159 142 134 130 128 138 150 159 176 196 202 199 192 183 174 162 147 138 137 138 145 153 155 155 157 160 161 159 156 147 138 137 140 149 152 149 146 146 151 158 160 156 158 163 166 167 168 170 172 175 181 187 191 192 191 192 194 193 190 189 187 184 182 180 175 169 165 164 162 158 157 154 151 149 144 143 141 138 138 134 130 133 141 150 164 172 175 177 182 186 186 190 194 192 188 185 185 188 190 189 185 180 179 183 182 173 168 175 182 185 183 183 189 194 191 184 178 176 177 178 181 184 184 183 190 192 186 180 180 185 186 185 186 185 184 180 174 171 175 180 182 180 184 188 185 182 180 180 182 181 -9999 
-9999 186 195 200 200 202 206 207 205 200 200 207 209 205 202 203 208 213 215 212 209 209 208 207 206 207 207 204 203 202 201 200 198 195 191 182 176 180 185 187 185 191 197 196 198 202 206 207 206 204 200 193 188 189 193 192 188 188 188 187 189 194 194 194 195 191 187 187 185 180 176 176 175 175 177 179 178 180 184 185 184 180 175 172 173 177 184 185 179 179 188 201 214 224 226 224 223 220 218 215 211 208 205 201 195 190 185 187 186 190 195 197 195 192 190 189 187 182 172 164 162 167 172 171 170 169 170 167 158 149 146 142 133 133 136 144 157 164 149 118 99 87 81 96 129 168 209 238 246 242 224 191 152 150 162 166 172 176 185 195 198 199 200 200 200 200 199 197 198 195 187 186 188 185 183 182 182 183 180 180 178 182 188 191 201 207 211 215 219 223 224 221 213 203 191 164 136 123 109 87 69 65 67 79 85 79 82 75 55 46 56 75 94 109 127 145 155 160 155 139 124 121 118 113 109 93 71 61 86 146 185 191 184 180 181 186 185 175 166 160 156 157 160 159 157 160 154 141 137 143 155 168 176 177 178 182 182 179 178 177 167 154 148 151 149 145 150 157 161 160 158 158 160 160 155 143 133 132 137 146 149 147 147 152 161 165 170 169 168 174 175 176 177 177 175 175 179 181 182 183 186 191 193 190 185 184 184 183 180 176 172 169 167 164 158 152 151 150 149 144 133 128 128 132 136 133 135 142 146 152 168 175 176 176 177 178 176 170 166 170 180 183 180 179 185 193 197 194 188 191 190 181 174 174 176 178 182 186 187 186 187 189 189 190 188 183 182 182 180 177 179 182 186 188 192 194 188 183 181 184 189 188 182 177 174 177 181 181 186 188 185 184 181 180 182 186 -9999 
-9999 193 200 202 203 208 210 209 207 205 208 212 210 203 203 209 215 216 215 211 207 206 205 205 205 206 207 208 207 207 205 202 199 196 191 183 181 186 188 187 186 190 192 192 198 202 203 208 210 206 200 193 191 193 193 190 189 192 193 191 192 194 194 196 196 190 187 187 184 180 176 175 175 176 180 180 175 179 183 183 181 176 174 178 182 186 189 189 192 201 207 213 220 225 224 220 218 218 217 214 209 204 202 201 197 191 185 190 195 197 203 203 198 195 193 190 186 178 169 166 169 172 171 171 171 171 173 167 155 151 152 145 136 137 142 150 157 153 133 104 87 82 83 116 167 192 218 239 238 226 200 158 118 117 139 160 174 178 187 195 198 198 197 195 194 196 196 196 195 187 179 181 184 184 183 181 180 181 178 165 146 143 149 163 180 187 192 200 208 212 216 220 222 224 223 219 211 197 169 126 84 59 50 61 76 85 88 68 50 49 54 60 68 84 106 115 118 121 122 119 114 117 124 126 117 100 79 64 93 154 183 187 180 167 163 164 164 164 161 156 150 145 139 135 138 144 137 128 131 141 157 175 189 190 181 173 166 160 161 166 163 157 156 161 167 170 169 163 161 164 165 163 161 155 145 134 129 131 137 144 147 146 149 155 161 165 174 169 163 166 168 173 177 175 172 174 179 182 182 181 184 190 192 189 185 183 183 182 179 173 169 168 167 161 152 144 145 147 145 139 133 133 135 138 137 134 141 146 143 145 158 170 178 184 188 190 184 171 164 171 179 179 174 175 183 194 200 196 188 188 192 190 179 171 169 169 172 177 178 179 183 185 185 186 184 179 178 177 177 179 182 186 190 191 191 191 188 183 179 181 186 185 183 182 176 174 180 184 185 184 181 183 183 183 183 184 -9999 
-9999 201 208 207 207 211 211 209 209 209 211 212 210 208 210 215 217 214 211 206 201 202 205 206 207 207 208 207 206 207 203 198 196 195 191 188 189 189 187 187 187 185 183 185 193 196 197 202 204 200 198 195 194 194 195 194 192 192 193 193 194 194 192 194 194 186 180 180 178 176 178 182 185 185 184 179 177 183 181 176 174 170 169 176 182 185 187 193 205 216 221 223 221 219 217 216 217 216 213 210 206 199 197 197 196 193 189 188 200 204 204 201 195 193 190 188 183 175 169 171 174 171 167 171 173 172 173 166 150 150 153 144 137 139 144 148 146 135 119 102 87 87 100 143 189 200 215 228 222 197 159 120 97 104 125 152 178 188 193 196 196 194 191 190 190 194 196 195 189 182 180 185 189 188 180 168 162 156 142 121 118 128 132 145 165 170 176 187 195 197 201 205 208 213 219 223 227 225 217 197 161 113 78 64 66 79 87 81 83 86 80 71 66 71 73 72 85 101 119 127 124 129 139 139 126 113 92 74 104 155 173 178 175 162 150 146 150 155 155 153 148 140 127 120 122 126 120 119 132 150 172 188 194 191 182 175 169 165 161 158 156 157 155 153 156 169 176 170 168 172 173 169 162 152 141 130 129 133 138 145 146 145 146 151 154 159 165 155 151 165 173 175 174 171 171 179 186 188 188 183 178 179 183 184 182 178 176 176 173 167 166 168 166 160 152 146 148 148 143 139 138 141 144 143 138 136 142 140 137 142 157 169 178 185 187 187 185 180 180 187 187 173 167 175 184 193 199 194 179 172 178 184 183 178 175 177 178 175 175 178 181 179 173 171 169 170 174 175 176 178 183 189 190 185 185 187 187 186 188 187 184 182 183 182 176 172 176 181 180 179 179 183 185 184 181 179 -9999 
-9999 203 205 204 204 206 208 207 208 206 206 208 209 211 215 218 216 212 208 202 198 203 208 209 209 207 205 203 203 203 198 193 193 194 192 192 192 187 184 184 184 183 184 186 190 193 196 200 200 199 199 197 196 197 198 195 192 192 192 193 193 193 193 192 187 178 174 178 179 178 182 186 190 188 183 181 185 185 179 174 170 166 169 176 181 183 190 202 211 216 220 223 220 215 214 216 221 221 215 212 208 201 196 195 197 196 191 186 199 203 196 191 188 187 185 182 176 168 166 170 172 164 161 167 171 172 174 165 150 153 157 146 138 138 141 140 131 122 115 107 90 95 119 159 194 199 206 210 203 181 142 111 103 109 119 151 186 196 196 194 192 188 186 187 190 193 193 190 185 183 186 190 193 185 164 144 127 105 81 77 97 118 122 137 151 149 154 168 180 181 178 180 187 193 197 205 216 222 224 223 220 201 153 104 81 80 84 90 104 112 113 98 77 59 47 55 73 89 106 117 125 140 149 144 135 130 105 77 98 137 153 158 162 162 157 151 147 143 145 149 146 137 123 114 114 115 114 123 142 165 187 195 194 187 180 179 181 181 173 163 157 156 152 147 148 155 162 167 171 174 176 173 165 153 142 138 142 141 141 146 146 143 145 151 156 161 161 154 160 177 177 172 169 169 177 189 193 191 189 184 178 176 176 176 174 171 168 164 158 155 161 167 167 160 152 149 151 150 145 142 142 142 144 143 142 144 147 143 140 147 162 173 176 175 171 170 171 170 172 176 177 172 171 174 180 187 190 185 177 173 175 180 186 188 186 186 183 178 177 177 176 172 170 173 174 177 181 180 176 175 177 181 184 183 187 190 190 189 188 185 180 180 182 182 178 172 171 176 177 177 182 185 184 181 178 176 -9999 
-9999 206 206 207 206 206 207 208 207 206 208 211 212 214 217 217 213 210 207 202 204 214 217 214 211 209 207 205 206 203 198 197 197 194 190 189 187 183 180 179 180 183 186 190 195 197 198 201 204 205 203 199 199 203 199 194 195 198 198 195 193 192 192 186 180 176 179 185 184 184 186 187 188 183 179 179 180 178 177 176 173 170 174 179 181 181 189 201 207 211 215 219 218 215 214 215 216 217 214 210 206 200 196 196 198 198 192 188 195 205 197 189 186 185 182 177 170 165 166 171 170 162 160 168 173 174 174 165 154 159 159 148 140 138 139 133 123 117 113 107 93 104 137 171 194 196 197 196 190 171 136 116 115 117 123 162 196 200 197 193 190 185 185 188 188 183 180 182 184 188 192 191 184 161 135 119 102 82 70 78 93 109 122 134 134 127 133 142 149 154 149 149 157 165 168 174 185 198 211 220 224 223 215 188 140 101 79 79 96 113 122 116 93 67 58 69 69 66 76 94 120 143 149 145 142 137 111 80 91 121 139 146 152 157 159 151 136 125 130 140 139 126 112 110 106 99 100 106 122 146 167 174 176 179 178 180 184 184 177 166 160 160 158 157 158 158 160 165 172 177 179 173 163 152 144 145 148 143 144 153 154 151 154 160 162 164 164 164 172 178 174 171 167 166 177 189 192 190 187 184 184 184 178 170 166 166 165 160 151 150 158 166 163 149 142 146 150 149 147 146 145 146 149 150 150 147 144 143 148 159 169 172 166 160 163 168 169 167 168 169 169 173 175 170 171 175 177 177 183 178 169 172 183 188 185 181 178 177 177 174 172 173 180 187 188 187 188 186 182 181 181 179 179 181 189 194 193 189 185 183 181 182 182 186 186 176 173 173 173 177 186 187 183 180 178 174 -9999 
-9999 210 213 212 208 207 208 209 210 213 218 218 215 215 216 213 212 213 213 211 216 224 224 217 212 211 211 211 210 207 202 201 199 193 189 186 182 182 181 182 181 180 182 191 199 204 208 211 213 209 203 199 201 203 200 197 200 201 197 193 191 193 193 185 180 180 184 187 184 185 187 187 186 182 179 179 178 175 175 175 175 178 182 184 184 184 188 195 200 204 208 211 212 213 213 213 212 209 207 206 202 198 195 194 195 196 193 190 191 201 197 192 192 190 186 180 174 173 176 178 175 167 165 168 173 174 173 165 158 156 151 145 141 138 135 130 122 117 113 106 101 117 153 183 195 199 201 197 189 166 130 113 114 116 128 168 198 200 196 191 187 185 189 192 186 176 175 184 188 190 192 185 158 124 107 101 95 93 102 121 135 150 157 151 140 128 125 123 120 119 121 127 130 133 145 156 160 165 178 195 209 218 223 221 209 168 117 93 92 104 117 117 104 91 88 87 75 73 88 102 117 126 127 132 133 120 91 64 71 110 141 144 141 144 146 138 120 107 106 109 106 99 93 88 75 77 89 93 111 131 141 145 153 167 180 186 187 184 176 165 167 176 179 179 181 180 177 176 181 187 183 169 157 150 145 144 143 141 151 159 157 153 157 160 161 163 165 165 167 170 175 177 171 167 172 180 184 183 181 179 181 181 176 169 163 161 160 155 149 148 152 153 141 126 127 135 141 146 150 148 144 146 150 150 147 142 142 149 159 168 173 174 173 173 175 179 182 180 174 171 172 176 175 169 165 166 169 177 182 176 174 180 181 182 178 169 168 171 172 172 173 177 183 187 187 188 187 186 188 190 189 185 181 181 187 191 188 184 187 188 186 184 182 187 183 177 180 177 175 178 184 184 180 180 182 179 -9999 
-9999 211 211 208 206 208 211 211 213 216 219 217 215 215 213 211 212 216 218 219 223 225 222 215 213 215 215 214 211 207 204 203 200 194 190 186 182 181 179 181 181 180 186 195 202 209 213 214 213 209 204 200 199 200 200 200 203 201 194 190 191 193 191 184 182 183 183 181 180 180 180 182 184 184 181 182 183 181 181 180 180 184 189 194 194 194 196 198 200 204 204 201 202 204 205 205 204 202 201 201 199 198 196 196 195 196 195 189 187 194 197 197 201 200 193 187 184 184 187 186 179 172 166 167 171 171 168 162 154 148 143 143 142 140 139 133 124 119 115 111 108 126 169 193 199 207 209 190 170 149 122 112 115 117 136 177 199 198 193 189 185 188 193 195 191 183 187 197 198 192 182 158 119 97 96 94 92 101 127 160 183 187 176 162 147 126 115 116 115 110 112 123 130 132 137 137 137 140 141 138 153 191 215 221 223 219 198 157 116 98 98 102 101 94 86 78 72 90 115 122 125 123 119 123 122 104 75 52 64 109 142 141 131 129 131 124 109 96 89 82 76 77 77 69 60 70 84 95 114 121 120 126 142 162 182 191 193 190 182 175 179 182 181 186 195 196 193 190 189 184 174 160 153 154 151 149 150 152 156 155 150 151 155 157 162 164 163 161 163 166 168 169 167 168 176 180 180 175 171 171 174 175 173 170 165 160 155 147 142 142 138 130 118 114 121 127 132 140 143 137 132 133 137 139 140 142 149 158 163 165 166 173 182 187 191 193 192 193 194 189 184 184 179 173 172 171 171 179 189 198 201 189 170 169 173 171 171 170 168 171 177 180 180 178 176 180 184 186 189 190 188 186 186 186 188 188 184 182 183 185 186 186 184 183 176 176 186 184 176 173 175 176 178 180 183 184 -9999 
-9999 209 210 211 212 214 215 215 215 215 212 209 212 215 214 214 214 214 213 214 217 216 213 214 218 221 219 215 210 206 205 205 200 192 188 186 183 179 178 181 183 184 192 198 207 213 213 211 210 207 202 197 198 202 204 202 203 201 195 192 191 188 183 179 181 184 183 181 180 179 178 180 182 181 179 185 189 191 195 193 187 188 193 195 194 195 194 198 201 202 200 196 193 192 192 192 194 198 200 199 196 196 194 196 195 193 194 190 189 192 198 202 203 197 190 188 187 188 190 188 180 172 166 166 171 169 165 159 152 147 147 147 145 144 140 133 127 123 122 115 109 144 189 200 203 210 199 161 139 132 120 119 120 126 155 191 202 198 193 190 191 195 198 197 195 188 189 197 194 179 149 113 86 90 102 100 99 118 148 168 179 177 165 155 140 125 125 135 132 122 124 138 144 137 128 124 131 135 127 111 116 134 156 192 218 221 220 215 190 140 104 87 84 83 86 84 78 87 102 115 127 132 135 138 130 109 83 66 77 110 136 138 126 119 117 107 94 93 97 92 81 75 68 65 70 85 99 108 117 123 125 131 143 156 171 184 194 192 185 185 183 174 174 186 194 194 191 190 187 178 168 163 162 162 155 151 158 159 151 150 152 155 156 157 159 157 158 163 168 169 166 165 167 175 189 191 182 172 170 175 177 175 174 171 165 158 150 140 136 137 139 138 131 127 128 131 134 136 131 121 115 115 123 133 138 138 144 152 157 165 172 182 186 184 188 192 192 198 208 211 209 198 184 178 174 175 180 184 190 195 186 168 166 174 183 188 185 179 175 180 185 186 186 184 176 176 181 184 186 185 179 179 184 185 184 183 180 175 174 178 184 184 183 183 181 184 188 180 167 159 159 167 177 180 180 179 -9999 
-9999 215 220 223 222 219 216 214 214 214 213 215 219 219 217 217 217 214 210 209 209 212 215 220 222 221 218 214 209 205 203 199 191 184 181 183 182 180 182 185 188 190 195 201 208 213 216 217 215 210 204 202 203 206 206 203 202 199 194 191 188 183 176 176 182 184 183 181 180 181 185 185 180 174 176 184 186 189 192 187 181 184 188 186 184 184 185 191 196 197 198 198 194 190 189 192 196 198 198 197 196 195 191 188 187 189 195 195 190 188 192 195 190 183 182 185 186 185 185 182 177 170 163 164 168 168 168 165 158 155 156 154 150 143 133 132 134 125 122 110 115 169 202 202 204 203 180 145 129 126 125 127 123 130 165 196 200 194 190 191 194 198 200 200 199 191 181 179 167 140 109 93 95 106 102 96 112 139 159 169 173 167 157 153 148 146 147 145 132 120 121 125 121 116 118 122 128 128 123 119 126 119 112 134 166 180 198 216 221 212 172 123 95 80 77 85 90 86 79 83 96 113 129 132 122 108 85 63 66 93 124 135 128 119 104 88 88 103 112 102 85 72 62 63 74 95 114 123 131 137 138 141 142 141 148 167 187 191 185 188 190 186 187 194 198 202 205 205 200 189 179 169 163 161 156 157 165 158 149 155 159 158 157 158 156 155 159 165 168 170 174 178 180 185 195 194 181 171 172 175 170 163 164 164 161 157 155 152 152 152 153 153 146 138 135 137 138 134 126 118 117 124 134 137 134 132 137 146 152 164 176 186 188 185 183 182 180 180 181 182 186 188 189 193 184 179 187 188 186 180 170 166 172 175 182 186 183 180 182 184 181 177 178 177 170 169 170 173 176 177 174 175 178 179 178 177 175 173 173 175 180 181 182 184 185 187 185 175 164 157 159 168 177 179 179 180 -9999 
-9999 222 225 224 220 217 215 215 216 215 216 220 222 220 218 218 217 214 213 214 217 221 223 222 220 219 217 212 206 201 196 187 178 172 172 177 181 182 181 182 187 190 195 204 210 211 213 213 211 210 211 211 209 208 205 202 200 198 195 192 189 186 182 185 186 182 180 180 183 188 190 186 182 179 184 184 180 179 175 168 168 175 180 181 179 181 187 194 197 200 205 208 204 197 195 198 198 195 194 193 193 193 189 184 189 198 203 199 190 186 187 189 184 182 183 187 188 184 179 175 170 162 159 163 167 168 169 165 157 156 159 155 146 138 136 143 141 116 100 96 126 184 205 203 202 192 167 139 121 116 126 130 117 129 174 199 197 191 190 193 196 198 200 201 201 191 170 159 143 115 96 100 112 111 101 108 134 154 164 168 164 152 141 136 134 139 144 139 131 124 117 108 104 114 124 126 125 124 126 132 142 139 126 118 112 120 154 190 213 221 221 202 167 123 94 91 87 76 67 64 72 90 104 102 93 89 73 52 53 76 107 122 124 119 103 87 96 107 102 89 78 71 66 67 79 101 118 122 124 125 125 131 135 136 142 153 167 179 188 196 202 205 204 203 205 209 213 214 210 203 190 172 163 159 153 158 164 156 153 160 163 160 161 161 159 161 160 159 161 166 174 179 178 177 182 180 172 169 170 170 163 159 160 158 156 155 154 154 155 154 149 142 133 128 134 140 138 133 129 131 138 144 147 143 140 139 147 154 156 161 167 176 185 188 187 183 180 176 170 165 165 175 191 200 196 182 171 169 173 178 179 177 172 166 168 171 172 176 180 177 169 162 158 150 149 154 159 167 175 179 181 184 183 181 182 181 180 179 179 181 182 182 180 179 181 183 180 177 178 181 184 184 182 181 184 187 -9999 
-9999 219 219 216 211 210 213 217 216 211 210 214 216 215 215 217 216 214 214 216 222 223 219 214 213 215 214 207 200 194 187 178 171 165 165 171 175 175 174 176 181 185 193 205 211 211 210 209 209 210 211 209 208 208 206 205 203 201 198 194 189 186 189 192 189 185 186 187 190 192 187 182 182 186 189 185 179 176 170 164 164 169 177 183 186 192 201 204 209 210 209 207 201 192 191 194 195 194 192 186 184 187 186 189 200 204 203 198 188 185 184 187 188 187 188 190 190 184 179 177 170 163 163 168 171 171 167 160 153 153 154 144 133 136 144 143 126 94 79 100 153 197 205 202 197 179 146 118 106 107 125 131 117 139 187 203 197 194 195 198 199 198 199 199 196 181 154 140 129 111 103 109 109 109 118 141 166 176 175 163 152 143 136 128 123 129 135 134 131 130 133 137 138 138 142 146 142 137 137 138 141 145 151 147 133 133 147 165 188 208 218 221 218 201 186 153 105 72 58 52 54 54 44 30 36 57 64 50 45 59 89 105 106 107 105 98 104 97 85 86 85 84 78 83 101 119 123 112 106 108 110 116 127 141 152 157 158 165 183 196 203 208 207 205 204 202 199 198 198 193 184 176 172 165 155 156 159 155 158 164 167 165 163 159 157 160 157 154 153 153 157 162 164 161 159 155 156 161 163 163 162 164 163 159 155 149 141 137 137 139 138 132 124 125 134 138 135 132 135 143 145 145 144 143 147 151 155 161 165 168 172 180 188 188 188 189 189 188 183 180 179 185 194 195 190 179 166 162 166 173 179 184 181 172 170 174 175 176 174 171 167 161 154 145 150 165 174 180 184 185 186 191 192 190 189 188 184 182 184 186 183 175 164 164 173 178 177 182 189 192 192 190 186 182 185 190 -9999 
-9999 215 213 208 202 203 209 211 207 203 207 210 210 210 212 214 214 214 216 218 220 220 218 215 213 211 206 199 193 188 181 174 172 170 169 171 170 167 169 175 183 187 193 204 207 209 213 215 215 213 210 209 209 209 210 209 204 200 195 189 181 178 182 185 185 185 187 189 191 190 185 183 185 187 186 182 177 176 175 171 170 176 185 191 192 198 201 201 206 205 200 195 189 183 184 187 192 196 191 180 179 181 183 191 201 202 201 198 190 189 185 183 185 183 182 185 185 180 180 181 175 169 170 174 176 174 169 162 157 152 143 130 125 134 137 124 107 85 83 133 189 204 202 195 179 147 115 101 100 109 126 128 120 152 195 202 196 195 199 202 201 198 197 196 190 170 137 117 114 111 108 110 110 122 141 157 173 179 173 164 160 155 150 146 142 139 134 131 132 137 145 154 156 149 148 147 142 142 141 145 150 154 162 171 170 162 160 159 161 178 204 217 219 219 219 211 168 117 81 60 50 39 13 0 16 37 43 39 31 37 73 92 96 103 102 98 109 105 98 100 99 99 100 117 135 139 131 120 114 114 113 115 126 144 157 162 163 167 182 194 199 201 204 205 202 198 195 194 189 178 172 171 172 172 171 171 166 160 164 171 172 166 162 159 162 165 164 163 158 151 153 159 160 155 156 158 158 158 156 155 156 160 162 161 159 149 138 135 137 139 137 131 129 132 136 135 134 136 142 144 141 141 139 137 145 151 150 154 162 172 184 190 190 187 188 190 189 190 192 190 189 191 192 187 182 180 181 180 176 179 186 191 187 177 174 179 177 172 168 168 170 170 167 164 169 176 180 181 178 177 180 187 193 196 194 189 184 183 186 186 180 166 155 167 180 178 174 178 181 179 177 181 181 177 177 182 -9999 
-9999 214 213 209 206 209 211 209 206 206 210 208 206 207 208 209 209 212 216 216 216 219 221 220 215 205 197 193 191 188 184 181 183 180 175 176 174 172 174 181 188 193 200 206 206 212 216 216 214 211 211 213 213 211 211 208 199 193 188 181 176 175 180 182 180 180 180 185 192 193 190 189 189 186 181 179 179 181 180 177 182 192 197 196 192 192 193 196 200 197 194 193 191 189 191 191 192 192 185 181 184 184 185 191 197 200 200 198 194 193 187 182 184 181 179 182 183 181 181 181 175 172 176 179 178 174 169 162 155 145 135 125 123 125 122 112 101 88 108 171 203 201 193 176 145 112 97 97 108 123 130 122 124 167 201 202 197 198 202 204 203 199 197 195 187 164 126 104 107 110 109 109 119 139 153 161 168 168 165 162 164 159 152 149 145 145 146 145 147 152 155 156 151 145 143 137 135 139 146 157 166 172 173 171 166 163 166 165 159 164 182 200 212 218 219 220 217 197 163 119 86 60 30 25 35 29 16 8 0 6 44 64 70 80 87 96 114 118 115 115 110 115 131 150 154 149 143 140 139 136 132 129 133 143 149 152 156 167 183 193 191 192 201 206 206 201 197 192 185 180 177 172 171 173 174 176 175 172 175 180 177 169 165 164 167 169 168 168 163 159 166 168 162 158 166 173 166 157 152 152 154 157 159 157 152 143 139 143 145 142 136 132 135 138 137 137 138 142 147 145 141 137 132 133 145 147 143 146 155 171 188 192 189 186 187 190 193 196 201 204 202 195 183 177 180 180 179 181 183 184 192 198 190 180 173 170 167 166 166 166 167 175 181 181 176 166 165 171 173 175 179 185 192 194 191 183 177 177 182 182 175 165 168 187 190 180 173 171 169 164 165 176 174 164 167 174 -9999 
-9999 217 217 215 214 216 215 212 212 213 212 208 205 206 208 209 208 212 212 209 211 214 216 214 209 201 195 193 193 192 190 188 188 181 174 175 178 181 184 189 196 202 208 211 215 220 219 215 212 211 212 213 211 207 206 200 190 187 184 179 176 177 181 181 176 174 177 184 190 189 185 185 185 181 180 184 187 186 185 186 193 199 198 194 190 191 195 200 202 200 198 197 198 201 203 199 191 187 189 190 190 188 188 190 194 196 196 193 194 194 190 185 185 188 183 179 183 187 184 181 178 178 182 181 175 170 166 159 148 139 132 125 123 124 119 108 96 100 144 193 204 194 179 153 117 97 96 101 120 133 127 116 135 182 203 200 198 200 202 202 202 199 194 189 179 156 121 103 105 102 103 119 144 162 166 166 164 159 155 155 159 153 144 142 143 150 154 147 145 152 159 157 143 135 136 136 138 143 150 155 163 176 179 170 162 164 170 172 166 155 153 168 192 207 212 218 222 220 212 197 154 100 66 56 44 20 1 0 0 0 11 30 36 41 56 78 98 110 114 112 116 133 152 158 158 159 155 157 164 162 156 153 146 142 141 141 145 156 170 181 183 187 196 204 208 207 201 193 186 186 185 178 174 172 172 175 178 181 186 188 183 175 173 174 174 173 171 168 164 166 177 175 163 162 169 171 162 153 150 149 149 150 148 140 136 136 142 149 150 145 139 136 137 138 139 140 143 145 145 140 135 132 130 136 145 146 143 147 159 174 183 186 189 192 195 197 200 197 194 197 197 190 183 182 182 183 182 182 183 184 189 196 197 191 175 165 164 165 163 161 160 165 170 172 171 166 166 172 178 182 185 185 184 182 178 172 169 172 176 176 174 172 181 192 189 179 176 173 169 163 168 177 171 164 170 175 -9999 
-9999 216 216 214 214 215 214 212 213 215 214 209 207 210 212 212 213 216 215 213 215 214 211 208 205 203 200 197 194 191 188 185 182 176 173 178 184 187 189 195 203 208 210 213 219 222 219 217 217 215 213 209 206 203 199 192 185 184 181 177 174 173 174 175 170 172 182 188 188 182 178 178 179 178 182 187 184 183 187 194 199 198 192 189 190 195 200 202 202 199 197 198 202 206 208 204 194 191 194 195 195 194 193 192 192 194 192 188 188 189 187 185 184 186 181 172 176 181 178 179 180 181 181 176 169 168 166 155 143 137 131 125 123 123 112 102 107 134 178 201 199 181 160 132 104 99 105 112 131 134 118 116 148 192 201 196 197 200 200 200 199 190 175 162 151 136 111 97 91 85 103 140 170 181 179 173 166 160 154 155 156 149 145 146 148 151 148 146 152 156 145 129 121 124 129 138 145 151 154 152 156 163 166 163 160 167 171 168 157 144 137 142 156 171 183 198 211 217 218 217 206 167 120 85 59 36 15 5 0 1 16 32 35 31 41 54 68 89 103 112 131 150 160 163 170 177 174 172 179 184 182 175 160 147 141 138 139 145 155 172 188 196 197 200 204 206 203 198 194 195 193 186 186 184 179 180 184 188 190 188 182 176 177 180 180 180 175 169 167 174 185 179 166 166 168 165 156 153 155 153 150 147 139 132 134 137 140 141 142 143 142 140 140 140 141 144 147 147 142 135 133 134 135 141 151 155 150 153 165 175 181 188 194 199 202 201 203 204 200 194 188 184 188 192 188 190 195 191 185 183 181 185 195 197 182 171 172 175 173 168 166 163 157 163 180 190 186 179 176 178 180 181 178 172 165 162 168 175 176 176 177 177 181 186 181 174 176 177 174 170 176 178 174 176 180 177 -9999 
-9999 210 210 209 211 213 213 213 213 213 212 210 211 212 212 212 214 218 221 222 223 219 213 207 204 203 201 195 189 185 182 178 178 176 176 183 188 188 190 197 203 204 208 214 215 213 214 218 219 216 210 206 206 203 197 193 187 180 174 169 165 164 168 172 173 179 189 191 188 183 179 180 182 183 189 188 184 188 193 198 199 194 189 189 192 199 203 201 198 194 193 196 199 201 203 204 201 197 192 191 196 197 195 192 189 188 185 181 181 184 187 187 185 183 180 174 164 156 157 169 176 176 175 169 165 166 163 149 137 133 127 119 113 107 101 112 142 176 199 201 188 166 141 116 101 111 120 126 144 137 120 127 164 198 200 194 197 201 199 196 184 156 129 119 117 111 95 81 68 76 129 173 187 181 170 161 155 153 153 157 155 152 154 156 159 158 158 166 175 163 134 117 123 135 140 146 149 155 160 161 163 160 158 155 159 171 167 152 144 146 144 132 126 128 134 148 170 191 206 216 219 214 192 160 132 109 90 84 83 80 85 86 71 55 56 52 53 72 95 125 152 163 171 179 187 193 191 182 179 187 188 179 164 152 144 139 137 142 156 178 201 209 207 203 202 202 202 201 200 200 194 190 193 190 187 191 193 193 192 188 183 180 181 180 178 178 173 170 170 176 183 179 170 167 160 150 146 153 159 158 156 152 146 144 144 140 135 132 133 141 144 144 145 146 146 148 152 154 148 142 143 146 146 152 162 164 159 162 168 173 180 189 195 196 195 196 199 204 204 197 193 192 193 198 201 202 200 194 188 182 176 178 192 198 188 177 177 183 184 182 178 170 165 176 193 203 199 185 173 167 167 174 180 175 165 163 170 176 175 175 176 174 178 180 172 163 166 169 170 173 176 176 177 182 181 175 -9999 
-9999 207 206 207 208 210 211 211 210 209 211 213 213 210 207 208 211 215 217 220 223 221 215 208 204 201 196 189 184 181 180 177 177 175 175 179 180 183 191 197 198 200 207 212 209 208 210 213 212 210 207 207 207 202 196 192 182 172 167 163 158 160 170 177 178 181 188 190 185 179 179 185 190 191 195 194 195 197 197 198 195 190 188 189 194 201 202 198 193 189 192 195 195 194 198 202 202 200 195 192 194 193 190 186 179 174 172 172 170 174 186 191 187 184 183 178 165 150 145 153 162 166 169 167 164 162 155 141 131 129 120 106 96 95 112 147 179 196 200 192 175 148 117 99 104 122 128 134 146 135 123 137 175 201 200 194 199 203 195 175 144 110 94 99 107 106 90 71 65 101 169 191 182 167 151 142 139 142 149 152 155 159 164 167 169 167 166 165 152 132 123 131 143 150 159 164 162 164 168 170 172 167 160 153 159 167 158 145 138 133 127 120 114 113 116 124 138 159 187 211 218 217 215 209 202 194 187 194 202 199 193 180 152 124 102 71 59 72 90 118 152 172 181 186 190 196 201 197 186 184 188 185 170 154 148 150 148 151 167 192 208 210 208 208 208 205 203 202 201 197 190 187 190 189 190 197 199 198 195 191 191 189 183 177 174 173 170 170 174 179 182 178 171 161 152 147 149 154 156 154 152 151 150 148 144 138 134 131 137 146 146 146 149 149 148 152 157 161 157 155 158 158 158 165 171 166 163 170 178 180 180 184 193 197 197 195 190 190 194 195 193 195 197 198 204 204 199 197 196 194 187 183 189 197 196 187 180 178 178 182 183 177 177 185 188 192 193 189 182 176 175 175 175 175 171 172 177 178 172 170 171 170 175 177 168 159 157 156 160 168 173 176 177 176 170 169 -9999 
-9999 209 208 207 207 208 208 207 204 202 203 205 206 207 207 207 208 206 202 203 210 211 204 199 197 190 183 181 183 185 184 177 175 175 175 177 180 186 193 197 202 207 206 203 207 211 210 206 206 207 207 205 203 198 191 182 167 158 160 160 158 164 175 180 180 182 188 190 185 182 185 189 191 191 194 194 191 190 190 192 190 187 187 187 194 201 200 195 191 193 200 202 198 198 202 201 200 200 198 196 194 189 181 178 177 176 176 174 169 165 168 177 181 182 182 178 179 170 154 151 155 157 166 168 160 155 145 130 120 113 101 89 90 115 156 187 199 200 189 177 158 126 99 97 111 124 130 135 139 128 122 145 186 204 199 189 190 188 170 131 99 86 86 100 110 106 89 78 91 139 182 182 172 162 149 146 147 151 154 154 163 171 172 168 165 163 159 150 134 129 134 151 164 168 172 172 170 173 175 175 174 170 158 151 161 164 151 137 123 109 111 121 128 127 125 128 139 154 178 204 215 213 213 214 216 216 215 219 224 225 222 219 212 204 184 142 111 100 102 122 154 176 184 191 193 192 202 209 204 197 195 200 196 178 164 167 182 181 179 196 207 211 214 216 217 215 211 207 201 193 186 189 195 194 193 197 200 200 195 193 195 188 179 177 178 176 170 171 178 181 178 171 161 156 157 157 153 153 152 144 140 143 143 142 139 138 142 143 147 149 146 149 154 155 155 158 162 163 161 161 162 160 162 167 167 164 169 181 189 189 184 177 180 193 199 196 192 194 195 188 185 190 194 195 200 202 200 202 203 202 201 195 189 193 200 196 183 178 181 182 180 180 185 183 176 171 171 174 177 178 177 174 176 178 175 180 183 180 176 173 168 165 167 165 161 163 164 162 165 171 177 180 178 170 164 171 -9999 
-9999 210 213 211 208 208 206 204 201 198 196 196 202 207 207 206 203 199 197 199 201 194 185 184 188 183 179 182 183 182 182 177 174 175 175 178 184 190 197 201 209 212 208 206 208 209 206 204 205 207 204 199 196 191 185 178 167 159 160 160 161 169 176 178 180 182 187 190 186 185 186 185 184 187 189 187 182 185 189 187 183 183 181 180 187 193 194 192 197 209 216 211 201 199 198 196 197 197 194 190 188 186 181 179 181 184 184 177 171 170 173 179 182 183 182 181 184 181 170 161 151 150 158 153 142 139 134 121 110 100 91 91 114 163 196 205 203 194 173 156 137 110 99 106 120 131 138 139 135 125 125 158 197 204 193 175 162 147 122 90 79 80 81 95 102 95 89 91 112 147 160 154 157 159 151 150 154 157 160 165 175 178 171 161 157 157 158 156 153 155 162 176 184 183 176 168 168 173 176 174 165 160 156 155 161 154 134 125 120 120 134 146 145 132 124 137 159 171 185 207 219 213 212 212 214 215 215 217 218 218 218 219 220 221 221 214 200 153 122 127 155 184 194 198 196 190 195 204 204 204 201 201 209 209 201 191 199 203 193 200 212 219 220 217 214 212 210 208 204 197 194 198 197 191 190 197 202 201 198 198 194 184 180 183 186 185 179 180 181 176 168 158 151 154 162 162 158 156 150 143 150 152 144 141 140 145 151 153 152 151 151 154 158 161 163 166 167 164 161 158 159 163 165 165 161 162 174 186 191 191 190 190 189 189 190 195 199 200 192 185 190 194 193 194 198 200 201 202 202 199 199 193 182 183 190 189 181 177 182 183 181 183 183 181 177 174 167 166 173 180 179 182 186 182 175 175 176 175 175 172 166 162 164 167 169 176 180 179 173 166 168 174 177 174 173 180 -9999 
-9999 209 212 211 206 203 201 200 197 195 197 199 202 203 203 203 203 204 210 215 210 197 190 194 197 192 188 189 184 176 174 175 174 173 175 181 186 193 197 201 206 206 205 207 205 204 206 207 203 197 192 190 190 186 182 179 171 163 162 160 162 171 176 177 176 178 185 189 188 186 184 182 184 186 187 186 187 193 196 191 185 181 179 183 189 194 197 195 203 212 212 204 198 195 189 185 186 188 186 183 184 186 186 187 184 181 180 177 176 183 191 191 188 185 184 182 183 183 181 173 155 143 139 129 122 128 131 120 108 97 102 127 165 199 208 205 197 182 156 139 126 110 105 112 126 141 148 145 133 122 130 171 201 200 186 162 137 115 93 74 76 82 85 97 100 91 88 97 122 141 132 132 144 142 134 138 145 152 156 160 166 167 160 155 156 157 159 160 163 171 181 187 186 181 177 172 171 172 171 166 157 152 152 158 161 150 134 135 138 140 140 137 131 126 138 160 177 184 190 199 209 207 204 200 204 209 210 211 212 212 213 214 215 217 220 221 221 204 148 120 129 162 192 198 192 189 189 191 189 193 198 194 196 206 217 219 216 216 213 209 211 215 212 208 205 202 203 206 206 204 203 202 196 191 194 201 203 200 198 197 191 184 185 187 186 186 182 182 175 162 156 153 154 162 165 164 165 163 154 156 168 162 151 150 148 151 154 154 155 159 160 159 160 164 168 170 170 169 167 165 169 174 176 176 178 182 188 189 189 189 196 210 211 199 194 201 204 197 191 195 201 201 198 197 196 196 199 198 195 194 194 191 186 181 175 177 185 185 183 182 184 186 184 182 186 187 179 174 177 181 179 177 176 173 172 173 170 169 168 165 162 162 167 175 176 171 171 173 171 168 171 173 172 170 171 175 -9999 
-9999 206 205 203 199 197 196 195 194 197 202 202 200 199 201 205 207 209 213 216 214 207 207 211 207 198 193 191 187 183 182 181 175 172 177 183 188 193 194 197 199 197 193 192 196 199 203 201 192 186 185 187 188 182 178 173 159 149 149 152 159 167 169 169 170 177 186 188 188 190 186 186 189 191 189 185 186 190 193 193 188 185 186 191 197 202 200 194 199 199 193 191 197 197 188 180 178 179 180 182 188 187 183 184 187 187 187 186 188 193 189 181 181 183 183 182 183 186 183 183 179 165 148 128 119 126 128 118 110 112 142 179 198 207 208 203 187 163 140 127 124 117 113 122 138 149 154 147 130 114 130 180 203 196 178 150 124 111 101 86 85 95 103 114 115 101 95 107 126 126 119 137 147 136 131 135 142 152 154 151 153 154 152 156 164 166 166 169 176 185 186 179 173 176 180 177 173 167 161 158 154 147 142 146 154 152 144 145 148 149 141 130 122 129 155 171 179 190 193 187 186 187 179 181 194 196 196 198 199 200 202 206 210 213 218 220 220 220 200 140 109 115 152 182 193 194 186 183 179 170 170 179 189 197 208 218 221 225 226 214 207 209 210 209 206 204 205 205 204 203 203 202 199 198 201 204 203 196 192 193 190 189 190 187 184 183 181 178 172 166 164 166 170 174 173 172 170 166 163 168 166 155 155 159 160 160 157 156 160 165 167 165 168 174 176 175 177 180 180 178 181 186 188 192 196 199 199 195 190 187 194 199 195 196 199 202 204 202 199 200 203 201 198 196 189 189 194 192 187 189 193 198 198 188 180 188 199 195 184 179 180 183 184 183 178 173 174 179 176 170 164 165 166 162 164 168 166 166 165 164 165 167 166 162 156 153 158 164 172 181 185 179 172 170 174 176 -9999 
-9999 204 199 196 196 198 198 196 197 203 207 205 201 201 203 206 207 205 204 206 205 205 209 210 203 195 189 186 187 187 188 187 178 175 180 182 182 185 188 192 193 190 185 180 180 181 181 180 179 184 186 188 186 178 171 161 146 136 139 151 160 163 163 162 170 181 185 182 183 185 183 186 191 192 186 180 182 187 192 191 185 185 189 191 194 197 191 187 193 195 192 193 197 197 193 189 188 188 186 188 190 184 176 176 180 182 183 184 187 189 184 179 178 178 177 178 182 187 186 186 188 188 179 158 145 145 140 132 132 154 189 204 201 199 200 193 168 142 128 121 123 121 121 134 146 152 155 142 120 103 138 193 204 192 168 136 114 115 116 103 104 116 122 135 136 122 121 126 121 112 122 144 145 140 145 150 155 157 152 150 156 158 156 160 166 167 168 173 176 181 181 178 178 180 178 171 163 156 153 149 141 140 141 137 137 138 137 143 149 152 153 148 132 128 139 153 173 192 199 192 178 157 137 157 172 162 154 154 157 157 164 182 196 207 215 219 220 220 219 186 126 114 135 163 184 191 179 173 174 167 161 173 189 199 202 203 210 222 228 223 216 214 213 211 208 207 204 200 197 198 201 203 203 201 203 204 200 195 192 193 193 192 191 190 188 186 183 177 179 183 185 185 184 180 179 179 174 171 173 174 166 158 159 162 165 165 159 157 162 168 171 173 179 183 182 182 187 192 192 191 192 195 197 199 197 194 194 195 193 190 191 190 186 188 191 194 198 201 200 201 203 200 196 193 191 193 195 193 191 194 194 190 186 185 190 200 203 194 182 176 175 176 176 177 174 172 178 185 182 175 174 178 175 167 163 161 162 165 164 167 172 174 169 162 158 162 167 166 169 176 180 178 174 171 173 175 -9999 
-9999 200 193 192 194 198 202 203 203 204 204 201 200 201 201 202 202 202 203 201 196 199 203 198 190 186 182 182 185 184 183 181 175 176 181 180 177 181 184 188 190 187 181 175 172 170 173 178 183 189 186 181 176 167 161 153 138 128 137 152 158 161 163 166 177 185 183 179 181 181 177 180 187 186 178 178 185 188 190 186 180 184 188 188 188 190 192 195 202 204 201 200 201 202 200 198 196 194 192 193 190 181 173 174 175 175 181 185 185 183 181 183 184 182 177 176 181 185 186 187 187 189 189 184 182 182 177 170 171 189 204 205 197 191 189 173 143 127 122 120 126 127 127 140 148 150 149 128 102 98 158 205 202 188 156 119 106 119 123 121 135 147 151 156 153 146 142 133 124 126 135 140 140 144 155 163 165 160 154 155 163 165 162 162 166 165 164 167 173 178 178 179 184 183 168 154 151 154 157 150 141 141 136 128 125 125 129 133 139 144 146 142 129 124 130 146 165 181 190 184 161 125 116 137 134 116 107 109 114 115 127 145 160 176 193 210 219 220 219 214 177 133 130 155 182 194 194 190 195 202 199 191 191 200 198 189 188 199 215 221 217 212 208 204 202 201 199 195 194 195 197 200 199 201 205 203 195 193 194 195 195 192 191 193 190 187 185 182 186 192 192 193 191 186 185 179 171 174 184 188 181 173 170 170 171 169 163 162 165 168 171 176 181 181 181 188 195 196 198 199 199 200 200 197 191 187 192 198 198 196 197 198 194 190 190 190 189 194 200 205 206 204 196 190 192 193 189 189 193 198 200 194 186 185 190 195 197 192 187 182 181 177 175 177 180 181 183 183 182 178 180 184 180 170 163 164 167 169 168 171 175 176 173 173 175 175 173 171 173 177 179 177 174 170 166 163 -9999 
-9999 199 195 197 198 199 202 201 199 197 195 195 197 199 199 199 201 205 208 202 196 196 192 185 182 181 181 183 186 184 180 176 174 176 178 174 175 181 184 186 187 185 183 182 185 189 192 191 190 190 181 175 171 162 156 150 140 135 147 155 156 160 166 172 181 185 183 182 184 181 174 178 184 179 175 180 186 187 186 183 184 190 193 193 193 195 199 202 206 205 203 203 205 202 196 192 191 190 190 189 187 182 180 183 185 189 192 191 189 186 184 185 189 190 187 185 187 187 187 189 189 191 192 192 195 197 196 194 194 202 205 202 194 184 172 147 125 123 120 121 130 132 131 141 146 148 141 115 92 111 181 209 198 177 136 104 108 128 135 140 156 164 161 155 147 142 133 122 130 142 139 142 149 157 167 166 164 162 160 159 162 164 165 172 177 175 171 174 181 181 174 168 170 170 154 145 150 157 161 157 149 139 127 128 129 129 129 124 128 131 121 110 105 111 121 131 144 155 157 154 141 124 134 136 111 90 87 95 100 106 121 131 134 144 163 190 211 219 220 219 217 161 130 144 176 200 218 221 222 226 227 209 192 188 180 164 156 163 183 199 199 196 194 194 196 198 197 197 197 194 193 194 195 196 200 195 191 195 198 200 200 195 192 193 190 187 187 187 190 194 193 192 190 187 188 183 175 181 194 194 186 183 182 180 178 176 173 174 176 176 178 181 182 182 187 195 198 197 199 200 199 199 197 192 185 186 194 199 198 197 200 203 199 192 188 185 182 183 189 195 195 195 191 188 186 183 179 180 185 189 193 193 190 188 186 183 181 185 191 192 188 183 182 179 176 178 179 176 174 176 176 174 171 163 159 166 170 172 173 175 177 174 173 174 174 173 170 170 173 177 179 176 174 173 170 168 -9999 
-9999 199 198 200 201 202 199 192 187 187 190 194 197 201 206 208 208 209 209 203 197 192 186 183 183 181 181 182 184 182 179 178 178 179 177 172 172 178 184 188 189 190 192 194 199 205 200 190 182 177 173 173 173 166 156 151 147 146 156 161 159 164 171 178 183 183 182 182 184 178 171 178 182 175 175 181 186 188 189 190 192 195 198 200 203 204 205 205 201 199 199 205 204 191 181 183 189 192 192 189 184 182 184 188 193 195 188 186 189 188 189 191 194 193 188 189 190 189 188 189 189 191 192 193 194 196 198 199 200 203 201 195 188 173 145 120 119 121 117 122 133 135 134 140 144 145 134 105 92 137 200 208 192 163 119 103 118 136 147 151 157 157 146 141 137 132 125 121 133 145 146 159 167 166 168 164 160 160 158 156 161 166 170 177 181 182 183 186 188 182 175 172 174 169 153 154 163 166 166 163 155 144 138 139 139 142 138 126 128 124 111 106 108 109 96 87 87 91 104 124 134 142 151 133 101 83 83 94 103 113 123 128 131 141 158 175 192 209 219 220 221 206 145 128 149 186 220 236 233 232 231 217 195 175 158 144 140 146 159 172 176 180 184 192 200 204 203 200 198 195 195 197 195 193 191 183 184 195 199 201 200 195 193 190 187 188 189 189 191 192 190 188 186 188 192 190 184 190 195 184 177 179 179 179 181 184 185 188 192 191 191 192 191 194 200 202 201 199 200 200 198 197 196 192 188 191 196 196 193 195 200 205 201 192 183 177 171 166 173 181 182 183 187 193 191 187 183 180 180 176 171 172 182 191 191 183 177 180 187 184 176 177 186 184 177 174 172 168 169 176 180 173 164 158 163 170 171 171 173 175 174 170 170 170 173 174 173 169 166 170 173 171 169 170 172 175 -9999 
-9999 197 195 195 196 197 193 187 185 189 193 194 197 205 212 212 208 204 201 196 190 186 187 187 182 179 181 182 182 181 181 181 181 180 178 173 173 178 186 191 195 197 194 194 200 203 197 182 172 172 175 175 171 164 154 152 148 146 153 157 159 165 172 179 182 181 180 179 178 171 168 177 180 178 181 185 187 188 188 190 190 190 192 198 205 208 213 212 207 204 204 206 199 183 178 187 193 196 195 189 182 176 177 179 181 179 178 184 187 188 190 195 199 194 185 185 191 192 190 189 189 190 191 191 192 195 196 197 198 198 193 184 176 156 118 106 124 128 125 133 141 140 133 135 142 143 128 97 96 158 204 203 184 147 111 110 130 145 157 152 144 141 135 140 144 141 138 130 134 145 153 164 166 166 168 164 160 157 156 162 172 175 174 172 170 174 182 184 183 181 184 189 190 176 159 166 175 170 161 155 151 151 156 154 149 151 146 137 139 134 127 127 126 111 83 67 53 47 56 73 100 132 137 115 86 74 81 94 103 113 124 134 143 155 166 171 177 189 203 216 220 220 170 121 119 156 206 237 233 232 233 224 206 179 146 131 136 145 152 162 171 178 184 194 202 206 205 200 195 193 197 196 185 179 179 177 183 189 188 188 185 183 184 185 189 191 188 189 191 191 189 188 190 195 198 195 191 195 193 181 175 174 171 173 183 191 195 199 201 198 196 197 198 199 198 193 190 193 198 201 200 198 198 196 195 197 197 193 192 195 201 205 205 204 201 195 183 169 166 173 180 186 195 197 194 193 188 182 177 170 166 173 184 191 194 191 186 187 186 177 169 171 177 182 183 176 169 167 169 176 183 179 170 164 168 173 171 168 173 177 170 162 165 168 166 164 168 171 170 171 170 166 165 169 174 177 -9999 
-9999 196 192 192 192 191 186 184 187 193 194 191 195 202 204 201 196 189 182 181 181 184 187 186 182 184 187 186 183 182 182 181 179 178 176 174 178 185 190 189 189 186 182 188 193 195 188 177 173 173 171 164 160 155 147 146 148 150 155 158 162 171 177 181 182 180 179 178 175 171 173 180 184 185 188 190 190 186 182 184 186 187 190 195 202 208 213 212 210 210 207 202 192 185 191 197 197 194 189 183 177 174 174 173 171 173 178 184 185 187 189 190 192 191 190 191 192 193 192 192 191 190 190 191 192 194 194 194 194 192 184 176 168 146 112 110 133 137 139 146 147 140 129 135 149 148 124 91 106 174 205 198 171 131 109 122 142 153 161 148 130 130 132 141 149 149 141 131 134 149 159 162 165 169 170 171 170 166 169 175 177 178 175 169 166 169 176 178 175 180 189 192 187 172 165 173 175 166 155 147 143 147 154 157 160 158 146 138 140 135 127 124 120 106 95 87 66 48 39 41 55 67 67 70 63 63 83 99 109 118 132 148 160 164 165 165 162 164 184 214 224 220 211 146 115 127 166 216 229 231 230 222 211 185 153 140 141 150 159 168 179 185 189 194 197 197 195 191 187 185 186 178 164 164 171 176 181 177 171 169 171 175 175 180 191 191 189 190 191 192 191 194 198 201 201 199 197 198 197 190 185 182 180 183 193 198 199 202 203 201 200 200 198 197 195 192 192 194 198 201 200 200 201 200 199 198 193 190 192 195 198 201 207 216 221 220 213 200 184 175 178 187 194 194 191 190 191 188 182 177 176 180 184 185 184 186 192 199 201 195 187 174 165 167 172 170 170 176 178 173 167 166 172 172 171 169 164 161 167 169 158 155 163 163 157 159 169 175 179 182 176 169 164 168 174 176 -9999 
-9999 193 189 189 192 192 189 185 185 190 189 188 193 193 189 186 183 178 176 179 184 188 186 181 180 184 187 184 182 181 180 178 175 173 171 172 180 187 188 182 173 169 176 186 188 186 180 176 177 172 164 156 153 148 142 145 151 153 155 160 171 180 183 184 184 182 183 183 181 179 180 184 188 189 188 189 190 186 184 187 188 190 193 197 200 204 208 206 205 205 201 192 185 189 201 206 199 188 182 178 178 183 184 184 189 194 192 187 185 186 187 187 186 186 190 192 191 190 190 193 194 193 193 193 193 194 195 195 196 190 181 174 162 142 119 121 140 145 148 149 144 136 131 142 156 149 116 90 124 189 207 192 155 124 124 138 149 159 166 145 129 140 146 146 150 148 137 132 142 159 170 175 178 175 172 172 170 172 182 184 180 178 172 165 170 177 180 178 175 181 185 183 177 170 174 179 176 165 156 148 138 135 140 149 159 157 146 141 142 140 133 124 117 108 105 107 95 69 52 51 49 38 32 40 47 63 94 111 127 143 150 155 162 167 170 165 151 151 176 211 227 221 220 198 146 125 136 177 212 221 208 193 183 178 186 180 159 157 165 166 173 183 191 194 194 188 180 175 175 176 171 161 157 165 173 173 170 165 158 162 171 175 173 177 188 190 188 187 189 192 193 199 202 202 201 199 197 199 202 201 198 199 200 202 205 204 201 201 201 200 203 203 200 202 208 212 211 208 205 203 200 202 203 199 198 194 189 189 191 191 191 193 201 213 221 222 220 219 213 195 179 172 176 186 191 192 195 197 194 188 185 188 190 183 179 183 191 198 201 195 184 174 166 165 166 169 175 181 178 165 152 154 163 168 172 172 167 162 158 149 144 155 163 163 163 172 174 171 179 184 178 165 154 160 170 173 -9999 
-9999 185 183 185 189 191 189 185 187 189 186 188 193 190 184 181 181 184 189 193 197 195 184 178 180 184 183 178 176 175 172 169 168 166 162 164 172 173 170 167 168 176 185 188 186 185 183 184 183 178 169 158 150 143 139 143 146 146 153 165 178 182 183 188 186 182 186 187 184 183 183 185 189 189 188 190 194 193 193 195 193 191 195 201 200 197 198 198 198 196 192 188 191 197 202 202 192 182 179 177 181 188 189 192 197 199 194 190 190 188 190 192 189 186 186 186 188 189 189 194 195 194 194 195 198 199 197 199 199 190 181 170 154 138 124 130 150 153 148 147 141 133 137 150 156 145 112 95 141 198 207 189 154 134 137 139 146 159 151 122 126 152 155 153 154 152 140 138 147 159 172 180 180 172 168 170 173 180 186 182 177 174 166 165 175 184 187 182 181 185 188 187 181 178 181 182 178 169 158 150 139 134 145 158 162 157 149 144 145 146 135 122 112 104 107 112 107 89 79 77 66 51 43 43 47 64 91 114 138 153 157 160 166 175 176 165 158 170 183 197 216 221 218 220 188 139 126 131 153 179 177 166 161 168 183 180 158 152 168 181 188 196 202 204 201 189 175 168 169 170 166 160 159 165 170 170 171 163 161 172 172 167 171 179 185 183 181 186 191 192 195 200 202 201 201 200 199 203 206 206 206 208 209 210 210 206 200 197 194 194 199 202 202 207 212 214 213 210 209 209 206 205 202 198 197 194 190 191 190 187 187 187 189 193 197 202 205 208 210 203 185 167 163 173 185 189 189 184 183 186 186 184 183 181 182 182 182 181 174 166 166 174 175 171 169 172 177 177 173 166 164 166 166 167 172 177 180 181 176 166 165 174 172 167 172 178 171 167 174 176 169 156 150 162 173 174 -9999 
-9999 179 183 188 189 186 182 185 192 193 192 196 197 191 185 180 180 185 193 198 198 192 182 178 177 179 183 183 180 175 168 163 162 158 156 163 168 163 161 168 177 182 184 182 182 183 185 183 178 177 172 163 157 151 147 151 151 153 159 165 170 173 178 183 178 177 184 184 183 184 186 188 193 195 190 191 194 194 196 196 193 194 201 205 198 195 198 197 194 189 185 188 193 196 194 192 184 178 177 176 183 190 193 193 191 188 186 190 193 190 189 187 184 184 187 191 190 189 195 201 198 195 196 198 199 198 196 196 194 186 173 158 145 133 126 139 153 140 129 141 144 135 141 152 154 137 101 91 149 201 203 187 156 133 132 132 143 152 131 115 135 149 145 145 149 150 140 138 143 151 164 173 173 167 173 183 190 195 193 184 179 179 176 181 192 194 189 182 181 187 192 191 184 176 171 167 167 167 163 160 157 162 171 171 163 154 146 142 142 137 122 116 114 113 117 123 127 131 139 124 99 77 64 59 61 70 84 112 138 149 159 170 170 167 166 167 183 199 197 199 218 229 221 221 218 159 127 111 114 136 160 169 169 169 164 154 146 142 163 197 216 220 217 211 205 190 176 168 164 163 161 156 157 162 166 165 164 157 162 169 160 163 173 180 180 175 179 194 197 197 201 203 204 204 204 202 202 205 207 208 208 208 208 209 208 203 196 192 191 193 199 202 200 202 203 203 203 206 211 214 209 201 199 199 198 197 196 191 186 184 187 188 185 179 176 180 185 189 193 197 199 191 174 165 167 173 179 181 181 185 187 182 177 179 181 177 173 157 138 143 161 172 171 170 174 175 169 164 164 170 179 180 173 166 165 168 169 170 175 180 184 184 178 175 179 181 177 171 164 160 164 165 170 182 182 172 -9999 
-9999 183 189 192 189 183 180 186 193 195 197 199 197 192 186 181 181 185 189 191 189 188 190 189 182 181 186 188 183 177 170 164 165 162 163 173 173 168 171 177 174 170 169 168 166 168 169 164 159 163 167 169 168 163 166 170 168 167 165 163 163 167 174 177 174 179 184 181 183 187 190 193 199 197 188 186 187 189 192 193 197 201 200 193 187 192 194 191 189 187 190 193 193 193 193 190 183 177 175 180 189 196 200 197 192 186 183 187 189 188 185 183 184 183 183 188 190 197 205 204 197 196 200 197 196 193 191 187 185 178 162 146 140 136 136 149 147 126 120 144 155 144 144 149 146 118 84 97 169 205 198 178 145 125 128 136 150 152 132 131 144 142 134 133 138 144 138 138 143 150 160 165 163 167 183 189 192 198 201 196 194 201 201 200 204 201 194 187 184 182 182 181 179 173 169 171 173 171 167 170 176 185 185 173 161 155 153 155 149 133 119 116 113 110 115 126 141 169 197 189 157 123 97 87 94 108 127 148 159 167 178 183 179 170 168 185 205 212 211 214 231 239 225 220 231 186 144 131 134 142 152 164 170 174 173 168 158 147 155 181 209 215 209 200 189 174 170 169 162 156 147 140 145 156 161 154 144 141 153 157 158 166 169 170 175 179 187 198 201 203 207 207 207 207 205 202 201 203 207 210 209 206 205 205 205 203 202 202 200 198 202 203 200 200 199 197 198 204 210 210 200 193 195 195 195 195 191 181 180 186 190 190 191 192 187 185 185 189 194 199 206 211 202 181 163 161 170 182 189 189 188 188 187 184 179 176 170 156 151 162 169 169 167 167 172 174 168 159 158 166 179 186 173 157 159 164 161 157 164 176 180 176 170 175 179 177 176 175 170 169 170 172 178 179 169 163 -9999 
-9999 193 193 192 189 186 187 189 189 184 186 192 193 191 189 187 187 188 187 186 185 186 189 189 190 189 185 179 177 176 168 161 165 168 171 177 174 174 178 179 175 171 166 161 160 163 164 157 153 156 157 159 157 158 168 171 171 170 167 169 176 181 183 181 181 185 185 184 186 190 191 192 193 188 184 189 195 194 192 194 198 196 187 181 176 178 181 180 179 182 191 196 198 197 195 189 181 178 183 189 190 188 185 181 185 189 188 184 181 185 188 186 183 184 186 184 186 194 193 187 185 193 200 198 198 197 194 186 181 174 158 147 147 149 149 154 142 122 123 146 155 148 142 141 135 104 85 123 193 208 193 166 136 127 131 140 153 150 133 135 138 134 132 134 144 153 145 140 146 149 155 162 167 174 180 181 186 197 204 201 202 213 212 202 200 199 196 194 189 185 183 180 180 179 180 188 190 187 185 189 192 189 182 169 156 154 157 158 150 135 124 115 106 102 108 124 143 171 192 198 191 173 154 149 160 178 192 197 195 190 185 182 185 189 191 197 207 211 213 217 233 241 225 219 227 207 172 162 164 163 148 147 156 168 175 177 178 168 166 176 193 197 191 183 172 156 151 153 153 150 142 142 149 152 146 134 127 133 142 148 156 161 161 165 174 184 190 192 193 198 204 208 209 208 205 202 202 205 209 211 208 204 204 204 204 206 206 206 202 200 201 198 196 201 201 194 191 195 201 201 192 192 195 193 192 191 185 179 183 189 190 190 195 200 197 192 194 195 194 195 203 213 211 200 184 163 147 147 160 171 175 175 177 177 177 178 176 175 180 180 176 175 176 171 164 167 175 174 170 173 179 178 162 162 169 166 160 159 166 172 173 167 164 166 164 162 162 167 176 179 173 170 173 174 169 169 -9999 
-9999 196 194 192 189 190 193 193 190 183 185 189 188 189 189 191 193 192 188 184 182 179 175 179 183 181 176 172 172 172 165 160 167 170 171 174 174 174 177 179 183 182 174 167 164 164 160 156 156 158 157 152 149 154 160 161 163 165 166 173 183 186 186 186 185 185 185 187 189 189 189 187 186 187 189 197 202 198 194 195 192 187 188 190 186 187 186 181 179 180 185 189 189 189 186 178 174 181 191 192 185 174 163 164 177 188 191 189 187 186 186 185 185 188 191 187 184 183 178 177 179 188 197 199 201 204 199 186 178 172 160 153 156 156 150 149 137 118 123 140 146 142 134 132 126 102 94 145 201 204 188 158 130 125 126 134 145 141 133 137 134 131 136 146 157 158 146 135 139 137 144 164 176 177 175 176 186 198 203 200 200 207 204 192 186 186 187 188 188 190 191 186 183 183 183 185 185 187 190 191 186 176 171 158 146 146 146 144 139 131 123 115 110 112 124 141 156 175 186 189 189 191 197 206 208 208 208 204 198 186 173 172 180 194 207 206 204 205 206 209 229 239 224 218 220 224 191 179 179 166 151 153 160 168 169 178 188 184 185 191 197 191 181 170 160 147 139 143 148 150 153 158 160 151 137 129 133 141 145 146 150 156 161 168 174 178 182 183 185 191 200 208 209 206 202 202 204 209 212 210 204 201 203 204 204 204 199 195 195 199 201 198 196 201 200 194 193 196 197 194 190 194 197 196 194 192 188 187 188 189 188 189 194 193 188 184 184 185 182 183 186 188 190 202 204 190 167 151 144 145 152 163 168 173 180 181 180 181 180 177 176 181 185 183 172 166 170 175 176 177 174 166 161 171 169 159 157 159 164 167 164 160 162 164 159 155 156 156 157 161 165 169 173 176 179 180 -9999 
-9999 191 191 187 187 189 192 191 190 191 195 191 186 185 187 192 195 191 186 183 182 177 177 181 181 179 177 174 169 166 164 168 176 176 173 173 172 169 168 168 172 171 168 169 166 159 153 153 157 160 161 158 158 160 163 163 164 166 169 178 185 186 188 190 187 188 191 191 188 186 187 188 188 189 192 196 197 189 187 189 188 190 194 194 193 194 191 187 186 185 186 182 181 183 177 169 170 181 187 186 183 174 164 168 180 189 192 194 194 188 186 190 191 192 189 187 188 186 182 185 187 192 197 197 198 201 193 179 173 169 163 157 158 154 144 145 139 123 124 135 136 131 131 131 116 98 105 162 205 202 186 154 125 122 126 138 147 138 133 140 132 128 143 158 159 152 139 130 135 135 147 170 175 173 175 182 192 198 196 189 186 189 185 174 167 172 182 188 189 188 187 184 186 188 183 180 179 180 180 173 163 157 158 150 144 141 134 131 132 130 124 118 117 129 151 169 178 186 190 191 193 196 205 216 216 204 194 189 184 175 171 174 183 197 212 216 215 215 212 207 223 237 224 219 219 233 190 172 170 156 167 180 183 183 182 193 191 189 194 201 196 177 164 152 143 134 133 143 147 147 151 154 150 141 136 139 143 149 151 151 155 158 159 164 168 171 173 177 185 192 201 207 205 200 198 201 204 208 209 204 198 198 203 202 201 201 196 192 196 202 204 201 201 202 200 200 206 208 201 193 190 194 198 200 200 198 194 192 189 187 187 188 190 186 182 177 174 174 176 176 169 161 169 186 198 209 212 198 177 159 148 152 166 177 179 177 176 174 173 176 179 184 189 188 178 166 163 168 175 178 172 169 172 173 167 165 166 165 168 166 161 157 162 165 164 165 168 164 160 159 160 163 164 164 168 174 -9999 
-9999 188 187 185 185 186 188 186 182 185 191 191 187 183 185 189 189 187 184 187 188 183 183 184 182 180 180 176 169 168 170 176 181 181 177 173 169 166 164 160 160 157 156 162 164 162 158 158 159 160 163 166 168 170 173 173 172 176 185 193 194 188 186 186 186 191 193 189 185 187 192 193 190 190 191 191 187 180 181 186 190 192 189 185 183 184 186 188 190 188 185 179 177 178 175 174 177 180 178 176 179 176 174 179 185 189 188 188 187 187 192 193 191 192 193 196 198 193 186 189 193 197 198 194 191 187 176 169 167 162 159 156 157 153 145 148 146 126 119 127 127 127 136 135 111 96 118 175 207 200 179 146 120 121 136 149 151 136 134 144 129 124 149 159 152 147 142 141 146 148 158 172 171 168 173 183 194 195 186 176 172 173 173 161 155 168 183 189 189 187 188 188 192 191 185 185 186 183 174 158 148 149 150 145 138 134 130 132 135 133 127 127 134 153 173 185 192 196 196 196 197 199 204 206 204 192 181 175 172 172 176 180 187 201 217 230 232 228 223 212 218 232 225 221 219 233 189 150 140 158 181 196 199 197 203 205 194 193 194 194 173 156 148 141 136 129 133 141 139 136 140 141 137 133 136 139 141 150 153 148 150 152 156 163 169 173 177 182 188 193 200 201 197 195 197 200 202 206 205 199 196 202 207 205 203 203 200 200 205 207 205 203 203 204 201 202 207 207 200 195 194 194 195 199 198 193 189 188 185 183 184 182 181 181 179 178 176 175 178 179 170 162 165 169 179 198 214 218 210 194 171 161 164 170 173 172 172 172 169 169 172 178 184 184 178 171 166 166 169 169 167 169 171 170 172 170 168 165 163 159 158 162 167 168 169 176 180 174 168 165 166 167 165 164 166 168 -9999 
-9999 184 185 187 189 192 195 189 181 186 193 191 186 185 186 187 186 188 191 192 190 184 184 185 182 179 181 179 176 178 180 181 183 182 178 174 171 168 163 156 156 158 156 156 157 160 161 163 161 159 164 171 175 173 171 170 171 180 190 193 190 184 184 186 186 189 188 184 185 189 191 191 190 193 194 191 186 182 182 186 189 188 183 179 179 180 181 182 184 182 181 178 175 173 172 177 178 179 175 173 177 178 182 187 187 185 181 179 179 188 200 201 198 199 201 202 198 193 191 194 195 194 194 189 182 173 165 162 160 155 157 156 154 151 147 149 146 126 116 118 119 131 146 142 114 98 130 186 206 193 163 129 113 125 141 149 150 139 138 141 124 125 149 153 146 147 150 154 155 151 153 163 166 169 177 185 194 192 182 172 170 172 170 157 158 175 184 188 185 184 188 190 191 188 188 191 187 178 165 152 149 151 152 152 149 145 141 140 134 126 128 136 149 167 182 190 196 198 197 196 196 198 196 189 182 177 175 174 172 175 182 186 189 200 217 232 238 231 221 208 205 219 225 223 221 227 200 148 143 169 190 203 207 205 210 201 194 195 185 170 158 157 152 143 136 135 141 146 144 141 139 136 134 137 144 149 149 152 154 152 153 156 160 166 172 178 184 189 192 196 199 196 193 194 197 199 201 205 205 197 197 204 210 209 207 206 205 207 211 210 206 203 200 198 195 196 199 196 192 191 191 189 189 190 185 180 179 181 179 177 176 173 172 175 175 176 178 176 176 180 180 181 182 182 184 190 200 212 217 212 203 188 165 156 164 167 167 171 172 169 166 167 171 173 172 172 168 161 155 156 160 161 160 163 168 167 168 168 167 168 169 171 173 173 173 175 174 167 166 171 174 168 162 166 170 166 -9999 
-9999 182 186 190 193 195 194 187 185 195 196 188 188 191 193 193 189 187 186 185 181 180 190 193 183 177 180 181 184 187 187 188 185 183 181 180 177 169 158 150 154 159 154 150 152 156 161 163 161 158 161 171 177 175 172 173 178 187 191 184 178 181 188 192 190 187 184 183 188 191 190 188 187 190 192 191 190 187 185 187 187 184 181 183 186 187 181 178 177 176 178 176 176 174 170 169 168 175 181 183 186 187 192 193 189 182 179 183 187 194 199 198 196 198 198 195 194 193 196 199 196 192 189 184 174 169 171 171 165 156 157 153 146 149 149 147 140 128 113 104 112 131 147 139 109 98 143 196 203 183 143 115 117 135 145 153 157 147 140 133 125 132 147 148 144 147 153 156 153 147 146 157 167 174 183 191 195 189 179 172 170 171 167 162 171 185 188 185 177 176 182 184 182 180 181 176 168 161 157 159 162 163 166 166 161 153 147 142 134 133 144 152 161 173 184 191 197 199 195 191 191 193 191 185 178 172 171 174 180 190 198 202 200 199 204 217 229 228 216 199 188 195 217 225 223 222 223 181 160 167 188 207 215 217 212 193 190 192 178 159 158 160 141 127 130 142 150 149 149 146 141 139 142 146 152 156 151 150 155 159 165 169 170 171 174 179 185 191 195 197 196 193 191 194 197 199 201 206 205 197 198 205 208 208 204 202 202 205 208 207 205 200 196 194 196 199 197 190 185 185 185 185 185 186 184 183 182 181 178 175 174 173 173 179 181 182 184 184 183 180 181 187 190 191 190 185 185 195 205 209 211 203 181 167 163 155 155 164 170 174 173 171 170 169 171 172 165 151 145 149 157 156 148 150 159 164 165 168 176 181 177 172 171 169 168 166 162 161 170 179 178 166 161 168 170 164 -9999 
-9999 183 190 195 196 193 188 182 185 194 189 183 193 201 202 201 193 184 179 178 176 178 189 194 184 178 179 179 182 186 187 185 183 181 180 179 172 158 148 146 154 157 149 148 155 158 158 154 153 154 158 170 177 181 186 190 194 197 197 188 184 187 191 193 189 184 182 185 190 192 191 190 189 190 189 190 189 185 185 188 189 183 179 182 187 186 180 180 179 178 178 175 176 176 173 172 174 183 188 190 192 195 200 202 198 188 181 182 187 194 194 188 187 191 191 191 196 200 200 197 193 192 190 186 178 175 181 182 168 152 151 148 144 151 154 149 141 130 105 93 109 132 143 127 97 101 160 201 200 170 127 116 134 147 154 163 164 152 138 125 127 140 150 149 144 148 152 150 147 152 152 160 170 172 179 187 190 186 180 174 170 167 168 172 182 188 185 175 167 172 181 181 177 177 173 166 163 161 163 168 169 169 173 165 152 137 127 129 130 136 148 157 168 179 185 187 192 196 195 187 184 188 190 187 182 180 183 189 198 208 216 221 216 205 195 194 202 208 204 190 175 178 201 222 224 219 226 211 177 171 187 209 223 232 219 196 190 186 178 163 154 141 123 125 136 148 152 149 147 145 143 146 150 149 149 148 144 157 167 164 167 175 179 178 176 177 181 188 191 191 191 190 190 194 199 201 203 207 204 199 199 204 205 202 197 194 194 197 199 199 199 197 197 199 201 200 193 185 183 184 186 186 185 184 183 179 179 182 182 177 176 176 176 183 190 195 195 192 187 180 177 175 173 174 177 177 177 180 184 190 200 210 213 203 186 171 170 176 179 179 179 174 165 162 167 172 168 153 143 144 155 158 145 143 151 157 159 166 177 179 172 171 170 166 164 163 161 163 171 176 176 174 175 168 159 160 -9999 
-9999 181 189 195 197 195 191 186 188 191 186 186 195 197 195 190 180 180 185 186 183 180 182 179 174 179 183 182 179 180 179 176 175 175 173 167 154 141 142 148 154 154 146 148 155 155 150 144 150 161 169 175 176 183 191 194 193 191 190 189 192 194 194 192 186 181 180 183 186 186 185 187 191 193 190 187 182 180 183 187 189 183 178 180 181 178 176 180 183 181 179 176 178 181 181 186 195 200 196 190 189 191 193 195 194 191 186 186 191 196 195 191 191 194 195 198 204 205 200 195 195 197 197 193 187 182 184 177 155 143 152 153 150 156 160 151 138 122 96 96 120 137 136 114 93 116 177 202 193 156 121 126 144 155 162 164 158 147 129 119 132 148 151 144 140 144 139 129 139 162 165 164 169 170 177 185 188 190 191 185 177 174 174 180 186 186 180 170 168 177 183 182 179 180 179 178 178 174 172 172 169 170 168 152 138 124 117 129 136 143 150 158 169 178 184 187 191 190 182 175 172 174 180 179 174 178 186 194 203 213 221 225 222 211 197 188 183 179 174 167 169 176 190 214 227 219 221 225 190 177 195 218 227 236 226 208 196 174 166 161 149 131 129 143 148 144 138 136 141 144 144 149 158 163 160 150 151 166 168 160 161 168 175 176 174 173 176 181 182 184 188 190 192 196 198 200 203 205 202 199 199 199 201 199 196 191 189 190 192 193 193 195 198 199 195 189 184 184 188 189 189 186 182 180 177 173 175 182 181 174 171 170 169 174 185 195 195 186 177 172 171 169 169 174 178 178 178 178 179 184 194 205 211 206 195 186 186 184 180 177 176 167 157 155 159 165 168 162 153 148 151 154 150 156 159 160 168 176 181 180 175 173 168 164 168 169 167 169 174 172 167 171 172 163 163 169 -9999 
-9999 189 193 195 196 197 194 189 190 189 186 189 190 185 180 175 172 182 192 193 185 177 174 166 165 172 176 178 180 180 175 170 169 167 160 154 146 142 149 154 153 146 141 149 155 153 153 158 171 182 188 188 186 186 187 187 188 189 191 194 199 199 194 186 177 173 174 176 179 184 185 192 198 196 191 185 178 177 183 189 190 185 182 185 183 179 181 187 191 186 177 176 183 188 190 199 202 196 191 187 189 190 188 186 185 189 197 204 204 197 195 198 199 201 203 206 205 197 193 197 201 203 201 198 193 186 185 176 157 153 159 155 153 159 161 149 133 117 109 118 131 132 118 100 98 140 193 202 184 149 127 134 150 164 162 157 152 139 122 126 143 150 147 141 139 137 128 129 158 186 181 166 163 166 178 183 187 194 198 190 179 176 178 179 180 177 169 163 168 177 179 178 181 188 190 185 182 181 178 174 171 173 161 143 137 129 130 150 166 177 180 178 177 177 185 196 204 200 183 173 174 176 178 176 174 179 183 186 194 207 218 224 223 211 195 181 170 160 157 169 184 188 197 217 232 222 218 228 194 171 190 226 229 231 228 215 196 174 161 150 144 127 115 119 124 126 123 125 135 146 152 158 163 165 160 157 165 169 160 150 147 153 164 173 178 180 176 176 181 188 194 196 197 199 200 200 201 202 198 196 196 195 196 198 196 190 188 190 192 192 191 195 198 197 193 190 190 194 194 191 187 183 180 180 178 176 177 177 172 166 166 167 164 166 178 188 189 183 174 170 166 160 169 181 180 176 179 181 183 188 193 190 187 187 186 182 180 170 160 159 158 155 159 160 155 158 165 168 167 161 152 151 157 169 167 167 176 180 177 174 170 169 166 172 179 177 176 178 177 163 153 157 154 159 178 181 -9999 
-9999 197 195 194 195 194 188 185 187 184 183 186 188 184 180 178 182 191 193 189 180 174 175 173 173 172 169 167 169 172 168 165 167 162 150 139 133 137 150 153 146 139 142 152 156 158 168 180 188 190 191 193 197 195 189 186 188 193 194 194 193 190 184 180 177 175 175 177 182 187 189 198 204 199 192 185 182 186 188 187 185 181 180 184 184 183 188 193 193 186 182 185 187 188 189 193 188 181 186 191 195 193 190 190 193 198 203 206 206 204 203 202 205 208 206 205 204 199 202 207 207 205 203 205 201 190 184 176 163 158 158 154 155 160 158 152 140 128 131 126 123 120 97 90 112 166 202 198 174 142 129 138 156 165 152 148 150 137 127 137 145 147 142 138 138 138 142 159 188 199 180 154 149 152 168 180 186 193 195 185 173 174 178 175 169 163 159 162 170 176 181 184 191 196 193 185 184 185 180 173 173 172 158 151 147 126 119 143 175 195 200 192 178 172 170 170 180 192 189 183 183 184 179 172 170 169 173 185 193 198 204 202 191 176 163 151 150 162 177 193 203 205 207 218 231 226 218 230 210 166 172 210 221 217 214 206 192 178 159 139 131 120 115 117 119 125 131 137 143 150 155 158 159 153 149 153 160 161 160 157 157 166 177 183 182 178 169 167 175 186 194 195 196 198 197 193 193 193 193 197 198 194 192 194 193 190 190 193 194 194 194 198 199 194 192 193 196 195 190 185 184 181 177 176 174 171 171 170 164 162 165 167 162 161 172 181 185 187 188 186 176 174 179 178 173 177 185 188 186 182 180 176 176 184 189 190 185 168 148 139 140 150 163 166 162 164 167 169 169 169 162 158 168 180 177 176 176 168 159 153 151 157 164 172 173 169 168 168 160 146 147 153 151 160 171 166 -9999 
-9999 185 186 188 188 185 179 179 183 184 189 195 194 188 185 187 190 194 191 184 176 179 187 188 185 179 173 171 171 173 172 167 164 157 146 137 133 137 145 144 135 134 145 152 156 165 179 190 195 195 193 195 200 199 194 190 192 193 190 188 185 179 174 178 182 184 187 189 191 190 191 196 198 190 182 176 178 185 184 180 179 176 178 182 181 184 188 188 184 181 185 187 185 187 183 181 178 181 191 197 197 193 193 198 203 204 201 198 200 206 208 209 212 212 208 210 211 207 207 209 211 212 210 207 201 191 182 174 159 150 152 151 155 159 159 158 143 127 135 123 117 107 79 90 134 184 203 192 165 136 131 139 151 150 141 145 150 140 131 134 139 142 136 136 140 146 156 169 182 185 162 141 141 142 159 181 192 195 187 173 168 177 183 177 171 165 165 172 179 184 188 192 197 196 191 189 192 194 186 178 177 175 170 168 138 100 110 151 183 195 190 178 163 152 143 143 150 163 176 182 180 178 176 169 161 158 169 184 188 184 177 160 146 149 153 150 157 178 198 203 205 205 202 203 219 228 219 226 216 152 134 156 190 191 185 185 179 168 154 143 132 127 138 144 140 143 147 150 155 159 159 158 158 156 153 148 150 159 164 166 172 184 184 179 173 167 167 175 178 176 177 178 181 183 181 180 182 185 189 197 197 190 190 194 194 193 193 192 192 193 192 192 189 186 189 192 192 190 186 183 181 177 173 171 167 166 168 168 164 163 164 161 155 154 164 169 173 184 197 200 197 196 184 170 174 183 185 186 179 165 159 163 172 182 189 191 190 187 179 167 160 161 166 166 166 171 176 176 174 174 168 162 167 177 176 176 174 168 166 162 161 165 166 162 156 153 153 154 153 153 161 163 161 165 160 152 -9999 
-9999 168 176 181 181 177 174 177 181 185 193 196 194 189 189 192 190 189 187 180 172 179 191 193 188 178 171 175 178 179 177 168 160 148 138 138 140 141 138 133 126 131 141 149 161 174 186 194 199 201 199 199 199 194 192 194 199 200 195 191 186 180 180 181 179 182 191 198 197 196 198 200 194 181 173 171 174 178 175 174 175 174 176 178 176 180 182 181 180 181 184 182 185 189 186 190 189 188 193 192 190 194 201 204 202 200 202 203 204 205 208 213 216 211 210 213 211 204 202 204 207 209 206 203 199 187 178 178 164 158 159 156 158 161 162 161 143 133 145 131 111 82 66 99 154 197 204 190 159 133 133 138 146 147 145 152 155 139 127 134 143 134 127 132 138 147 155 161 166 171 158 145 143 145 162 183 197 197 184 171 168 174 177 176 178 177 177 180 182 180 181 186 187 188 191 195 199 200 194 186 182 180 180 162 94 73 127 184 203 199 176 167 164 161 169 179 175 173 177 180 178 176 179 178 179 186 190 187 180 173 167 163 172 186 196 201 197 198 207 210 205 196 193 200 218 232 219 219 214 151 114 117 142 161 160 161 160 153 145 141 135 135 144 145 144 146 146 150 156 162 164 165 163 158 157 157 165 172 172 171 177 183 176 168 167 173 182 189 184 172 168 170 173 176 178 181 183 186 190 196 194 189 194 197 196 194 189 185 186 188 188 186 184 186 191 192 189 186 183 180 178 175 174 171 168 168 169 166 164 163 162 157 154 155 163 169 174 181 186 190 197 193 174 165 168 170 168 168 169 167 163 161 165 169 171 170 169 183 200 202 190 177 166 154 149 155 167 180 183 176 167 158 160 164 167 171 170 172 176 175 174 173 167 161 158 159 159 162 159 158 167 171 168 164 159 159 -9999 
-9999 160 165 171 174 175 175 176 179 183 188 189 187 183 186 187 181 182 182 177 171 180 187 184 182 178 173 175 175 177 173 160 154 147 142 139 135 133 133 131 128 136 145 159 175 184 189 193 197 198 198 197 190 183 186 196 205 205 197 191 184 182 181 174 169 172 185 193 192 197 203 200 190 180 176 176 180 182 180 180 181 179 179 177 178 183 184 182 182 184 187 188 189 185 186 195 195 193 192 186 185 193 201 200 197 198 202 209 212 211 208 208 208 206 206 207 206 204 205 208 208 204 202 206 200 184 179 178 166 164 166 162 162 161 163 158 146 146 146 125 94 62 66 112 169 203 202 182 147 123 124 134 148 157 154 153 152 137 131 147 148 127 126 136 139 149 155 156 161 170 164 153 152 158 167 182 190 186 177 169 166 167 168 174 178 181 187 188 181 172 177 182 179 179 184 190 194 194 188 182 179 176 173 133 62 75 157 195 195 180 154 158 169 189 210 215 205 191 179 176 182 183 187 196 206 213 207 196 190 188 192 201 206 205 213 225 221 211 213 217 213 203 197 204 221 234 220 218 219 192 128 101 102 121 143 155 156 145 138 137 134 141 146 143 141 137 136 143 146 147 149 151 153 152 157 164 172 176 177 180 184 185 181 174 174 183 190 188 179 173 172 174 177 181 187 191 193 195 197 199 195 192 195 195 192 190 185 183 185 187 188 188 188 191 191 188 186 186 185 184 182 181 179 175 171 171 169 163 160 161 162 159 158 158 165 176 184 178 170 170 178 185 188 181 167 163 164 163 167 178 179 173 167 162 157 153 157 168 178 185 190 190 178 164 159 161 162 166 169 168 165 154 151 155 163 169 167 163 158 157 160 161 163 167 171 172 170 166 160 160 166 165 158 152 158 161 -9999 
-9999 155 158 161 165 169 173 176 181 186 189 189 186 180 180 177 175 180 183 182 179 187 183 175 177 181 183 186 185 182 169 150 145 145 146 145 141 138 137 133 130 137 153 173 187 191 191 194 198 200 200 199 190 188 194 199 202 198 192 189 184 181 171 160 160 164 174 177 176 187 198 195 187 181 181 183 183 183 184 186 187 185 180 176 179 186 187 185 184 186 191 192 189 187 192 196 194 194 191 190 194 199 199 195 197 198 201 206 209 210 208 206 204 204 206 207 207 206 208 213 212 208 210 211 201 189 183 175 162 157 157 156 159 160 162 157 152 149 132 116 84 56 71 126 184 206 197 170 131 111 121 139 153 162 156 147 147 136 136 153 145 123 131 148 151 154 155 154 164 171 166 161 162 168 169 175 180 170 160 156 159 165 168 174 176 181 188 187 178 173 180 184 184 179 174 175 179 179 175 175 174 168 162 114 61 101 187 201 182 151 132 147 162 181 204 215 212 198 182 177 182 186 193 208 218 220 215 208 205 204 208 213 214 215 218 226 226 212 205 207 211 211 202 196 205 224 221 218 216 213 155 101 88 102 130 149 154 147 144 142 140 139 135 126 123 128 135 138 135 137 138 142 147 154 160 160 164 173 176 174 172 172 172 171 174 183 187 184 179 178 180 179 179 183 188 192 196 199 201 201 197 192 193 190 188 189 187 187 187 187 188 187 187 189 189 186 186 188 187 185 185 185 180 172 169 171 166 158 162 166 164 162 158 156 163 175 178 169 162 165 172 184 203 205 192 181 174 168 168 174 182 186 180 169 163 163 170 172 165 160 167 179 184 185 187 187 178 167 165 170 175 169 159 159 164 166 165 158 150 150 153 152 154 164 170 170 170 167 166 170 168 158 153 158 165 157 -9999 
-9999 152 153 154 155 161 170 178 185 189 190 189 186 184 179 173 177 186 190 187 184 188 183 180 183 186 189 191 186 176 160 146 144 143 143 147 144 136 133 127 123 131 151 173 186 192 193 194 197 201 204 206 203 205 206 201 197 191 189 185 176 172 164 160 165 168 170 167 170 183 194 195 193 189 188 186 181 180 182 184 184 181 178 176 180 183 182 181 183 190 192 188 186 192 200 199 193 191 191 195 201 201 196 197 204 206 206 206 209 212 212 211 208 206 208 211 211 211 214 213 209 210 212 209 198 187 176 165 153 147 148 150 154 157 158 157 160 152 134 119 79 52 74 140 195 205 190 158 116 107 131 145 150 156 149 139 138 131 140 149 134 122 133 152 152 149 148 153 163 164 162 162 163 168 167 169 175 167 157 153 160 169 170 173 174 177 178 174 169 169 175 180 183 175 172 174 172 169 169 174 171 161 154 111 74 121 191 195 175 150 144 160 168 176 188 199 204 198 189 188 190 192 196 208 215 215 213 211 207 201 202 207 212 218 219 220 220 208 192 187 194 203 203 194 190 204 215 218 216 216 205 140 103 101 117 134 138 135 135 137 135 125 116 105 110 128 137 135 131 136 139 143 150 160 165 164 167 168 165 159 153 154 155 157 164 171 173 174 175 177 180 179 179 181 185 188 192 195 198 199 196 194 193 188 187 190 188 185 185 186 185 182 181 183 186 186 184 184 179 174 176 176 172 168 168 169 165 163 169 165 158 158 155 155 162 171 172 169 167 167 169 180 194 202 206 197 181 172 170 170 173 179 178 173 171 174 177 173 161 151 151 160 170 179 187 190 187 183 183 187 193 191 182 172 165 163 165 165 163 160 157 152 150 154 155 154 161 165 167 167 163 159 161 172 176 164 -9999 
-9999 164 161 158 154 155 159 166 175 180 180 181 183 184 184 182 186 187 184 178 177 180 181 187 190 187 185 182 176 168 159 149 143 141 144 144 135 128 131 126 121 133 158 176 188 195 196 198 200 200 203 208 208 210 207 199 191 181 177 171 164 166 163 168 176 176 178 180 184 191 196 197 198 196 191 184 178 178 179 178 175 173 174 176 180 181 181 182 188 192 185 179 181 192 197 193 189 191 194 198 201 201 200 204 209 211 210 208 207 208 210 211 210 208 207 209 211 213 213 211 213 213 209 200 187 173 163 156 148 144 145 145 148 155 158 160 166 154 138 119 65 43 79 155 201 203 183 147 107 112 140 139 141 149 138 126 121 124 141 139 124 126 137 148 142 134 139 150 161 162 163 166 165 166 164 167 172 172 170 165 171 177 173 174 172 169 168 168 168 169 175 176 172 168 174 179 172 167 166 168 164 153 146 120 92 121 168 167 156 150 158 172 177 184 187 180 176 177 179 189 201 207 207 211 211 203 197 197 198 196 195 198 202 203 204 200 195 192 186 179 179 184 192 197 195 198 212 221 217 215 216 204 136 108 114 121 116 121 124 129 126 118 114 109 120 127 130 135 135 136 137 140 147 155 156 158 162 160 159 156 152 155 154 153 158 161 161 163 167 171 175 177 179 182 186 190 191 192 191 191 192 194 191 185 187 189 184 180 179 181 181 178 178 182 186 184 180 179 174 172 173 170 165 165 165 165 167 169 170 164 161 160 156 155 165 177 178 178 178 172 168 176 182 188 199 200 189 176 168 164 165 166 167 170 174 178 176 166 159 157 160 166 169 172 179 185 187 188 191 196 199 197 189 171 159 162 167 168 167 164 159 159 162 161 153 152 157 157 157 157 159 165 168 171 171 164 -9999 
-9999 202 198 190 180 171 159 151 150 150 149 153 161 165 169 176 181 178 172 168 170 174 180 187 186 181 174 166 162 158 154 143 129 135 144 137 124 120 121 117 121 143 173 188 193 196 199 203 204 204 207 209 207 208 204 195 185 176 173 165 160 165 167 176 184 184 189 196 199 198 197 195 191 187 182 177 176 179 178 174 170 168 170 173 180 182 181 181 183 184 178 178 186 195 199 195 194 196 199 204 205 201 199 203 207 210 211 210 206 203 205 208 210 211 208 206 207 209 210 212 216 214 206 196 183 171 162 156 153 152 151 151 158 167 167 165 161 140 120 87 38 37 95 174 205 199 174 135 103 111 132 129 135 142 133 124 122 129 138 131 126 136 142 140 128 125 134 145 157 162 165 170 172 170 169 173 173 174 176 179 186 185 177 176 172 171 175 177 174 172 176 175 172 172 175 179 174 167 164 163 156 144 136 130 108 108 138 147 151 156 168 179 187 194 187 173 170 175 182 196 207 211 205 196 190 186 185 186 191 197 200 200 196 191 185 176 170 172 178 178 177 181 186 194 199 201 209 218 215 216 216 218 184 119 100 99 104 115 124 132 121 117 127 135 139 132 126 127 129 132 133 133 143 150 153 158 157 155 155 149 145 151 154 153 156 158 157 156 159 167 175 179 180 181 184 190 192 190 188 188 191 192 188 186 186 185 181 177 176 178 180 177 180 185 185 182 177 174 174 176 180 174 164 162 164 165 165 163 165 168 166 160 154 152 167 182 182 184 185 180 178 178 176 181 187 190 190 184 171 161 160 163 166 170 173 173 166 161 165 171 176 178 177 176 177 179 182 181 179 183 190 195 187 162 146 149 152 151 153 155 157 160 160 156 153 154 154 150 149 147 148 159 170 170 160 152 -9999 
-9999 221 219 216 215 211 199 184 168 151 139 139 140 137 139 151 164 166 164 166 168 166 171 175 170 164 157 153 154 151 150 142 130 145 147 128 117 116 117 120 131 156 183 194 198 200 202 205 205 206 206 205 203 204 199 192 187 182 177 167 164 171 175 180 183 183 189 198 200 194 192 191 186 182 178 173 175 182 180 176 175 173 171 172 176 178 177 173 172 175 178 188 197 203 204 201 201 201 200 203 201 194 195 200 202 202 204 210 211 209 208 209 213 217 216 212 208 209 214 215 214 210 204 197 190 180 167 161 163 161 156 159 170 178 174 166 149 123 94 54 28 49 119 188 206 193 160 124 102 107 123 127 131 140 135 129 132 138 140 134 134 141 140 132 129 135 142 148 153 155 160 169 173 170 170 175 176 171 172 183 191 186 179 181 179 179 180 178 173 168 167 165 171 176 178 179 171 165 164 158 141 130 125 130 117 97 119 152 170 176 184 196 206 207 197 187 190 194 202 210 211 204 191 179 179 191 200 203 204 204 207 207 199 186 177 177 180 179 180 186 192 195 194 191 195 199 202 208 213 215 216 217 216 151 95 89 111 124 122 124 120 127 139 148 150 144 130 120 125 137 142 143 147 147 153 161 157 155 149 136 133 140 149 157 162 160 155 157 163 169 175 177 177 178 180 184 187 187 188 191 193 190 187 189 186 183 179 173 174 181 181 178 184 190 186 179 171 170 174 179 180 171 160 159 165 167 163 160 164 165 161 159 156 155 166 175 176 186 191 187 183 178 175 175 174 175 184 192 189 174 161 158 163 173 178 176 173 174 176 175 174 175 175 175 173 174 172 164 158 162 173 183 181 165 151 139 133 136 145 153 158 158 151 148 154 158 155 153 154 154 153 154 156 157 152 150 -9999 
-9999 216 216 218 222 224 221 218 212 202 191 184 171 156 150 152 152 146 143 145 135 130 144 144 129 121 124 135 146 150 152 141 133 151 149 125 122 131 135 142 153 177 197 200 201 200 199 203 208 207 202 196 198 201 192 186 188 181 170 164 166 169 172 174 178 180 182 190 189 185 185 186 188 185 175 166 173 182 177 171 170 168 168 171 176 177 174 172 177 182 185 192 197 199 196 193 198 200 196 194 193 195 202 206 204 203 207 212 214 211 208 210 214 213 210 210 210 213 215 214 211 206 202 201 198 183 163 162 166 157 150 157 168 177 175 163 144 120 82 49 44 76 146 198 203 181 137 108 102 103 117 126 128 132 126 121 132 138 136 135 140 146 139 135 137 140 144 146 146 151 159 165 166 163 166 175 178 168 171 186 193 189 183 183 186 187 184 177 169 168 170 169 171 171 172 170 163 164 165 157 140 136 131 128 115 89 103 147 178 188 198 208 213 211 206 203 203 200 199 200 197 194 192 192 200 212 217 216 214 206 201 202 200 193 191 197 206 209 206 206 209 207 198 190 188 186 188 193 207 216 216 217 217 204 134 95 95 101 104 102 105 115 124 138 152 152 141 143 144 145 153 158 155 148 147 151 152 154 145 134 136 141 148 155 161 157 153 159 167 173 177 177 179 182 182 180 181 184 188 192 194 193 190 188 183 181 177 173 177 183 180 176 184 187 180 174 171 173 177 178 173 166 161 165 170 166 161 165 165 161 164 167 162 158 165 170 172 179 179 179 178 180 181 175 167 167 170 182 195 194 182 167 163 173 183 182 179 177 173 168 167 168 167 167 169 170 165 156 153 153 155 164 174 179 182 170 156 150 152 155 158 158 157 161 166 167 168 165 163 167 172 166 154 148 151 157 -9999 
-9999 205 206 210 214 216 216 217 219 220 220 220 216 209 201 191 173 154 144 135 113 109 112 97 85 87 96 106 116 118 110 101 111 133 130 115 123 136 140 152 172 197 212 211 205 202 205 210 212 210 203 196 197 195 186 190 191 179 171 170 167 164 168 174 181 180 174 177 177 173 176 181 180 172 163 163 176 180 169 161 162 168 172 179 184 182 180 185 193 194 192 194 196 194 187 186 193 193 191 194 196 201 204 205 203 207 214 214 212 209 207 212 213 205 202 208 213 212 210 212 212 210 207 203 196 179 164 169 168 153 146 154 163 172 172 158 142 120 71 51 62 98 170 202 195 159 113 100 102 102 117 130 128 126 123 125 138 135 130 138 149 156 149 142 139 139 146 147 148 161 167 166 165 163 167 174 172 165 173 184 191 190 185 184 187 187 183 175 170 169 173 174 169 165 165 162 157 156 157 155 153 150 140 126 110 89 97 139 179 198 207 205 200 200 206 216 218 212 206 197 189 191 198 201 201 205 214 217 212 205 200 199 201 201 203 211 224 231 224 213 211 209 200 190 180 167 167 174 191 210 214 217 217 213 203 128 84 69 77 89 102 103 108 123 141 155 163 169 159 151 155 156 158 160 159 154 147 142 135 127 129 134 139 144 147 146 147 156 168 176 179 182 187 188 186 183 181 184 189 191 193 189 184 181 177 174 174 179 181 180 177 177 181 179 175 177 179 181 179 174 169 166 167 171 170 162 161 166 164 161 165 167 162 159 164 171 168 166 169 174 178 185 177 164 171 178 178 177 179 185 192 192 187 179 175 172 167 161 161 164 169 172 170 167 167 169 167 164 163 156 149 156 171 185 194 190 179 167 159 156 158 160 162 166 168 163 158 157 158 160 168 171 161 152 149 142 -9999 
-9999 198 199 200 199 199 199 204 210 214 215 218 221 221 221 219 213 202 192 180 160 149 132 110 106 109 107 96 85 78 75 87 104 112 106 105 120 133 144 163 187 206 215 215 210 209 214 216 216 212 207 203 199 190 187 193 188 179 179 180 175 172 174 173 174 173 171 175 170 167 177 179 168 159 158 167 180 176 164 163 168 176 181 182 181 178 181 189 193 194 192 193 194 190 186 189 190 188 191 196 199 200 203 203 200 202 206 207 209 209 211 211 209 204 203 206 209 212 214 213 211 214 211 202 193 182 176 175 165 147 141 145 152 160 163 149 129 97 51 52 75 118 188 200 183 137 101 97 97 99 114 125 125 130 135 142 143 127 124 140 150 152 143 132 136 147 155 154 156 169 171 166 166 170 174 176 171 169 175 179 187 192 188 186 188 185 178 176 174 171 166 159 157 164 167 160 153 150 148 144 144 139 132 118 97 89 104 148 191 208 211 209 204 203 211 221 225 223 216 206 200 197 201 200 191 187 196 205 210 213 211 204 199 197 202 211 222 233 226 210 201 201 198 190 182 177 171 167 174 182 193 208 216 217 218 210 126 76 68 81 90 98 115 128 135 145 155 159 163 166 162 160 165 167 164 157 144 131 122 125 142 150 147 143 143 149 158 163 164 167 173 180 187 190 191 188 183 183 186 188 185 178 179 182 174 167 172 176 172 169 171 172 173 173 173 176 175 172 170 168 167 166 166 165 161 159 161 160 159 160 161 162 164 161 167 173 167 165 172 179 185 187 176 166 169 172 176 176 169 172 185 198 201 186 168 160 159 158 159 162 165 165 164 165 167 167 166 166 165 154 149 154 156 159 165 159 149 148 154 158 162 167 165 163 165 158 148 152 157 157 159 160 157 157 156 152 -9999 
-9999 191 189 186 183 180 180 187 193 196 201 203 205 208 213 218 220 219 217 216 211 210 209 201 192 181 163 138 120 110 109 116 116 114 116 123 137 147 157 175 195 208 213 210 207 210 214 214 213 209 207 206 202 199 198 195 186 182 182 180 177 179 181 177 175 172 174 178 175 178 185 180 167 165 166 171 177 171 166 170 172 178 178 172 172 175 178 182 185 188 190 190 186 180 180 184 184 185 187 191 196 199 202 203 205 210 210 205 201 203 210 210 205 202 204 207 208 212 214 211 211 213 207 200 197 192 182 167 147 133 131 137 143 149 149 131 100 61 37 53 82 139 198 196 163 115 89 90 91 94 106 111 115 123 130 139 137 125 128 139 143 142 135 130 140 152 153 149 148 155 158 158 162 171 175 175 171 172 173 172 184 195 195 195 197 190 182 179 177 175 169 161 163 169 167 158 149 147 146 140 133 127 125 106 84 90 115 160 202 214 216 217 217 218 218 217 215 212 207 204 202 194 193 201 202 198 195 193 193 197 199 198 202 208 206 203 206 212 210 202 193 186 175 164 166 179 180 174 168 161 167 187 207 215 218 222 205 134 88 66 54 69 99 119 119 120 126 139 160 166 163 168 172 165 156 151 145 136 129 140 158 160 155 149 146 151 158 161 157 157 164 172 182 189 192 191 189 189 187 186 183 184 189 181 167 167 174 173 168 167 166 165 165 168 166 164 161 160 164 168 169 167 164 161 160 161 161 158 158 162 166 169 168 161 167 173 171 172 174 179 184 185 186 186 174 161 161 166 168 174 181 185 187 184 176 169 165 163 161 160 158 154 155 163 169 167 164 164 160 151 156 158 147 138 139 135 137 147 159 165 167 168 167 169 172 169 171 169 160 158 159 157 158 163 166 170 -9999 
-9999 183 179 174 172 173 176 179 177 177 182 180 178 186 198 205 207 208 210 214 218 221 224 223 222 218 209 203 200 193 180 168 161 162 164 167 175 181 184 196 206 208 207 204 207 212 214 214 212 208 208 207 204 203 198 191 185 182 179 176 175 179 183 183 179 173 174 177 181 188 189 182 177 183 180 176 173 166 168 172 174 180 177 173 181 184 185 188 190 190 189 189 186 183 183 183 183 183 185 187 192 197 199 198 200 208 211 202 195 199 206 208 205 202 203 208 211 211 209 207 207 206 202 199 199 190 173 154 131 121 127 134 139 147 144 117 76 47 46 65 99 165 203 190 147 104 86 89 89 99 114 107 110 115 117 126 131 134 141 149 151 148 145 142 146 150 148 141 137 140 151 159 163 170 171 169 167 170 166 164 179 189 194 201 201 192 186 184 182 179 175 178 181 177 170 161 153 153 152 146 138 130 115 94 85 100 132 176 208 217 219 219 219 220 218 215 211 206 204 206 205 197 189 194 205 204 192 177 164 162 171 182 192 204 202 195 190 184 187 191 186 169 148 136 141 159 174 168 157 153 156 167 185 202 212 216 216 211 169 110 80 78 87 91 88 100 119 141 159 157 155 160 163 160 153 149 143 139 142 152 151 146 149 153 154 151 150 156 163 164 164 169 179 188 191 194 197 196 191 189 189 190 186 174 168 173 176 172 169 168 169 171 171 168 162 159 161 165 170 174 173 170 166 163 162 162 164 165 166 169 171 172 168 161 163 167 168 171 175 177 177 178 180 184 184 177 173 172 176 181 178 171 168 170 178 184 181 174 169 168 165 162 165 172 175 171 167 167 166 164 168 164 155 151 149 149 162 170 167 168 170 167 166 170 170 167 170 165 156 159 163 161 159 162 165 161 -9999 
-9999 177 174 172 175 178 181 181 176 172 168 157 156 171 181 184 187 192 195 199 199 200 204 207 212 216 217 219 219 217 215 213 213 212 210 210 212 212 213 220 218 207 202 202 204 202 199 199 198 200 203 203 199 194 187 180 177 175 173 172 170 172 172 168 166 168 171 172 175 179 179 178 184 191 184 175 171 166 167 171 175 179 179 184 192 192 191 193 196 198 196 194 189 187 186 185 189 189 188 187 191 193 193 188 190 197 198 197 204 208 205 199 197 197 200 204 205 205 205 203 200 199 197 194 192 179 158 141 121 113 123 129 139 150 144 112 64 50 65 82 130 191 203 182 134 96 87 87 89 106 112 103 116 121 116 120 128 142 147 150 155 153 151 148 148 150 146 134 133 141 159 167 168 180 185 181 177 173 165 166 175 182 191 199 195 188 187 188 187 182 181 185 183 175 170 166 165 165 161 152 142 127 101 88 92 109 150 192 211 215 217 220 222 222 219 218 216 210 207 208 210 204 189 180 184 185 177 171 170 173 184 191 184 182 188 191 184 175 177 179 172 158 148 143 140 144 149 144 145 145 151 160 166 176 192 207 213 216 219 211 176 135 105 82 75 93 111 136 153 149 151 154 155 153 149 144 133 127 138 150 152 150 155 160 163 163 161 159 163 168 168 169 175 183 187 190 194 195 192 193 194 191 187 183 180 178 172 167 165 169 172 173 173 169 165 167 171 171 172 174 174 172 168 163 162 166 172 175 174 173 169 165 164 164 165 165 163 165 171 175 176 179 181 183 185 183 178 174 175 177 174 171 168 168 171 177 177 176 179 181 177 173 172 173 176 174 173 175 179 182 181 170 159 159 165 173 181 179 172 169 168 164 163 162 156 151 150 150 156 163 159 151 146 146 152 150 -9999 
-9999 175 177 180 183 184 184 183 177 173 167 158 163 171 170 169 170 173 172 166 159 163 174 186 196 199 201 203 202 205 211 212 213 217 220 221 222 222 223 227 223 213 206 201 190 178 170 163 155 159 169 176 178 178 179 175 172 171 170 169 167 168 168 162 162 167 171 172 169 169 172 177 180 177 169 166 169 171 172 172 173 175 178 185 191 191 189 192 198 201 201 196 189 186 183 186 194 194 191 194 199 198 192 190 195 199 198 200 208 209 202 195 193 194 199 203 201 198 197 195 195 195 190 186 182 165 146 136 123 115 125 139 151 153 139 103 60 61 79 99 162 202 199 172 119 89 93 93 90 103 109 115 132 130 122 127 142 152 145 142 148 151 156 157 155 152 144 135 136 148 165 171 176 192 197 193 187 180 174 170 175 186 196 197 190 187 187 187 186 183 183 183 176 170 168 169 169 167 164 154 136 117 100 101 110 124 166 199 207 209 215 222 227 228 224 222 217 207 206 208 206 200 191 180 175 176 179 182 188 188 188 192 187 181 183 188 182 172 171 169 160 153 154 155 145 133 125 132 147 150 154 158 158 156 165 182 195 207 216 218 214 196 147 100 84 92 108 131 142 144 153 157 155 151 144 134 124 126 138 147 153 156 162 168 168 169 168 164 162 164 168 170 172 173 173 172 178 188 193 198 199 195 190 186 180 175 169 168 172 172 168 167 169 170 171 175 175 171 172 174 174 173 170 168 169 173 180 181 174 170 168 166 166 169 170 168 165 167 174 177 177 176 177 183 188 186 178 172 167 161 163 174 179 175 170 167 166 171 176 180 182 181 173 172 178 178 177 179 184 189 186 176 167 164 169 178 183 182 181 175 168 165 165 159 150 150 151 151 155 157 149 142 140 139 140 136 -9999 
-9999 182 187 188 186 185 185 183 177 175 177 178 178 174 169 169 169 165 155 142 138 145 153 161 166 169 174 172 169 172 178 176 179 193 202 206 212 218 222 224 224 220 217 209 195 180 167 150 136 131 128 130 139 149 156 159 166 171 172 170 169 171 172 167 168 173 174 170 170 174 177 176 169 162 163 168 174 178 178 177 178 178 178 182 186 182 179 186 192 193 193 192 188 186 187 192 192 189 193 201 205 202 198 200 204 204 198 194 197 198 197 198 196 194 195 199 201 197 191 187 187 186 184 180 173 157 144 141 135 124 131 152 160 151 130 92 59 68 91 128 188 206 193 158 110 92 99 93 80 101 123 125 128 123 125 137 155 155 141 139 146 152 161 163 156 149 144 141 140 154 171 177 185 194 194 190 185 180 176 169 179 198 204 200 193 192 190 188 188 187 188 186 178 174 174 174 171 168 165 153 129 114 111 119 130 144 178 197 203 212 223 229 232 234 230 220 206 195 195 196 193 191 193 189 179 174 176 179 180 177 174 175 179 181 178 180 183 183 181 178 174 175 177 178 171 153 135 133 144 154 157 157 156 151 147 151 166 187 204 214 216 217 201 166 128 104 105 112 108 118 139 150 152 152 142 128 123 131 143 152 158 162 167 169 169 169 168 168 167 165 167 170 166 158 150 153 166 181 192 197 193 183 176 173 173 175 172 172 176 169 165 166 166 169 174 176 172 171 174 176 175 174 173 175 177 180 184 181 171 168 169 169 171 172 169 166 163 170 179 179 173 167 171 179 189 194 190 185 178 168 171 182 183 178 174 170 168 172 173 175 179 179 171 169 170 170 173 177 178 177 174 174 178 177 174 171 169 170 172 170 165 165 165 161 158 162 164 159 153 149 146 149 154 153 147 142 -9999 
-9999 186 190 188 185 185 185 182 178 178 184 183 174 172 174 174 170 162 154 150 154 159 157 152 145 145 146 142 144 152 152 146 154 169 172 172 180 194 207 216 219 221 221 220 216 208 198 183 167 152 133 122 121 125 128 134 146 157 163 167 169 171 171 167 172 180 178 176 181 186 183 175 169 172 179 182 181 178 176 179 181 179 176 182 185 178 179 190 193 190 189 189 186 183 188 193 192 190 196 199 196 194 197 202 204 201 194 192 194 194 195 197 195 193 194 198 197 188 184 183 180 181 183 179 170 163 155 144 137 129 133 152 157 143 117 83 62 75 108 163 205 204 185 146 108 96 93 81 70 100 126 115 111 113 126 139 151 147 139 143 150 157 164 162 152 144 144 140 139 159 177 182 189 194 190 182 177 175 168 163 181 201 208 205 199 197 195 194 195 193 193 192 186 182 180 178 175 168 159 144 120 114 118 129 144 160 189 205 213 224 231 233 234 235 230 216 198 188 187 185 184 186 189 188 178 167 165 169 170 165 165 172 183 188 186 183 185 196 199 195 196 202 203 202 200 184 155 139 142 150 156 159 159 152 141 136 140 151 170 188 202 212 215 212 196 154 112 85 73 92 117 132 135 136 132 130 134 141 150 155 158 160 163 165 173 178 175 168 166 167 168 166 159 154 155 163 172 179 183 180 176 171 173 178 183 183 177 174 170 163 170 173 169 172 177 174 172 172 174 177 176 174 173 175 176 178 180 174 165 165 169 169 171 171 165 161 162 170 177 177 171 170 175 175 177 186 194 198 195 189 186 179 170 175 181 178 174 172 172 174 177 177 172 168 163 164 171 174 169 163 162 168 173 170 165 158 153 156 163 164 160 155 154 158 162 164 165 160 152 148 145 147 152 151 151 157 -9999 
-9999 187 187 185 185 185 183 182 180 181 183 172 164 171 177 175 167 160 157 161 167 167 164 159 148 139 134 131 139 150 150 146 152 157 152 145 150 165 181 193 201 210 218 220 222 221 219 215 210 200 184 165 146 131 123 125 128 132 138 147 152 156 162 167 175 181 182 183 186 187 185 183 182 187 187 181 174 170 173 178 176 170 171 181 183 176 184 198 199 194 188 182 178 179 190 194 192 195 196 191 187 190 195 198 200 201 198 196 196 193 192 190 188 189 191 192 185 179 182 177 172 178 181 170 164 168 159 139 138 135 130 142 147 128 96 69 61 84 134 191 209 198 174 131 96 86 81 74 74 103 122 113 113 122 135 141 148 147 143 147 154 160 160 157 148 142 140 136 142 164 176 179 188 194 190 183 180 178 165 164 183 199 206 205 201 200 199 199 198 195 195 193 188 184 181 180 175 159 142 126 112 117 132 146 155 173 207 230 239 240 237 235 235 232 225 212 198 191 188 183 177 176 182 183 177 175 170 168 168 161 152 155 170 179 179 168 160 174 189 191 192 196 193 184 178 170 156 149 150 149 146 145 146 146 145 147 140 135 138 148 168 191 210 217 216 212 171 109 89 98 105 102 103 119 133 141 148 152 155 153 151 153 159 165 175 182 181 173 165 162 163 163 158 159 168 176 178 175 169 165 166 171 183 195 196 186 174 169 164 165 172 170 169 173 176 174 172 170 174 178 176 173 171 169 166 170 173 167 161 165 171 172 176 172 162 162 164 170 178 181 180 183 181 166 155 153 165 175 172 171 169 160 156 165 173 177 177 174 172 172 175 177 177 177 175 172 172 168 158 153 154 156 156 153 150 146 147 157 166 167 163 162 163 163 160 159 155 150 151 151 142 141 144 142 143 144 -9999 
-9999 189 186 185 185 184 183 183 183 183 180 171 173 183 185 179 169 161 158 162 166 167 169 165 154 151 151 150 155 156 152 148 150 153 146 143 156 171 177 182 189 201 210 213 216 217 218 221 222 220 217 210 196 176 159 147 136 130 131 133 133 138 154 167 173 178 178 180 185 188 187 181 181 183 179 173 170 170 174 173 169 169 177 185 182 180 193 202 201 195 187 178 175 179 188 189 187 193 197 193 188 190 190 192 193 190 190 195 195 193 194 190 184 185 186 180 173 177 183 175 171 173 164 151 155 164 154 140 147 140 128 134 133 110 76 58 65 100 164 204 205 189 156 105 76 74 72 72 86 108 124 124 125 133 139 140 142 143 142 146 154 157 151 148 146 143 141 139 146 163 168 170 182 185 182 182 185 181 170 173 188 198 204 203 200 201 201 199 195 193 194 191 185 180 178 177 168 150 139 131 126 134 147 156 167 198 236 250 253 250 243 236 231 223 211 200 194 191 189 186 178 176 179 178 179 183 182 176 174 173 161 146 144 148 147 140 137 143 155 164 168 171 168 161 156 152 153 154 150 150 147 143 140 138 143 147 138 135 137 140 152 174 200 215 218 220 221 193 146 117 99 88 97 115 123 131 147 163 168 160 154 157 164 171 174 176 178 176 173 167 162 162 160 160 165 168 167 164 162 164 167 170 180 186 182 172 163 161 164 170 170 164 166 171 173 173 171 172 179 181 176 172 167 161 159 164 170 168 167 171 175 177 182 177 168 167 168 173 182 189 194 199 191 172 157 148 145 141 139 149 157 159 161 161 159 165 177 181 178 174 173 174 178 186 183 172 169 168 161 158 155 150 149 150 153 157 162 167 171 171 170 172 175 178 178 174 162 152 153 151 150 158 160 155 149 139 -9999 
-9999 187 185 187 190 191 189 187 186 185 183 179 184 190 188 181 171 161 159 165 167 167 168 164 159 163 166 167 167 163 158 153 159 162 157 163 180 193 196 197 201 206 204 204 208 208 212 217 219 219 221 221 220 216 209 197 182 167 154 143 139 141 152 158 161 167 167 169 171 173 170 168 173 178 179 178 175 177 175 171 168 172 180 181 180 183 191 194 192 189 185 182 182 185 188 186 189 191 189 189 194 195 193 194 192 188 187 185 185 192 199 199 195 195 188 177 179 181 178 176 176 173 165 162 166 169 160 150 145 132 128 131 125 104 74 64 84 132 190 209 201 182 138 86 71 79 82 85 92 97 109 112 113 119 125 129 131 137 139 144 152 151 145 148 152 150 146 144 148 160 164 169 181 178 176 180 183 180 174 175 185 194 199 200 202 203 200 195 190 188 190 188 182 179 176 171 159 150 152 149 144 145 149 159 186 229 247 250 251 248 244 238 229 214 200 192 190 189 189 190 190 189 185 178 173 172 175 181 182 182 178 161 142 132 128 128 131 129 128 138 151 157 158 164 166 158 150 147 147 151 158 157 146 135 140 144 138 138 140 139 141 157 179 194 210 218 221 222 206 157 115 98 102 103 100 107 131 164 178 167 155 155 161 170 174 174 175 178 182 177 166 159 157 162 164 164 159 154 154 161 165 167 169 164 158 155 151 156 167 171 170 171 175 175 175 174 172 178 183 179 174 171 167 163 164 169 170 169 170 173 175 175 174 170 168 169 170 173 180 186 192 192 186 182 185 186 178 165 161 165 166 162 155 153 153 155 161 162 162 169 173 172 178 185 177 164 166 176 181 180 172 166 166 167 165 167 172 173 175 177 172 164 162 166 170 171 167 162 157 151 158 164 163 157 150 149 -9999 
-9999 190 191 193 196 194 188 186 187 187 187 186 188 190 185 178 171 165 164 166 165 164 165 169 172 172 171 171 168 164 162 163 170 170 169 178 189 194 195 199 206 211 211 211 213 211 213 214 214 214 216 217 219 221 221 220 218 213 204 193 184 177 175 169 164 166 165 160 154 152 151 157 161 159 160 158 162 174 177 177 179 180 180 179 179 180 182 181 176 175 178 181 183 187 186 187 193 186 175 176 187 198 204 202 200 204 204 197 193 194 196 195 195 195 187 186 190 183 179 180 179 177 176 176 174 169 161 152 138 130 132 130 124 99 74 75 104 163 206 209 196 172 123 79 78 96 104 108 99 103 114 112 116 122 129 133 134 142 144 145 152 152 154 159 158 153 146 143 151 165 172 178 184 183 182 182 181 179 176 176 182 189 195 200 203 202 196 190 186 186 187 185 179 177 173 164 156 155 155 144 133 138 150 180 221 244 245 241 239 238 238 233 223 208 198 193 191 189 191 194 194 189 183 182 183 185 186 190 193 191 186 172 150 134 127 121 120 124 123 126 139 153 162 166 162 146 131 134 144 150 155 154 146 136 134 135 140 143 140 139 138 141 147 160 183 204 218 221 222 210 171 136 119 105 100 107 127 153 165 148 126 123 133 146 157 165 171 175 176 175 172 163 157 159 160 159 155 150 149 153 157 160 158 153 152 153 152 162 174 175 174 181 182 176 174 173 172 175 176 172 168 166 164 167 175 180 177 173 171 172 174 171 167 166 168 170 171 170 172 172 171 167 168 177 189 199 205 205 201 188 175 163 149 144 147 146 140 133 142 157 165 170 181 190 177 161 153 156 160 165 169 173 178 177 168 167 171 169 162 160 163 164 160 150 142 145 155 161 158 151 151 149 149 149 146 145 -9999 
-9999 195 195 195 192 185 183 186 186 186 186 180 180 186 185 180 174 174 178 177 174 168 167 172 174 172 172 171 167 163 164 170 175 180 188 195 196 192 189 194 202 208 213 216 216 212 214 214 211 211 212 212 213 215 215 214 217 220 221 220 217 215 214 207 200 196 189 183 180 178 174 170 166 164 165 162 169 180 183 190 198 201 201 199 196 193 193 186 170 167 174 180 185 187 182 186 191 186 186 188 188 191 196 194 196 199 201 205 202 194 186 180 179 180 181 189 192 188 188 185 179 178 171 162 156 153 152 145 133 130 133 130 117 88 73 83 119 182 209 203 187 153 103 70 80 106 118 120 104 114 122 119 129 135 140 138 143 151 153 153 157 158 162 162 156 149 142 144 158 173 179 180 183 183 180 176 177 179 179 181 182 187 197 203 201 195 187 185 187 188 188 185 182 181 173 161 157 155 147 129 119 136 168 211 238 244 240 232 227 225 224 219 211 203 197 194 191 189 193 197 194 189 186 189 196 201 201 200 203 203 199 195 186 164 139 129 134 138 135 133 137 146 154 152 138 124 119 125 132 142 151 151 146 146 141 132 134 142 148 152 153 149 144 151 165 182 205 218 222 222 219 196 151 108 94 108 133 142 126 92 79 96 114 129 143 154 165 174 177 175 170 163 157 154 150 147 147 150 152 153 152 153 153 153 156 161 164 172 177 177 179 182 179 172 172 174 175 176 177 171 163 160 163 171 180 183 180 177 173 169 172 175 179 183 181 174 168 161 159 160 165 169 172 180 185 182 182 191 200 199 192 183 176 170 161 150 141 137 144 148 150 161 181 193 177 164 158 151 151 150 147 153 164 168 168 168 166 160 150 142 144 153 160 157 145 139 146 157 160 157 154 151 157 163 156 147 -9999 
-9999 192 190 190 185 182 183 183 178 176 174 169 174 184 186 184 180 183 189 192 191 183 177 173 168 165 165 168 168 167 169 176 183 193 203 206 205 201 199 202 205 206 206 209 211 211 212 212 210 211 211 210 211 209 205 204 209 211 211 214 217 220 223 222 220 218 216 216 216 217 216 211 204 203 202 196 188 175 172 189 203 209 211 209 210 211 206 194 180 183 186 188 192 190 186 192 193 190 197 201 197 193 189 189 190 187 189 194 192 188 181 177 180 182 184 191 193 188 183 178 176 174 169 165 157 152 152 145 133 132 136 127 101 77 74 90 135 192 206 195 174 130 86 70 90 120 124 115 98 100 108 115 126 134 140 141 151 159 160 158 158 160 163 162 154 147 146 150 163 171 169 168 174 177 173 174 178 179 179 176 170 175 192 199 194 185 182 186 189 191 190 188 186 185 173 159 156 154 146 127 120 148 191 221 231 229 224 218 214 213 213 212 208 201 196 193 190 187 189 189 188 192 191 187 188 192 194 194 195 192 194 206 210 198 176 162 159 155 153 159 160 152 141 129 122 123 129 127 123 130 141 146 147 153 157 151 143 145 149 148 156 163 161 161 167 175 191 211 221 221 222 219 196 150 123 120 121 109 87 72 80 108 125 137 151 162 171 179 182 178 166 156 156 157 153 151 153 159 161 158 154 153 156 157 160 165 170 174 177 179 178 176 174 171 173 177 180 182 181 171 163 165 171 176 178 175 171 169 165 164 171 180 184 184 177 166 156 150 152 158 165 172 178 187 182 169 163 170 184 198 203 201 206 208 195 178 166 162 160 153 146 145 155 163 152 161 173 171 168 162 155 157 156 158 167 169 163 159 156 149 140 141 150 158 157 154 152 150 148 147 151 155 159 155 145 148 -9999 
-9999 191 191 189 186 185 186 183 177 177 177 178 186 192 191 188 185 187 192 195 193 185 176 173 172 168 169 173 175 179 183 188 193 199 204 204 205 209 212 212 209 205 202 202 206 206 205 206 208 211 210 208 207 203 198 200 204 203 202 204 203 204 208 213 216 218 220 222 224 225 226 226 223 220 214 205 189 171 167 176 188 196 199 200 207 208 202 195 195 206 207 201 197 190 189 196 198 193 192 194 194 194 193 194 190 181 178 181 184 186 185 185 186 187 191 196 194 185 181 180 179 178 177 177 169 162 161 155 148 146 143 119 83 72 79 100 156 201 202 184 154 106 82 91 114 131 124 110 95 92 107 124 129 138 148 149 154 156 155 155 157 164 168 164 156 152 154 157 164 164 156 158 168 174 174 177 179 176 172 166 163 172 190 197 192 188 190 193 193 192 190 188 188 186 171 155 154 157 148 128 130 169 206 218 218 214 212 211 212 212 211 210 205 199 195 191 187 185 184 182 180 185 184 179 181 185 185 185 183 180 183 187 184 183 190 184 171 162 156 155 155 147 135 127 130 138 143 134 124 121 126 135 141 144 147 146 146 150 153 157 163 170 172 172 179 189 195 206 219 221 222 222 220 216 202 160 119 84 74 81 97 123 138 151 163 170 173 170 166 167 164 160 162 169 172 170 169 170 169 165 160 159 158 154 155 162 167 172 176 175 169 168 171 169 170 173 174 174 171 166 164 169 174 173 171 168 163 161 163 168 174 176 172 167 160 155 153 156 162 164 161 156 157 159 158 163 170 173 178 184 189 194 202 208 206 200 194 193 191 187 179 168 158 146 138 156 168 167 160 161 170 174 161 155 155 158 165 162 157 156 155 153 147 142 148 152 149 141 129 129 137 143 145 138 136 151 -9999 
-9999 195 197 195 191 189 191 189 186 189 191 192 192 194 192 187 184 183 188 190 185 175 168 170 174 176 181 186 186 188 192 197 200 203 205 204 207 212 215 212 206 199 197 197 195 193 194 198 201 202 201 199 196 191 187 193 197 194 189 185 176 172 178 184 190 196 202 206 211 214 218 220 221 221 219 214 208 206 208 203 190 183 182 184 191 196 195 195 202 213 214 209 202 195 195 197 197 195 194 198 200 199 196 191 187 185 185 182 183 189 191 188 184 182 188 193 191 185 185 181 178 178 176 170 162 161 163 163 161 155 136 97 72 73 83 116 177 206 198 172 135 95 90 109 120 124 117 109 100 101 122 137 133 143 154 149 151 151 150 153 160 167 167 162 156 153 155 158 161 158 156 167 176 180 180 183 184 182 179 173 171 179 194 201 200 199 201 201 197 190 185 186 187 183 163 145 147 152 142 127 138 179 207 213 212 214 216 218 219 216 214 209 202 196 190 185 182 180 181 183 181 180 177 177 178 174 176 185 189 191 192 185 177 180 182 180 177 167 151 137 131 133 138 144 151 154 148 131 116 119 125 135 140 147 151 143 147 155 158 164 169 173 176 177 183 192 194 198 211 220 221 221 222 223 224 207 157 114 99 93 97 120 138 149 157 158 154 152 151 153 157 163 169 174 179 178 175 173 173 169 163 160 155 150 153 160 166 169 168 164 158 162 164 160 166 169 168 168 164 162 162 165 169 170 171 170 167 170 175 177 177 173 163 154 151 155 160 166 173 177 173 159 147 141 149 165 173 170 167 164 166 174 181 184 191 198 202 206 210 214 214 208 192 170 160 170 172 165 158 160 168 173 169 170 163 160 165 162 157 158 158 156 146 135 134 133 140 143 131 127 128 129 135 139 147 154 -9999 
-9999 196 197 196 191 191 194 193 190 191 192 190 188 188 185 181 179 179 182 183 176 168 167 174 182 183 185 190 190 188 189 194 201 203 204 207 211 211 209 209 206 201 201 198 191 187 187 186 185 183 182 180 178 172 174 186 188 179 168 162 152 148 150 149 151 154 158 168 180 190 198 203 208 214 219 220 221 223 226 229 218 201 190 184 185 188 188 191 199 209 213 212 208 206 206 204 203 200 198 202 204 203 198 192 190 196 202 201 194 191 193 194 188 184 185 184 177 173 177 174 172 175 170 161 156 155 156 162 162 144 107 75 69 73 87 142 196 208 193 156 119 99 101 112 116 116 112 107 101 112 135 141 138 147 151 148 152 155 155 159 166 167 163 159 151 147 150 152 151 151 160 175 185 187 186 189 192 192 189 182 176 179 193 203 203 205 209 208 198 187 187 189 185 173 152 138 144 146 130 115 128 168 199 210 215 221 224 224 220 216 213 205 195 187 179 176 174 174 179 185 184 185 181 176 169 163 166 170 174 180 181 174 176 185 185 177 171 166 156 141 131 131 141 151 151 145 133 118 111 126 128 133 141 152 151 142 149 155 156 163 169 169 170 173 170 170 181 194 206 215 219 221 222 223 224 224 209 184 164 141 128 132 139 137 135 134 133 135 143 156 163 165 167 166 166 168 170 173 176 174 167 162 158 158 162 164 163 163 163 162 159 161 161 161 170 170 169 170 168 166 165 167 172 174 176 177 178 181 183 180 178 174 166 157 156 160 163 168 176 182 182 175 165 156 157 163 165 164 161 158 159 161 162 164 169 177 189 199 201 199 198 197 196 194 193 189 183 177 167 159 161 165 163 165 166 161 156 155 160 161 158 157 150 138 134 132 141 145 140 137 132 131 136 142 147 146 -9999 
-9999 195 195 192 190 192 195 192 186 187 186 184 184 181 177 175 175 176 178 174 166 163 169 181 190 191 188 190 189 187 188 193 198 200 202 208 213 214 214 214 211 207 207 202 194 190 186 179 174 171 169 166 165 164 172 179 174 164 153 149 145 145 149 149 149 139 127 130 140 153 166 173 182 197 207 210 215 220 223 225 224 222 218 212 208 203 194 191 196 204 211 214 213 213 214 214 213 205 197 196 195 198 202 201 196 198 203 204 193 186 186 190 193 190 184 175 167 167 173 173 174 174 165 159 157 155 157 163 156 122 83 69 74 79 109 175 208 206 180 132 105 102 102 108 115 112 109 107 105 122 135 136 145 150 151 152 157 160 161 166 168 164 161 158 151 150 154 153 151 157 171 183 190 190 188 191 194 194 188 179 172 176 190 201 205 209 213 209 197 190 193 193 184 168 151 143 146 137 112 100 121 168 201 213 222 228 229 225 219 213 209 201 191 182 175 173 174 179 188 191 189 192 191 183 173 168 166 161 159 156 150 148 158 171 178 174 163 155 149 143 144 150 153 142 127 124 118 115 120 137 130 130 137 140 137 144 156 158 160 165 166 164 167 173 171 170 179 188 194 202 213 219 221 221 222 223 224 220 212 199 180 166 150 128 115 111 115 118 125 140 148 152 155 155 152 155 163 172 179 182 181 176 169 166 168 169 166 163 164 164 159 163 164 166 172 172 172 176 176 175 175 180 185 185 185 185 185 185 184 181 178 175 170 168 169 167 166 172 178 181 183 184 184 178 173 169 167 168 167 163 162 161 156 153 152 155 165 174 173 166 163 171 181 185 186 184 185 184 176 162 153 148 140 144 150 146 144 151 156 156 154 153 146 137 141 144 144 140 138 142 146 151 151 147 143 140 -9999 
-9999 197 195 191 191 192 192 188 183 184 182 183 184 177 175 176 175 173 171 166 165 170 178 187 193 195 195 197 195 194 195 198 202 203 205 210 213 217 220 218 211 206 204 198 192 190 184 178 175 173 170 167 169 172 173 169 163 156 148 147 148 152 161 169 168 152 138 136 139 148 159 163 170 180 185 188 195 202 208 213 217 222 224 225 224 223 216 211 211 210 208 204 206 211 213 215 213 206 200 198 196 197 202 202 200 199 197 194 186 188 190 190 189 187 185 180 175 172 171 172 174 170 160 157 159 162 167 166 143 100 74 71 76 92 139 194 209 200 166 115 99 104 104 108 114 112 111 110 109 129 138 144 159 157 154 155 157 158 158 164 164 164 167 163 160 161 162 158 158 168 184 193 193 191 190 192 194 191 180 170 166 170 186 200 206 209 209 202 194 193 191 188 180 167 152 140 135 121 105 105 138 188 208 212 221 226 226 222 215 209 204 198 192 187 184 183 186 193 198 195 194 199 199 195 194 191 185 180 172 158 146 144 155 166 174 173 163 150 141 147 158 165 160 133 113 117 120 127 135 147 143 140 146 147 147 151 153 157 161 160 163 168 177 187 192 189 179 170 175 188 196 204 215 218 219 220 222 222 223 222 215 207 181 144 115 103 107 111 116 125 130 139 154 158 152 153 163 172 176 181 185 186 184 178 176 174 172 169 169 165 162 168 169 170 175 176 177 179 180 180 182 187 191 189 186 186 183 182 182 180 177 176 173 173 171 168 171 178 181 182 181 182 189 196 194 179 169 172 175 171 167 163 161 163 163 161 161 160 156 157 163 164 160 156 154 165 182 185 177 166 158 150 144 148 151 144 146 150 149 146 147 149 146 141 148 147 139 136 132 131 135 143 144 139 133 136 -9999 
-9999 199 195 192 194 194 188 184 184 183 183 187 186 179 180 183 180 175 172 171 178 185 188 190 191 194 199 204 204 202 202 206 210 211 213 216 217 217 218 213 205 202 200 193 188 187 183 178 176 175 173 170 174 173 167 166 163 157 149 149 154 159 168 175 173 166 169 176 179 179 178 172 170 173 171 165 165 175 186 199 210 215 218 221 222 223 222 224 225 223 220 211 204 203 207 210 207 204 203 201 198 192 188 191 196 196 193 189 190 201 204 197 190 189 192 191 186 176 171 170 170 166 161 163 166 170 171 157 118 83 71 70 82 115 170 206 209 196 154 108 99 109 116 115 120 124 124 120 123 143 150 159 171 157 148 150 149 145 151 160 159 164 169 168 168 168 161 156 161 173 186 191 192 193 194 194 191 183 172 163 159 163 185 203 208 208 204 197 194 193 185 183 178 162 143 131 130 124 115 115 155 200 209 210 216 220 221 217 212 208 205 199 194 192 191 191 194 198 196 191 191 196 195 194 202 206 207 201 184 165 160 160 157 156 162 170 167 159 153 155 154 148 134 113 115 131 133 139 147 154 151 142 143 143 144 147 154 162 163 166 174 180 185 191 198 197 178 163 166 172 171 180 194 203 210 213 217 220 221 223 223 223 216 191 150 120 108 105 117 132 142 156 169 172 169 168 171 176 176 173 175 182 188 188 184 177 172 171 170 168 172 178 180 182 183 180 180 181 182 183 182 183 184 180 178 181 179 177 175 172 171 173 172 171 169 169 174 178 178 178 173 173 189 200 199 183 166 162 167 172 173 172 178 183 176 170 169 162 157 164 165 158 155 149 147 156 169 173 167 167 167 160 156 162 160 154 154 153 150 151 149 149 150 149 150 142 135 136 129 120 120 127 128 124 123 134 -9999 
-9999 198 197 196 199 196 185 181 183 180 182 187 184 178 179 181 178 175 176 182 190 193 192 192 194 197 199 201 203 203 203 208 212 212 215 217 217 215 213 206 199 200 199 193 189 187 186 182 178 176 172 168 170 165 159 163 162 157 151 151 159 166 173 178 176 178 188 199 207 206 197 183 176 173 164 154 154 161 170 185 197 206 212 215 215 217 220 222 224 225 226 226 222 217 213 209 204 204 205 203 200 191 181 183 190 190 193 194 196 203 203 198 196 197 198 194 186 180 180 176 168 162 164 174 176 172 160 128 93 78 74 77 103 152 197 211 207 188 144 108 102 117 121 113 126 138 133 130 140 158 159 164 165 145 140 144 137 137 154 160 154 160 168 171 172 167 155 154 163 174 185 191 196 200 199 193 187 179 169 160 155 164 193 210 213 210 205 200 197 192 183 183 180 163 141 135 138 132 117 116 167 208 216 222 228 228 224 215 211 212 209 202 196 195 195 195 197 196 190 186 184 185 185 192 204 208 207 196 177 169 174 177 168 147 132 135 148 158 156 158 153 135 116 121 148 157 149 151 158 163 157 134 120 119 131 147 165 173 170 171 179 184 184 181 184 186 175 167 159 152 155 167 165 162 168 174 186 198 208 216 220 223 224 220 204 170 136 127 133 138 146 156 157 159 169 176 175 177 180 179 176 176 182 184 183 177 171 170 172 174 178 184 188 188 186 182 180 181 184 182 178 178 179 176 174 175 172 169 170 170 168 169 170 170 169 169 171 173 176 180 179 183 194 202 203 198 189 178 168 167 173 178 180 176 170 172 171 161 161 167 162 163 167 165 160 153 148 144 144 152 154 149 149 159 160 160 166 165 159 154 148 143 144 150 154 152 146 141 136 128 128 138 141 141 147 157 -9999 
-9999 198 198 201 202 194 181 179 183 180 183 185 177 172 172 174 176 177 180 184 189 191 192 193 196 198 195 193 191 192 199 207 210 209 213 216 216 214 210 205 204 205 202 193 187 185 185 182 178 175 171 168 167 162 159 162 160 155 148 148 158 169 175 175 174 180 191 201 209 209 200 186 180 179 169 161 165 173 178 181 185 195 207 210 211 212 213 216 218 219 222 224 225 227 226 220 215 212 210 209 208 203 196 188 176 165 172 182 193 199 199 198 196 197 198 194 186 182 184 179 169 163 164 168 167 157 132 100 85 79 78 96 141 189 211 211 203 178 132 108 106 119 118 115 133 138 130 132 145 158 159 158 152 141 144 141 128 135 153 152 149 159 167 168 161 150 143 150 159 173 188 196 197 196 191 183 177 173 169 162 154 169 200 215 215 212 208 203 197 190 184 183 180 161 139 132 131 123 109 120 178 211 222 231 234 231 223 214 211 208 204 201 200 199 197 195 194 190 185 181 177 178 181 192 198 194 185 176 176 185 188 187 181 161 139 129 130 137 139 147 147 130 121 143 160 156 151 156 162 170 168 144 127 131 148 160 160 153 159 173 178 178 178 178 175 168 170 175 163 154 158 157 148 138 130 130 142 156 170 188 206 218 222 223 223 216 188 157 139 131 137 145 146 148 160 174 179 180 184 185 179 176 176 178 180 179 178 177 180 185 186 184 185 187 183 177 176 179 182 179 177 179 179 176 168 165 163 163 169 169 164 166 168 169 169 170 170 176 182 184 182 188 199 199 195 200 208 204 191 177 171 171 170 166 166 172 174 173 174 169 165 168 170 170 163 156 151 139 133 136 140 138 138 146 146 146 155 166 167 159 149 142 137 138 145 145 139 136 131 124 128 143 153 160 167 168 -9999 
-9999 197 195 194 194 188 179 179 185 185 185 178 167 165 167 173 178 179 179 182 186 187 188 188 191 192 191 187 182 183 192 202 208 209 211 213 212 210 207 204 204 203 199 192 189 186 183 179 175 175 176 175 171 165 162 164 162 157 152 154 162 171 174 172 174 178 186 193 196 196 189 178 177 184 183 183 189 193 190 184 182 187 193 198 201 201 204 208 210 212 215 217 219 222 225 225 224 224 223 223 220 217 214 203 181 171 175 173 172 178 185 188 190 191 189 187 187 191 192 185 177 171 167 164 152 125 99 86 79 75 92 137 185 210 213 207 198 174 129 110 112 117 117 124 141 139 132 134 145 155 156 147 141 144 145 136 132 143 149 144 149 159 161 158 150 146 149 149 154 172 186 192 193 190 182 174 172 172 177 175 162 178 204 210 212 213 208 200 194 189 185 181 171 150 130 126 128 123 117 139 192 215 224 230 230 226 218 212 208 205 207 209 207 202 196 190 187 182 178 176 173 179 185 189 188 181 175 173 183 192 192 183 173 169 167 154 139 141 149 157 153 141 136 136 134 137 144 151 158 164 162 153 135 134 153 162 146 130 147 171 179 173 174 179 183 182 181 182 181 177 166 149 139 138 140 136 135 140 144 158 177 197 215 221 224 224 218 186 149 136 134 138 151 164 167 170 174 175 179 181 178 176 175 176 181 187 189 185 182 182 180 178 180 180 173 168 171 176 179 179 179 177 173 167 161 161 164 165 168 164 160 167 169 166 167 169 172 181 183 174 163 166 177 172 170 184 196 198 195 185 175 171 169 170 170 166 165 168 168 163 163 165 164 159 153 158 158 144 136 138 141 142 141 140 130 132 147 162 167 156 149 143 135 123 116 117 124 128 121 120 132 151 159 159 162 165 -9999 
-9999 195 190 186 184 179 173 175 178 177 172 166 166 171 176 183 183 179 181 185 186 182 178 182 191 193 189 185 184 189 199 209 213 213 213 212 208 204 202 202 202 199 192 187 188 187 185 180 177 181 184 179 174 170 167 167 166 164 164 165 168 173 177 179 182 178 174 177 182 186 185 182 187 194 197 202 204 200 195 192 188 183 177 175 177 183 193 197 195 197 201 205 208 213 218 219 222 225 227 228 227 225 224 218 210 208 201 182 165 157 155 159 169 171 168 171 181 187 184 180 179 170 154 140 116 89 82 79 81 100 147 194 212 214 209 203 196 173 126 117 126 117 115 125 137 137 134 136 147 157 153 140 140 150 142 136 140 142 138 137 151 160 157 157 157 157 154 148 155 169 174 181 186 185 182 179 177 176 184 177 159 178 200 204 208 208 202 196 192 189 185 178 165 148 132 129 131 130 133 158 198 218 226 228 228 224 214 207 204 206 211 213 209 202 195 191 187 179 175 176 178 184 190 191 189 187 185 180 175 173 175 177 176 170 158 147 150 160 173 181 171 160 149 134 132 137 138 140 143 141 138 137 134 135 135 129 126 136 153 163 175 182 182 180 182 187 187 185 187 183 169 153 141 134 132 129 122 119 133 153 162 175 197 212 221 225 224 221 200 166 145 139 146 152 150 151 160 167 171 175 177 179 178 178 182 187 187 183 183 180 176 177 178 173 165 164 172 177 179 180 175 167 164 160 159 163 167 169 167 163 165 172 170 165 167 167 168 173 171 161 153 156 162 160 167 178 181 181 179 180 186 183 174 171 171 171 169 165 160 158 161 163 158 151 153 157 149 140 142 146 150 153 159 155 137 137 149 154 144 133 135 135 139 134 129 127 125 121 119 132 149 159 150 134 140 162 -9999 
-9999 192 187 185 182 176 171 169 170 168 168 171 176 182 188 190 187 187 190 188 184 181 181 190 196 190 183 183 190 203 213 215 212 211 216 216 212 210 206 204 203 200 190 182 184 185 183 180 180 183 181 174 174 173 172 171 169 168 167 165 166 172 175 177 180 176 174 177 182 186 188 192 198 201 202 202 202 203 203 202 195 185 175 169 168 170 178 181 182 183 182 178 177 192 205 208 211 216 220 222 225 227 227 227 225 222 213 199 184 166 149 140 136 134 141 147 151 143 131 133 140 132 116 107 94 87 90 97 123 167 206 219 216 210 205 202 197 168 123 123 127 110 114 130 138 136 135 137 151 162 150 135 144 152 141 140 136 126 121 129 149 153 148 152 156 151 143 144 155 163 171 182 185 184 184 182 176 179 184 168 150 168 193 209 211 204 198 195 195 193 188 181 168 152 137 129 129 132 140 159 190 214 224 226 223 214 206 203 203 204 204 201 198 194 192 191 185 178 179 182 183 185 188 193 195 196 195 185 172 161 160 166 174 171 146 132 143 158 166 168 164 155 144 149 152 146 143 140 138 138 140 148 157 157 145 128 127 143 153 155 168 186 191 184 174 170 172 176 176 172 166 158 143 126 115 113 105 112 134 149 152 159 171 189 210 220 223 224 225 203 169 151 148 151 155 160 167 171 167 163 168 173 176 178 178 177 176 178 187 187 184 183 180 175 169 169 175 178 178 175 164 155 157 160 162 165 169 170 167 165 167 168 163 163 167 164 161 164 166 162 160 161 165 168 172 172 168 171 183 195 194 175 164 163 162 169 174 170 165 162 158 161 164 166 165 151 145 153 158 158 159 161 164 160 144 140 139 130 118 114 117 120 134 144 150 141 125 124 131 139 141 140 132 131 147 163 -9999 
-9999 192 186 183 180 175 170 167 169 173 177 179 179 182 185 184 183 187 189 186 187 189 193 200 196 186 185 191 201 211 215 211 205 208 214 217 215 212 206 202 198 192 185 181 185 184 180 180 180 178 169 166 172 175 176 174 169 165 161 160 165 170 171 172 172 174 182 189 188 186 187 192 196 197 198 198 198 202 205 203 196 189 182 175 173 174 175 175 176 176 169 159 163 180 188 185 187 194 203 212 218 221 224 226 227 227 227 222 210 195 177 156 136 129 134 132 121 110 109 117 114 108 108 111 111 116 131 159 192 214 223 219 212 206 203 201 192 159 123 122 122 110 116 131 136 138 138 140 155 163 146 133 144 145 137 135 123 116 118 131 148 147 144 146 146 139 136 145 156 167 181 190 191 190 188 183 180 186 188 172 156 171 201 215 213 205 199 197 197 194 188 182 166 146 131 124 124 126 135 152 183 213 225 226 216 204 203 204 204 202 196 191 187 184 184 183 177 176 182 185 185 184 185 190 194 198 198 193 188 181 171 165 169 172 157 153 154 153 151 151 152 146 140 146 141 135 138 143 151 151 150 154 161 165 165 156 152 152 152 155 165 176 180 173 168 166 162 161 161 156 147 136 125 121 125 120 111 126 136 133 137 151 161 170 184 203 219 225 228 226 199 166 156 160 167 172 175 176 171 166 165 167 169 174 176 173 172 176 182 182 183 185 183 179 175 174 176 176 173 166 154 150 158 164 166 168 169 169 165 162 163 164 163 164 167 162 156 160 165 167 163 160 166 168 168 165 162 173 192 200 184 162 159 159 160 163 163 162 163 165 164 162 162 165 158 147 156 162 160 160 160 157 153 147 138 137 134 126 121 119 119 121 130 133 136 130 125 138 143 139 134 136 141 155 168 166 -9999 
-9999 191 184 179 174 169 169 170 173 176 179 177 174 176 177 175 176 180 183 184 187 188 191 195 191 188 194 202 207 210 212 213 213 214 215 214 209 203 198 195 189 183 178 177 183 182 180 180 176 168 157 160 169 172 172 167 163 160 157 161 168 172 172 171 170 173 183 190 190 187 189 193 193 194 199 199 196 199 200 198 194 191 186 178 175 178 181 181 176 169 165 168 181 187 180 171 171 177 184 193 199 206 216 220 223 227 229 228 226 222 214 202 189 178 164 147 134 130 137 141 133 128 132 139 151 169 192 213 222 224 221 215 210 205 202 201 189 156 126 124 125 115 114 124 131 136 139 143 155 157 144 139 146 144 140 133 122 123 126 137 149 147 147 146 142 137 139 151 163 175 185 192 193 189 187 186 187 191 188 172 159 176 205 212 210 207 204 203 201 193 187 182 163 143 132 125 120 116 128 151 185 215 223 221 211 203 205 206 202 196 191 186 184 183 179 175 173 177 182 182 180 179 181 188 193 193 193 193 196 195 187 183 185 187 180 182 171 152 146 148 147 145 148 144 131 127 126 132 142 140 140 152 168 174 168 161 170 175 176 172 168 164 154 148 152 157 162 163 156 145 132 118 113 120 131 127 121 132 137 137 150 164 165 161 164 183 210 224 227 228 222 197 169 156 156 164 170 173 174 175 173 172 174 176 178 179 179 180 183 186 189 187 182 179 177 175 174 173 170 164 157 158 164 166 164 162 160 162 159 156 161 166 164 165 169 163 157 161 166 166 163 164 172 172 167 167 169 175 176 172 162 164 166 160 161 163 161 162 164 167 167 159 147 143 145 155 165 158 150 149 147 146 149 151 151 150 147 141 137 137 140 143 144 142 140 134 138 148 144 142 150 158 166 172 170 161 -9999 
-9999 189 180 175 171 169 176 177 173 172 171 167 167 171 171 171 174 178 180 181 183 182 184 186 186 190 194 199 203 206 211 216 219 221 221 213 203 197 194 191 185 182 180 179 183 181 180 176 168 161 158 164 165 159 156 156 158 158 160 167 175 177 176 177 179 183 189 194 194 192 192 193 193 195 199 197 197 199 197 194 190 188 186 185 185 184 184 183 176 170 172 181 189 189 183 178 180 183 181 178 179 188 201 210 216 222 224 225 227 228 227 227 225 221 210 197 189 184 180 174 170 172 177 188 204 217 224 224 223 219 214 210 205 202 201 200 190 157 131 127 121 112 111 122 130 137 139 142 151 153 145 144 146 145 146 140 133 137 136 140 148 144 143 145 144 144 151 162 170 178 180 188 195 191 189 191 190 191 186 171 160 173 198 204 205 207 208 208 203 195 192 189 169 151 140 128 117 111 127 153 186 210 212 208 202 198 199 198 194 190 187 186 186 184 179 176 181 184 181 177 174 173 176 185 193 194 190 186 186 187 189 193 189 181 174 174 171 159 152 145 139 140 148 150 147 141 136 141 142 139 149 165 173 171 166 165 178 190 197 186 172 160 152 151 153 155 160 162 157 145 132 121 120 128 133 131 129 141 148 148 158 168 163 157 162 174 192 211 223 228 226 222 193 168 162 165 166 165 169 175 174 176 182 182 180 182 186 189 192 195 195 188 177 171 169 168 169 172 172 169 165 164 164 162 161 157 156 160 161 162 169 169 163 165 167 161 157 161 166 165 161 164 174 173 169 170 170 167 156 144 143 159 167 166 168 165 161 161 163 165 166 160 151 149 153 161 163 154 147 142 141 147 155 161 161 160 158 145 129 124 134 146 153 153 151 150 153 150 139 143 158 169 175 180 179 170 -9999 
-9999 184 178 176 175 175 176 170 165 165 161 158 163 167 171 173 174 177 179 180 183 183 184 187 190 194 196 201 204 209 215 218 221 226 225 213 201 196 193 191 188 185 184 183 183 180 176 169 165 166 169 170 162 152 152 157 159 160 163 172 178 176 178 187 192 195 198 199 198 197 196 195 193 195 196 195 195 196 196 194 191 186 184 188 192 192 189 184 179 177 181 186 189 191 189 188 190 192 189 183 183 185 186 187 195 206 215 220 223 224 226 227 228 229 229 227 225 221 219 215 212 216 219 222 226 227 224 221 217 212 208 206 203 202 202 199 185 154 133 122 113 113 118 127 134 143 142 144 155 152 144 146 144 142 143 135 131 137 134 132 142 142 142 146 146 152 162 168 173 173 176 190 196 195 194 193 190 190 184 171 161 170 191 198 202 205 205 202 196 191 194 195 177 149 133 123 115 113 128 157 189 203 199 192 187 187 190 188 184 183 185 187 188 185 181 182 188 183 175 175 172 172 175 183 191 194 190 183 180 183 186 184 173 159 153 158 168 167 159 148 143 147 151 150 152 145 138 141 142 144 156 165 160 151 152 165 176 183 187 179 170 166 163 163 163 159 152 154 155 144 126 117 120 127 128 127 132 152 160 154 155 159 159 161 165 170 179 196 218 230 228 228 218 192 172 164 164 167 175 180 175 176 180 180 180 180 182 187 190 190 186 178 167 162 163 165 168 173 177 175 170 167 165 165 164 162 166 173 175 172 171 168 161 163 162 156 155 159 166 167 161 164 172 169 165 164 163 161 149 138 139 148 157 167 171 167 163 162 162 162 158 156 158 162 164 162 156 151 144 137 139 146 153 156 155 156 160 151 129 117 122 134 143 145 144 143 143 138 135 143 148 145 148 160 169 169 -9999 
-9999 180 175 177 177 172 161 157 163 169 163 162 168 171 176 176 176 179 179 181 185 188 192 196 198 201 204 210 213 217 220 220 222 225 218 204 198 197 194 192 190 187 184 181 179 178 172 165 167 172 172 168 164 164 167 168 164 165 169 176 177 173 179 189 196 200 202 201 203 206 206 202 196 194 195 196 194 194 196 195 190 184 187 192 193 193 190 187 186 190 192 194 196 197 195 193 193 195 195 195 194 189 178 171 176 187 199 209 214 218 221 222 224 226 227 227 228 228 229 229 228 228 226 225 224 221 216 214 212 209 208 207 205 205 203 195 177 150 132 116 111 120 125 131 137 143 143 150 157 146 141 146 144 139 132 126 127 132 127 125 137 143 146 148 147 155 161 164 167 169 177 191 198 197 192 186 184 186 180 169 161 168 184 190 193 195 195 190 184 186 192 189 166 129 119 120 118 119 129 165 199 201 191 182 183 189 190 185 181 183 187 189 187 183 178 180 182 172 169 174 171 172 175 183 191 190 184 177 179 180 178 174 166 159 155 156 162 164 159 152 150 154 155 151 151 151 147 141 137 145 155 153 146 145 157 175 180 176 175 173 170 170 167 163 163 163 163 165 158 143 125 114 111 111 115 119 128 152 166 167 162 159 164 170 172 175 180 193 213 228 230 229 229 212 182 161 158 167 177 184 182 179 179 181 182 176 172 177 182 181 177 169 160 160 166 168 168 172 178 178 174 172 170 168 169 172 177 181 180 168 160 157 155 158 160 159 159 162 169 171 166 165 161 153 154 160 164 163 157 155 158 157 157 161 161 161 163 161 158 156 152 151 155 167 170 160 152 148 136 125 131 136 140 140 143 156 168 168 153 138 127 122 125 125 122 123 127 134 151 160 150 137 139 143 150 159 -9999 
-9999 172 172 176 174 163 151 156 169 171 166 166 173 180 182 178 179 184 182 184 189 192 198 199 201 207 212 215 218 221 222 222 221 214 201 192 194 193 190 188 185 183 181 177 177 178 172 167 169 169 164 161 164 170 174 174 172 175 180 183 182 181 186 193 201 207 207 205 205 207 206 201 199 201 200 198 197 199 199 196 190 190 196 198 197 196 194 193 195 198 198 198 200 202 199 195 193 195 196 193 190 187 180 175 178 180 184 189 194 199 207 215 219 221 222 223 224 223 224 223 223 222 220 219 217 213 210 210 210 210 211 209 206 205 200 189 173 150 131 117 116 123 126 130 135 134 134 146 148 135 136 146 147 140 130 128 131 129 124 127 135 138 144 142 143 155 157 158 164 171 181 195 200 194 185 181 181 181 178 174 168 167 177 182 187 192 192 186 185 190 188 177 153 122 115 118 123 122 127 166 198 194 184 180 184 188 186 187 188 189 191 192 188 180 174 174 174 168 170 171 167 171 174 181 188 186 180 176 180 182 181 178 173 170 168 165 162 159 155 153 158 160 156 151 152 159 164 164 160 157 154 147 150 162 172 178 174 170 172 179 179 176 177 176 169 170 182 182 165 149 134 123 117 114 118 129 141 154 163 168 166 159 163 175 186 187 185 192 207 223 231 230 229 223 199 166 148 150 160 172 183 186 182 184 186 183 183 184 182 179 177 172 165 168 175 171 165 168 176 178 173 170 165 163 165 169 172 172 169 155 149 154 157 162 166 166 164 165 172 175 168 157 145 144 159 171 175 172 168 168 168 167 167 167 165 166 165 160 159 155 149 146 153 171 175 164 161 157 149 149 155 152 148 138 133 147 164 172 165 158 146 131 117 111 118 131 136 148 165 168 162 165 172 165 162 169 -9999 
-9999 170 172 176 172 162 157 169 176 171 163 162 171 182 183 177 180 184 182 186 191 194 199 200 206 214 216 217 219 220 219 218 215 206 193 191 195 191 186 180 176 178 179 176 178 180 175 170 168 164 164 167 169 171 176 178 181 186 187 187 187 189 191 196 202 203 204 205 203 200 198 199 204 208 207 204 205 205 201 197 193 196 200 200 199 200 201 200 199 198 196 197 203 205 201 196 193 194 194 191 192 192 186 186 191 191 190 189 185 184 193 202 206 211 214 217 218 217 217 216 216 215 214 214 213 211 211 211 214 216 214 210 207 203 195 183 172 150 128 118 113 117 126 133 133 129 135 148 149 136 140 152 152 145 135 134 136 131 134 142 141 134 135 137 144 155 155 155 160 167 177 193 197 192 187 184 182 181 183 183 180 170 168 178 193 200 195 190 192 191 181 172 159 140 128 127 136 133 137 169 191 184 178 179 182 182 184 192 198 196 195 196 189 177 167 159 157 163 167 163 164 171 173 180 189 191 190 191 192 189 187 180 173 171 171 166 160 155 152 157 164 161 152 153 162 165 166 170 168 161 155 147 155 166 167 166 171 179 182 184 183 179 180 183 179 172 168 163 156 149 138 132 138 137 129 133 147 157 160 166 168 162 163 172 184 192 196 198 205 214 226 230 229 227 221 193 161 148 148 156 174 182 180 182 191 199 201 194 185 181 181 178 172 175 178 170 165 171 178 173 164 161 159 158 160 160 158 156 152 146 152 163 165 167 169 168 164 163 169 176 174 166 162 168 175 172 169 165 160 162 163 161 166 174 176 174 167 162 162 160 157 158 162 163 159 157 164 164 163 170 173 168 163 146 130 132 139 144 144 147 153 150 137 130 139 148 153 162 165 161 165 178 187 188 189 185 -9999 
-9999 175 177 177 170 163 164 175 181 174 167 166 173 181 178 176 183 186 186 192 196 198 201 203 213 219 217 219 221 218 213 209 205 198 193 192 190 188 187 179 179 183 178 174 176 175 171 171 170 168 168 171 172 174 175 172 172 174 178 183 185 186 189 195 196 192 195 199 199 198 197 199 202 203 201 201 204 202 199 196 195 196 197 196 193 198 204 203 197 193 193 199 205 202 197 194 196 202 201 198 201 198 193 199 206 204 201 198 192 191 196 197 197 203 205 207 209 210 212 213 212 211 211 211 211 212 211 212 217 222 219 210 205 200 190 176 161 138 121 112 110 119 136 143 135 135 142 153 158 144 141 151 151 144 136 134 134 139 149 156 142 129 139 151 153 151 149 151 155 164 176 183 182 180 181 182 184 187 188 188 190 174 158 171 192 197 192 192 195 189 180 174 172 155 133 129 139 144 152 173 185 183 188 191 189 187 187 193 198 196 194 193 185 169 158 149 151 157 155 152 163 174 175 184 196 198 196 194 187 182 180 179 180 181 175 163 153 150 152 154 155 156 161 167 169 166 160 160 163 164 162 162 171 174 169 158 167 182 182 181 184 180 176 178 180 170 148 134 136 135 129 130 138 134 125 137 154 165 170 172 172 170 171 176 181 190 199 201 201 204 218 229 229 227 225 221 191 158 147 155 173 187 189 187 191 194 190 186 185 183 183 181 173 175 179 178 179 184 181 166 156 156 155 156 160 161 158 151 145 146 153 157 158 161 165 164 159 158 164 173 178 177 175 179 173 159 151 147 145 150 148 143 153 162 163 169 174 172 166 159 166 178 176 159 142 143 151 147 139 143 155 156 148 135 131 131 118 109 110 118 133 143 149 155 156 153 155 159 160 158 161 166 168 169 169 161 -9999 
-9999 180 180 175 164 161 164 172 180 177 169 167 171 176 177 180 186 187 191 198 203 208 211 215 222 221 219 221 220 215 211 210 206 198 191 187 183 185 188 185 187 184 173 171 171 169 169 169 167 165 166 168 169 168 164 163 166 168 172 176 179 183 185 187 186 188 194 194 195 196 196 195 197 201 201 202 201 197 195 191 188 188 189 193 197 202 204 201 197 196 195 197 197 192 190 191 198 204 203 201 203 202 201 206 208 204 201 198 195 197 197 195 196 194 188 192 197 200 204 205 208 210 206 201 200 201 202 204 210 216 210 197 193 190 178 159 136 123 125 117 117 131 143 145 134 137 141 147 153 143 136 149 154 145 140 138 140 150 153 152 141 133 147 162 157 147 151 156 158 168 177 180 180 178 179 183 186 188 188 190 188 168 143 160 195 200 196 193 194 190 181 180 177 147 116 117 134 148 159 167 168 171 193 202 198 192 190 192 194 190 183 181 172 157 152 154 162 162 153 155 171 181 181 187 193 189 183 177 172 174 175 175 178 180 175 167 161 166 172 166 160 161 167 172 169 162 157 158 165 170 171 183 193 185 167 148 148 156 165 172 173 169 171 177 181 179 162 138 125 116 111 113 115 114 126 153 162 167 176 177 174 172 170 173 185 196 201 200 201 203 209 220 228 228 227 228 217 185 161 154 161 178 185 184 182 179 179 186 189 189 188 184 178 178 180 180 179 179 172 161 158 156 154 158 164 162 158 151 147 153 152 148 149 155 161 162 160 161 167 174 176 167 159 161 157 149 144 141 143 146 141 137 139 130 132 153 170 179 182 179 179 178 172 160 149 146 144 134 131 140 146 139 129 123 130 136 123 114 110 112 124 136 147 156 157 155 155 157 157 156 156 160 164 164 159 158 -9999 
-9999 177 172 163 158 160 161 167 174 170 163 161 163 170 177 183 186 189 195 200 207 214 218 222 222 218 218 218 215 211 211 215 212 203 194 187 187 190 188 184 181 176 172 172 169 167 167 164 159 160 166 172 170 162 163 169 174 176 174 173 174 179 183 184 186 196 201 197 195 196 198 200 203 206 207 207 203 197 194 190 188 191 194 200 203 205 205 200 198 198 195 194 191 191 194 196 200 201 200 201 202 205 208 211 209 205 201 198 195 193 190 184 174 166 166 174 180 181 175 176 186 191 187 181 182 183 182 182 179 173 166 165 178 180 162 136 119 119 128 119 119 132 140 137 129 134 139 142 149 145 138 151 156 146 146 148 150 156 148 146 149 142 144 160 157 149 158 162 162 170 178 184 191 189 184 179 176 179 186 190 186 167 140 156 200 205 198 194 193 185 175 175 164 131 113 121 139 150 156 153 143 149 181 198 199 195 192 189 185 177 169 169 162 150 153 162 170 170 165 168 175 177 174 177 177 167 161 162 168 174 173 173 175 177 178 179 181 189 189 178 166 156 153 159 159 157 161 164 166 168 171 169 159 145 141 163 173 168 167 165 161 162 165 167 170 173 159 133 116 104 100 100 97 104 132 156 158 162 175 180 179 179 175 179 190 195 192 189 192 196 198 210 224 229 229 228 227 223 186 158 147 147 158 172 177 178 186 197 199 196 194 189 183 181 179 175 174 175 172 169 169 165 166 171 170 161 154 152 155 161 160 157 160 164 165 163 160 162 167 175 165 139 133 140 142 137 137 140 139 136 135 137 134 125 137 154 160 168 179 185 183 171 160 160 166 166 158 145 140 140 129 119 120 124 133 144 145 137 126 121 130 143 150 153 156 157 157 157 159 158 154 158 165 169 168 163 -9999 
-9999 166 161 154 150 153 156 159 161 157 152 154 163 172 177 181 187 194 198 204 211 215 219 220 218 214 212 213 212 210 209 211 209 204 199 195 194 193 186 179 175 177 179 173 166 165 165 159 156 160 168 175 169 165 174 178 177 175 176 176 175 181 186 188 193 199 199 196 199 204 207 211 212 210 208 207 205 200 197 195 199 204 207 206 201 201 201 198 197 196 196 198 197 198 201 204 207 208 207 205 204 206 208 210 209 207 203 198 193 188 182 170 161 161 165 165 158 144 137 149 158 160 158 155 156 153 151 152 149 145 143 152 167 162 136 114 110 123 135 129 127 141 148 141 132 139 144 141 148 147 145 155 157 149 146 149 149 149 142 145 152 139 138 158 158 151 158 161 162 171 183 189 192 190 183 175 173 177 182 187 188 169 141 154 193 198 191 191 189 178 173 171 155 137 129 132 142 145 145 140 128 138 174 192 195 194 190 186 179 170 164 165 158 152 158 166 171 170 167 166 164 158 154 158 163 158 160 168 178 182 182 183 183 183 186 190 192 195 193 186 176 165 159 152 146 152 160 167 173 176 174 164 148 140 146 168 185 185 170 161 160 162 160 156 155 148 127 117 119 112 105 103 103 120 146 162 168 171 177 185 191 194 196 198 201 202 199 195 192 193 195 201 216 227 228 228 228 230 210 174 152 144 155 172 179 181 190 196 195 194 191 182 179 179 179 180 182 184 180 175 170 166 172 175 166 157 155 159 164 166 165 163 167 173 169 162 157 158 163 169 152 130 135 141 143 149 159 160 152 142 139 141 142 145 154 155 151 147 149 158 166 163 158 162 172 176 167 148 133 122 112 112 119 131 145 153 152 145 139 138 145 148 147 147 152 156 158 159 161 164 166 166 163 159 154 141 -9999 
-9999 155 151 148 146 151 156 156 155 153 150 158 172 180 182 184 191 198 201 208 216 218 219 217 214 208 207 211 212 211 210 211 208 202 197 194 192 188 182 179 178 183 182 173 169 173 172 165 163 167 173 175 166 164 173 175 174 175 179 181 183 189 190 190 194 199 200 201 207 211 215 218 216 211 208 208 205 201 199 201 205 208 209 208 204 204 202 200 198 197 200 203 203 204 206 207 211 212 210 209 208 207 204 204 206 207 205 198 191 184 177 173 177 179 176 169 155 141 147 159 159 152 147 144 142 137 138 144 152 160 158 155 149 133 112 104 116 139 150 148 144 149 153 143 134 143 147 138 140 144 150 159 159 152 146 148 143 139 140 146 147 136 141 157 154 149 154 155 157 168 183 187 183 181 178 177 180 182 185 189 185 163 139 150 184 197 196 195 189 182 180 173 160 152 141 135 137 138 138 135 124 139 178 194 196 193 190 187 181 173 169 167 158 153 155 156 159 161 159 158 156 150 148 156 162 163 170 180 188 191 189 185 185 185 189 192 190 193 196 194 187 179 176 170 161 162 168 173 176 177 178 179 182 178 165 157 158 164 165 159 154 154 155 156 151 138 124 123 125 117 108 109 122 149 168 177 182 181 175 179 192 204 208 205 207 213 216 212 205 203 199 193 201 217 225 228 228 227 225 201 170 158 159 164 173 185 191 192 189 187 181 173 176 176 174 178 184 184 178 169 160 160 164 160 149 149 155 164 170 170 170 168 170 171 163 155 153 154 157 159 149 151 170 176 186 200 205 204 197 188 177 168 159 155 152 141 128 120 128 143 155 161 166 168 167 163 151 137 131 129 131 133 134 141 149 150 143 139 143 147 145 140 139 141 149 157 159 160 162 167 173 177 173 162 154 146 -9999 
-9999 147 138 141 147 157 161 157 157 157 157 168 179 184 187 193 200 204 206 212 216 215 212 209 205 204 209 212 212 210 208 206 201 194 188 185 183 182 182 183 183 184 180 174 176 182 180 174 172 174 175 171 163 159 162 165 168 175 182 187 193 200 199 198 204 211 214 215 214 214 215 217 215 210 209 209 206 200 199 202 206 207 207 206 205 208 208 204 197 194 196 201 205 208 210 211 212 211 209 208 206 202 200 201 204 205 202 196 190 184 179 180 185 186 183 177 171 174 183 182 171 161 157 156 154 152 155 162 169 172 167 158 143 126 118 122 142 159 159 155 148 144 146 138 130 138 142 135 137 146 151 154 152 148 146 146 143 142 149 149 142 139 148 155 148 148 152 153 158 170 183 185 182 178 173 173 176 182 187 185 176 156 139 148 181 200 201 197 190 185 180 175 169 163 150 135 132 130 129 126 121 141 180 198 199 193 188 185 182 181 181 175 160 148 145 148 156 159 159 160 160 157 161 168 169 168 171 174 175 174 174 179 188 191 188 184 185 192 193 190 188 188 191 191 183 176 174 174 172 170 172 180 189 194 192 174 151 142 149 151 147 148 152 151 143 131 124 120 113 106 105 120 143 164 178 189 193 191 187 187 199 215 218 212 208 209 209 208 205 202 197 188 185 199 218 227 228 228 227 225 201 175 165 169 182 191 190 184 181 180 176 176 180 175 170 178 185 183 174 163 159 162 161 152 145 148 154 162 167 169 169 170 170 164 154 148 147 145 146 153 161 179 199 210 220 224 224 224 223 219 211 198 180 169 159 142 124 124 137 140 144 156 168 167 155 142 132 129 128 136 147 147 144 142 138 133 125 125 134 139 137 138 146 151 158 163 161 162 162 163 166 173 177 170 166 168 -9999 
-9999 141 139 145 150 155 158 159 164 167 169 175 180 184 191 200 206 208 209 211 212 211 209 205 201 203 208 210 209 205 199 192 191 186 180 179 178 179 182 180 179 178 174 172 178 180 174 168 166 169 168 163 160 159 164 171 177 186 194 198 203 209 208 208 214 220 221 218 216 215 216 217 214 210 211 212 207 201 201 203 203 201 199 199 200 204 207 204 197 194 197 201 204 207 212 213 212 210 208 206 202 198 199 203 204 203 198 192 190 186 183 186 192 192 189 185 182 187 193 191 183 176 173 170 169 170 176 180 181 177 168 161 154 145 144 152 163 168 164 160 151 145 147 140 130 132 137 137 139 147 155 158 160 157 150 146 146 151 156 146 139 142 150 153 148 156 159 161 167 173 182 185 186 182 173 170 173 176 178 173 161 142 131 148 185 205 201 193 186 182 180 179 173 167 153 134 127 123 119 121 129 148 182 201 201 195 190 188 187 188 186 176 160 145 146 156 160 159 161 164 166 168 175 180 177 174 173 171 165 160 163 175 186 189 186 182 186 190 186 186 194 202 202 194 189 190 185 180 176 177 184 193 198 204 207 195 170 155 153 152 147 148 151 146 136 121 109 104 101 105 121 153 177 190 200 204 206 207 212 213 213 220 223 217 209 205 203 204 201 197 197 192 185 188 207 225 229 228 226 225 221 198 180 179 180 178 174 169 169 172 175 179 179 172 171 179 184 180 166 157 160 165 162 156 154 154 156 159 161 164 162 158 155 149 145 145 146 150 163 180 195 208 215 220 222 222 222 223 224 224 223 220 210 197 177 156 146 145 139 132 134 142 149 144 133 123 115 107 108 121 125 126 130 125 114 114 117 124 134 140 142 152 159 161 164 164 161 163 161 159 161 168 173 171 170 171 -9999 
-9999 143 150 157 158 157 159 165 171 173 175 180 183 192 201 206 209 207 206 207 209 211 210 206 202 200 198 200 203 200 190 186 188 182 174 176 178 178 178 176 175 173 165 165 172 174 166 162 163 168 168 163 161 163 173 185 193 200 205 206 208 210 210 214 221 225 223 217 213 214 217 216 210 207 208 207 202 199 202 203 199 192 190 193 195 200 205 203 199 199 202 204 203 205 208 207 207 208 210 210 208 204 206 207 203 199 194 190 190 190 190 196 201 197 192 190 187 189 193 191 188 186 184 181 181 183 187 190 185 174 163 161 162 161 163 168 169 165 166 165 153 145 141 135 130 129 134 139 142 151 162 170 173 166 153 146 145 150 150 142 145 154 160 156 155 165 166 166 166 169 178 183 186 184 182 180 178 176 175 168 155 138 136 163 199 212 204 195 189 184 180 174 170 169 152 133 129 119 112 124 143 162 194 209 204 198 196 193 188 184 178 169 160 149 157 165 160 158 161 163 166 173 181 183 180 177 176 176 174 171 172 180 185 183 182 185 188 182 174 181 192 199 196 185 184 194 200 195 188 186 192 200 202 200 197 193 191 192 189 176 164 160 155 143 132 118 102 98 111 137 166 188 200 212 221 222 220 220 224 225 220 219 220 214 205 203 205 203 198 193 198 204 199 191 199 215 225 228 227 225 226 221 196 173 159 153 156 162 167 168 170 172 171 168 170 177 177 169 156 155 161 162 159 158 160 161 163 164 164 164 153 140 135 136 140 145 157 177 199 214 219 219 218 218 218 217 218 218 219 221 222 222 223 219 205 186 171 154 139 133 126 114 105 102 101 99 93 86 93 99 90 97 106 95 88 100 118 130 136 140 146 157 161 161 165 165 165 167 161 157 158 162 165 163 159 156 -9999 
-9999 149 160 167 169 169 168 166 168 169 172 177 188 203 210 210 208 206 205 205 206 208 207 204 200 198 197 197 196 191 185 186 185 174 170 178 181 176 174 174 174 169 162 164 174 177 169 166 171 177 174 167 165 170 183 195 201 204 206 206 207 208 210 217 223 224 221 216 215 216 215 209 205 205 206 202 196 197 200 198 195 192 195 200 202 206 205 200 198 200 203 203 202 203 203 199 200 205 208 208 206 202 202 202 200 196 191 190 192 193 193 196 197 193 191 192 192 192 189 186 185 185 185 185 187 189 190 192 186 173 166 168 170 170 170 169 163 159 164 159 148 141 134 134 133 127 134 143 147 157 167 174 175 164 148 138 137 142 142 146 161 166 162 157 159 168 169 164 160 164 175 181 184 187 191 191 186 182 177 167 153 147 163 192 213 215 204 196 191 182 174 167 169 167 145 134 134 116 104 124 153 175 201 211 205 200 197 192 186 183 180 176 169 160 166 167 160 160 160 156 160 168 174 177 179 177 176 179 186 191 191 188 185 181 180 183 181 172 171 180 185 184 180 175 176 184 194 196 194 192 194 199 201 201 198 193 195 195 194 195 195 183 158 135 125 117 110 119 144 176 200 209 212 220 227 229 228 228 229 230 224 221 219 214 207 206 209 208 202 197 198 205 205 197 193 199 210 222 226 226 226 229 217 184 158 151 157 165 169 169 168 168 166 166 171 175 173 165 158 161 165 159 157 161 163 165 167 168 169 166 149 135 138 146 150 162 187 209 220 222 219 215 213 213 213 214 215 216 217 218 218 220 222 223 221 214 200 182 166 148 124 105 94 90 86 85 84 82 84 80 71 79 76 65 76 91 99 102 103 108 124 149 163 166 168 160 153 154 154 155 154 150 149 144 145 154 -9999 
-9999 160 170 175 178 181 178 174 172 171 175 183 196 207 209 208 206 205 206 205 203 203 204 201 198 201 206 205 197 188 186 186 179 174 180 184 178 172 174 174 168 163 164 169 176 172 162 165 178 180 171 169 173 182 193 201 206 206 207 208 208 210 214 219 221 219 218 218 220 221 216 208 204 202 201 196 196 200 200 195 193 199 207 210 211 209 201 194 193 195 200 202 202 203 202 197 194 197 199 197 193 192 197 203 205 202 197 194 195 196 194 191 191 192 191 192 195 195 190 186 181 180 184 188 192 192 190 190 187 180 176 177 178 177 173 167 161 157 157 153 148 147 145 147 141 130 139 151 152 159 166 171 172 161 145 137 139 147 149 158 169 161 153 155 155 159 162 157 154 160 172 178 182 190 193 192 186 180 174 169 162 165 186 210 218 211 201 195 190 180 173 172 175 165 144 141 140 119 105 134 172 187 202 210 207 202 198 192 188 188 188 183 175 168 164 161 161 162 158 155 161 167 166 169 173 171 170 180 192 199 199 191 181 178 178 176 170 167 173 178 174 171 175 179 183 186 187 192 203 209 205 199 195 195 198 203 201 190 184 190 193 177 148 129 122 122 129 153 178 197 210 213 214 215 217 220 225 229 232 233 226 217 214 215 213 211 214 215 216 214 207 204 208 208 200 195 197 208 221 226 226 226 226 211 186 169 158 154 163 170 170 169 167 166 171 175 176 172 168 168 166 162 165 166 165 166 164 165 169 163 144 137 151 165 176 196 215 221 219 215 211 209 210 212 214 215 216 217 217 218 218 219 220 221 222 222 222 216 200 175 149 132 122 113 105 100 95 92 91 88 84 80 68 70 88 95 93 86 86 100 119 137 153 167 168 157 153 154 152 150 141 133 129 123 134 149 -9999 
-9999 173 175 177 181 181 177 178 181 182 190 199 205 206 203 202 201 202 203 203 201 201 199 191 190 200 207 204 196 190 187 185 182 184 187 181 176 178 178 172 163 160 163 166 167 161 157 167 177 170 164 174 187 199 205 209 212 213 215 214 212 214 218 219 218 217 217 217 218 216 210 204 201 198 196 195 200 202 198 194 196 203 206 208 207 199 191 190 190 191 192 196 200 203 203 199 195 194 190 189 189 194 201 207 206 202 197 194 194 193 190 190 194 195 192 192 196 198 199 196 186 181 183 185 186 184 184 187 188 184 183 185 184 179 172 167 163 161 161 162 160 158 155 151 146 141 149 156 152 154 163 169 169 159 149 143 147 154 156 161 164 154 148 152 146 150 158 154 155 163 173 176 182 191 194 193 187 181 178 177 176 183 200 213 212 201 195 192 189 184 181 185 184 167 151 151 147 128 118 144 179 195 209 213 200 188 182 181 185 187 184 178 176 170 157 154 161 163 161 163 171 172 166 164 165 166 171 183 193 199 200 194 179 166 159 154 157 166 172 172 169 170 182 194 199 195 189 194 205 212 208 195 190 191 190 197 202 197 187 175 164 150 135 122 117 131 160 191 208 214 214 211 209 203 199 205 214 219 221 222 218 211 212 218 220 217 217 219 220 220 215 211 211 210 205 197 194 199 211 222 225 225 226 223 213 186 156 149 160 166 171 173 169 168 173 177 178 174 169 168 166 167 166 163 166 167 161 159 159 149 134 141 164 186 204 217 221 217 212 209 208 210 213 214 214 214 214 215 216 218 219 219 220 221 222 224 224 224 221 213 202 186 169 150 133 123 118 118 119 119 116 107 104 112 115 112 109 104 104 109 111 113 118 132 151 162 172 169 151 136 128 122 118 117 128 145 -9999 
-9999 173 171 171 175 173 168 170 174 181 194 200 200 200 197 195 195 197 202 203 201 202 199 189 187 192 194 191 191 188 183 184 186 185 182 176 175 176 170 164 160 161 161 161 165 166 167 171 166 159 171 189 201 210 216 220 222 222 222 220 219 222 222 219 218 217 215 212 211 208 204 202 202 202 202 204 201 194 194 198 201 203 200 196 192 188 189 192 194 192 190 195 201 202 204 203 200 199 195 192 191 192 192 193 193 191 188 186 188 190 191 193 195 194 194 196 196 195 196 194 189 188 186 184 181 179 180 181 182 180 182 186 185 178 172 169 169 171 174 174 169 163 154 148 149 150 152 153 149 153 166 173 172 166 158 152 150 149 151 154 155 151 147 149 146 151 158 156 162 168 172 176 182 188 191 192 190 187 186 184 183 192 204 211 206 197 193 186 183 182 184 188 183 168 158 158 156 141 132 144 174 201 213 206 185 175 176 181 187 188 185 182 179 168 154 156 164 165 162 165 170 169 166 165 166 171 179 187 193 198 199 196 185 169 155 153 165 173 170 170 175 180 186 196 203 200 192 189 188 190 193 195 199 201 202 203 203 199 190 171 145 130 123 120 126 145 169 195 204 204 209 215 212 203 198 201 206 208 205 204 210 215 216 218 223 222 221 221 222 224 224 221 217 209 201 195 191 193 197 204 216 224 225 224 222 208 183 170 162 157 166 172 168 172 179 182 181 174 167 167 167 166 162 158 165 168 164 159 151 139 138 160 191 210 219 219 214 209 206 207 209 210 211 209 208 210 211 212 213 214 216 217 218 221 223 223 222 222 224 224 224 222 216 202 188 180 177 177 176 175 174 177 186 190 180 166 151 137 126 111 104 104 104 114 130 138 144 145 139 139 139 136 134 133 127 120 -9999 
-9999 165 161 164 168 164 159 165 170 181 190 191 192 194 194 194 195 196 201 203 205 207 204 197 196 196 188 181 181 182 186 191 188 182 179 176 176 173 167 163 164 170 173 176 179 178 178 175 171 180 201 212 214 216 220 225 226 224 222 222 224 226 222 220 220 217 216 213 210 207 204 205 207 206 208 207 199 193 198 200 198 197 197 193 186 186 192 196 197 196 196 201 200 197 199 198 196 199 199 194 190 187 183 182 184 183 179 176 186 192 194 194 193 192 194 194 191 185 181 180 184 190 188 186 185 184 179 174 174 174 177 180 177 172 172 173 175 177 174 171 168 163 155 149 149 148 143 140 143 153 166 175 178 173 166 159 148 140 147 151 150 150 149 151 150 147 148 153 165 170 174 182 184 187 188 187 186 185 187 189 191 200 208 211 207 200 192 182 179 179 182 186 182 169 161 162 164 154 140 138 163 197 207 198 184 186 193 197 199 197 195 191 179 164 155 159 165 170 171 174 177 175 174 175 179 181 181 185 190 192 193 190 184 179 175 181 188 184 176 178 184 188 189 188 190 196 197 190 182 180 182 188 193 196 201 201 197 187 175 149 119 111 117 134 158 169 165 170 182 194 207 217 219 220 218 214 210 212 214 214 215 221 222 220 222 223 224 226 225 225 226 223 219 213 206 200 196 190 185 187 202 219 223 224 224 223 218 203 173 153 154 155 157 171 182 186 185 178 171 169 167 165 161 158 159 159 159 156 150 151 165 193 214 219 215 210 207 205 204 206 207 206 203 200 203 207 210 211 211 212 214 215 218 220 220 219 220 221 223 224 224 225 224 224 224 222 221 221 220 219 219 221 225 230 228 221 212 197 175 153 139 121 109 111 115 125 136 139 143 155 162 171 181 170 133 99 -9999 
-9999 163 163 169 172 164 163 173 180 189 193 193 194 193 195 198 199 200 202 205 209 209 206 202 202 201 195 189 185 184 190 194 189 181 175 174 176 176 171 170 173 180 184 187 185 182 184 185 191 208 221 224 224 224 225 228 227 224 224 225 226 225 220 221 222 220 218 215 212 207 205 207 208 207 206 202 195 195 198 194 189 187 191 192 191 194 195 194 194 192 193 195 190 188 191 191 192 196 197 192 190 191 190 192 190 183 177 184 198 199 193 191 189 191 191 189 187 185 184 187 189 190 187 185 185 184 181 178 177 176 178 177 173 172 173 175 175 172 167 167 169 165 158 152 149 145 139 136 141 155 168 174 176 170 165 161 141 137 149 150 149 151 149 150 147 139 144 158 171 175 178 181 178 180 181 181 183 182 183 188 195 207 212 210 205 198 187 180 182 184 182 180 174 161 157 161 162 147 126 118 141 183 201 196 190 193 197 199 202 201 199 190 173 165 163 164 168 175 181 184 185 181 177 179 183 181 177 181 187 187 183 178 175 176 183 199 204 197 191 189 187 186 190 187 182 187 191 188 186 187 190 192 191 192 192 188 178 164 142 106 91 105 125 153 184 197 186 175 181 191 196 205 218 228 231 228 221 222 228 228 226 229 229 225 224 223 225 227 224 217 215 215 213 211 208 207 210 206 192 186 194 208 217 221 223 224 224 222 203 176 157 146 147 157 166 173 175 172 165 159 156 159 156 151 152 150 145 142 149 170 196 214 218 214 208 206 205 205 204 204 203 200 199 200 204 208 210 211 213 216 218 217 217 218 216 217 219 219 221 222 222 221 222 223 223 223 223 222 221 220 221 221 221 224 226 226 226 224 219 207 194 167 138 120 119 132 148 157 160 165 175 192 202 182 144 120 -9999 
-9999 162 164 170 174 174 178 184 186 189 192 196 199 197 199 204 206 206 206 207 207 206 205 203 200 198 196 193 190 187 188 187 182 177 171 169 169 167 167 171 177 183 183 183 183 187 192 197 204 215 221 225 228 231 233 232 228 225 226 226 225 223 220 222 222 219 218 215 212 208 207 207 206 203 198 191 186 189 193 190 186 186 190 191 192 195 192 190 190 185 184 189 192 193 193 192 191 193 193 189 186 186 188 193 193 188 187 196 203 197 189 185 182 186 190 190 190 189 191 194 191 188 187 187 188 189 188 188 187 187 187 184 182 182 178 174 172 171 171 174 175 169 161 153 147 146 147 144 146 160 173 176 174 168 163 156 137 139 154 148 146 149 150 152 147 143 155 171 179 178 175 172 170 172 173 177 183 183 184 193 204 212 209 204 203 196 183 178 184 186 180 176 169 157 154 157 149 127 108 108 139 187 203 197 192 194 198 204 207 205 199 188 172 170 174 173 175 178 182 181 175 167 169 175 178 178 179 184 187 183 175 170 170 172 188 206 210 203 197 191 184 183 181 172 174 184 189 191 191 192 199 205 204 197 192 181 159 138 113 86 91 119 144 172 196 209 208 199 190 186 186 195 209 220 227 232 230 229 234 235 232 235 231 224 220 217 217 220 220 213 210 213 216 214 210 209 212 207 194 187 185 187 197 211 219 221 222 223 222 213 193 169 155 151 150 148 149 151 143 132 128 134 137 137 145 149 152 157 173 197 214 217 212 208 206 206 204 203 202 201 200 201 203 206 209 211 211 212 212 216 215 209 210 214 216 218 219 218 219 220 219 219 219 219 218 217 213 208 205 206 209 211 211 212 212 213 218 222 223 223 223 217 203 173 145 131 134 151 160 163 173 188 188 163 144 137 -9999 
-9999 158 160 166 173 177 182 187 189 190 193 198 199 198 203 209 211 207 205 204 203 204 201 199 197 194 191 184 180 180 182 178 171 168 163 161 164 164 165 170 179 184 182 181 187 196 203 206 212 219 223 224 226 229 230 227 224 224 225 224 222 220 219 222 221 216 213 210 208 207 205 205 203 199 195 191 190 194 195 193 192 191 194 192 191 191 189 189 188 186 186 191 195 197 196 193 190 189 188 188 186 183 182 186 190 191 190 193 192 185 181 181 181 186 189 190 189 185 186 190 189 187 186 187 192 194 193 190 190 193 193 190 191 188 181 176 175 177 178 177 177 171 159 151 147 150 152 148 149 164 177 177 174 167 157 150 144 153 160 145 141 150 156 152 145 153 169 177 178 174 172 172 171 173 176 180 184 189 199 212 220 218 209 205 204 195 182 180 186 185 176 175 171 160 156 153 139 118 108 122 166 205 211 201 195 196 204 213 217 213 203 192 180 180 181 175 173 177 179 178 170 165 170 178 183 186 189 191 187 179 173 171 173 178 195 206 205 195 188 182 184 189 179 163 170 184 195 201 200 197 197 203 205 196 177 151 126 110 98 104 140 178 194 201 202 205 212 215 212 211 208 204 203 208 221 233 235 234 236 234 231 232 229 223 218 214 210 209 210 209 210 213 213 208 205 203 198 192 193 194 183 174 176 188 201 210 218 222 224 225 221 208 189 176 161 146 139 136 124 114 113 120 125 134 150 164 179 194 209 218 219 214 210 208 206 205 203 202 201 201 203 206 208 210 209 203 195 187 182 187 186 181 189 199 204 209 208 206 207 208 209 211 209 204 195 186 179 171 168 171 177 177 176 181 185 195 209 216 219 221 224 226 225 216 182 145 133 135 139 150 170 183 182 164 151 149 -9999 
-9999 165 171 177 181 183 187 193 196 198 202 205 203 202 207 212 210 204 201 200 203 202 196 194 191 186 185 182 184 184 182 176 168 166 160 162 170 172 173 178 186 188 185 189 197 204 207 209 216 223 223 220 220 224 223 221 223 224 224 221 218 218 218 219 216 210 208 205 202 199 198 200 201 199 196 195 197 200 200 199 198 198 199 197 197 196 193 193 192 191 192 193 192 193 194 194 192 191 189 189 187 186 188 192 193 189 187 191 190 181 179 184 187 188 188 188 183 178 182 188 188 183 181 186 194 197 194 190 187 190 192 191 190 187 183 180 180 181 178 173 174 168 155 151 152 154 150 141 148 168 177 177 174 167 160 161 165 170 159 138 139 154 158 146 139 157 174 175 172 169 170 174 172 175 181 181 184 194 208 216 218 215 210 209 204 190 181 186 193 187 177 173 166 158 156 150 134 123 127 154 192 210 209 203 197 196 207 217 220 215 204 193 184 184 181 171 168 174 178 178 178 182 187 189 191 193 195 195 188 180 175 178 187 202 219 222 213 196 184 184 197 204 198 193 191 187 189 191 196 196 192 191 189 177 149 125 118 121 132 166 207 223 226 228 219 211 213 219 226 232 229 221 215 214 219 225 227 229 229 224 222 223 226 225 222 216 207 199 198 203 206 202 196 193 196 194 189 193 200 198 191 180 168 166 171 186 207 218 222 223 223 222 218 212 198 181 169 154 140 137 145 159 166 174 186 197 208 215 220 220 216 212 210 208 206 204 203 203 203 205 207 208 208 204 191 171 154 141 139 145 145 148 160 163 162 166 167 168 170 169 172 177 167 150 140 134 132 130 127 127 126 118 119 133 147 166 186 202 211 217 221 224 225 225 218 191 159 143 144 162 182 190 192 184 172 173 -9999 
-9999 176 185 188 188 189 194 198 199 203 206 207 207 206 208 210 208 202 201 203 204 200 194 194 191 185 187 189 192 191 187 180 175 173 168 169 176 181 184 190 196 194 190 199 206 206 208 215 224 228 227 227 227 228 224 222 224 225 221 215 214 216 217 214 208 204 203 199 196 197 198 200 201 199 195 194 200 203 200 196 196 200 202 200 199 197 196 197 197 195 194 198 198 196 195 194 193 193 190 186 184 186 193 198 196 190 187 191 187 178 180 186 185 183 188 188 177 171 176 181 177 172 174 185 195 197 193 188 186 188 189 187 185 184 182 181 181 182 179 176 175 165 153 153 156 153 144 137 152 171 176 175 173 171 173 177 178 175 154 134 141 155 155 139 134 156 170 170 165 162 166 171 170 173 178 176 180 194 205 208 210 210 209 207 198 187 187 195 196 184 171 164 160 157 156 148 137 137 151 174 196 202 201 200 195 196 208 217 215 207 198 190 183 182 177 169 171 178 180 180 186 193 196 199 199 199 199 197 191 184 185 195 209 223 233 233 222 201 193 198 209 216 219 220 214 196 186 188 193 193 187 177 163 143 125 125 143 169 194 218 232 233 231 234 231 227 224 221 227 234 233 232 231 229 228 222 217 219 220 216 213 214 218 220 217 210 201 193 191 197 198 190 182 184 190 190 189 192 192 194 195 186 174 165 161 170 185 198 209 216 220 222 223 223 220 216 210 199 191 194 202 216 222 221 219 220 221 221 220 217 214 212 210 209 206 205 205 206 208 210 213 212 205 187 157 131 122 124 132 135 132 137 141 134 126 125 126 134 139 134 132 131 117 104 111 116 116 115 107 107 105 97 105 122 133 148 164 179 192 202 209 218 223 225 225 223 203 178 170 177 188 198 207 205 189 191 -9999 
-9999 183 190 189 187 191 197 199 199 202 202 201 202 201 202 206 208 206 207 208 206 202 199 198 193 188 192 194 193 191 187 184 179 174 173 175 179 183 186 193 198 194 192 200 204 207 215 225 231 231 231 233 235 234 229 226 226 224 215 210 213 216 214 209 204 202 201 197 197 200 200 200 201 197 192 197 202 201 196 191 190 193 194 192 192 192 192 197 198 194 195 200 198 195 193 192 191 190 187 185 185 187 193 194 190 185 185 183 179 178 186 188 182 184 192 188 178 179 184 182 175 171 176 185 189 187 183 180 178 181 183 181 181 182 181 179 180 183 182 181 177 164 156 155 154 149 143 144 162 175 174 171 171 177 181 181 178 172 152 138 147 154 149 132 133 156 167 165 158 153 158 167 172 173 172 170 174 187 199 205 209 211 208 200 192 189 194 197 187 168 157 154 154 156 155 149 144 149 163 179 193 198 197 189 186 196 210 217 212 203 196 188 182 178 174 172 177 182 182 181 187 194 197 204 212 217 215 208 199 196 204 214 221 225 226 222 211 197 199 208 213 216 221 225 223 211 200 197 193 189 186 180 164 142 137 151 174 199 220 230 233 233 231 233 234 234 232 225 228 234 236 237 232 229 229 225 220 217 215 212 211 211 209 208 204 197 193 189 187 184 180 177 177 181 187 187 182 178 178 185 189 187 187 180 171 166 161 163 174 187 202 214 220 222 223 223 222 220 219 221 224 230 231 227 224 222 220 220 219 216 213 211 210 210 209 208 210 211 212 214 215 213 201 169 130 111 114 124 132 133 135 138 134 131 132 132 133 135 134 127 121 118 109 106 120 119 115 113 106 109 109 112 128 141 146 154 162 162 164 176 193 210 219 222 225 226 223 206 184 176 181 194 210 212 196 196 -9999 
-9999 187 189 186 188 198 201 198 196 198 199 197 197 198 202 209 211 209 207 204 203 203 200 194 187 187 192 193 190 187 185 183 178 177 181 183 183 187 190 196 200 197 198 204 210 215 224 229 230 227 225 225 230 231 228 225 224 219 213 212 216 215 211 205 201 202 203 202 204 204 201 200 199 195 193 197 197 194 195 195 192 189 184 182 184 187 190 195 195 192 194 196 191 186 186 186 188 188 185 185 187 189 191 190 185 181 178 176 176 180 188 190 187 190 191 185 182 189 193 187 181 182 186 186 182 176 173 172 173 177 179 178 179 181 179 177 179 180 180 182 177 163 157 157 153 147 146 152 165 172 170 170 174 181 182 178 173 167 154 146 149 148 141 131 137 159 167 163 156 152 158 171 177 173 169 166 165 178 195 204 208 207 200 192 189 191 193 188 172 156 148 147 148 152 152 149 148 154 167 184 197 202 201 184 176 191 209 218 214 207 199 190 182 175 174 175 177 182 183 182 189 197 202 216 232 237 231 220 211 210 218 223 222 220 215 208 197 191 201 214 216 210 208 215 221 220 215 208 197 189 187 186 180 174 184 205 219 225 230 232 232 230 227 233 238 239 235 226 228 233 237 236 228 221 223 225 222 218 213 209 206 203 197 192 185 180 182 182 173 167 166 168 168 170 174 178 176 171 172 176 178 182 187 184 173 161 151 147 146 149 162 181 197 209 215 219 221 221 221 222 223 224 223 221 220 218 217 217 216 215 212 211 213 214 212 212 213 214 214 215 215 212 189 142 111 108 116 121 123 127 137 146 145 148 149 148 151 147 140 131 128 126 109 102 112 107 103 106 102 106 115 126 138 144 150 159 162 155 155 168 183 193 202 213 223 226 225 219 203 185 178 184 200 216 204 196 -9999 
-9999 179 182 186 195 203 202 198 197 201 202 200 203 205 208 212 208 203 200 199 199 198 193 186 185 189 191 190 187 184 182 181 184 188 192 193 191 194 199 202 203 201 202 212 220 224 227 228 226 222 220 223 227 226 222 220 217 212 208 209 209 206 201 197 197 199 202 203 205 203 200 201 200 195 194 196 193 191 193 194 194 195 193 189 189 192 193 192 190 190 193 194 191 188 190 192 191 189 185 184 188 191 193 193 188 182 179 180 180 179 183 186 188 186 184 184 186 190 190 184 183 187 190 186 181 178 174 171 173 181 182 178 181 181 178 177 178 177 178 178 168 157 156 159 155 150 153 157 162 166 168 172 176 181 180 174 170 169 161 151 146 141 139 137 146 163 167 163 158 159 169 178 180 173 162 151 150 171 195 204 205 200 191 188 190 193 193 184 167 154 147 143 144 151 152 149 148 154 166 184 196 200 197 167 159 189 211 218 214 206 199 188 174 167 170 170 173 181 183 185 195 204 213 230 242 241 229 219 215 217 221 221 217 214 209 201 192 191 207 219 221 215 208 205 205 209 211 211 207 199 191 188 188 197 218 233 239 241 241 237 235 232 225 231 241 243 234 220 221 226 227 226 220 215 213 213 213 216 217 213 204 195 187 179 168 163 165 162 158 159 162 164 161 160 162 167 172 173 173 176 178 179 179 174 169 165 160 155 149 146 150 158 166 174 184 194 203 210 216 218 218 217 216 215 214 213 214 216 217 216 214 214 216 216 214 214 215 215 214 213 212 199 156 107 97 108 117 121 127 128 125 123 124 131 132 133 137 131 119 111 115 113 100 96 100 98 97 104 106 115 129 138 141 145 153 158 159 158 163 170 170 170 182 202 220 225 225 224 222 205 184 182 196 218 209 197 -9999 
-9999 182 183 189 196 197 195 197 201 203 201 202 207 208 207 205 201 198 198 198 199 198 194 192 195 194 191 189 186 184 185 189 191 191 195 200 199 201 207 208 206 202 206 219 226 228 230 230 228 224 225 229 229 226 221 214 209 205 205 207 206 203 198 197 197 199 201 201 200 198 197 198 198 195 193 192 189 189 192 190 189 191 192 191 194 196 192 190 190 189 192 195 192 193 201 200 193 188 181 183 190 194 195 194 185 175 179 185 181 178 182 185 185 185 188 190 190 189 181 177 179 182 182 181 181 181 177 175 180 185 184 182 185 182 177 177 178 177 174 169 163 158 157 158 153 148 154 160 161 164 168 171 177 181 179 174 173 173 165 151 143 140 139 139 149 161 164 160 158 166 176 181 181 173 152 133 144 180 202 206 204 199 193 191 194 198 194 182 166 156 151 149 155 163 162 159 161 168 177 190 194 192 190 153 158 211 226 223 212 200 192 180 162 157 165 171 177 184 185 191 204 214 222 233 235 228 216 211 213 216 218 217 214 211 207 201 195 201 216 223 225 225 222 213 210 210 207 209 216 216 210 206 209 220 230 230 235 242 241 236 232 232 226 221 230 239 236 226 223 219 215 217 217 211 203 199 200 206 211 206 200 197 190 176 167 164 158 155 162 164 161 162 164 167 166 165 167 169 172 175 177 177 173 165 161 165 166 163 160 162 166 164 158 156 158 165 178 189 198 208 214 216 215 213 212 213 216 221 221 218 216 215 216 216 214 214 214 213 206 194 183 159 116 91 100 120 129 140 151 147 136 128 127 130 126 119 115 107 106 109 102 93 97 106 110 112 114 128 135 141 153 158 157 160 166 163 158 160 163 162 160 166 175 188 205 216 224 225 225 217 193 184 194 212 212 202 -9999 
-9999 195 192 193 193 191 193 196 197 198 200 202 206 205 204 204 200 198 199 201 203 203 202 203 202 196 192 190 186 184 187 193 194 192 196 199 198 201 205 205 205 207 214 224 228 229 229 229 228 226 229 231 229 224 218 211 207 206 208 209 209 208 205 203 201 201 201 199 197 195 194 196 199 195 191 194 194 196 196 191 184 181 183 186 190 189 189 195 193 188 190 193 191 194 198 193 188 187 186 190 194 194 192 186 174 168 176 176 170 174 182 183 181 184 188 186 187 186 181 182 183 181 182 182 181 180 180 179 180 184 183 182 183 179 176 177 178 176 172 171 172 168 163 156 147 144 152 160 162 164 166 169 178 182 180 178 176 174 164 151 143 140 138 137 144 154 156 155 158 168 176 178 176 168 147 134 155 190 205 207 206 203 198 194 199 202 194 181 170 163 161 163 169 175 173 173 181 187 190 192 184 177 172 145 177 235 241 229 208 193 181 167 152 156 173 181 185 186 187 197 210 217 221 224 219 210 202 202 208 212 215 219 220 218 215 211 209 216 223 223 224 224 223 223 222 218 218 221 227 231 229 226 231 241 243 235 234 240 240 239 236 233 229 217 213 221 228 224 216 204 198 201 205 206 205 200 196 195 192 184 178 174 167 163 163 168 170 173 169 161 157 158 167 177 176 169 168 170 174 172 168 169 168 162 165 168 165 163 167 177 179 165 157 155 152 152 156 160 164 171 182 190 197 204 211 217 222 225 222 218 215 214 215 215 214 211 204 188 162 137 127 113 95 99 124 149 158 169 177 174 171 171 171 164 148 137 129 118 116 113 106 106 117 128 134 144 146 147 142 149 164 165 158 164 164 156 151 153 157 155 156 164 172 178 186 200 219 226 224 224 208 179 171 190 212 212 -9999 
-9999 190 192 195 195 195 196 195 194 199 201 201 203 201 203 206 205 203 203 205 206 206 206 203 196 192 194 194 191 189 191 194 196 197 197 195 196 200 204 209 213 214 219 226 229 229 225 223 224 226 229 229 222 216 212 211 210 209 207 206 206 207 205 202 201 200 196 195 196 197 197 199 198 191 195 204 206 205 201 193 187 188 193 192 191 188 189 195 192 190 194 194 191 193 193 190 188 188 192 194 195 192 188 180 170 170 174 170 170 176 182 181 179 178 176 175 180 184 186 189 185 183 186 186 183 183 184 178 177 184 183 179 178 177 178 180 179 176 177 180 180 174 167 156 148 152 162 167 166 166 167 171 179 183 182 181 177 171 163 156 149 142 139 139 146 153 153 153 160 170 176 177 174 167 157 148 158 187 198 201 203 200 195 195 201 201 191 183 176 167 165 166 167 168 170 177 185 188 185 183 175 167 156 148 200 238 241 222 200 187 176 162 155 167 182 186 185 185 191 205 215 216 216 216 211 203 197 196 200 204 213 222 228 229 226 221 220 225 227 226 224 221 221 225 226 227 230 231 235 240 239 236 238 242 248 243 236 238 238 240 240 236 233 227 217 211 209 202 194 196 199 198 199 202 203 201 197 187 177 171 163 151 142 140 142 148 156 160 154 151 155 157 163 168 162 161 164 163 166 166 164 167 168 172 179 175 166 163 165 173 173 165 165 159 153 154 152 150 148 146 147 152 163 181 199 213 222 220 214 210 209 211 213 210 205 194 171 144 123 114 115 113 111 127 153 168 174 181 188 192 192 190 185 174 165 161 159 155 145 131 133 144 156 158 161 171 164 152 151 161 168 158 152 159 156 146 146 150 151 153 158 166 175 178 178 189 209 223 226 227 224 187 156 165 196 215 -9999 
-9999 179 186 195 199 198 199 198 199 201 200 201 203 202 205 210 211 209 209 208 204 201 201 196 191 192 195 194 191 192 197 198 197 198 196 194 198 203 209 218 222 221 225 231 232 229 223 223 225 225 226 222 215 211 211 210 207 205 204 204 205 203 201 199 199 199 197 196 198 199 199 198 195 194 203 207 205 204 200 197 196 198 199 196 195 193 195 195 191 194 199 196 193 194 194 193 190 189 190 190 192 190 185 177 168 168 174 179 181 182 184 181 180 177 173 172 177 179 179 179 177 175 175 177 180 185 188 183 184 188 184 178 177 180 180 178 175 175 177 182 182 172 162 153 154 165 171 169 167 167 168 171 177 181 182 181 177 171 170 168 158 146 141 142 148 150 152 156 165 172 173 177 176 172 168 154 149 173 187 182 179 178 182 191 198 193 185 181 172 162 160 161 157 158 168 180 189 190 187 183 174 168 168 183 227 237 234 210 189 181 173 165 167 175 178 180 183 188 198 211 217 214 212 211 208 204 201 199 202 209 219 226 231 232 228 222 223 228 229 227 226 224 225 226 229 235 236 234 237 245 245 241 237 237 242 240 231 229 229 228 227 227 226 224 222 219 215 210 208 211 211 208 205 200 196 194 186 171 163 166 165 153 139 133 133 133 130 133 144 155 160 158 157 152 146 151 154 153 156 157 158 159 158 160 161 158 155 156 157 155 151 157 165 161 159 161 165 165 162 160 156 150 149 155 162 173 183 183 178 175 178 188 193 188 178 161 137 127 125 126 130 134 135 142 158 166 172 177 186 199 208 209 204 195 186 182 183 186 182 178 181 184 186 181 181 186 179 177 186 187 179 167 169 175 170 162 162 163 160 164 173 177 174 168 168 176 190 212 227 226 225 213 181 165 179 201 -9999 
-9999 181 189 197 201 204 208 207 205 203 200 203 208 209 210 211 209 209 209 206 197 193 194 192 191 194 193 189 187 190 195 196 197 197 191 192 199 205 214 224 227 228 231 233 232 227 223 224 225 223 221 216 213 213 212 208 203 200 201 203 204 201 197 197 198 200 201 202 203 199 194 194 195 199 205 205 201 200 199 197 196 196 195 192 192 194 197 194 188 191 195 194 193 193 194 194 191 189 187 185 185 183 177 171 165 170 179 184 185 184 183 178 175 178 178 176 177 175 172 173 175 175 176 178 182 186 188 187 189 189 183 177 180 183 179 175 173 174 177 181 177 164 156 153 158 169 168 162 161 163 165 166 170 176 180 181 179 175 178 179 165 150 144 142 143 146 150 154 163 169 168 174 175 174 170 153 143 158 178 176 167 170 184 195 194 186 181 175 165 158 160 163 160 166 179 189 196 197 192 182 170 171 182 203 231 235 230 202 180 177 172 168 169 170 171 180 189 195 204 213 216 212 210 212 213 212 210 210 214 222 228 229 230 229 224 220 226 230 230 228 225 224 225 225 224 229 233 233 232 240 243 242 235 230 232 231 225 221 220 218 217 218 217 215 215 217 219 219 219 217 212 206 202 197 193 189 179 167 162 161 158 146 137 136 134 129 126 130 141 153 157 154 154 154 152 152 151 155 156 152 150 148 145 140 137 139 146 157 161 152 140 142 147 151 157 161 164 165 168 167 158 151 150 150 146 144 140 136 137 141 150 159 162 155 145 134 126 129 127 125 132 143 145 149 160 165 165 171 185 202 213 217 218 214 209 206 207 207 200 200 209 210 205 201 202 200 194 194 200 197 191 188 196 200 194 190 186 178 174 178 181 181 176 174 176 177 181 198 222 225 224 225 207 167 154 171 -9999 
-9999 196 199 199 201 207 212 211 209 209 206 208 211 212 212 208 205 205 204 197 188 185 190 190 190 192 191 189 188 191 194 194 194 192 189 194 205 214 225 230 231 231 231 231 229 225 222 223 224 223 219 213 212 213 212 207 199 196 199 203 203 198 195 196 199 199 200 204 203 197 194 195 197 200 205 203 198 197 195 193 192 191 190 191 193 194 193 187 185 191 194 193 192 193 195 195 193 189 186 184 183 180 175 170 166 174 183 186 188 188 185 181 182 184 182 178 179 178 176 176 179 182 184 187 187 185 185 187 186 183 181 181 186 186 179 177 176 175 177 178 170 160 158 158 163 167 160 152 156 161 161 162 168 178 181 178 177 176 180 179 165 151 144 136 134 144 149 151 159 165 164 167 170 173 171 156 144 151 172 186 192 201 207 205 194 183 177 167 157 157 167 172 170 175 185 194 200 200 190 176 171 178 189 210 227 228 221 192 174 173 169 166 165 167 175 188 197 201 206 214 216 214 213 216 220 220 218 217 220 227 230 228 227 227 223 223 229 231 230 228 225 223 223 223 223 225 230 230 227 227 234 238 231 218 216 222 224 219 215 215 216 217 215 210 207 209 213 214 214 214 210 206 203 200 194 186 180 175 172 166 153 143 142 138 130 131 141 145 143 143 150 157 160 155 154 158 158 156 153 156 155 150 150 146 142 145 154 161 162 156 150 147 149 157 163 164 158 152 151 150 145 150 158 159 156 151 139 128 126 134 146 148 143 134 129 129 130 130 125 130 140 151 158 165 171 171 173 184 200 211 217 220 220 218 217 216 216 214 213 217 222 216 212 212 211 207 200 196 192 190 196 207 214 215 212 208 199 188 181 178 176 176 180 188 191 190 192 201 218 226 225 224 217 180 149 154 -9999 
-9999 200 199 200 202 205 207 206 206 208 211 215 214 210 206 203 202 200 195 190 185 187 191 187 185 188 191 191 190 193 195 193 191 192 197 206 214 223 229 230 228 228 227 228 228 223 219 220 222 222 218 214 213 212 208 201 194 194 199 203 202 197 200 204 202 198 199 201 197 194 195 197 198 200 202 198 194 195 193 191 191 191 192 194 195 195 193 190 195 202 201 198 196 197 199 196 192 189 189 188 185 183 180 176 173 181 189 190 189 189 188 189 194 192 181 176 183 186 184 183 183 181 180 184 184 180 182 183 180 179 184 191 193 186 180 178 178 176 177 177 170 166 166 165 166 164 153 148 159 163 161 164 174 182 179 174 175 177 179 177 166 154 144 128 130 148 154 153 158 164 164 166 169 173 171 158 147 144 161 191 211 219 218 207 190 179 172 160 153 161 176 178 173 174 183 195 200 196 184 175 178 186 193 212 223 217 202 177 167 168 165 161 161 171 184 197 204 205 208 215 217 215 214 218 222 223 220 217 220 225 228 226 226 227 228 229 233 232 228 226 223 222 223 224 227 228 230 230 227 225 228 233 231 216 205 211 217 216 213 212 215 216 213 209 208 205 204 209 214 213 210 208 204 198 193 186 180 173 170 165 151 144 149 145 139 145 154 158 151 147 155 166 163 152 153 164 168 159 153 159 160 156 155 151 153 161 164 157 152 156 161 157 152 154 159 158 151 144 141 141 147 156 161 160 157 151 142 134 133 139 144 142 136 127 129 138 142 135 131 142 151 160 175 184 184 186 195 205 213 216 217 219 217 216 217 215 213 213 216 219 217 207 202 200 196 195 191 181 168 172 193 210 218 219 221 216 211 207 197 184 173 172 179 182 178 179 191 204 216 224 224 224 223 217 184 163 -9999 
-9999 194 196 201 205 205 202 201 199 202 208 213 212 206 201 198 198 197 193 191 191 194 197 190 185 188 189 187 188 193 197 196 196 201 207 212 218 225 228 227 224 222 220 224 225 220 216 219 222 221 217 213 212 208 202 197 195 200 204 204 202 201 206 208 201 198 201 198 193 194 196 198 200 199 198 194 192 195 196 194 194 195 196 196 196 196 196 196 201 204 202 198 196 197 198 193 187 185 186 186 185 184 181 180 182 191 194 189 186 185 181 181 186 186 181 181 186 188 189 188 183 178 179 183 180 177 180 179 176 179 186 194 193 182 179 179 178 177 179 180 176 173 172 168 165 163 156 155 163 164 162 169 178 180 176 175 179 180 178 174 166 157 142 127 137 158 161 156 154 158 166 171 171 175 174 165 152 140 150 190 215 215 206 193 179 174 170 162 161 175 186 179 171 174 183 194 197 191 185 186 192 195 194 203 209 199 182 167 164 163 162 161 167 182 197 208 211 209 211 217 218 216 216 220 222 220 217 215 220 225 225 222 223 228 230 230 231 228 225 222 220 220 224 230 235 235 233 230 227 226 227 233 237 231 217 212 217 218 216 215 216 217 215 216 218 213 207 210 213 208 204 203 197 188 185 182 177 170 163 153 143 149 159 162 161 160 157 156 157 161 165 166 157 147 150 158 162 159 158 158 150 144 142 138 146 158 162 154 146 152 158 150 143 147 151 150 150 151 152 151 155 160 162 161 154 147 142 140 144 147 144 142 138 137 145 151 148 141 140 154 164 176 196 201 198 205 212 213 214 214 214 214 210 208 208 207 205 208 211 207 197 178 167 165 164 164 156 144 139 155 177 189 197 207 214 217 220 221 213 198 183 178 180 179 175 175 175 181 191 205 219 224 225 225 216 181 -9999 
-9999 197 201 207 209 206 202 200 199 201 205 207 207 205 204 201 200 199 195 194 194 196 198 194 192 194 193 190 192 198 203 205 208 213 216 217 221 227 228 226 224 222 220 224 226 221 220 223 224 220 212 208 206 202 199 200 203 206 205 203 205 204 204 200 195 198 201 197 193 195 195 197 198 196 196 192 189 192 193 190 191 192 194 196 197 197 197 199 201 200 197 195 196 199 199 194 189 189 187 184 186 186 183 184 189 193 191 187 187 183 175 172 177 179 180 184 185 184 185 184 180 179 184 186 181 179 180 177 180 185 186 190 186 175 177 179 181 182 184 183 178 175 169 163 163 162 158 154 157 160 162 169 174 174 172 173 176 177 176 171 163 154 139 132 144 161 163 154 144 151 169 173 170 175 177 168 153 134 139 185 211 206 193 183 177 176 173 173 182 193 191 177 172 176 182 191 193 191 196 205 204 194 183 184 198 192 179 172 170 168 169 170 179 192 205 212 212 208 210 216 216 216 218 221 222 219 214 213 218 222 220 215 219 227 231 227 225 225 223 221 218 219 226 233 238 239 235 232 231 230 230 232 238 237 230 219 221 223 219 215 214 214 215 217 218 218 216 212 207 200 196 191 188 184 178 168 163 160 157 148 143 153 161 162 165 169 166 163 163 163 163 163 161 161 159 151 145 146 155 152 134 127 128 132 141 143 143 148 145 148 150 144 152 159 152 141 140 144 150 159 167 171 172 165 156 154 151 146 147 144 139 142 149 160 168 161 150 141 147 166 182 195 207 206 204 210 213 213 211 208 208 203 193 186 184 185 188 195 192 177 161 141 134 142 142 131 120 117 123 142 157 164 171 183 197 210 220 224 220 214 204 195 188 185 184 184 172 159 157 171 195 216 224 225 224 206 -9999 
-9999 206 209 209 208 204 203 205 205 205 204 202 201 202 204 203 201 198 195 194 195 195 196 195 196 199 200 200 203 207 209 210 212 219 223 224 226 228 229 227 223 223 228 233 231 225 223 223 220 213 205 204 203 201 203 205 206 204 200 203 206 200 195 193 192 196 198 197 198 199 196 196 195 192 194 193 191 193 191 187 187 189 192 194 195 197 197 199 202 201 200 202 205 204 199 197 195 193 189 185 188 191 188 189 192 190 186 186 189 187 184 185 187 183 179 180 180 182 182 180 179 182 187 187 182 180 179 177 184 188 184 185 181 175 179 182 185 186 186 183 178 173 166 163 161 152 148 148 155 161 161 166 168 168 169 170 173 176 176 174 168 161 150 143 150 158 158 145 139 154 172 171 166 173 175 166 151 132 132 178 204 200 193 190 188 184 181 185 194 196 186 177 175 178 180 184 188 193 201 206 198 180 169 174 201 197 186 183 182 180 179 180 186 195 204 209 208 204 207 213 215 216 219 221 221 217 210 209 215 217 214 212 217 223 225 221 221 223 222 219 217 221 228 233 236 236 233 232 233 233 231 230 232 234 233 224 220 218 210 205 203 206 210 211 212 214 212 205 198 194 186 177 177 177 165 151 151 151 146 142 143 151 151 145 150 165 174 180 180 174 167 161 159 162 160 155 148 143 144 138 129 130 130 134 138 131 127 132 135 147 146 136 140 138 126 114 111 119 132 148 158 166 172 170 168 167 162 155 147 136 131 138 153 166 167 158 149 147 160 181 200 209 210 206 206 210 212 209 201 194 190 179 166 159 158 160 163 166 155 135 124 119 124 130 121 109 106 107 113 128 146 157 165 173 183 195 207 217 222 224 223 215 200 191 188 187 176 159 150 152 172 205 223 225 225 222 -9999 
-9999 210 212 208 203 200 201 202 203 200 200 198 197 197 196 196 196 195 194 193 194 195 194 195 200 205 207 209 211 211 210 212 217 225 226 226 228 230 232 229 225 227 233 233 226 220 218 218 215 208 202 203 204 204 207 206 203 201 201 207 207 196 190 192 194 195 197 199 199 200 198 198 197 194 196 199 201 200 195 190 189 190 191 192 194 196 198 202 206 206 205 205 203 198 196 196 189 184 184 187 196 199 193 193 196 192 189 191 190 189 187 188 189 186 181 177 177 181 184 183 183 186 188 187 183 183 183 185 187 183 180 185 186 182 182 184 188 189 185 184 181 175 170 168 160 148 150 155 160 160 159 164 166 169 174 178 181 182 181 181 179 175 164 151 147 149 145 139 145 163 172 167 166 174 175 163 153 138 130 170 202 201 199 199 198 193 189 191 193 187 179 177 178 181 181 181 186 191 191 187 174 160 159 171 201 206 199 194 191 189 184 183 189 197 205 209 207 203 205 210 213 217 220 220 217 212 208 210 215 216 214 214 219 221 213 205 208 213 212 210 212 220 228 232 233 232 230 230 233 234 231 227 227 231 233 224 205 191 193 198 198 201 209 214 215 215 208 197 191 187 181 178 176 168 151 142 145 140 137 148 162 166 158 151 153 160 169 176 176 174 167 157 150 147 151 158 154 146 142 139 135 139 140 137 131 121 120 122 129 143 139 128 135 136 124 110 111 124 140 151 154 160 165 168 176 179 175 169 159 148 147 151 148 145 143 141 145 163 185 202 214 213 205 203 207 211 207 196 177 161 151 147 145 144 147 150 149 146 136 127 127 125 122 119 112 106 101 99 105 125 148 162 169 175 180 186 194 204 216 223 229 228 217 204 195 188 180 171 165 163 173 195 216 224 226 225 -9999 
-9999 206 208 205 200 196 193 194 194 194 198 201 204 202 198 199 199 198 199 197 198 198 197 204 211 213 211 213 215 212 214 219 223 227 226 225 229 232 232 228 224 228 229 222 213 212 213 214 212 206 204 206 208 206 204 201 200 200 201 208 208 199 197 200 201 199 198 198 197 196 196 196 197 197 199 202 201 199 196 192 193 195 194 196 200 201 202 207 209 205 200 196 192 190 196 193 183 183 187 191 198 197 191 191 194 192 194 197 193 188 184 185 186 183 178 178 181 185 186 184 182 183 184 183 181 182 187 192 189 179 176 185 189 184 180 180 185 185 182 183 183 176 172 169 161 154 158 160 159 154 155 162 163 169 176 179 180 181 184 186 185 183 170 151 143 141 139 144 159 173 171 164 169 176 174 164 155 139 127 163 203 206 205 205 207 205 196 193 192 185 179 180 182 184 183 180 187 192 186 170 157 149 149 167 202 218 214 203 195 190 182 183 192 202 210 210 205 203 204 208 214 217 219 216 210 206 206 210 216 216 215 215 219 216 202 195 200 204 203 207 216 228 235 235 233 230 228 228 230 230 226 224 224 229 234 227 203 196 210 219 212 202 203 210 211 209 206 197 189 182 179 181 183 179 163 163 161 148 148 160 172 171 160 153 153 158 159 152 144 149 153 148 146 147 152 154 154 158 154 141 133 143 147 141 137 132 132 131 126 127 131 143 164 173 165 154 153 154 162 168 169 171 164 161 171 180 179 172 169 170 177 175 157 139 130 134 153 177 191 201 210 204 191 196 205 202 184 156 131 117 117 132 138 137 147 156 160 157 151 146 146 141 131 126 119 105 93 93 110 141 166 175 176 179 182 186 190 197 207 218 226 231 229 217 203 190 184 183 179 179 182 187 197 215 224 224 -9999 
-9999 205 207 205 201 197 196 196 194 194 198 202 205 205 205 204 200 200 204 205 205 207 212 218 220 217 215 218 219 216 221 225 229 231 229 228 231 234 231 226 223 224 220 213 208 210 209 207 202 198 202 207 211 207 200 197 199 200 203 207 203 194 196 204 204 202 202 203 201 199 197 196 197 196 197 198 196 196 197 196 198 199 198 202 204 201 202 206 205 198 193 190 189 188 188 188 186 185 187 191 192 186 181 186 191 189 192 195 190 185 183 187 188 186 186 189 192 192 188 182 177 178 180 179 177 179 185 189 185 178 177 181 178 172 172 175 177 174 172 176 176 168 165 164 160 158 159 157 154 154 156 161 163 170 176 175 174 177 182 184 183 180 170 155 149 146 146 157 173 180 170 160 167 174 172 165 156 142 134 160 202 211 210 209 210 205 192 191 194 191 186 185 186 187 186 187 195 197 182 161 155 149 148 173 207 219 214 205 200 194 187 191 199 205 209 206 203 203 204 208 214 216 215 207 198 195 199 206 212 213 213 214 217 211 200 202 208 207 206 214 226 235 236 234 228 225 224 223 221 220 221 222 223 227 232 232 228 230 225 223 213 203 197 198 196 194 192 181 172 166 169 173 173 166 156 169 172 168 170 167 159 150 143 140 145 152 150 141 142 152 151 149 155 161 164 158 159 165 162 150 139 139 136 133 136 135 133 123 114 120 132 147 157 161 163 166 169 164 159 157 158 154 145 151 162 164 159 156 166 177 184 180 167 157 149 152 165 173 173 176 184 174 161 173 182 176 158 134 118 112 125 149 151 150 167 173 173 168 160 151 146 142 137 136 126 112 107 116 138 159 172 178 180 183 186 188 191 195 204 215 225 231 230 224 210 195 187 184 185 193 193 186 183 193 207 218 -9999 
-9999 211 211 209 205 202 202 204 204 201 199 202 205 206 208 204 202 206 209 208 209 216 221 222 221 220 222 225 223 223 229 232 235 236 231 228 231 233 229 226 223 220 216 211 209 210 208 204 199 199 204 206 207 203 198 201 204 203 203 202 195 188 191 198 200 200 203 206 204 202 201 199 199 198 201 203 199 198 200 200 202 202 201 204 203 199 203 207 202 195 193 195 195 191 185 186 186 183 187 193 194 189 185 188 191 189 191 191 185 185 189 191 190 191 196 198 197 194 190 182 181 186 187 183 181 183 187 187 185 182 183 181 172 169 172 174 174 173 173 175 171 163 160 159 158 158 156 152 154 157 160 166 174 182 183 178 177 181 181 182 182 179 175 166 158 152 150 161 176 178 164 159 168 171 169 165 159 149 147 158 193 211 208 206 204 198 189 192 198 197 193 188 189 192 193 196 199 192 169 151 149 146 152 182 205 211 211 208 205 200 197 201 205 205 205 204 204 206 207 208 211 213 211 202 193 194 200 204 207 209 210 212 213 209 207 215 217 213 213 219 224 227 227 222 220 222 218 208 204 207 210 211 211 212 218 227 234 233 212 196 195 195 185 173 163 164 165 164 158 155 165 171 166 154 148 159 166 172 174 165 151 139 134 140 150 151 146 150 162 166 161 160 162 163 166 161 152 144 144 149 149 148 136 130 131 131 131 127 132 133 121 121 127 131 133 136 142 150 149 145 145 143 144 156 159 153 149 150 163 174 176 175 173 175 176 171 163 153 145 150 157 141 133 150 158 154 142 132 132 143 166 181 172 172 184 184 178 166 156 150 147 142 137 133 122 118 128 146 163 168 164 168 178 187 192 193 193 195 202 211 221 226 226 223 218 213 200 187 182 179 173 168 170 175 188 208 -9999 
-9999 216 213 211 210 209 208 211 214 210 209 213 214 213 212 206 208 213 212 211 216 221 222 222 224 226 227 226 225 230 234 234 234 231 227 226 229 230 227 225 222 218 216 213 211 212 211 207 206 211 212 207 202 200 202 209 213 207 201 196 191 189 191 197 199 200 203 203 202 202 202 202 202 202 206 204 201 203 202 200 202 204 205 206 204 203 205 204 198 194 197 199 198 196 193 193 187 183 190 196 196 193 190 190 189 190 194 190 186 191 196 194 190 191 194 192 191 192 189 185 187 189 187 186 188 190 191 189 188 186 186 183 179 179 180 180 182 187 190 186 177 169 163 161 161 157 151 146 152 162 167 176 185 189 184 179 181 185 183 182 185 185 184 177 167 153 145 155 171 170 162 161 164 165 167 166 159 149 145 139 164 196 196 194 196 194 191 193 197 199 195 191 194 196 197 198 193 176 156 143 140 144 160 187 204 210 211 208 205 201 200 203 205 204 204 205 206 208 208 206 207 209 207 201 197 203 207 206 207 209 209 210 209 205 207 211 211 211 217 222 223 220 216 215 220 222 213 201 200 204 203 199 196 196 200 209 220 223 212 202 196 188 175 157 143 140 141 146 153 160 165 166 165 161 160 166 170 169 162 158 150 137 134 150 162 165 169 173 175 172 168 169 163 150 142 144 143 134 130 133 142 147 137 135 137 137 138 144 148 137 122 125 127 124 126 124 122 128 139 147 152 157 163 162 158 159 164 168 175 175 170 170 172 176 178 174 165 152 144 149 148 132 131 145 147 136 120 121 141 165 186 190 183 184 187 181 170 160 160 159 151 144 137 131 123 123 137 153 167 172 167 167 177 186 191 194 195 198 202 207 213 217 218 219 219 219 207 191 179 161 146 149 159 168 180 194 -9999 
-9999 224 221 219 219 216 214 218 217 214 218 222 220 216 213 211 214 217 216 218 223 226 228 231 233 233 231 228 228 231 230 227 227 227 225 225 229 229 226 222 218 214 213 212 213 213 211 209 212 216 213 207 203 202 207 213 213 206 200 196 191 190 193 199 201 200 202 201 200 199 198 198 200 203 203 199 200 204 201 199 199 201 202 201 202 203 201 197 192 194 196 195 192 194 198 198 191 185 191 197 194 189 187 187 189 191 191 186 185 190 192 191 190 193 192 188 191 195 192 191 191 190 188 188 189 189 188 187 187 185 184 182 181 182 183 185 188 191 191 186 180 172 165 164 163 157 151 147 159 172 175 182 187 184 177 176 180 183 180 181 186 186 185 182 170 151 140 149 161 161 162 160 160 168 169 166 157 145 135 126 146 185 187 186 189 186 186 189 194 197 194 194 197 197 197 198 188 168 153 143 143 153 170 191 204 210 210 208 204 201 201 204 205 204 204 205 206 208 207 206 206 205 201 197 197 203 206 205 207 208 208 208 206 203 202 201 201 205 212 218 220 216 212 216 223 223 216 216 214 213 210 202 195 194 195 197 207 218 223 221 212 203 193 181 170 158 144 141 149 155 156 156 153 152 154 161 161 154 151 155 151 148 159 172 176 180 185 185 180 172 168 172 171 160 151 147 142 139 134 127 123 120 124 136 138 130 124 121 121 125 132 145 138 126 127 126 121 122 130 145 153 156 155 151 154 165 172 175 177 174 168 165 166 170 172 173 175 171 165 167 162 145 139 142 135 124 121 136 155 166 175 178 184 191 187 175 162 161 170 165 155 148 141 139 134 134 145 153 164 175 180 180 180 179 180 184 192 200 203 205 206 209 214 215 212 208 204 195 182 170 159 155 160 170 177 183 -9999 
-9999 231 230 228 225 219 219 223 222 219 223 227 224 220 218 218 220 221 223 227 230 232 236 239 238 236 233 230 229 229 227 225 228 228 226 226 226 224 221 216 210 210 212 212 211 209 207 207 211 212 208 203 200 203 208 210 206 199 196 192 190 195 200 202 199 197 197 196 195 194 192 193 197 200 198 198 203 205 201 199 198 200 198 199 202 201 196 192 193 198 199 195 191 197 201 195 190 192 198 200 195 191 189 191 196 196 190 185 184 184 188 190 193 195 194 195 200 199 195 195 195 194 192 189 186 184 184 184 184 181 179 178 178 178 177 176 176 177 175 171 169 166 163 165 162 157 154 156 171 181 180 182 180 175 170 172 176 178 176 179 184 184 186 186 174 151 140 145 151 156 161 161 167 176 174 167 161 152 143 139 153 187 193 188 182 175 177 182 187 189 189 191 192 192 196 200 190 168 155 146 144 153 173 194 206 211 213 212 207 204 204 205 206 205 203 203 206 207 206 206 205 203 201 199 196 200 204 204 208 208 208 209 207 203 200 199 199 203 208 213 216 216 217 220 221 217 213 216 211 204 200 198 196 195 193 191 192 196 204 215 221 221 213 204 196 181 164 157 150 149 153 151 145 144 146 151 151 145 146 152 155 165 179 181 173 170 173 178 174 162 160 167 172 171 170 161 148 141 132 119 115 117 124 131 133 133 134 128 121 121 131 144 143 137 132 123 119 129 141 147 146 144 142 141 146 154 156 159 164 166 168 169 172 174 172 171 176 173 168 172 169 153 145 151 147 138 142 156 165 162 162 168 175 181 179 173 166 168 168 160 159 157 150 148 139 135 143 151 167 185 194 191 178 171 171 171 180 195 199 196 194 197 202 204 204 205 209 206 195 183 173 165 165 175 183 182 -9999 
-9999 234 233 230 226 223 227 232 231 228 229 230 228 226 224 223 225 227 229 231 233 234 237 238 236 232 229 226 226 227 227 228 229 228 226 225 222 218 216 211 207 211 214 211 209 206 202 203 206 206 201 198 199 203 208 206 199 194 193 190 192 199 201 198 196 194 193 192 193 194 194 196 201 201 200 201 206 203 198 198 198 198 197 200 203 202 199 196 200 204 201 197 196 201 200 193 192 196 200 199 193 189 191 196 201 199 190 185 186 189 193 194 196 197 196 198 199 196 193 191 190 190 190 189 187 185 184 183 181 178 176 175 176 176 172 167 165 166 164 158 157 160 162 162 158 157 156 160 172 179 175 173 172 169 168 173 177 176 174 175 179 184 190 191 176 155 144 145 145 156 165 168 177 180 176 171 168 164 152 145 150 172 192 188 174 165 169 174 175 174 177 182 184 188 196 202 193 171 152 139 134 144 172 194 206 214 220 219 213 207 206 206 206 204 200 202 207 208 207 206 203 202 206 207 204 205 207 208 211 212 212 212 209 202 197 196 198 204 209 213 216 217 219 218 209 198 198 202 199 192 190 195 199 195 189 183 177 174 178 192 210 219 218 211 200 187 177 165 149 145 143 139 138 141 144 150 151 148 150 155 161 172 178 172 161 159 166 172 170 162 166 171 171 163 157 155 152 140 126 118 117 118 121 124 126 132 141 143 133 129 135 138 140 145 139 122 118 134 151 152 150 150 144 142 146 150 154 160 165 166 170 172 172 172 170 167 171 168 160 161 154 143 149 167 170 165 165 163 160 157 160 166 165 164 163 161 160 162 161 158 162 159 151 148 140 136 142 153 175 188 188 179 166 166 171 171 177 186 190 185 182 183 187 194 202 208 215 217 210 194 177 164 158 166 179 179 -9999 
-9999 235 234 231 229 229 235 238 235 233 234 234 232 230 228 229 232 234 233 233 233 233 233 232 230 226 222 222 224 225 227 227 227 224 223 222 220 218 215 210 209 213 213 208 207 207 204 205 205 201 197 199 200 203 206 203 198 194 193 190 192 197 196 195 196 194 192 191 195 199 200 202 205 201 199 200 201 198 196 198 198 197 197 199 199 200 197 196 201 201 198 196 196 198 196 192 193 195 198 196 189 187 192 196 196 190 182 185 194 199 199 198 198 197 193 192 192 190 188 186 185 186 190 191 188 186 186 183 178 176 174 173 172 172 170 166 165 165 165 161 162 165 163 158 154 155 155 156 165 170 166 163 164 164 168 176 176 171 169 170 176 187 194 192 182 166 154 146 144 158 169 176 185 181 176 174 172 165 150 142 146 157 182 190 176 167 168 171 170 167 174 181 182 188 195 197 188 163 134 118 113 130 168 197 211 219 225 223 214 208 206 206 206 203 199 203 209 208 206 204 202 203 208 211 209 207 209 210 213 215 213 211 206 199 194 195 201 207 209 209 207 209 211 207 197 190 193 197 196 193 192 193 192 189 188 187 183 178 177 181 189 198 204 207 203 196 194 185 170 158 142 134 139 144 147 149 151 155 160 162 164 166 165 161 157 162 167 168 171 176 180 175 165 156 152 147 139 129 129 132 129 122 117 119 114 110 120 129 129 136 142 137 135 139 133 122 122 132 138 137 142 153 159 162 165 168 171 170 165 161 161 160 161 164 163 161 163 158 151 151 146 143 155 171 177 174 173 166 157 151 149 151 153 155 151 150 156 159 162 165 165 157 149 143 135 131 133 150 174 179 173 167 173 184 188 188 187 185 183 178 179 181 184 191 203 214 221 222 214 199 182 165 152 145 141 142 -9999 
-9999 236 235 234 233 235 240 242 236 234 236 238 236 233 232 233 236 236 233 232 233 232 230 228 226 222 220 221 222 221 223 224 222 221 220 220 217 214 212 211 213 213 211 207 207 209 209 209 207 204 203 205 201 201 204 202 199 195 193 192 193 197 197 198 199 199 198 197 199 199 197 198 198 195 195 198 199 198 198 200 200 199 200 199 197 194 192 195 199 198 196 194 193 192 191 190 192 195 197 193 188 189 193 192 188 184 183 192 201 200 195 193 191 187 186 188 187 186 186 185 185 188 192 192 187 185 186 184 178 176 175 171 168 167 166 164 166 167 169 169 169 169 163 155 151 153 152 153 161 164 160 156 159 164 172 174 166 160 163 168 175 185 190 194 194 180 159 144 140 155 171 182 185 177 173 173 168 158 146 141 148 156 171 183 173 165 167 171 174 176 185 190 189 192 193 185 168 135 107 94 93 124 178 214 224 227 226 218 209 205 205 206 205 203 202 207 210 207 206 204 203 206 210 211 209 207 209 208 207 210 211 208 200 195 193 198 205 208 206 203 200 202 201 197 198 196 196 198 199 198 197 195 189 183 184 189 191 191 191 190 184 179 184 197 203 203 208 207 197 190 179 170 163 157 153 152 154 157 159 158 158 153 148 149 157 168 170 164 158 161 167 160 150 146 144 135 120 109 118 126 126 125 120 123 121 115 117 118 119 130 136 135 137 134 123 115 115 117 116 120 130 141 153 163 171 174 168 157 149 147 152 160 165 167 163 160 161 156 154 159 163 166 170 170 166 162 163 170 173 167 154 146 141 140 142 150 158 158 159 161 161 156 151 141 132 125 122 141 164 175 180 189 203 208 207 205 200 190 181 178 181 184 187 192 200 210 218 219 212 204 192 177 163 145 127 124 -9999 
-9999 237 235 235 234 237 242 241 235 234 237 238 236 234 235 234 232 230 227 227 230 230 229 228 225 220 220 221 218 215 218 220 220 220 219 217 212 209 208 210 212 211 210 209 210 211 211 211 206 204 206 204 200 202 203 201 197 193 194 194 195 200 203 203 202 202 203 204 203 199 195 196 196 193 193 196 198 199 200 202 202 201 201 199 197 196 197 201 199 198 196 194 192 191 191 191 191 191 191 188 187 188 189 187 184 184 187 193 196 192 189 187 184 182 184 186 187 187 187 187 187 189 190 188 185 183 180 178 175 173 174 171 167 166 166 166 171 174 173 170 167 165 158 149 147 151 154 157 161 159 154 151 158 168 171 163 152 153 161 166 173 183 190 198 203 186 159 144 139 154 170 176 176 170 170 168 158 151 146 143 154 157 152 153 145 147 162 174 182 187 195 197 196 197 190 169 137 106 89 81 88 137 199 226 233 231 223 211 204 203 204 205 205 203 206 210 210 210 209 208 208 211 213 212 210 211 211 207 205 209 209 203 197 195 196 201 205 203 201 202 204 207 206 208 213 208 205 204 204 204 205 203 195 187 181 179 183 190 194 189 181 175 176 180 177 174 184 184 178 187 192 191 183 170 161 158 155 152 143 134 133 134 139 147 159 169 171 164 153 152 157 151 140 138 137 130 113 102 109 108 108 119 123 130 133 134 134 125 115 116 128 140 144 133 114 107 109 114 119 125 134 135 134 144 159 163 152 143 147 152 157 165 169 167 162 161 162 161 165 173 180 180 174 169 164 161 164 175 182 176 170 167 154 141 139 151 161 161 158 156 156 153 147 140 130 117 117 141 164 176 190 204 207 204 204 206 204 194 185 185 187 189 192 194 197 203 211 215 212 206 201 195 187 172 156 144 -9999 
-9999 235 233 234 235 237 239 235 230 231 233 233 231 232 232 229 226 225 224 226 228 228 229 228 222 219 220 220 216 213 216 219 219 218 215 213 209 206 204 206 210 211 211 212 213 213 211 207 200 201 201 197 196 198 199 200 197 194 195 195 196 200 202 202 202 202 202 200 200 200 202 204 203 200 198 198 199 200 201 201 199 197 198 199 201 202 203 199 192 193 193 191 188 189 192 192 190 188 189 191 191 191 191 190 188 189 189 189 190 187 186 185 184 187 189 189 188 188 188 187 188 190 190 185 181 180 177 174 171 170 172 170 167 168 169 171 177 178 172 167 163 158 152 145 148 157 162 160 154 149 143 141 150 160 159 153 149 155 160 163 171 184 194 200 203 190 165 148 144 153 161 168 172 168 167 162 153 152 148 144 156 155 136 124 122 143 166 177 183 190 195 196 194 189 170 136 108 93 86 82 98 161 211 219 220 218 212 209 208 204 201 202 203 205 209 210 210 209 209 210 211 213 213 210 211 214 213 210 211 213 209 201 199 200 200 206 211 209 207 209 214 217 218 220 219 213 212 209 205 203 202 200 196 195 190 182 180 187 189 183 178 174 167 155 140 138 144 136 136 150 160 170 174 174 173 167 157 147 132 121 123 132 145 159 168 171 169 162 162 172 169 148 137 137 135 126 111 109 114 105 105 112 112 120 125 129 135 136 124 122 132 135 133 122 106 99 107 121 129 136 144 142 137 139 144 144 139 138 146 153 157 161 160 155 151 151 153 159 167 173 172 170 172 175 174 171 169 174 174 167 172 177 171 170 164 157 153 153 155 159 161 151 138 130 116 106 121 149 171 179 186 196 200 199 195 190 189 189 191 194 195 194 194 197 200 203 210 215 213 211 212 214 206 189 176 163 -9999 
-9999 231 230 232 232 234 234 230 228 229 230 230 229 229 228 224 222 224 226 227 226 225 225 221 217 219 222 220 216 215 219 220 217 214 211 209 207 205 205 211 215 213 211 211 211 208 203 200 198 202 203 200 199 199 200 202 198 195 193 192 195 196 197 200 201 200 197 194 197 202 205 206 205 203 203 203 201 201 199 196 193 194 196 201 204 202 199 193 190 193 192 188 188 190 194 195 193 192 195 198 199 198 199 199 198 198 197 193 191 188 188 188 190 193 192 189 187 186 186 187 190 191 186 180 176 176 174 171 171 170 169 167 167 169 170 171 174 170 163 162 159 156 154 152 156 159 152 142 135 134 136 143 154 158 156 155 157 160 162 167 174 184 193 198 202 197 175 154 142 139 145 161 170 166 165 164 158 155 149 146 154 150 124 103 109 134 151 152 155 165 178 181 180 173 144 111 96 94 93 91 112 179 214 213 204 201 201 206 207 203 201 204 207 209 212 211 209 208 208 210 210 209 207 207 211 213 211 209 210 212 208 205 204 203 204 210 216 216 217 220 223 222 219 215 212 209 209 205 199 194 191 189 192 197 198 193 189 188 184 176 169 160 152 141 129 131 135 130 127 135 149 158 153 150 154 157 161 162 155 151 153 151 155 164 167 164 162 166 168 159 142 133 137 139 130 112 99 109 118 114 115 119 126 135 130 119 112 107 102 110 114 107 105 98 91 100 117 128 137 147 151 149 143 142 141 137 131 131 143 155 161 166 159 150 142 143 152 159 161 159 156 159 169 176 179 176 173 175 172 169 174 168 166 180 179 170 157 144 144 152 151 141 129 118 100 94 115 142 169 186 193 194 192 189 189 193 195 196 200 204 204 202 200 201 203 206 210 212 212 217 221 223 217 202 186 173 -9999 
-9999 232 228 226 226 228 229 227 226 228 229 227 225 226 225 222 220 224 227 225 223 222 220 215 215 220 221 217 215 217 220 220 216 213 211 210 209 208 211 216 215 210 206 206 207 204 204 206 206 206 208 206 204 203 205 205 201 195 193 193 192 192 197 203 205 203 199 197 198 200 201 201 200 199 200 199 199 199 196 192 190 193 197 200 197 193 192 190 193 196 193 193 196 196 197 197 196 194 195 196 196 197 201 202 202 201 197 192 191 190 190 191 194 195 190 186 184 185 185 186 187 183 177 174 173 169 163 165 169 165 163 164 162 162 166 168 165 159 156 155 155 156 153 151 150 139 125 119 123 132 143 156 165 165 161 161 161 162 164 166 170 181 189 195 204 203 180 157 138 127 135 155 167 166 168 166 157 151 148 149 153 144 113 95 103 121 134 133 131 144 165 172 168 154 121 97 93 99 99 93 114 172 194 198 200 199 199 200 200 201 206 210 212 213 212 209 207 207 210 212 210 206 205 209 211 210 207 204 203 206 206 202 200 202 206 212 217 218 221 225 226 225 219 211 205 200 198 197 192 188 184 182 186 192 196 196 193 187 176 166 158 149 146 144 148 156 156 147 144 154 156 144 127 123 129 139 154 166 174 183 189 184 175 165 152 148 160 174 176 159 142 141 143 134 117 102 101 117 128 130 134 144 145 137 126 112 96 86 86 91 97 107 117 111 110 129 140 139 145 148 142 136 141 152 150 138 136 149 162 165 163 159 152 148 143 149 157 155 154 156 156 161 168 173 175 172 171 170 167 169 167 148 144 155 157 163 170 164 154 144 134 127 119 109 99 100 120 143 170 192 204 204 197 195 200 208 207 202 205 211 213 213 212 209 206 205 206 207 209 214 217 220 220 213 195 180 -9999 
-9999 228 224 222 224 228 228 226 227 230 228 224 222 222 221 218 220 224 224 222 221 220 218 215 215 216 215 212 212 214 214 214 212 210 211 212 210 209 210 212 211 208 206 208 208 207 209 211 208 208 210 208 204 205 206 204 199 195 196 199 198 198 204 209 209 205 201 199 199 197 194 195 197 197 195 196 200 200 196 194 193 195 197 193 189 190 191 190 193 193 192 195 197 196 195 196 194 194 195 194 191 195 201 202 201 197 188 185 188 191 190 187 188 188 184 184 188 190 189 187 183 176 171 170 170 166 166 173 173 164 164 164 162 164 166 165 163 161 156 144 141 147 145 136 124 115 113 120 132 142 152 161 165 164 163 162 161 160 162 158 162 173 179 188 197 194 177 159 136 119 127 153 167 166 166 157 148 146 147 147 146 133 111 100 104 114 131 147 149 154 169 179 169 147 116 100 98 106 107 104 134 186 198 200 203 203 201 201 202 207 214 217 217 214 210 207 206 207 210 211 207 205 207 211 212 210 206 202 201 205 206 200 197 200 205 212 215 215 219 225 229 229 221 211 201 192 189 190 187 183 177 176 180 184 187 188 186 178 167 161 160 157 154 156 166 176 173 163 163 169 160 145 140 145 144 138 136 136 147 172 190 194 186 168 153 158 170 175 182 186 176 160 145 129 109 101 106 115 121 119 120 125 115 102 101 102 103 109 110 102 103 113 126 134 137 143 143 145 145 138 133 134 147 158 155 150 155 162 155 139 129 128 136 142 144 151 151 147 152 157 157 160 169 174 169 165 166 164 163 162 149 129 134 145 151 163 173 179 174 159 143 129 116 110 109 118 136 151 170 187 199 208 213 214 214 214 214 213 210 209 213 216 214 210 205 200 193 192 199 207 213 216 216 212 201 192 -9999 
-9999 223 221 224 227 228 227 226 229 230 227 223 220 220 220 219 222 222 220 220 220 218 216 215 215 216 215 212 211 210 209 209 208 209 212 211 208 209 210 209 208 208 209 209 208 207 208 206 204 205 209 208 205 204 204 201 197 195 199 203 203 203 206 207 205 199 196 199 199 196 196 199 200 198 196 197 201 201 199 197 195 196 196 193 194 197 195 195 198 197 195 194 193 191 193 195 196 198 198 197 198 202 204 202 198 190 183 186 194 198 193 186 186 185 183 186 193 195 192 188 183 176 172 171 169 165 171 179 176 167 166 170 176 180 176 170 170 167 154 137 136 144 144 130 119 122 125 132 140 144 150 156 159 159 158 158 155 155 159 157 163 172 179 187 189 184 176 165 142 122 131 157 165 161 157 147 142 146 146 141 133 121 107 100 102 106 123 154 165 167 168 176 176 162 139 119 111 118 123 125 161 211 220 215 209 206 206 207 208 213 220 223 219 213 209 206 206 207 208 207 204 206 209 211 213 212 209 204 203 209 209 203 198 199 205 210 213 219 228 232 231 229 222 214 207 198 192 187 182 176 173 176 180 181 180 180 177 170 164 164 166 166 165 167 169 169 167 165 166 165 161 163 173 178 167 153 143 132 134 145 160 173 180 177 175 171 160 154 164 171 163 152 136 120 107 102 98 102 110 107 105 109 106 103 106 111 124 137 141 136 130 121 119 114 105 113 126 137 135 130 141 155 159 157 159 165 169 154 132 125 120 118 126 131 135 147 152 151 152 152 153 160 170 171 163 160 163 164 163 157 143 135 149 163 171 177 179 180 175 164 153 139 128 118 114 123 132 147 172 185 193 205 213 213 215 222 225 222 214 208 208 208 204 201 200 195 187 184 185 192 204 213 214 213 211 210 -9999 
-9999 226 224 225 226 226 224 223 225 226 224 220 218 220 222 223 224 222 220 221 218 213 211 213 216 218 218 214 211 209 207 206 208 211 212 209 208 210 212 211 209 209 208 206 205 207 208 206 202 203 204 204 203 202 202 200 199 201 204 203 200 198 197 199 197 193 194 198 199 198 203 206 203 200 197 198 201 200 199 198 197 196 196 195 199 201 198 198 200 199 197 196 195 195 197 199 200 200 198 199 202 204 202 197 192 185 183 193 202 201 194 191 192 191 189 191 193 192 189 185 179 175 173 173 167 163 167 172 170 163 166 176 182 181 175 172 172 163 148 140 148 155 147 135 134 141 140 140 143 144 147 150 152 152 151 149 146 147 152 154 162 174 184 188 187 186 182 179 162 140 141 154 158 154 151 143 143 150 147 137 127 118 107 101 100 103 121 152 174 181 172 173 181 170 145 121 115 131 140 140 172 212 217 213 209 207 207 208 211 213 217 217 210 206 206 206 206 207 207 205 206 209 211 212 215 215 212 207 206 211 210 203 198 202 208 211 217 227 235 234 231 226 220 216 213 206 199 192 185 178 177 180 183 183 179 176 173 169 163 158 156 160 165 166 164 163 159 151 145 140 141 147 157 164 169 174 169 157 149 141 146 164 180 188 190 181 163 152 149 145 139 136 128 117 108 108 107 117 129 131 135 140 136 136 140 145 153 161 164 159 152 146 137 116 96 104 115 123 131 137 148 156 153 151 153 155 156 147 136 141 138 128 129 131 141 151 151 149 150 153 161 170 174 164 154 157 163 163 158 152 140 138 153 168 176 175 171 167 155 142 136 134 130 113 111 122 127 147 173 184 186 191 200 205 207 214 219 220 217 213 208 204 198 191 189 189 186 185 183 186 196 208 212 216 218 217 -9999 
-9999 229 228 227 226 224 221 218 220 221 219 215 216 221 224 224 223 221 221 221 215 210 211 215 219 220 217 212 209 208 205 205 210 213 211 208 208 211 213 213 212 212 211 208 207 208 208 204 202 202 202 203 202 201 201 199 201 204 205 200 197 196 197 200 199 196 197 197 195 195 201 204 203 201 198 200 204 202 199 199 198 197 196 195 199 202 199 198 198 197 197 198 200 202 204 205 205 201 198 199 200 200 197 192 188 184 186 196 198 193 192 194 195 195 192 191 190 186 181 176 173 172 173 173 169 167 173 173 165 158 164 175 175 168 163 163 164 156 149 152 161 167 160 149 144 142 136 136 140 142 144 147 148 147 143 140 138 141 144 145 151 166 178 178 177 179 183 192 182 151 135 141 149 147 147 146 150 154 148 135 126 121 112 106 103 106 125 154 179 189 178 175 174 148 124 113 118 136 149 152 181 210 214 216 214 208 205 207 210 212 210 204 198 200 204 206 207 207 206 206 209 212 212 214 215 214 211 205 203 208 207 201 200 206 211 213 218 224 227 227 225 219 213 210 208 202 195 191 191 190 189 188 187 188 183 174 165 163 161 152 149 151 152 146 142 147 149 140 125 122 131 139 141 141 149 162 167 164 160 158 161 165 172 182 192 199 200 188 164 142 128 127 133 135 133 138 146 160 159 155 166 173 171 171 172 175 176 170 158 144 141 152 159 150 138 140 137 137 148 158 153 137 128 132 136 133 133 141 152 156 143 133 135 138 139 131 126 134 149 159 166 170 166 156 153 161 163 160 154 143 131 137 158 171 172 164 153 143 129 121 124 124 111 94 101 110 116 141 168 182 183 181 188 196 195 198 208 214 215 213 210 204 195 185 180 178 175 176 182 192 200 207 212 216 218 214 -9999 
-9999 230 228 227 225 222 220 218 219 218 213 209 212 219 221 219 217 217 218 218 216 214 215 217 219 217 213 209 208 208 205 207 214 213 208 207 208 211 212 211 211 212 213 211 209 208 205 201 200 201 203 205 204 202 200 197 200 204 202 198 197 198 200 202 201 199 198 195 192 193 199 200 197 196 196 200 203 200 199 200 200 200 201 202 206 204 197 197 197 198 199 200 203 205 205 205 205 202 199 196 196 194 192 187 184 182 184 187 184 181 184 188 187 184 180 180 181 179 174 170 170 173 173 173 169 169 176 178 171 165 170 174 169 164 161 161 160 156 155 160 166 169 164 150 134 125 119 122 131 138 143 145 145 143 139 135 134 137 136 135 144 160 170 173 173 178 188 199 189 153 134 139 145 144 148 153 157 156 150 136 129 129 123 118 117 121 138 161 177 189 186 175 156 121 111 114 122 137 149 156 181 209 216 217 215 210 208 208 209 210 207 200 196 199 202 204 205 205 205 208 212 213 213 214 213 210 205 200 199 203 204 202 203 208 213 217 220 222 222 219 213 207 202 199 194 187 176 174 182 186 190 195 195 193 187 174 162 161 164 165 166 158 148 136 128 131 136 132 126 138 150 149 142 138 137 139 146 153 167 178 176 168 167 176 190 205 213 208 189 164 146 145 155 160 159 164 176 177 161 155 163 168 169 172 177 179 172 154 132 121 128 143 159 171 176 184 182 174 171 164 154 143 132 123 116 115 127 145 159 161 148 138 139 132 120 112 116 129 145 157 162 162 157 155 158 157 145 135 129 126 136 157 171 170 165 157 146 135 123 120 123 111 91 81 91 101 117 149 171 181 185 183 182 186 183 186 196 199 200 200 197 192 183 177 174 166 160 164 174 186 195 201 210 218 222 219 -9999 
-9999 227 225 225 224 223 223 222 222 218 213 210 214 219 218 215 213 214 215 217 216 215 214 215 215 212 207 207 209 209 208 211 217 213 208 208 210 210 207 206 208 209 210 209 208 207 204 200 198 198 200 203 203 202 197 194 201 204 199 194 195 196 197 197 199 199 198 197 196 199 204 202 199 196 193 195 198 199 200 202 203 205 208 209 208 200 194 194 196 200 202 204 206 203 200 198 199 200 198 195 193 191 187 182 178 176 177 178 175 174 176 174 168 165 167 173 174 173 171 169 171 173 172 169 167 167 171 172 170 169 174 173 168 165 166 167 164 160 161 163 163 162 153 134 115 108 110 118 126 131 138 141 139 136 134 131 130 134 132 137 155 169 174 176 177 183 196 204 195 166 148 143 143 141 143 149 154 155 151 134 131 140 136 134 135 137 149 163 172 187 193 170 137 112 116 121 124 130 139 155 185 214 218 215 213 212 211 208 205 204 202 199 198 197 197 198 199 201 204 209 211 211 210 210 208 204 201 199 200 202 203 203 204 206 213 221 225 225 221 215 208 202 197 189 179 167 159 166 172 172 180 189 190 187 184 180 178 178 180 188 189 175 160 150 144 141 134 129 138 163 171 160 147 142 140 140 144 158 182 189 181 174 172 178 190 201 205 199 187 174 160 156 156 153 148 149 153 151 142 143 142 130 123 134 154 170 168 149 134 133 138 143 147 150 161 178 186 189 187 176 166 159 146 131 122 120 126 130 126 122 119 124 129 123 118 121 130 138 146 152 148 145 145 147 147 136 123 122 127 145 168 176 172 167 163 154 144 134 124 121 115 99 88 89 103 119 145 173 186 187 184 181 175 169 168 176 188 193 195 192 188 185 180 176 169 159 157 167 175 183 190 198 211 225 233 228 -9999 
-9999 227 224 224 224 225 225 223 222 219 216 214 217 220 217 212 211 212 215 214 211 209 211 213 214 212 208 209 208 207 209 212 213 212 211 211 211 208 205 206 207 204 205 208 206 205 202 200 200 202 202 200 198 196 193 196 206 204 194 191 193 196 197 198 199 199 200 198 196 199 203 203 201 198 194 196 200 201 201 201 202 203 203 202 197 195 193 192 196 200 201 202 201 196 194 192 193 196 194 192 191 189 184 180 177 176 174 177 179 178 175 167 162 165 175 182 179 174 172 171 172 172 169 168 168 169 167 164 164 163 166 168 168 169 169 168 167 167 166 163 160 155 143 128 113 116 124 122 120 123 132 133 129 127 125 124 126 132 134 147 165 172 175 176 179 185 193 198 193 180 166 147 139 137 134 137 146 154 149 131 140 154 149 145 144 145 151 158 162 175 188 163 128 117 123 123 115 110 122 157 196 218 221 216 209 205 203 201 199 197 195 196 196 194 193 194 196 200 204 206 206 204 204 204 202 201 200 201 202 202 201 202 203 204 213 221 225 225 220 216 213 208 197 183 168 159 166 180 181 177 178 176 173 173 175 178 186 192 193 194 189 178 170 163 160 158 149 143 153 170 170 155 144 142 145 152 156 163 172 175 177 178 177 179 185 188 188 184 176 166 154 141 130 121 118 120 123 124 129 142 135 115 113 129 142 153 158 157 159 160 162 158 144 133 137 153 165 175 182 189 194 183 163 151 142 131 122 113 102 93 96 110 120 121 123 125 129 135 140 139 129 133 141 142 142 135 140 156 172 188 193 181 173 174 168 149 134 129 125 118 107 97 93 100 115 130 150 173 191 197 190 182 177 172 173 174 181 191 196 194 189 186 185 183 173 165 169 179 185 191 197 203 213 223 229 227 -9999 
-9999 226 226 225 226 226 223 220 218 218 216 214 215 218 216 211 211 214 215 213 210 211 214 214 214 213 213 214 210 208 210 209 209 211 213 212 210 209 209 210 209 205 208 208 202 200 199 200 204 206 203 198 194 191 194 202 207 199 188 189 195 199 201 200 200 199 198 193 189 194 201 201 198 196 195 200 203 204 201 199 201 200 197 193 191 197 197 194 197 197 196 199 198 197 199 197 195 195 192 189 187 184 180 179 179 177 176 181 182 178 176 173 173 177 183 185 181 178 177 173 172 171 168 168 171 172 169 173 175 169 169 172 174 173 170 167 168 171 166 160 156 151 144 133 126 134 133 121 121 129 134 127 122 122 122 122 127 134 140 150 153 152 162 178 190 192 189 185 182 186 181 151 135 132 125 125 140 154 146 137 159 166 154 150 147 148 154 160 160 169 185 166 142 136 135 128 114 107 130 175 204 218 221 215 203 193 187 188 192 192 189 187 187 187 191 194 197 201 203 202 200 201 202 202 202 201 203 205 205 201 199 200 201 204 213 220 222 221 219 217 215 206 192 179 173 179 189 197 196 193 191 184 178 175 173 171 179 191 190 183 175 172 170 164 159 160 159 155 156 162 160 150 146 151 161 170 171 161 145 147 167 179 178 177 180 179 174 171 168 158 145 133 120 111 108 111 120 124 136 152 148 135 137 138 129 124 125 137 144 144 156 159 151 140 134 140 154 162 162 174 194 202 198 189 174 157 149 139 126 121 128 138 139 140 143 141 139 137 136 132 131 146 154 156 163 170 187 198 198 197 189 170 172 179 165 140 132 138 136 122 106 96 96 105 112 117 129 153 171 182 188 187 181 176 178 173 167 172 184 189 187 184 181 174 169 173 181 190 196 200 203 205 209 213 220 226 -9999 
-9999 225 226 226 227 225 220 215 213 214 215 214 217 220 217 214 216 217 217 216 214 215 217 213 212 213 214 214 212 212 212 208 208 212 213 210 208 208 209 209 208 208 208 204 199 201 202 203 204 202 197 197 198 198 200 201 198 189 184 188 194 196 196 197 196 193 190 186 188 199 204 201 198 196 197 202 206 206 203 201 202 200 195 194 197 203 201 196 200 200 199 201 201 202 201 195 193 192 187 185 184 182 182 182 179 175 175 180 178 173 174 174 174 179 181 178 174 173 171 168 167 168 167 169 173 176 180 189 190 181 180 182 178 170 164 161 164 166 161 157 156 154 146 137 134 136 126 121 131 143 141 127 121 122 123 125 131 140 146 145 138 143 165 186 196 194 186 185 188 196 192 155 133 128 116 116 135 149 145 151 172 168 153 152 150 152 163 172 168 163 172 168 157 153 149 140 129 131 165 200 212 218 218 210 200 191 182 177 177 179 176 171 169 173 182 191 197 200 201 199 198 200 203 205 203 201 203 205 204 200 197 197 197 202 211 217 219 219 216 213 208 198 187 181 187 193 193 195 198 204 206 202 194 180 167 166 179 187 181 173 167 163 161 160 157 152 152 151 148 151 159 164 168 180 190 191 187 177 167 168 177 185 191 195 194 187 171 151 140 135 132 125 118 120 120 120 121 123 133 143 141 134 132 125 119 110 96 89 87 104 138 159 164 157 142 141 154 167 165 156 150 162 184 201 208 208 203 190 178 177 182 179 175 179 181 180 179 176 173 170 173 184 183 180 184 191 199 198 191 187 178 162 162 160 140 130 139 148 136 113 102 100 107 110 108 117 134 153 158 160 167 173 175 180 184 173 158 156 161 168 172 170 161 157 170 187 194 202 212 216 211 206 208 215 222 226 -9999 
-9999 220 221 222 223 218 214 211 210 212 215 216 219 219 216 216 216 213 214 215 214 215 213 208 209 213 213 211 208 208 209 208 211 214 210 204 202 203 203 203 203 203 201 197 198 203 204 203 202 199 198 201 203 204 203 197 190 185 186 192 193 193 196 199 196 190 186 188 196 205 204 199 198 199 201 205 208 207 205 204 204 200 197 201 205 204 198 195 199 200 200 200 198 195 189 185 188 189 185 183 182 183 186 185 182 178 177 178 176 174 174 170 173 180 178 172 168 163 159 163 166 169 171 172 175 179 185 190 186 179 179 178 170 159 153 157 164 165 160 158 159 152 141 132 129 125 120 124 133 139 137 128 126 127 128 130 138 148 151 143 145 165 177 176 174 175 177 184 193 195 182 152 136 126 110 112 130 144 151 162 169 159 151 156 157 161 173 181 172 154 153 155 149 160 163 154 145 154 187 214 220 220 217 209 202 197 192 185 177 173 170 165 164 167 178 190 195 196 198 199 199 202 205 204 200 197 197 198 197 194 189 188 189 195 207 216 219 219 216 211 202 193 186 185 188 185 181 184 187 192 196 198 193 180 169 170 178 174 155 148 152 150 145 153 158 154 153 152 153 160 165 168 174 185 188 191 193 194 200 202 196 196 205 210 208 200 185 159 138 128 122 117 122 132 136 136 133 134 138 134 125 122 129 133 132 121 106 100 103 125 156 173 175 175 167 159 153 151 152 149 145 146 154 169 185 195 200 202 202 201 191 169 159 171 181 183 182 183 188 193 199 205 201 190 182 177 175 172 168 161 150 139 139 135 127 134 145 139 116 99 100 108 115 114 115 131 156 176 178 176 179 176 167 171 181 181 177 168 148 136 133 134 135 150 182 207 219 223 223 222 218 212 210 214 220 223 -9999 
-9999 211 209 210 209 204 205 208 210 214 217 217 216 215 214 215 211 206 211 214 213 212 211 208 211 213 211 208 206 206 207 208 211 210 203 198 196 196 198 199 201 202 200 198 201 204 199 198 199 200 201 201 202 203 200 195 189 187 191 194 194 197 201 202 197 191 193 198 202 204 201 198 199 201 203 205 206 202 197 197 200 199 198 201 202 197 188 187 193 196 197 195 191 185 180 184 189 187 188 184 178 179 181 181 182 184 185 182 179 178 174 173 180 182 175 170 169 166 166 171 174 175 174 172 175 179 180 178 172 170 171 170 163 157 160 167 169 165 158 155 154 144 132 125 119 113 111 121 129 130 131 137 144 146 144 146 154 158 153 148 162 182 184 177 172 172 172 177 188 189 173 156 147 127 108 112 125 142 157 162 159 152 154 163 167 170 177 181 172 150 145 145 135 158 173 159 147 152 181 210 221 220 215 207 200 198 197 195 186 176 169 168 169 171 178 187 192 193 198 200 197 196 198 197 193 190 192 193 190 185 179 180 187 197 211 216 217 217 217 214 204 194 187 184 182 173 172 182 186 184 184 186 185 185 187 182 168 148 131 137 144 140 138 144 148 151 155 158 165 170 169 167 171 179 186 194 198 200 204 205 204 207 209 207 201 196 189 174 156 138 125 128 136 137 130 121 120 128 131 127 123 126 127 122 123 130 141 151 153 156 158 155 155 169 176 167 139 111 105 122 141 148 151 151 147 143 148 157 162 157 140 121 121 128 130 134 138 142 149 154 160 166 165 160 157 161 162 158 151 141 136 134 136 140 141 140 136 121 108 104 110 116 117 116 120 138 157 168 174 180 186 183 169 157 153 156 157 145 131 120 112 111 118 149 187 212 227 228 219 213 218 223 223 218 218 223 -9999 
-9999 205 201 199 196 197 203 206 209 212 214 215 215 218 219 217 210 210 217 217 212 211 213 214 215 215 211 209 207 207 207 207 205 200 196 195 195 198 201 202 204 205 202 199 202 200 196 198 198 197 197 198 201 198 190 188 186 188 193 195 195 199 201 200 195 192 195 200 203 203 200 198 200 203 203 203 202 200 197 197 198 197 198 196 193 186 183 188 192 193 191 186 183 183 182 185 184 179 181 178 175 177 177 176 178 184 183 177 179 178 173 176 185 183 177 177 179 178 180 182 180 177 174 175 178 178 174 166 162 164 166 166 162 161 169 172 167 161 155 150 144 132 123 120 116 110 106 109 111 115 131 146 152 152 152 158 163 163 157 154 168 182 190 196 199 194 186 185 192 196 189 180 163 131 108 110 119 135 153 155 151 151 159 171 174 173 178 182 178 157 147 145 131 143 164 154 144 149 179 204 213 212 209 203 198 195 193 188 180 168 157 156 160 164 172 182 189 194 199 196 190 190 194 193 188 187 190 191 189 183 179 182 189 199 210 211 208 206 206 206 202 196 189 183 178 172 175 186 189 187 186 187 187 192 196 192 178 161 154 156 146 133 135 142 143 142 143 151 155 152 152 157 167 186 200 204 201 201 204 205 208 208 206 202 196 189 178 161 144 134 133 139 138 125 112 104 108 118 123 126 126 125 116 113 128 145 159 160 153 147 137 125 128 147 162 165 148 128 123 128 127 131 143 146 139 133 135 133 124 119 112 111 124 123 110 106 110 119 123 120 120 123 126 131 144 157 160 161 161 154 149 148 149 152 146 134 127 120 114 107 105 106 104 106 116 136 147 155 166 169 167 164 166 168 162 152 138 125 120 118 123 130 156 189 206 215 221 226 224 218 217 221 226 226 224 227 -9999 
-9999 198 195 194 196 199 203 203 203 205 210 213 215 218 219 216 212 214 220 218 213 213 214 214 213 212 209 206 206 207 206 204 202 199 195 196 198 201 203 203 204 202 199 198 198 197 195 197 196 194 195 198 198 191 185 186 189 194 196 194 193 196 199 199 195 188 189 195 199 198 192 192 199 204 204 201 201 202 203 205 202 201 202 197 190 186 188 193 192 190 186 181 182 184 182 181 177 172 174 175 175 178 177 174 176 180 177 172 176 177 174 178 184 182 178 179 180 178 180 181 181 181 181 184 183 177 169 163 162 164 165 164 162 165 170 167 164 163 159 151 138 126 122 122 117 112 109 111 114 124 141 144 138 136 139 145 150 153 153 153 162 171 177 184 192 198 201 201 196 197 198 191 171 135 111 106 112 127 144 152 149 147 160 175 177 174 177 182 178 157 144 139 124 120 141 156 160 172 201 210 206 202 201 199 196 193 188 182 175 164 154 150 152 161 174 183 188 192 196 193 189 195 200 197 191 190 191 191 188 185 184 185 187 194 201 202 200 200 202 204 204 199 192 182 175 174 179 186 189 188 189 192 193 192 190 192 194 192 191 182 165 150 141 140 140 139 138 144 144 140 144 149 161 180 192 198 202 206 209 210 212 208 195 190 190 183 166 145 132 132 137 139 128 108 104 115 127 130 133 136 131 128 124 136 154 157 151 143 143 143 137 129 132 145 159 167 172 177 174 160 144 144 146 141 139 145 151 141 125 121 119 126 138 138 127 118 119 123 121 120 119 123 132 138 146 150 151 160 166 156 146 142 144 146 137 129 125 120 111 98 93 94 91 97 112 130 147 168 180 175 163 154 159 170 176 173 161 143 127 126 141 168 201 214 221 222 222 227 232 232 225 217 215 222 228 229 -9999 
-9999 191 190 194 199 200 198 196 197 202 208 211 213 215 215 213 211 215 217 215 213 213 212 210 208 206 203 202 203 203 200 199 200 196 194 198 201 202 203 203 201 198 196 196 198 197 196 196 194 191 191 191 190 188 188 193 197 198 197 193 192 194 196 195 190 183 187 196 200 195 190 193 199 203 201 198 200 202 201 200 199 200 200 193 189 189 189 187 185 187 186 185 187 185 178 175 172 168 174 179 176 177 176 174 178 182 178 173 176 180 181 185 188 185 180 177 172 171 173 175 179 182 183 184 183 177 171 169 170 171 169 166 166 172 173 168 168 169 164 153 137 129 129 127 120 116 117 124 135 146 148 138 130 127 128 132 138 143 144 146 156 166 171 176 181 189 198 201 193 189 193 189 170 140 114 106 113 126 139 151 151 150 168 181 176 170 172 177 167 144 133 129 113 101 121 156 174 191 214 216 205 198 199 199 194 189 185 181 176 169 166 165 165 173 182 185 186 189 191 192 195 200 203 201 197 193 194 193 190 188 188 185 184 188 194 195 196 200 205 207 204 197 189 179 174 175 177 186 192 192 193 191 188 185 182 184 182 181 184 182 181 178 170 159 151 149 150 154 153 155 164 168 173 182 188 195 203 209 213 214 211 205 191 179 175 167 147 135 131 130 135 134 120 103 112 130 138 140 139 135 132 130 126 133 142 135 121 118 129 143 148 147 149 154 157 161 170 181 183 169 153 152 148 136 131 132 133 127 123 120 118 127 134 135 135 138 139 135 133 136 133 136 145 148 147 145 146 151 150 147 147 149 147 139 128 122 117 112 103 93 94 99 96 97 106 118 140 164 175 174 167 164 167 166 162 160 153 143 145 159 177 195 204 209 221 224 219 216 221 229 228 218 211 213 220 223 -9999 
-9999 189 188 194 200 200 196 193 196 201 206 210 213 215 214 212 211 215 214 210 210 210 207 205 203 201 199 199 199 197 194 194 195 192 192 199 203 203 202 199 198 197 196 196 195 192 192 193 190 187 187 187 187 188 189 191 194 194 193 192 194 196 194 190 186 185 192 201 204 201 198 200 201 199 195 196 200 201 198 197 196 195 192 187 185 186 185 185 187 190 191 189 188 183 177 174 171 171 179 183 179 179 178 178 183 185 180 176 179 185 189 191 194 192 187 180 175 174 174 177 182 182 180 181 181 178 175 177 181 180 175 170 172 176 174 170 171 169 160 145 133 130 132 130 123 118 121 124 126 135 138 132 128 124 124 129 136 141 142 145 156 170 181 185 187 190 196 200 196 189 189 186 173 152 123 110 118 124 131 149 159 160 175 183 174 166 166 166 153 136 132 126 107 93 107 140 170 195 215 217 208 203 203 198 188 182 179 175 171 166 168 175 183 190 190 187 184 183 184 188 194 198 199 199 196 194 196 197 194 191 189 184 182 184 187 189 192 196 198 198 192 187 183 175 173 178 183 189 188 188 190 185 182 181 179 175 166 159 159 158 164 175 183 182 180 181 181 179 176 174 179 182 187 190 191 194 201 205 206 206 200 192 185 180 170 155 138 133 129 125 128 124 114 115 134 151 152 150 143 134 126 118 117 122 122 110 108 115 128 142 151 156 156 151 146 148 160 172 174 162 153 146 134 118 110 109 110 109 111 110 109 110 115 123 134 144 144 138 137 140 145 147 140 137 144 148 149 147 144 152 161 163 159 143 125 117 114 109 102 96 99 102 97 100 109 119 138 156 164 170 179 183 175 163 156 152 147 155 179 202 214 216 213 211 218 220 214 207 208 212 212 209 207 204 205 207 -9999 
-9999 184 186 192 195 195 192 193 197 199 204 211 216 216 214 212 212 213 210 204 204 203 201 200 199 198 197 197 196 195 193 194 195 190 191 198 201 200 195 190 189 190 191 191 187 184 186 187 185 184 185 187 188 189 188 186 188 190 189 191 196 198 195 192 190 190 196 204 206 202 201 202 201 197 195 196 200 200 198 196 193 192 189 187 189 190 191 195 195 194 191 186 183 181 181 181 180 181 187 187 183 183 181 182 186 185 180 179 182 188 191 193 196 195 190 185 183 184 183 184 186 184 182 183 181 175 174 180 185 181 173 172 177 178 172 168 169 162 148 136 130 129 129 127 121 118 124 121 120 131 134 131 128 125 129 139 146 150 155 163 173 183 188 188 192 196 200 198 192 189 187 181 174 162 128 112 116 118 127 155 172 171 174 176 171 166 165 162 152 144 142 131 105 88 96 125 168 203 219 219 212 209 203 192 180 176 175 174 170 164 167 178 191 197 193 184 176 174 176 181 186 188 192 195 195 193 196 196 192 187 184 183 183 184 189 190 189 191 194 193 186 181 179 174 175 184 190 189 183 182 183 184 185 181 177 172 162 155 155 154 155 156 157 164 178 192 192 190 192 189 183 180 184 189 190 190 194 195 189 187 187 186 189 189 179 159 144 140 128 117 116 117 119 130 145 154 149 143 138 133 125 121 125 128 123 117 123 128 138 148 150 151 148 141 136 140 153 162 161 155 155 147 127 108 103 107 109 106 104 106 105 104 107 114 123 131 134 134 131 134 147 148 142 144 148 150 149 142 143 157 162 155 155 142 125 117 114 111 105 101 101 95 89 101 118 134 155 165 162 162 169 173 170 164 156 151 161 188 211 223 226 225 220 216 214 212 208 203 199 199 198 196 193 188 185 187 -9999 
-9999 180 185 190 190 188 187 192 196 199 205 211 212 210 209 211 212 211 205 200 200 201 199 198 197 196 196 195 194 192 189 191 190 187 191 197 197 193 185 179 178 179 181 181 180 181 184 186 184 183 185 187 189 191 189 188 193 193 190 193 197 198 197 196 192 191 196 200 200 197 196 197 199 200 199 198 199 199 197 195 193 193 192 191 194 194 195 198 195 190 185 179 179 181 185 188 186 186 189 188 184 180 179 183 186 185 183 183 184 190 194 196 197 195 193 191 189 189 190 192 192 186 182 180 177 173 174 181 185 179 173 177 181 177 166 162 161 151 140 134 132 130 128 126 121 120 127 126 129 140 139 135 131 131 141 153 159 165 173 184 195 203 203 201 201 200 197 188 181 183 181 175 175 166 131 114 116 116 128 157 175 172 165 164 166 165 165 164 162 157 153 135 101 82 86 111 166 211 224 220 212 207 198 184 175 174 177 182 180 169 172 180 186 190 186 177 169 168 174 181 187 192 198 200 197 194 196 196 190 186 186 190 189 186 190 191 189 191 195 194 189 183 177 172 175 185 190 189 188 186 183 184 186 183 178 172 164 161 165 163 156 145 138 144 160 173 173 181 195 198 192 183 181 186 188 186 184 181 178 180 183 188 193 188 174 161 154 143 123 111 115 124 127 129 133 133 129 129 133 135 137 142 145 145 141 143 151 152 154 152 147 147 147 146 145 147 155 160 160 166 166 155 137 121 118 118 113 104 98 99 102 102 105 113 121 125 129 134 135 145 151 141 149 158 156 151 147 146 153 160 150 139 140 125 114 113 112 107 100 96 92 81 83 104 122 145 169 171 160 156 159 164 171 177 173 170 189 213 224 227 226 230 228 224 214 203 198 196 191 190 191 188 183 180 177 176 -9999 
-9999 176 181 184 185 185 188 193 196 200 209 212 208 206 207 210 210 206 202 200 202 203 200 198 197 196 196 194 192 188 184 186 188 188 192 194 191 183 175 172 174 176 174 173 176 176 179 182 181 182 184 186 189 193 194 194 196 191 188 192 195 194 193 191 187 189 195 195 193 192 192 197 202 203 202 202 202 199 197 197 195 196 195 194 194 192 192 193 190 186 180 176 177 180 183 185 183 184 191 192 188 185 186 188 189 189 188 187 189 192 195 194 191 191 192 191 189 191 194 197 193 184 179 175 174 174 177 181 182 177 175 180 179 171 163 162 158 146 137 135 134 134 134 132 126 123 129 131 134 142 145 140 134 134 143 150 157 168 177 188 201 213 216 211 204 198 194 190 187 186 183 183 182 169 143 127 121 117 126 150 163 161 155 155 161 162 163 165 169 166 156 131 98 77 67 91 167 213 223 212 202 198 190 177 173 175 178 180 174 164 173 181 182 183 181 180 180 183 187 192 199 206 209 206 201 196 196 195 192 192 196 200 197 193 194 191 193 197 193 184 183 185 181 175 176 182 188 191 195 196 191 186 183 180 174 165 160 162 164 157 145 135 135 139 143 152 164 181 191 195 198 195 186 181 182 185 186 187 192 196 193 192 187 173 162 157 149 131 116 120 126 125 121 121 123 123 123 129 134 139 151 156 151 150 149 156 161 156 153 148 142 144 150 159 169 171 164 157 163 177 175 162 143 125 119 116 113 106 93 90 89 96 116 131 137 136 135 136 141 155 153 142 151 151 147 146 148 153 157 154 139 136 132 111 107 112 108 99 92 90 86 79 89 111 127 149 165 164 160 166 173 180 192 202 206 210 215 221 228 227 223 228 229 225 209 199 196 192 185 179 183 193 195 187 174 168 -9999 
-9999 174 179 180 183 189 196 200 202 207 211 209 208 212 214 213 206 199 198 201 203 203 200 197 196 196 196 194 190 186 183 185 187 186 189 189 184 177 175 174 175 178 175 173 175 174 175 177 176 176 177 180 185 190 191 189 184 180 180 186 187 184 184 184 185 189 194 194 193 193 195 201 206 204 204 206 204 200 200 201 200 200 198 194 193 192 191 190 187 182 178 178 181 183 184 184 182 184 193 195 192 192 194 195 198 198 195 191 191 192 193 189 185 185 186 185 186 187 191 194 191 183 178 175 176 178 179 179 178 175 175 177 174 167 162 163 160 147 139 137 137 136 135 133 128 127 134 132 131 138 140 137 133 135 145 152 158 166 173 182 194 207 215 216 213 204 197 194 196 193 184 176 171 165 151 136 123 115 120 140 154 158 158 161 165 163 164 166 172 170 157 125 84 60 50 88 178 202 201 191 186 186 180 173 174 177 177 173 164 161 173 184 190 189 189 195 203 207 205 204 209 213 212 209 203 194 190 191 192 196 200 201 198 197 195 189 194 195 184 174 177 181 178 176 177 178 180 184 190 192 192 188 178 166 155 150 154 162 159 146 137 133 135 138 142 150 161 169 173 183 197 201 195 185 179 181 190 198 205 207 203 196 182 170 167 157 141 121 116 127 128 122 115 115 123 130 135 142 149 152 153 151 148 152 156 161 160 156 160 159 155 153 152 157 162 159 149 147 160 174 177 169 152 135 126 119 116 108 99 102 100 112 137 151 153 148 138 133 139 145 143 146 152 148 141 142 150 156 158 149 138 137 125 107 109 109 98 92 93 90 89 86 97 118 131 145 157 169 184 193 191 192 203 212 216 219 216 216 225 227 222 218 211 206 201 198 195 193 187 177 172 176 177 171 167 162 -9999 
-9999 178 181 181 185 194 201 203 205 209 210 209 211 213 212 207 201 199 202 203 199 197 195 194 194 193 191 186 182 181 181 186 188 189 193 191 184 179 179 176 175 179 176 176 177 172 172 173 171 169 171 176 180 183 181 175 172 174 180 184 184 183 183 185 187 189 194 195 196 199 201 204 205 202 203 205 202 201 200 198 196 198 197 194 193 192 190 187 182 179 180 184 190 192 190 186 181 184 192 194 190 190 192 197 202 202 198 195 195 196 195 190 186 186 185 183 182 181 186 193 191 183 178 179 182 182 180 177 177 177 177 175 171 168 163 162 156 144 138 137 136 133 128 123 120 125 131 126 126 130 126 125 128 140 156 166 172 179 188 197 206 210 215 222 223 215 206 202 199 195 186 176 170 169 157 137 124 114 118 135 149 155 159 166 167 164 164 165 172 176 163 113 68 57 62 109 189 193 175 169 176 182 181 179 180 180 177 170 164 162 169 183 193 194 196 205 214 216 211 207 207 205 201 199 194 185 182 185 189 192 192 190 188 188 184 177 181 179 165 163 172 171 161 160 166 171 177 186 188 183 184 185 172 154 143 142 149 150 139 129 132 136 138 144 149 152 155 159 168 185 198 201 198 189 182 179 178 182 193 198 195 187 176 168 157 140 120 106 108 115 116 116 115 115 122 130 136 147 160 159 148 142 147 160 165 166 166 170 176 179 177 168 158 154 151 148 148 151 154 152 155 161 162 159 152 142 133 127 121 123 124 134 143 143 141 138 131 134 144 146 142 143 153 159 154 152 160 167 168 156 144 137 120 107 110 104 93 97 104 100 93 91 106 126 132 140 157 175 194 207 209 208 209 214 216 210 203 205 219 225 219 208 195 193 200 202 197 191 186 184 179 170 165 168 171 167 -9999 
-9999 178 174 176 184 193 198 199 201 206 207 207 207 206 204 201 200 201 203 198 193 193 192 193 192 189 184 176 174 176 180 189 193 195 197 190 182 179 179 177 176 177 172 171 168 161 162 164 163 164 170 176 178 178 178 177 175 178 183 186 189 188 185 186 190 194 198 200 203 203 203 203 204 203 203 203 204 205 203 200 197 197 194 191 189 187 183 179 177 179 183 189 194 194 190 182 178 184 190 190 187 188 193 199 200 197 195 194 198 200 197 192 190 189 188 186 183 183 188 191 185 176 176 182 186 184 179 179 182 183 177 169 166 167 166 160 147 135 134 135 133 126 118 113 112 116 122 121 124 126 123 128 139 155 168 176 184 196 204 211 216 216 218 220 216 211 209 205 199 194 192 191 186 178 158 139 131 122 122 132 141 146 152 160 159 152 153 162 176 181 150 82 57 62 76 125 180 193 173 166 177 187 189 187 184 183 178 170 164 160 166 181 187 188 191 199 204 202 197 193 189 184 180 179 175 172 172 175 177 177 175 176 176 174 171 169 175 177 167 168 173 165 155 161 174 180 185 190 189 182 184 183 172 166 168 169 165 149 130 122 123 124 131 144 148 152 157 162 171 181 186 192 199 195 186 178 171 176 185 187 182 173 163 149 132 112 92 91 102 110 108 107 109 116 127 131 133 141 150 148 146 149 152 160 165 170 177 182 176 169 169 170 170 167 166 172 174 173 166 148 136 138 147 157 158 155 150 143 131 123 123 132 135 131 132 127 128 148 163 163 155 157 168 173 168 165 160 153 152 152 149 139 120 109 112 107 100 108 115 105 95 100 115 127 130 145 168 178 182 189 199 203 202 210 216 209 200 199 206 212 210 200 192 189 193 198 194 188 185 185 181 172 164 161 159 166 -9999 
-9999 179 180 185 188 190 190 191 196 202 202 199 198 199 201 201 199 199 199 195 196 197 194 194 191 187 182 177 178 180 184 194 196 193 189 181 176 174 173 170 167 166 162 159 154 150 150 153 156 160 168 175 176 175 177 178 177 178 182 186 189 187 184 186 191 192 193 199 202 201 200 201 204 206 208 209 209 206 205 204 200 196 192 187 185 183 179 176 178 181 186 190 191 191 188 182 184 190 190 187 186 190 198 201 198 195 195 194 196 198 194 191 190 189 188 187 185 187 189 186 177 172 176 182 184 182 180 185 191 186 172 162 158 157 154 148 140 137 138 135 130 122 117 118 119 122 126 122 121 124 127 137 156 169 172 181 194 207 214 215 216 220 223 220 215 213 209 203 196 190 185 181 178 173 160 150 145 131 124 129 134 138 148 156 146 137 148 170 186 182 135 76 66 69 88 128 151 173 182 183 186 186 184 184 182 182 179 169 163 160 166 173 176 183 185 182 181 182 183 183 182 179 175 170 164 163 162 165 169 168 169 175 176 172 170 170 173 178 182 183 174 163 165 179 190 188 181 181 179 181 186 180 172 174 185 193 185 169 159 150 143 144 152 156 150 149 151 154 159 162 168 185 203 203 187 171 171 180 187 186 176 166 159 152 139 118 109 120 124 117 107 104 109 118 126 132 137 145 147 145 148 154 156 158 162 169 178 184 179 165 158 164 169 171 173 173 166 155 145 135 133 133 135 140 140 145 147 135 122 120 121 126 136 148 150 134 133 147 152 152 155 159 151 145 149 150 147 142 145 148 141 131 118 108 108 106 99 103 106 89 85 95 99 106 125 158 181 181 176 175 179 186 195 201 202 205 202 199 204 205 203 199 192 184 180 178 175 173 172 170 166 159 154 151 150 161 -9999 
-9999 189 198 201 198 191 187 187 192 196 196 196 198 200 201 200 199 200 200 200 202 198 192 192 191 188 187 186 188 188 190 195 193 185 179 173 170 171 172 166 159 157 155 153 150 147 147 150 153 157 165 170 170 169 171 172 173 178 184 187 185 180 178 185 191 190 191 194 197 197 199 201 204 208 209 207 204 198 195 193 190 190 190 187 184 183 180 182 186 188 191 190 187 188 187 185 190 194 192 189 191 196 200 199 198 200 200 198 198 195 190 189 188 186 186 186 186 188 187 183 177 176 178 181 180 177 179 186 186 176 164 162 164 159 152 147 143 141 138 131 126 124 129 134 130 127 124 115 112 118 126 137 157 165 169 187 202 215 222 223 224 225 224 223 223 221 215 209 201 191 181 175 172 170 168 164 154 137 129 133 128 128 145 153 142 144 164 180 186 180 143 97 81 80 97 115 127 163 188 193 190 183 177 176 176 176 172 166 164 167 176 183 190 195 195 187 184 189 195 198 197 188 176 166 162 162 159 167 173 172 175 179 175 167 162 160 163 171 178 180 171 164 169 178 180 174 169 172 175 182 184 176 170 168 176 184 175 164 169 165 163 172 173 160 143 140 144 149 151 155 163 175 190 198 193 180 172 173 179 179 170 163 161 161 154 147 148 150 133 115 109 111 118 117 118 125 137 145 147 146 144 144 153 158 158 159 165 175 179 176 172 169 170 172 166 154 142 137 137 133 133 130 127 128 128 139 149 143 132 129 130 136 151 164 162 148 148 150 149 150 151 149 141 142 143 140 145 154 160 154 136 127 119 109 107 104 93 97 102 85 86 99 103 125 153 176 187 186 187 190 193 196 198 199 197 198 194 190 195 193 190 188 183 179 173 167 163 161 161 159 156 154 157 158 155 155 -9999 
-9999 187 191 193 195 194 191 189 192 193 194 198 204 207 206 204 206 207 204 202 199 193 189 192 192 189 189 191 191 191 192 194 187 177 171 169 170 174 175 165 157 153 150 148 147 146 146 148 150 153 159 163 162 163 168 171 174 179 184 186 181 176 179 187 192 194 192 192 194 197 198 198 200 203 201 197 195 190 187 186 186 189 189 186 184 184 183 187 191 193 195 191 186 184 182 185 191 195 195 195 198 200 199 197 199 202 201 199 197 193 190 188 186 184 184 186 189 191 189 183 179 180 184 184 179 176 179 178 172 166 162 167 170 165 161 156 146 136 128 124 124 129 138 141 131 124 121 114 111 119 127 136 152 160 173 194 207 216 222 226 225 223 224 225 223 219 215 212 205 196 189 186 181 174 170 166 156 143 137 132 120 127 150 154 148 160 175 178 179 177 157 112 81 79 95 113 139 179 196 195 191 183 175 172 174 173 169 168 170 181 197 209 214 210 205 202 198 193 190 190 185 176 169 168 170 169 170 178 180 179 181 181 172 162 159 162 167 168 170 172 172 170 170 171 172 171 169 174 181 183 178 167 165 166 166 158 142 140 150 146 146 158 156 143 137 152 162 160 154 158 163 165 169 183 196 199 191 181 177 176 173 165 156 147 141 141 139 129 114 110 111 113 119 122 129 137 139 141 149 153 147 147 159 170 176 179 182 181 178 178 179 174 172 170 160 148 143 149 156 147 130 115 111 114 117 128 140 145 151 151 140 146 151 147 140 147 159 161 162 166 164 166 175 173 157 148 156 164 167 158 141 138 129 121 122 113 107 114 119 100 101 121 135 160 175 180 182 185 195 202 201 198 194 192 196 197 187 174 169 170 174 176 176 175 172 164 153 153 162 164 160 153 150 152 155 153 -9999 
-9999 175 175 180 186 190 190 191 194 197 202 209 214 214 211 210 213 210 204 200 196 192 192 194 190 186 186 188 187 187 190 191 184 175 173 173 174 174 166 152 145 145 143 141 140 140 142 144 146 149 155 161 160 161 166 170 173 175 176 175 174 176 182 187 191 190 186 188 192 194 194 194 196 197 195 195 194 192 191 190 190 190 186 184 185 186 186 189 191 193 195 191 184 181 181 185 191 194 194 195 198 200 199 198 200 200 198 199 196 192 189 187 185 184 186 190 194 194 190 182 178 184 188 186 181 179 180 172 166 165 164 163 162 158 156 151 141 126 116 119 126 132 137 135 123 116 118 119 117 125 131 139 156 170 186 199 208 215 220 224 223 222 224 226 223 217 213 210 205 196 188 183 177 173 172 166 157 149 135 120 115 131 147 147 151 162 167 172 179 181 171 129 84 77 102 134 159 183 195 195 191 182 174 175 179 177 173 172 178 193 208 215 217 211 203 198 194 185 175 170 166 165 169 175 178 176 177 181 178 176 181 181 172 165 168 174 173 166 164 168 172 173 169 169 176 181 180 185 188 185 176 163 163 168 161 146 133 135 143 137 136 144 141 130 142 176 188 181 173 171 172 175 177 183 195 204 201 189 181 178 175 167 158 148 139 129 116 103 101 108 110 112 120 125 132 144 153 159 162 159 155 155 164 173 182 186 188 186 180 177 172 162 157 156 156 155 148 141 134 124 117 114 114 108 96 97 106 121 148 164 159 164 151 135 130 140 152 158 158 156 155 163 170 165 153 153 162 168 166 152 139 141 138 137 136 129 127 127 123 102 106 134 143 152 164 175 182 186 194 200 198 195 195 190 185 189 189 180 171 167 168 168 167 167 167 156 144 148 153 154 154 152 152 154 158 160 -9999 
-9999 172 172 178 184 186 189 195 201 205 208 212 216 216 215 214 211 206 202 200 197 195 195 193 188 186 187 186 184 186 188 187 182 178 177 178 174 167 154 138 135 135 135 134 136 136 136 140 144 149 154 159 159 159 162 163 164 162 158 160 165 171 178 182 184 181 181 186 189 191 193 194 198 199 196 195 195 198 197 194 192 188 184 185 186 185 186 188 191 194 194 188 182 183 188 191 192 190 188 190 194 197 198 199 201 198 196 197 194 188 184 183 183 185 190 195 197 194 189 181 181 187 186 181 178 174 172 170 168 168 163 153 147 146 146 142 135 122 113 123 134 134 131 126 115 105 108 116 121 132 138 145 161 176 193 207 216 219 218 219 221 225 227 226 221 215 210 208 202 192 181 174 168 167 167 161 158 150 124 109 117 131 136 140 147 151 156 169 182 186 179 141 89 79 111 146 158 162 172 187 189 183 181 187 187 176 167 168 179 193 203 207 209 207 201 195 193 189 182 177 174 173 172 174 175 175 176 175 170 170 176 174 163 161 168 169 163 160 168 176 179 173 167 169 174 177 175 179 185 186 178 162 163 169 159 150 149 150 150 145 143 144 133 123 148 180 188 186 189 189 186 189 192 192 197 202 200 189 179 174 171 166 162 157 142 118 95 83 96 112 115 122 126 123 128 143 159 166 157 146 147 153 162 166 167 168 172 175 172 169 166 162 159 151 147 147 141 134 126 117 117 119 115 101 89 94 108 122 142 164 174 180 169 157 153 149 148 152 149 138 130 134 139 142 143 150 154 153 150 143 138 141 144 145 143 137 128 120 117 103 111 130 131 141 160 179 192 201 207 208 206 201 199 193 182 178 179 183 179 169 166 166 163 160 159 158 162 163 152 140 136 138 145 154 162 161 -9999 
-9999 178 177 179 179 179 187 198 206 208 207 208 213 218 218 215 209 205 202 201 199 198 195 192 189 188 190 191 191 191 190 186 182 181 179 175 167 158 149 138 137 136 132 133 134 130 130 136 141 146 151 153 152 151 151 152 153 148 144 152 163 169 173 176 176 175 178 183 186 192 196 197 200 199 194 190 192 195 194 190 189 187 189 191 187 183 186 192 196 197 193 186 180 182 189 193 192 187 185 188 193 194 194 194 194 192 190 191 188 182 177 178 181 184 189 193 191 186 179 173 177 181 177 171 167 158 161 167 167 167 160 144 136 138 142 139 133 125 120 135 142 132 126 121 109 98 105 118 124 130 134 145 162 180 200 216 223 224 222 222 227 231 229 223 217 211 209 207 200 191 182 177 174 172 169 164 167 158 125 113 126 132 133 138 142 141 152 170 182 182 174 143 95 86 119 150 152 140 152 185 193 193 198 203 194 175 166 172 186 196 201 203 203 203 202 199 198 193 184 176 172 169 167 169 171 173 174 171 168 171 175 167 156 159 165 159 151 155 171 181 178 169 164 168 172 173 171 177 185 183 173 160 159 160 150 144 149 151 152 151 147 140 127 125 151 167 171 178 190 199 198 195 193 190 191 195 197 191 182 176 168 159 154 142 116 92 82 89 112 124 124 128 127 131 143 149 150 149 136 130 138 147 161 170 170 169 172 169 164 164 160 161 165 157 147 141 136 136 136 134 128 120 113 103 101 115 132 143 153 160 160 163 171 172 168 156 144 143 143 137 137 143 142 137 139 146 145 145 147 144 146 154 156 147 136 125 114 109 110 106 109 115 126 150 174 190 199 205 207 206 206 203 201 204 196 181 169 168 169 167 165 166 168 163 157 158 163 159 147 139 135 129 133 145 153 150 -9999 
-9999 185 185 187 186 186 193 201 206 207 205 206 210 213 213 213 210 207 203 200 198 196 194 194 191 189 192 194 196 195 188 181 179 180 175 166 155 146 142 136 137 134 129 132 130 129 136 139 135 137 143 148 151 149 147 153 158 151 146 158 166 169 172 173 175 177 179 182 187 193 195 197 200 197 191 188 189 188 183 179 181 187 193 192 186 186 191 195 196 194 189 183 178 180 186 189 188 186 185 188 193 194 192 190 187 184 182 182 179 172 171 178 181 180 180 181 176 171 167 164 169 174 170 164 157 151 161 169 167 165 158 143 139 149 155 148 140 132 131 144 140 125 116 110 103 101 114 122 124 123 129 150 173 193 206 215 222 227 229 230 230 230 225 220 216 212 211 207 199 193 188 183 183 183 178 174 179 169 137 123 133 132 127 133 133 135 152 168 175 176 170 144 105 100 126 148 146 130 139 172 188 194 202 203 188 173 173 188 202 207 209 208 205 205 204 201 196 188 180 175 172 170 171 172 170 170 168 165 169 177 177 167 160 167 170 157 146 150 163 167 163 162 163 169 174 178 179 182 181 172 162 153 149 147 142 140 145 142 140 139 129 121 124 136 158 164 167 175 187 196 199 197 191 185 186 192 197 194 181 161 145 138 133 115 93 88 98 120 133 126 120 120 125 136 144 140 140 140 132 139 150 155 163 168 172 176 177 169 164 165 163 165 162 148 143 142 141 143 142 136 125 122 124 121 125 136 147 152 150 141 133 135 152 161 158 147 138 141 150 153 160 169 164 153 153 156 156 159 157 151 150 153 149 134 123 118 111 107 108 107 104 110 136 164 181 192 201 209 210 202 197 196 194 198 205 198 178 162 151 153 159 154 151 156 158 153 142 130 126 129 128 131 140 139 134 131 -9999 
-9999 194 199 202 204 207 208 206 205 206 205 204 199 197 206 211 209 208 204 198 193 193 195 194 190 188 189 189 188 184 174 169 171 172 165 152 140 131 129 125 129 127 126 134 135 144 151 146 140 142 146 152 153 146 145 154 156 146 150 163 167 170 174 175 175 177 178 183 188 192 193 194 196 197 196 196 193 187 179 174 177 181 183 182 182 187 191 193 192 187 181 176 174 177 183 185 185 185 185 188 192 195 195 191 185 178 176 171 163 160 165 175 177 173 173 173 169 168 168 165 167 167 163 160 156 157 168 174 170 165 158 148 149 163 166 153 139 128 131 138 128 116 108 105 107 112 118 120 126 128 145 173 193 204 206 210 219 227 230 231 228 224 221 219 219 217 213 205 199 194 188 181 180 179 174 173 176 164 139 126 134 134 131 133 126 129 146 160 170 178 181 161 128 118 129 140 140 130 130 148 175 191 202 198 179 168 175 195 207 212 214 212 209 211 209 203 196 190 186 184 184 182 181 177 173 170 164 163 172 179 176 169 164 170 168 152 144 150 158 156 154 160 164 168 170 168 167 165 160 154 148 142 130 123 123 129 137 135 134 130 114 108 120 144 170 175 174 176 182 192 198 195 184 183 192 201 205 199 178 149 135 133 127 115 111 120 131 146 146 133 130 129 135 141 139 141 152 157 158 169 174 174 176 175 167 162 161 158 157 157 160 161 146 128 130 139 144 146 140 129 123 126 127 127 136 148 155 153 143 133 132 137 145 142 139 143 151 157 160 166 171 166 158 155 158 161 165 166 160 152 146 143 133 117 115 118 109 105 107 112 108 117 148 169 182 194 205 211 213 207 201 199 192 186 192 195 182 163 151 149 150 145 139 143 149 148 139 129 129 126 118 120 122 121 121 118 -9999 
-9999 202 208 213 216 215 209 202 199 199 201 207 209 210 213 214 211 211 207 199 193 196 196 192 188 186 185 185 180 167 155 155 159 159 153 144 133 124 120 117 120 123 126 135 139 143 141 139 143 151 154 154 148 138 137 145 142 141 160 173 173 173 176 178 175 175 180 187 190 189 184 182 185 190 196 198 195 190 181 174 173 178 182 183 183 184 187 188 183 176 171 169 170 175 181 183 183 184 185 186 187 188 187 183 176 172 167 158 152 154 160 165 165 167 173 173 169 169 169 164 163 161 159 161 163 165 170 171 163 153 144 137 143 157 154 136 121 116 123 123 115 113 112 114 119 120 117 118 123 136 164 189 200 204 206 212 221 224 224 224 223 223 222 220 217 213 209 205 202 198 189 180 176 174 170 171 170 159 144 135 139 143 140 132 127 136 148 160 172 183 191 184 148 124 124 132 140 138 128 121 160 202 204 185 165 164 179 203 213 213 213 212 213 216 212 206 200 198 196 192 189 187 182 175 175 175 171 172 176 173 170 171 171 172 164 149 147 155 158 154 153 159 167 175 175 163 154 155 158 155 149 138 121 114 117 120 120 120 131 133 121 120 136 164 181 181 181 189 196 201 205 202 191 189 193 200 205 198 180 167 166 164 156 147 147 153 154 154 148 141 149 151 148 142 141 155 166 168 169 176 181 180 178 176 169 161 155 150 145 142 142 133 119 119 131 130 116 111 117 127 138 140 137 133 139 146 148 147 148 155 167 173 164 153 152 160 168 170 157 151 152 144 139 145 154 155 150 149 149 142 137 132 120 107 112 118 104 100 105 113 112 123 150 170 185 201 210 209 206 205 200 196 198 199 190 176 164 151 148 146 136 128 132 137 137 133 129 139 151 142 126 118 113 120 127 115 -9999 
-9999 196 201 205 205 203 205 209 207 197 197 208 219 223 224 222 218 216 213 206 201 199 193 189 189 187 184 180 166 149 139 142 148 145 141 135 123 113 113 113 113 117 122 130 133 128 122 120 125 134 137 139 138 133 138 147 149 159 175 181 181 175 171 173 176 180 188 192 190 185 177 175 179 185 189 190 188 185 178 171 173 180 187 189 188 185 186 183 177 172 166 166 170 176 178 179 181 182 183 184 185 184 178 170 167 169 164 153 149 151 152 152 156 164 171 169 163 161 159 157 159 164 169 172 169 167 168 164 151 139 127 122 129 134 128 117 112 116 120 114 111 117 122 122 123 119 115 118 126 147 173 189 197 202 208 212 213 210 211 218 224 224 221 216 210 205 203 204 205 199 187 179 176 174 176 177 171 162 152 144 147 152 139 125 134 149 157 168 180 186 189 187 149 117 121 134 152 151 128 103 139 188 169 150 150 163 184 205 209 206 206 209 215 218 213 207 205 207 206 201 194 193 192 188 188 186 184 185 183 178 178 180 178 174 163 149 145 147 145 147 152 159 168 176 178 173 163 168 178 174 161 138 121 125 134 133 126 127 140 143 134 143 170 194 200 200 201 208 213 209 207 209 208 205 197 194 196 187 174 173 182 190 185 167 160 159 152 146 144 139 139 133 121 117 129 149 162 163 155 156 166 172 172 173 175 176 172 160 147 140 136 129 129 137 143 132 114 121 134 139 143 149 147 140 140 141 144 152 158 169 185 186 179 181 163 133 125 132 135 137 137 134 138 143 148 151 152 150 141 129 124 120 117 113 122 125 105 102 110 110 108 123 151 173 184 191 197 200 197 192 190 190 192 199 195 176 166 159 151 143 137 131 127 129 134 126 116 125 133 131 135 138 130 124 116 108 -9999 
-9999 193 196 196 194 198 211 220 219 210 211 213 212 210 213 219 220 217 213 208 205 200 192 186 183 180 176 166 151 143 140 144 138 126 128 124 113 107 115 120 118 119 122 127 127 120 121 120 121 123 126 134 135 136 146 157 162 166 168 170 171 163 158 161 164 172 183 185 183 183 183 188 192 189 185 181 178 174 168 165 168 174 181 182 178 175 175 174 172 170 168 171 176 177 177 180 181 179 181 183 178 173 170 166 164 167 163 153 152 151 150 151 156 162 163 158 155 158 158 156 157 162 165 162 157 160 165 157 146 138 131 131 134 130 123 119 119 125 123 114 118 124 122 113 107 105 108 121 139 158 174 186 197 207 215 214 210 206 209 216 223 223 218 212 207 204 203 201 198 189 175 171 169 170 177 177 170 165 162 155 155 156 140 131 144 153 157 169 181 185 181 173 146 120 128 148 168 155 120 95 111 155 152 150 159 174 191 200 199 197 200 203 208 209 203 198 204 211 207 200 195 195 197 197 196 193 191 193 193 193 194 189 176 163 151 142 141 142 144 152 160 165 167 169 173 173 170 171 169 166 156 135 125 131 131 129 131 133 139 138 136 155 188 210 219 226 225 223 219 210 205 202 207 212 203 187 175 168 165 166 178 185 174 152 145 141 129 120 113 106 108 105 96 105 128 146 156 159 159 164 167 166 168 175 180 179 170 154 145 143 138 140 149 153 149 141 146 166 168 145 130 125 118 118 131 144 152 156 154 155 161 163 167 167 136 108 110 119 131 148 151 147 153 152 148 148 152 152 141 129 123 122 123 125 125 115 97 101 112 107 110 129 155 178 187 189 187 189 195 196 194 192 183 179 174 172 177 171 155 136 132 135 135 138 139 130 122 119 106 103 115 122 120 114 108 109 -9999 
-9999 193 192 195 198 202 207 210 213 217 223 221 219 217 215 213 213 212 211 208 204 197 190 185 179 170 161 151 143 144 146 145 129 122 127 117 109 110 118 120 112 120 126 126 121 112 120 126 131 138 147 153 147 146 156 163 166 166 164 165 160 151 153 158 160 162 168 170 173 179 184 190 190 183 176 174 170 163 156 157 161 169 172 161 151 151 157 161 161 160 161 167 174 175 176 180 179 177 178 174 164 163 165 162 159 158 150 145 149 152 155 156 157 160 157 151 154 160 159 153 152 152 149 145 147 156 161 153 145 143 145 151 152 146 137 132 129 128 120 117 126 126 115 97 91 100 111 127 141 158 180 193 202 213 219 215 214 217 218 214 211 212 211 211 210 209 207 201 194 183 170 170 169 168 173 173 168 166 166 162 161 161 151 144 148 154 158 163 170 174 170 165 155 140 144 160 165 145 111 93 93 135 175 168 171 188 199 200 196 195 199 201 198 192 186 190 202 204 197 192 190 192 194 191 189 189 187 186 189 192 192 184 165 149 140 136 139 142 146 153 158 160 163 167 170 169 166 154 136 132 130 121 122 127 123 127 134 134 135 132 137 162 194 213 224 233 232 230 221 208 199 197 199 197 187 173 164 170 174 172 170 157 143 132 128 121 106 99 93 94 108 109 107 127 150 158 159 164 175 183 176 163 160 170 176 164 140 125 134 143 142 143 142 138 138 144 155 160 151 135 124 110 97 105 131 154 162 158 152 151 148 142 142 139 133 142 149 139 140 154 158 158 162 159 156 150 143 141 140 136 134 136 136 131 114 100 97 104 107 101 110 128 152 177 188 194 196 197 200 197 191 186 180 172 163 164 167 157 146 141 135 127 126 131 128 120 118 115 104 99 105 107 105 110 118 124 -9999 
-9999 197 192 193 194 196 199 202 207 215 220 219 220 223 220 211 206 207 210 206 199 191 185 181 177 166 152 139 133 137 139 131 118 123 122 107 99 97 97 95 99 120 127 126 123 114 122 126 136 152 165 169 163 162 168 169 170 169 166 162 155 155 163 170 174 174 174 173 172 173 177 178 174 166 162 165 163 157 155 161 163 161 152 138 133 138 147 154 153 150 151 158 165 168 171 173 173 173 175 169 162 162 160 154 150 148 141 139 145 152 158 159 159 159 156 152 154 155 149 145 147 148 147 147 151 156 157 147 138 142 151 157 156 148 140 139 133 122 114 116 121 113 96 80 86 103 119 129 141 165 192 202 206 211 213 210 208 211 216 216 212 208 209 212 212 211 209 204 198 186 173 176 170 162 165 165 164 163 160 160 161 164 163 156 150 154 157 157 163 172 173 171 168 162 158 160 156 144 114 94 93 131 180 175 179 194 200 199 199 201 202 201 197 191 191 196 199 193 186 183 182 186 187 183 183 182 179 176 178 179 178 171 156 143 138 137 138 137 140 147 153 158 164 170 171 167 157 139 121 117 116 112 116 125 132 144 150 149 147 144 153 176 197 204 212 225 226 222 210 197 187 184 179 169 164 167 173 182 187 180 165 145 137 129 116 109 101 104 105 116 130 119 117 144 160 160 164 176 183 180 173 163 162 166 158 132 114 114 122 132 142 145 138 130 134 139 139 136 134 134 135 134 130 140 156 164 165 164 160 155 143 126 124 136 150 160 155 146 146 147 150 158 156 149 148 149 148 146 148 148 145 144 142 135 118 114 115 107 102 99 107 128 159 183 191 195 196 194 191 188 184 178 173 167 162 166 164 150 145 149 151 143 134 132 126 111 104 108 110 110 106 98 99 109 116 118 -9999 
-9999 203 198 194 195 200 204 205 206 209 212 213 214 215 212 209 207 208 208 201 193 186 178 170 165 158 146 136 130 131 129 118 110 113 110 102 99 99 95 97 112 128 131 127 123 118 125 135 150 165 171 172 170 171 175 173 169 163 156 149 147 154 163 171 178 184 187 183 174 168 170 172 164 152 154 162 160 158 162 164 158 147 140 136 136 140 145 147 144 148 158 164 166 165 166 169 170 171 171 164 158 154 151 147 142 137 136 142 152 157 159 159 158 153 148 145 146 145 141 139 142 145 145 146 147 149 146 132 125 139 151 150 144 139 136 137 128 117 116 118 113 97 79 73 90 113 129 135 151 176 192 199 203 205 205 205 204 206 209 214 216 214 213 210 204 203 203 200 196 185 176 178 168 158 159 162 167 167 167 170 168 172 181 169 153 152 152 150 154 170 182 186 183 173 161 157 161 156 122 100 103 129 167 186 196 200 202 203 208 208 205 200 195 192 193 193 189 180 171 166 168 172 171 171 175 174 174 174 175 174 172 169 155 143 138 140 140 138 145 156 166 176 182 183 180 173 161 150 141 131 121 112 113 125 137 146 150 153 152 159 178 195 201 199 198 202 203 199 194 189 182 175 167 162 166 172 176 178 182 181 175 163 140 102 77 83 99 109 111 122 128 114 118 146 155 156 166 173 170 165 163 162 165 161 142 119 123 131 129 128 133 139 138 140 142 134 124 127 134 133 134 142 151 166 178 176 165 162 157 142 126 116 121 136 151 158 159 161 155 139 131 138 143 144 145 146 148 150 155 156 147 136 129 124 117 119 117 102 101 103 116 148 179 193 197 198 196 192 188 188 188 181 168 153 145 151 150 139 137 140 148 154 151 144 132 119 115 119 120 110 95 88 97 107 108 110 -9999 
-9999 207 207 206 207 208 206 205 206 206 207 209 212 215 216 215 213 211 207 198 192 184 171 160 155 148 139 135 130 125 119 109 104 106 106 103 104 107 107 114 124 125 128 124 119 120 127 147 168 177 177 174 167 167 169 167 164 162 159 155 152 151 152 159 168 174 177 176 171 171 171 164 150 145 158 166 157 150 153 153 150 145 144 142 143 148 151 145 139 147 160 165 165 165 166 168 168 166 161 153 149 152 153 148 139 132 133 142 150 150 148 150 150 147 139 136 140 141 138 135 137 141 141 140 139 138 133 123 126 143 148 141 138 136 134 132 127 125 126 126 116 99 87 93 114 130 135 139 156 177 185 188 194 198 200 201 201 202 203 207 212 215 212 204 198 196 193 189 185 179 174 173 163 156 160 166 171 171 173 175 172 177 184 170 153 146 141 137 145 169 186 193 190 176 161 162 174 170 137 113 110 121 145 178 202 197 191 196 204 204 201 195 188 185 188 186 181 173 162 159 162 164 161 164 167 168 171 173 175 173 171 165 150 137 134 137 136 136 148 164 179 189 193 193 189 181 171 164 158 147 127 106 109 124 131 131 135 143 151 171 196 208 210 206 197 188 183 186 193 192 185 179 178 180 182 179 174 169 166 168 172 163 130 90 77 93 103 102 104 110 111 106 119 141 149 156 165 164 157 151 150 155 159 152 134 126 141 151 152 144 132 131 139 147 142 129 131 142 142 133 126 127 142 166 178 174 164 159 150 134 127 130 139 144 150 165 177 182 174 152 127 117 124 137 148 147 145 148 151 144 131 126 126 118 105 104 103 99 106 110 128 161 185 195 197 197 197 196 186 178 177 177 170 157 146 138 132 133 138 141 145 148 147 143 136 127 126 125 118 105 97 103 107 106 110 116 -9999 
-9999 212 215 215 214 212 209 207 207 207 207 207 209 211 212 213 213 210 204 195 192 183 166 158 150 141 132 128 123 118 112 103 97 95 96 99 103 103 101 106 112 118 125 120 127 140 149 165 177 177 171 167 162 163 167 166 162 160 160 165 166 161 158 164 169 166 164 164 166 171 168 156 145 148 161 160 142 133 137 138 141 140 136 133 136 142 141 138 138 141 147 149 154 157 158 159 157 156 151 144 144 148 150 149 146 141 139 143 144 140 141 146 147 144 139 142 147 144 138 133 135 138 137 136 135 133 132 134 141 146 141 138 139 136 132 130 130 130 129 130 121 108 107 117 129 131 130 138 158 173 175 177 186 195 200 200 198 197 199 202 205 205 199 197 197 195 189 181 174 171 166 160 152 150 159 166 167 163 162 161 160 164 167 166 156 138 133 134 151 175 187 195 194 181 169 174 182 178 150 121 113 112 121 155 186 181 169 173 184 189 190 188 187 190 194 189 180 170 164 166 167 168 170 173 173 173 174 173 170 165 158 147 132 122 123 129 130 132 143 160 175 183 190 196 195 184 171 163 155 147 138 127 130 134 128 124 128 139 158 188 207 214 216 214 207 194 184 183 190 194 191 186 186 189 190 185 173 161 150 143 143 134 117 115 130 140 125 108 102 101 103 111 124 131 129 132 144 153 150 141 142 147 142 132 126 131 143 152 158 155 145 136 131 127 123 123 135 143 140 133 123 124 144 163 167 158 148 143 136 132 142 153 156 149 145 150 160 173 173 157 136 122 118 119 126 128 134 142 142 131 126 130 131 116 102 100 99 106 115 118 139 166 180 188 195 200 200 192 178 170 164 157 158 160 151 134 131 142 149 153 148 138 134 137 133 122 113 103 102 101 110 126 127 122 127 133 -9999 
-9999 206 209 213 213 212 210 208 206 205 207 209 207 204 202 201 201 200 198 194 190 175 160 153 140 130 125 123 118 111 105 99 94 92 95 103 104 100 100 108 117 132 136 134 146 156 162 171 176 170 161 161 161 164 171 169 162 157 158 164 166 164 168 171 170 165 158 152 153 156 157 154 153 158 163 153 135 133 137 133 129 122 115 116 123 123 115 122 135 139 143 143 143 139 137 142 149 149 142 137 136 139 143 146 148 148 154 156 145 132 135 145 148 146 148 155 155 147 141 137 137 140 140 140 141 144 150 154 153 149 143 140 138 132 129 127 124 122 120 117 109 107 113 118 120 124 131 145 161 172 176 182 192 201 205 205 204 204 205 203 201 196 191 194 195 189 183 177 171 167 159 152 149 151 158 158 157 153 150 149 152 158 163 167 159 138 138 147 160 175 184 195 196 186 178 183 183 174 153 130 122 114 109 138 175 176 170 166 168 174 178 181 188 194 191 181 171 165 165 168 171 176 182 186 190 188 182 171 160 153 145 133 119 110 112 117 117 121 139 158 168 175 189 201 197 180 167 159 150 147 157 165 164 150 134 132 142 157 177 197 207 215 220 220 214 202 184 172 173 178 181 183 184 188 193 191 178 163 146 131 119 105 107 136 157 156 143 133 127 122 124 130 129 121 117 123 138 152 148 142 147 142 129 121 124 127 133 141 148 148 146 143 130 118 115 123 134 134 126 122 118 133 154 155 146 138 134 132 126 128 145 156 152 142 140 143 151 162 160 153 148 141 128 115 114 121 128 133 134 135 143 142 129 113 108 113 112 113 112 114 138 164 177 183 189 195 193 182 177 176 162 150 152 154 150 145 151 157 160 164 154 142 133 127 122 115 103 92 95 99 110 122 129 136 148 164 -9999 
-9999 207 208 211 213 213 210 207 204 203 207 211 207 199 194 192 192 192 194 192 181 165 153 141 128 124 125 125 118 108 101 94 92 98 109 118 116 111 117 131 141 150 146 147 153 149 153 163 171 173 172 174 170 170 170 164 161 162 162 161 160 164 169 165 158 152 147 142 144 150 155 159 163 168 169 160 146 141 138 126 112 103 101 105 111 109 107 120 130 135 141 141 137 131 130 141 150 142 132 126 127 135 143 146 143 143 157 161 144 134 140 148 150 153 157 156 150 146 142 141 142 146 150 150 153 160 165 164 158 152 150 146 139 132 128 124 117 110 104 97 93 97 101 101 103 116 131 147 165 180 193 202 207 211 213 213 215 217 215 207 198 194 196 200 194 185 181 178 173 168 159 154 153 153 153 150 149 153 153 154 160 166 168 167 160 149 150 155 162 171 179 193 194 183 180 183 178 168 157 145 132 123 109 122 156 168 170 162 160 164 167 173 181 184 179 171 164 164 169 174 174 176 182 187 189 186 179 166 158 154 145 131 118 107 107 108 104 118 151 170 171 176 189 198 191 169 158 152 140 141 162 173 168 154 145 154 166 174 182 187 190 200 210 214 215 211 201 186 172 165 167 172 174 176 180 183 182 173 155 133 114 104 115 141 150 144 141 141 146 144 142 140 128 122 133 153 167 166 153 150 149 139 131 129 130 126 127 130 131 130 132 138 135 129 127 131 138 139 132 123 126 146 156 149 139 132 130 130 128 135 147 151 145 142 148 155 162 167 169 166 162 157 147 140 139 137 135 137 141 145 144 131 123 122 120 122 119 114 110 119 149 173 184 190 188 186 181 174 174 170 156 151 152 152 155 164 171 165 163 167 160 149 139 129 117 105 98 102 108 107 113 123 137 158 179 191 -9999 
-9999 212 210 209 211 212 210 208 208 212 216 212 200 193 191 191 191 192 193 189 172 158 146 132 125 127 129 127 115 104 98 92 95 108 122 131 130 130 140 152 154 155 151 154 156 150 156 165 172 177 182 184 179 176 172 166 168 167 161 158 160 163 161 154 152 152 148 148 154 159 159 158 162 169 168 159 141 127 118 105 96 93 92 95 101 104 111 128 134 134 139 140 139 141 149 159 152 133 123 120 128 143 152 151 146 140 151 157 149 158 163 156 149 150 149 143 140 142 143 145 148 154 157 156 158 160 162 162 159 156 155 148 139 133 130 121 105 97 95 93 93 95 97 96 101 117 131 147 169 187 202 210 211 213 219 224 225 224 220 210 199 196 199 198 191 186 185 183 177 166 157 150 146 146 146 145 147 151 153 161 172 178 177 173 172 174 169 160 166 170 175 192 190 178 175 175 170 166 162 151 134 124 110 110 132 150 162 161 153 153 162 173 179 176 171 169 169 171 179 181 178 178 180 185 185 181 175 169 169 168 156 141 127 113 112 112 113 134 157 166 171 178 182 185 179 160 150 137 122 129 140 140 136 130 143 170 180 177 179 177 177 181 191 204 214 217 215 211 201 192 187 183 178 174 171 173 179 179 165 144 130 132 143 149 139 127 122 124 124 117 119 124 126 139 160 178 179 164 149 146 141 136 138 144 144 136 136 137 132 124 124 133 135 136 142 143 142 150 148 134 140 151 148 139 132 129 132 136 131 126 129 135 138 146 152 153 151 152 155 159 159 152 156 165 165 156 154 158 160 148 131 119 122 125 117 118 118 114 116 136 169 189 194 194 191 185 181 177 168 152 141 144 144 144 149 156 156 151 150 151 142 127 116 113 103 88 88 99 112 122 137 160 182 200 210 211 -9999 
-9999 209 211 212 214 216 216 212 211 215 212 198 190 190 192 194 194 194 193 184 163 148 137 128 129 131 129 122 111 103 97 98 109 123 136 142 141 145 159 169 163 157 157 161 163 165 175 181 181 181 182 180 175 177 175 169 168 166 161 165 166 159 145 138 146 154 155 159 166 169 167 158 153 155 150 136 112 93 86 85 90 93 89 85 88 96 105 122 134 138 141 144 146 155 163 162 146 128 121 122 139 154 154 146 140 135 144 150 153 161 163 159 158 158 148 140 141 144 146 152 155 159 160 157 154 154 157 161 159 155 153 147 140 138 133 118 101 94 94 99 101 101 102 101 112 129 142 160 179 193 202 209 213 215 218 220 218 214 212 209 206 204 200 193 188 184 182 178 169 158 151 145 142 143 144 145 141 138 146 164 177 182 183 180 185 199 189 164 166 166 168 185 184 173 170 168 165 163 160 147 132 126 118 115 122 130 147 173 174 170 175 181 182 177 173 171 171 170 175 180 183 182 183 189 195 195 187 179 178 174 164 151 133 116 117 125 135 153 161 162 166 169 172 173 167 145 131 120 121 137 137 128 121 116 137 165 177 177 182 180 184 193 199 203 202 202 204 212 220 218 211 204 196 183 176 177 178 167 145 136 146 159 162 149 130 108 93 90 83 80 89 102 123 151 172 172 160 152 152 152 144 140 146 155 157 152 146 144 136 124 125 135 139 147 153 149 150 150 139 130 146 151 145 140 137 137 140 140 129 117 122 126 133 142 147 146 138 135 133 138 146 150 156 155 159 169 165 152 141 134 126 121 121 113 101 101 101 102 121 152 176 184 179 178 175 166 162 166 160 146 143 147 142 147 148 138 140 147 143 128 114 112 107 101 90 80 94 112 128 146 171 196 211 214 219 229 -9999 
-9999 210 212 216 220 218 213 208 206 201 191 185 189 190 191 193 195 194 189 173 152 140 137 136 137 134 127 119 111 104 100 105 117 134 151 154 152 160 174 175 162 156 161 166 168 175 184 189 190 188 183 172 170 179 181 181 182 177 177 184 180 163 147 145 149 149 152 160 164 163 160 151 147 143 131 119 96 81 79 83 95 99 93 86 86 91 101 121 133 137 141 142 143 152 157 143 128 126 126 133 147 150 141 133 129 133 142 155 154 151 156 159 165 167 158 154 157 157 159 160 158 155 154 151 150 150 152 152 142 135 137 137 140 141 133 117 100 97 105 112 109 108 108 109 124 135 149 174 193 200 202 207 212 212 208 203 203 205 207 211 212 207 201 194 188 182 176 170 161 153 149 146 145 143 141 138 130 131 148 164 173 178 179 178 183 190 177 154 153 152 154 168 172 166 165 165 162 158 152 140 133 133 130 124 113 109 125 165 188 183 181 185 187 186 182 180 175 169 171 176 182 185 191 189 187 187 180 173 169 164 157 143 122 110 119 129 136 150 162 169 168 170 175 172 159 136 125 124 130 140 138 137 131 119 125 140 157 175 181 184 190 196 198 193 183 176 175 188 198 198 200 204 202 193 189 186 175 150 129 140 162 169 156 133 116 97 80 77 77 83 99 118 140 157 160 154 148 153 157 152 148 153 159 154 153 155 148 140 129 126 133 135 135 137 135 137 142 133 125 142 163 160 152 150 145 143 140 134 125 132 147 146 148 152 152 148 144 142 135 132 139 151 155 149 149 155 154 138 120 114 114 107 99 90 84 88 97 116 146 173 184 180 172 168 157 141 138 139 133 135 149 155 147 147 137 122 124 131 133 126 123 127 112 94 87 93 122 143 161 180 196 209 225 228 223 234 -9999 
-9999 214 213 215 216 209 202 202 202 195 189 191 192 190 189 190 192 191 180 161 148 143 144 143 137 131 124 118 111 108 106 111 127 148 159 159 160 169 172 162 151 155 166 171 176 184 186 186 186 185 181 174 176 184 189 194 196 193 191 192 182 166 156 157 155 146 147 155 156 149 142 141 149 147 134 118 95 84 83 91 108 111 102 98 101 107 122 140 146 143 142 139 138 140 134 117 111 119 128 141 148 141 131 125 131 141 149 158 149 145 152 151 156 158 157 160 165 167 168 163 155 151 150 148 149 150 151 142 129 129 131 126 127 128 118 105 96 103 116 120 121 125 124 123 133 140 158 181 193 198 199 202 204 203 199 201 208 210 207 208 206 203 198 193 188 181 174 168 160 152 149 147 143 140 136 131 129 137 153 160 162 162 160 160 163 165 157 149 144 139 145 159 165 162 162 162 159 152 144 136 137 143 140 121 97 92 108 145 178 185 187 188 187 189 187 183 178 174 180 186 188 189 192 188 181 171 156 152 149 144 135 120 105 105 111 110 116 133 153 167 173 176 178 172 156 141 137 133 130 127 122 120 114 107 117 139 162 180 179 186 191 185 181 181 180 175 175 177 172 170 180 188 192 197 202 196 179 153 148 164 171 163 142 118 105 90 82 87 93 107 129 149 168 175 166 158 161 163 155 143 144 151 148 142 141 138 136 136 131 136 142 136 130 124 126 138 145 139 143 159 169 165 165 164 154 149 147 138 135 150 168 166 161 161 160 154 152 149 141 140 142 145 152 160 156 148 145 140 126 108 95 88 87 86 88 104 131 158 176 189 198 198 195 179 153 137 136 126 115 124 140 144 139 138 128 117 120 123 123 122 122 115 95 92 103 120 142 155 180 207 215 213 226 237 230 230 -9999 
-9999 212 214 210 204 200 201 203 199 194 193 193 191 189 188 188 185 178 167 155 150 145 141 135 127 120 113 107 105 108 111 117 138 157 162 163 167 169 161 148 149 162 169 174 180 182 177 173 171 172 176 178 182 189 190 188 189 189 187 178 163 147 135 134 137 140 142 144 146 139 136 145 159 160 147 124 98 86 85 102 121 118 104 101 110 127 147 156 153 149 149 148 143 132 118 111 115 125 134 139 142 142 140 140 146 148 151 154 149 151 153 152 158 157 157 161 165 165 162 155 150 151 152 152 156 158 158 150 146 149 146 135 131 127 116 109 109 112 114 118 127 131 128 128 137 150 167 178 184 191 196 198 199 199 202 208 212 209 206 202 200 199 195 191 187 182 172 164 159 155 153 148 143 140 138 135 136 143 153 156 150 144 140 139 141 150 155 154 144 133 139 155 163 161 159 158 156 152 149 147 146 144 135 111 86 81 91 123 170 198 202 196 192 193 188 182 180 181 186 191 189 185 182 183 181 164 148 144 139 132 121 111 106 107 98 92 106 130 150 162 169 171 174 172 160 143 132 123 120 121 115 104 96 98 118 151 173 176 171 181 188 187 187 188 186 187 191 186 177 173 174 177 182 192 203 202 186 165 163 166 159 144 126 112 100 87 85 86 95 118 137 153 166 176 174 171 173 162 149 139 134 130 128 134 135 130 129 133 140 148 146 141 139 139 145 149 149 152 160 165 166 161 164 171 170 166 158 151 158 171 178 171 159 156 155 150 148 145 138 139 145 152 163 172 170 155 139 127 119 108 100 103 113 117 120 136 154 164 174 190 203 207 205 195 181 174 170 155 142 144 144 134 123 130 129 128 139 138 122 111 109 100 94 111 135 153 170 184 197 212 222 218 217 227 224 218 -9999 
-9999 207 210 205 199 197 199 197 191 189 190 187 184 185 185 179 168 159 154 150 147 139 136 131 122 111 102 99 101 108 115 121 140 160 166 166 168 167 159 149 156 168 172 177 177 175 172 170 173 177 183 185 192 197 192 187 184 181 177 167 153 139 128 127 132 139 141 140 141 140 149 159 162 156 140 121 102 91 87 99 115 109 95 96 112 136 161 166 159 157 157 153 140 128 124 125 128 134 136 130 131 140 148 154 153 149 154 157 159 166 166 165 165 160 159 162 162 159 152 149 152 154 156 161 165 167 164 159 159 159 155 150 145 135 124 122 114 106 108 115 121 116 115 124 138 158 170 176 185 197 205 205 205 207 211 211 206 205 205 201 197 195 193 187 181 175 164 163 165 160 156 152 149 148 145 141 142 149 155 153 145 137 133 131 131 133 134 136 135 128 137 155 161 156 155 156 155 154 157 155 145 134 124 107 87 77 78 111 168 195 201 203 205 203 192 184 185 186 187 186 183 180 177 177 170 157 151 149 145 139 132 128 123 111 94 97 120 140 149 154 160 162 166 164 153 136 120 109 108 111 107 100 98 107 129 160 174 173 165 170 182 190 192 187 182 186 189 186 187 184 179 180 181 185 190 187 169 154 154 152 145 132 113 101 90 80 82 89 114 140 151 159 166 169 169 172 169 148 132 129 131 134 131 128 128 133 135 132 136 143 141 132 132 137 141 138 137 150 164 169 168 158 157 160 160 160 156 155 165 174 175 168 161 155 148 143 140 135 131 137 151 167 173 178 181 169 153 138 125 121 128 136 141 143 146 152 152 155 172 193 203 206 207 205 206 210 206 194 183 176 161 137 125 127 126 132 141 137 128 123 121 112 116 137 163 187 206 215 216 218 223 221 218 220 215 212 -9999 
-9999 211 211 207 202 200 198 192 189 192 191 184 183 186 182 172 159 152 150 146 139 134 133 128 119 109 103 103 105 113 123 129 144 162 167 164 164 167 164 157 165 173 173 175 177 181 181 180 184 191 194 196 201 201 194 191 184 178 176 169 163 154 148 144 145 150 151 154 155 156 166 166 153 137 125 117 106 90 83 94 108 100 89 99 119 148 171 179 179 174 165 152 138 137 144 143 137 135 132 124 127 137 146 151 150 152 159 157 160 168 166 163 162 163 164 162 156 151 148 152 157 158 161 165 164 164 159 153 154 153 153 150 140 127 123 115 98 95 104 113 117 110 109 122 143 165 176 184 198 206 207 209 212 213 214 213 209 207 205 201 195 193 189 183 175 167 162 166 167 160 158 157 152 148 144 140 143 147 147 143 135 133 136 136 138 137 132 130 132 140 155 166 163 155 156 157 155 153 155 150 136 126 123 112 93 81 80 121 183 202 204 206 206 200 190 186 186 186 187 188 186 180 176 175 168 161 159 158 158 158 155 149 133 110 100 115 138 148 146 146 148 149 149 145 136 121 111 108 107 105 98 97 105 126 155 180 187 184 173 173 186 190 187 180 180 185 187 188 190 189 191 190 184 178 172 160 142 135 135 135 137 125 101 89 82 84 101 125 148 162 172 181 187 189 185 181 171 149 131 124 133 142 137 132 133 136 136 135 144 152 146 131 127 134 139 140 150 167 174 170 162 155 156 154 148 147 149 151 154 156 158 159 160 152 135 127 123 120 125 141 158 169 169 168 170 172 172 164 154 150 154 153 145 141 146 151 155 172 191 200 199 198 200 199 204 208 201 189 183 177 162 138 126 125 123 126 126 124 129 136 135 133 152 177 193 207 221 228 228 227 226 222 220 226 222 219 -9999 
-9999 211 208 206 206 205 200 195 196 195 191 190 191 188 178 168 162 160 156 147 140 138 129 123 118 111 109 110 112 124 137 142 151 164 164 158 162 168 164 159 167 176 177 178 182 184 180 179 186 193 197 200 200 196 192 190 185 181 180 175 169 161 154 145 154 161 163 170 172 169 167 159 148 140 134 128 112 93 94 111 117 101 98 118 141 168 182 185 185 180 168 155 145 142 142 140 138 138 136 133 138 147 154 155 156 161 166 163 164 167 162 160 167 175 174 164 154 150 152 156 157 158 161 161 156 148 137 135 141 143 146 144 135 126 124 109 91 90 101 110 111 106 111 132 155 169 179 192 205 206 205 210 216 218 216 213 211 211 209 204 197 193 189 183 176 171 169 168 166 162 159 156 146 140 138 138 141 138 134 130 124 132 142 146 151 152 149 148 153 166 173 173 163 159 164 163 160 157 159 153 138 129 126 115 102 91 86 126 190 210 210 202 192 186 183 184 185 186 189 190 187 181 176 173 171 169 167 166 167 167 160 150 126 105 106 123 133 138 141 140 138 138 138 134 129 120 117 119 116 109 101 102 115 139 163 182 191 190 182 183 190 188 185 188 193 192 190 194 193 191 193 188 180 176 169 154 138 133 130 128 125 106 90 92 99 112 133 147 143 153 169 176 185 189 185 181 173 162 148 137 136 138 142 147 150 148 145 144 152 159 151 139 141 148 149 150 156 163 168 162 152 143 140 140 136 134 137 140 143 144 140 138 141 132 116 109 106 112 126 143 153 152 146 145 147 150 155 160 164 168 168 162 155 150 154 161 178 200 207 199 189 185 183 181 183 179 166 154 146 140 129 114 115 124 121 116 109 102 103 111 120 136 174 205 219 221 221 225 224 222 224 220 215 225 226 222 -9999 
-9999 206 204 206 207 204 199 200 197 189 183 183 184 179 168 162 161 161 157 147 142 139 131 130 124 115 113 116 122 137 150 150 153 161 159 158 167 171 166 164 170 177 179 179 180 176 171 176 185 190 194 195 194 193 190 189 184 183 185 178 166 155 145 139 155 172 181 185 182 175 168 162 153 149 148 132 111 100 108 118 113 101 110 130 154 180 190 189 185 178 167 157 144 131 121 120 124 128 129 132 144 154 157 155 157 164 173 176 174 174 170 169 174 176 169 160 158 162 165 160 156 158 159 157 147 133 127 136 141 139 141 140 131 126 124 107 91 92 103 110 109 107 118 141 156 163 174 191 205 209 212 215 217 219 216 208 205 204 203 201 199 197 192 185 180 176 172 168 168 166 159 153 144 142 144 143 140 134 132 129 125 139 150 152 155 157 159 162 168 173 171 166 160 162 166 165 164 164 167 162 147 136 130 119 111 99 90 117 174 202 201 191 183 183 183 181 181 184 186 186 184 181 177 175 176 174 171 168 164 156 146 132 109 97 107 119 124 137 149 143 134 131 131 133 133 130 128 127 120 112 104 104 114 135 158 177 186 190 187 185 187 183 182 189 196 195 196 198 194 192 190 184 179 178 174 163 150 143 132 118 106 99 107 123 135 137 137 130 121 142 155 158 166 165 159 155 155 154 146 146 142 135 139 148 152 149 144 141 142 141 140 140 150 160 157 150 148 142 136 132 133 132 125 124 122 122 129 138 148 151 142 133 127 114 107 107 107 116 126 138 147 139 126 125 129 131 135 147 161 169 169 168 164 161 166 180 201 211 202 188 178 171 165 158 148 132 119 113 109 110 102 94 111 125 121 122 120 111 109 113 123 152 186 206 220 224 221 221 221 217 218 219 213 216 222 222 -9999 
-9999 202 203 206 203 196 194 194 185 175 169 163 162 163 161 157 153 151 145 137 135 136 134 137 131 122 120 124 131 143 148 145 147 154 157 164 173 173 170 170 172 175 176 174 172 167 169 178 185 188 193 195 195 196 194 191 184 185 186 175 160 148 140 141 159 180 193 196 191 181 172 165 156 153 144 123 111 109 112 108 94 95 114 130 151 175 186 189 187 178 163 149 131 118 117 126 126 120 120 125 137 150 153 152 154 159 167 170 171 176 175 174 172 166 159 156 160 165 162 158 159 159 155 152 144 136 144 153 148 139 138 132 120 116 115 100 91 103 114 116 114 116 127 143 153 159 168 185 201 209 214 215 213 210 207 205 203 196 189 191 198 201 196 188 184 180 175 172 171 168 161 155 152 154 152 143 134 131 133 134 137 153 156 148 152 156 160 162 163 163 162 159 160 164 162 160 163 166 169 165 152 139 133 124 115 105 96 109 155 186 186 180 181 189 189 183 181 186 188 187 184 181 177 176 175 170 166 163 160 152 140 123 102 100 117 127 136 156 166 152 141 139 141 144 142 134 128 121 113 105 94 91 106 137 163 176 180 187 188 186 187 186 185 186 188 190 192 188 185 188 187 184 183 180 171 161 153 145 127 111 113 128 145 154 151 139 131 123 126 148 156 160 164 155 142 134 133 130 129 141 144 130 122 127 138 144 146 143 134 123 123 132 151 169 169 157 147 131 114 108 115 123 124 127 126 127 138 151 156 151 144 133 122 112 112 116 124 130 127 137 147 138 129 129 130 126 128 142 155 161 169 171 159 152 167 194 209 206 190 175 164 153 144 131 116 104 102 103 101 101 94 95 112 115 114 125 132 136 148 159 170 188 202 211 218 222 227 229 224 219 216 220 219 218 222 223 -9999 
-9999 197 200 202 199 192 188 183 166 156 155 153 153 153 152 150 150 150 145 140 141 139 135 136 132 124 123 127 131 135 138 138 143 149 155 164 169 170 171 173 172 173 170 162 160 162 170 181 188 193 199 202 202 200 194 188 184 187 184 169 155 147 139 139 155 173 183 187 188 183 172 164 159 156 142 124 120 118 110 94 77 87 116 127 132 144 153 161 172 170 155 139 123 116 125 139 132 118 116 122 137 150 153 152 155 160 163 162 164 167 168 169 168 166 167 165 163 160 157 159 159 154 147 141 140 142 147 149 144 145 144 128 111 105 97 80 85 108 119 119 123 127 134 149 163 168 168 177 188 199 207 209 209 204 201 205 207 203 197 195 198 199 193 187 185 182 179 179 175 168 161 156 155 154 145 132 125 126 132 136 140 149 143 142 153 156 155 154 159 163 161 160 166 167 157 153 161 169 172 168 154 140 135 129 126 119 105 108 143 178 182 181 186 190 189 185 186 191 194 190 181 177 175 174 172 166 162 162 163 159 148 132 118 122 138 147 155 168 169 158 158 162 162 156 144 135 127 119 111 102 91 91 120 159 175 179 178 177 180 185 192 195 193 187 183 184 185 183 181 182 180 180 180 171 158 147 142 134 123 129 151 165 161 146 127 110 112 123 137 157 168 174 171 155 139 130 124 118 126 143 149 134 118 121 135 144 147 141 125 123 134 140 151 164 162 153 145 134 127 121 121 126 132 141 144 144 147 152 153 152 149 135 125 121 123 127 128 122 125 135 135 134 140 141 140 139 143 148 148 154 169 167 153 151 167 185 196 195 182 165 147 133 126 114 107 109 109 103 99 102 103 114 123 115 116 125 135 153 177 193 203 210 216 220 221 220 224 225 221 221 220 222 224 222 221 217 -9999 
-9999 195 198 197 192 185 180 169 157 157 158 157 153 147 142 143 149 153 148 145 146 142 139 137 128 119 117 120 123 127 130 134 140 146 151 156 160 167 174 177 175 171 161 155 157 157 165 179 190 196 200 201 198 193 184 177 178 179 174 164 158 147 127 122 146 171 182 181 178 173 167 164 159 153 147 140 129 108 86 74 65 77 105 114 126 138 140 147 163 165 151 136 128 127 138 142 128 121 129 141 154 160 159 159 162 164 164 164 162 158 157 163 167 167 170 167 163 166 171 168 156 146 142 137 136 133 132 134 137 145 139 126 119 115 95 80 97 110 109 113 124 132 139 156 170 175 178 187 193 199 206 207 207 206 205 205 207 209 207 204 198 189 183 183 183 180 180 180 175 168 162 156 155 150 137 124 119 120 128 130 130 139 142 152 161 156 147 147 157 164 161 158 160 154 144 149 162 173 175 171 155 141 140 139 139 129 112 108 134 180 194 191 193 195 191 188 186 190 191 180 167 167 170 171 170 167 166 170 170 163 154 144 137 142 154 159 159 162 160 158 165 168 162 151 141 136 133 126 116 108 99 104 143 179 185 185 181 178 181 188 194 196 189 181 178 180 184 187 183 176 170 165 154 143 139 136 131 125 130 151 163 164 150 123 100 89 101 114 127 157 176 177 166 154 145 136 125 125 143 162 161 144 133 133 131 133 141 138 130 153 172 165 158 153 143 138 139 149 155 149 140 139 145 153 155 152 149 150 160 166 156 139 129 125 121 113 94 91 112 124 121 131 147 146 144 146 152 155 154 158 163 158 157 166 174 169 167 167 159 140 122 113 106 98 105 113 109 104 104 114 122 132 129 121 133 146 159 177 196 212 224 227 225 227 223 213 208 212 221 225 218 213 215 215 211 209 -9999 
-9999 190 191 182 173 170 170 166 162 164 161 155 150 145 141 144 152 153 145 142 142 142 145 141 127 117 114 116 119 123 129 137 144 146 144 145 152 165 176 181 174 163 153 155 157 153 160 173 186 193 196 195 189 181 172 166 170 172 168 159 145 123 99 107 150 180 192 192 184 174 169 166 155 146 147 143 119 86 68 69 67 76 106 132 157 167 173 177 173 155 133 127 132 140 149 140 121 125 143 158 165 160 159 163 164 165 163 162 161 160 169 176 172 167 166 165 165 167 170 167 153 149 151 144 138 132 128 132 138 138 130 131 139 134 108 100 114 109 103 108 120 132 142 157 167 174 185 202 209 211 214 211 208 210 213 212 209 207 205 202 196 188 185 186 185 181 180 177 173 172 166 157 153 146 135 128 125 126 130 129 131 145 157 165 166 153 143 150 160 161 153 145 140 131 137 156 165 169 173 169 155 145 148 153 152 139 119 106 127 172 198 202 206 207 205 196 185 185 180 168 162 165 170 174 171 163 164 171 170 160 153 148 143 147 156 154 146 143 145 149 151 150 147 145 145 147 142 127 118 115 108 114 151 178 187 190 185 183 189 199 199 193 181 174 174 177 182 184 176 165 155 139 123 123 132 137 139 142 151 154 143 132 112 91 83 84 99 116 136 169 179 164 152 149 146 140 133 143 156 151 141 139 145 144 123 110 113 120 135 159 162 150 144 138 132 129 134 147 150 146 143 137 137 146 152 151 150 151 152 145 125 109 109 114 105 91 87 101 113 114 116 127 146 159 157 150 150 155 159 159 156 165 178 180 179 163 148 138 125 114 117 114 97 95 105 104 100 102 109 116 115 115 112 116 137 157 176 191 207 225 235 234 226 228 226 215 207 207 213 223 219 211 204 200 204 211 -9999 
-9999 174 168 158 155 161 170 175 168 158 154 150 147 144 146 152 158 157 150 147 147 147 146 135 123 117 114 115 117 121 128 141 150 149 145 149 159 167 170 165 153 144 139 140 140 141 152 165 175 186 191 190 182 171 163 161 168 171 164 145 123 105 91 116 169 194 200 200 195 187 178 167 149 138 134 124 99 75 71 76 76 87 126 162 176 176 179 181 166 136 125 134 140 141 139 129 124 133 135 140 148 152 156 157 152 153 159 166 166 167 178 173 163 163 166 167 165 161 166 165 156 156 153 146 146 144 140 141 140 135 132 131 127 118 106 111 119 114 111 116 127 137 143 155 168 177 186 200 210 215 214 210 208 210 214 216 213 209 207 206 202 194 190 189 186 182 179 177 175 173 165 155 151 144 134 128 125 124 131 136 139 145 149 153 155 148 148 161 167 160 146 136 131 132 154 172 165 164 172 168 156 151 158 167 163 149 127 110 124 160 193 210 207 200 188 169 161 166 166 165 171 178 183 181 167 156 158 163 159 149 144 139 131 130 134 128 120 126 136 141 144 147 148 148 149 152 142 127 124 121 115 123 153 177 186 188 183 179 184 195 200 196 188 177 173 174 174 170 160 151 141 131 131 142 151 156 162 166 163 146 128 114 96 89 93 97 109 134 162 179 172 156 152 147 141 138 141 157 152 127 122 130 141 142 129 109 97 99 115 137 142 135 134 135 134 133 132 133 133 131 127 124 130 138 139 142 148 151 139 121 107 100 100 99 96 102 115 130 128 118 115 116 127 145 152 155 155 155 154 153 161 178 183 177 177 165 146 126 109 104 109 101 89 94 95 93 99 106 112 112 109 115 120 127 151 170 188 205 214 220 227 233 232 235 236 231 228 217 208 212 214 211 207 201 194 199 -9999 
-9999 155 148 146 151 160 168 169 160 152 150 147 147 147 148 151 154 156 154 153 151 150 138 120 113 112 112 114 116 119 127 140 152 154 154 165 172 169 157 139 126 124 123 122 125 130 145 165 177 185 188 186 172 157 156 159 162 152 133 118 106 97 91 120 160 170 175 183 187 183 176 158 133 123 122 112 91 72 70 72 74 83 118 157 167 165 162 162 154 138 139 143 136 129 124 122 127 127 123 132 148 159 163 161 159 166 173 172 169 169 168 159 156 162 165 163 160 161 167 165 160 159 152 150 150 147 148 148 142 139 134 123 112 102 100 108 116 120 119 123 134 138 139 155 173 180 189 200 208 211 210 206 205 205 205 204 205 207 210 211 203 193 192 190 186 181 178 177 174 168 159 154 154 151 140 131 124 118 126 138 139 134 134 138 141 145 152 161 164 156 143 137 140 151 167 169 157 157 166 164 156 154 162 172 168 156 135 117 123 148 179 199 186 168 147 127 131 143 148 155 166 174 182 182 168 158 161 161 151 141 137 131 120 117 119 111 109 125 138 145 156 164 164 157 149 141 129 126 130 123 123 135 165 192 191 184 181 180 180 181 187 194 191 183 176 174 170 161 151 147 146 149 157 164 163 159 156 154 144 128 119 113 102 98 100 104 119 149 173 179 171 161 158 147 138 139 150 159 140 125 129 127 134 141 139 126 116 112 117 132 141 137 134 132 132 133 129 127 130 127 130 137 146 150 149 155 163 161 145 128 116 108 102 95 104 117 124 132 135 128 119 112 107 107 123 152 164 166 162 156 162 167 166 166 169 169 154 129 109 98 82 65 64 77 90 103 115 119 117 117 122 132 140 155 179 189 201 214 218 216 216 220 222 223 224 225 227 217 203 197 192 193 201 202 196 193 -9999 
-9999 135 143 146 148 151 152 148 145 148 154 156 155 156 153 148 143 141 140 139 140 139 125 111 110 110 111 113 114 117 124 137 150 155 157 165 167 160 145 130 121 119 114 113 119 128 149 174 187 187 182 173 147 124 126 138 147 134 111 102 89 75 79 115 146 146 153 166 167 161 152 129 104 101 106 102 82 61 58 64 67 72 110 158 180 181 172 163 152 141 138 132 123 123 127 131 132 128 139 161 170 172 172 173 180 190 186 169 164 167 168 171 175 177 174 167 162 164 169 168 164 162 157 154 149 147 149 147 142 137 129 121 114 105 101 99 100 104 116 130 138 141 147 164 175 179 193 204 206 205 204 203 203 203 200 195 196 202 206 207 201 198 198 191 184 179 176 176 170 164 160 159 162 160 149 139 131 123 132 144 139 127 127 136 140 144 149 155 156 149 141 142 150 158 161 154 143 142 148 149 149 154 164 173 176 171 151 130 124 138 158 173 165 142 125 120 128 131 131 136 146 157 172 179 168 160 161 157 146 137 135 131 126 128 127 117 119 131 141 149 158 162 161 157 147 132 122 126 127 123 131 144 169 193 195 185 185 189 185 178 177 180 181 187 188 185 179 169 160 158 160 162 164 164 157 145 136 130 118 108 108 106 96 95 98 103 124 164 185 185 174 167 162 145 134 132 135 128 110 115 123 124 135 141 136 132 138 140 135 131 131 129 125 119 121 127 127 126 129 129 137 144 146 147 152 161 164 158 145 132 117 107 106 113 124 128 129 130 128 130 133 131 123 122 141 169 181 178 171 167 163 160 164 163 161 162 149 128 102 79 55 44 53 72 97 115 122 117 110 113 119 129 147 176 202 215 222 227 228 222 213 201 191 192 198 200 203 202 194 191 188 185 186 191 199 198 -9999 
-9999 121 138 145 149 147 144 141 138 141 149 153 155 157 153 145 136 126 117 112 116 118 112 108 111 112 113 112 111 112 121 138 153 157 155 156 155 150 141 130 125 119 107 105 112 125 150 172 178 172 161 145 117 103 119 134 136 124 109 99 81 71 89 127 151 163 174 176 160 144 127 103 85 89 95 85 65 49 54 63 65 76 127 175 200 205 188 170 160 152 146 139 129 129 134 143 145 148 168 180 178 175 175 176 181 180 166 155 155 158 165 171 173 175 175 168 166 173 177 176 170 165 158 153 152 149 144 142 137 130 127 123 110 100 101 102 99 101 118 132 139 144 155 171 177 184 197 203 201 200 204 206 206 204 202 199 197 198 197 195 196 198 195 186 181 177 176 173 169 168 168 167 168 164 148 132 125 126 141 146 132 122 128 141 145 145 146 150 150 143 139 149 157 160 158 149 136 130 131 130 137 152 164 174 183 184 168 148 133 135 140 146 163 159 145 142 140 132 129 132 138 150 165 165 155 156 159 151 140 133 131 129 131 136 130 120 123 132 143 152 156 152 147 145 137 125 127 131 129 129 139 151 169 189 193 192 198 197 192 185 179 175 180 196 204 200 189 178 169 167 166 166 164 160 153 144 134 121 108 107 115 117 109 107 111 115 132 163 179 177 168 164 154 138 131 127 121 110 103 116 120 121 126 122 120 129 148 152 132 117 115 113 114 115 120 123 118 120 130 131 127 128 134 141 143 147 149 144 132 117 109 109 114 127 143 151 149 140 135 140 151 159 158 159 165 176 182 175 167 166 161 157 159 154 147 143 129 110 85 63 47 51 71 89 105 113 114 109 105 108 118 137 165 194 215 225 227 229 229 222 212 200 192 195 197 186 183 192 196 196 196 189 185 186 190 199 -9999 
-9999 119 127 134 142 145 146 141 130 128 130 134 141 141 136 133 129 123 111 102 105 109 111 113 115 116 117 114 108 107 124 151 164 161 151 147 147 144 135 127 127 117 100 101 109 123 146 161 165 160 151 134 113 116 143 149 130 110 98 95 88 82 102 135 156 177 184 173 151 138 121 101 92 100 100 84 69 61 66 72 71 90 152 183 191 189 178 168 168 164 154 146 132 129 139 149 146 153 173 181 177 171 166 168 174 169 156 150 151 155 160 160 160 161 162 162 170 181 182 175 167 162 156 151 149 143 137 139 140 138 137 128 110 102 108 110 105 110 121 127 132 137 151 169 179 190 200 203 203 204 206 207 206 205 204 204 203 198 192 189 187 186 182 179 179 178 174 173 174 175 173 169 164 155 139 126 125 134 144 137 121 124 137 150 153 148 150 154 153 145 149 160 163 160 153 143 132 126 123 125 139 155 162 167 176 179 172 160 142 131 126 140 169 192 201 184 159 139 132 135 140 145 145 138 134 144 154 151 144 135 129 127 131 133 121 112 119 130 141 150 153 148 143 138 127 124 131 132 131 137 150 162 173 185 188 195 203 201 195 191 187 184 188 200 207 204 192 179 170 165 164 165 164 159 152 145 135 122 114 117 125 130 121 113 109 110 126 150 157 155 155 149 136 131 129 125 127 123 118 121 117 116 118 114 118 132 151 156 146 141 131 114 112 120 127 121 107 112 130 135 130 131 139 142 137 139 142 137 128 115 111 113 117 128 142 153 154 156 159 161 163 166 167 163 157 155 157 157 161 163 157 151 143 129 123 121 110 90 69 59 58 77 100 118 132 131 120 112 111 123 145 167 189 206 215 217 216 216 221 222 217 211 202 192 185 183 183 189 196 198 199 197 193 192 193 197 -9999 
-9999 126 122 118 121 124 127 123 118 122 126 127 128 127 125 125 126 126 116 109 114 119 121 122 120 120 121 119 110 112 141 166 168 157 149 148 149 143 134 129 129 116 99 104 110 120 143 160 167 166 159 145 130 133 149 145 121 99 90 91 85 83 112 150 170 178 173 156 137 130 119 108 108 114 110 98 94 89 84 82 80 111 174 186 178 172 163 157 158 151 139 135 124 130 143 140 139 153 171 179 179 171 160 158 164 162 154 152 155 160 160 159 162 163 163 166 174 180 177 167 161 157 152 148 143 140 136 141 149 145 138 125 113 109 112 113 108 113 120 127 131 134 150 167 177 190 201 207 209 208 208 207 207 208 210 212 210 203 195 190 186 182 180 178 178 175 173 174 177 177 172 165 156 147 135 127 128 134 136 124 111 127 143 147 148 151 160 167 165 163 166 168 164 155 146 137 129 128 130 139 154 158 154 154 161 166 169 167 151 134 131 152 167 173 196 195 166 143 138 140 141 139 130 122 122 133 147 146 138 133 129 129 129 124 111 110 123 128 126 129 130 130 131 129 124 127 133 134 136 147 160 165 166 173 182 193 202 201 197 194 191 189 190 192 191 188 182 177 170 166 168 170 168 162 154 148 141 132 130 132 131 127 115 101 95 102 124 145 147 142 141 137 130 132 126 117 121 119 110 104 105 113 121 127 136 150 166 174 171 169 154 136 130 127 123 114 109 123 138 141 137 145 149 139 127 129 135 134 125 115 117 117 117 123 130 133 134 148 165 176 174 168 169 168 159 145 139 141 152 159 157 151 133 115 114 112 99 75 58 57 70 92 102 110 123 130 128 125 129 145 168 183 193 203 210 212 212 209 213 221 222 216 205 193 184 189 193 193 195 195 196 199 198 190 185 183 -9999 
-9999 134 132 121 115 110 109 111 115 120 121 115 114 123 125 124 124 123 118 117 127 131 127 123 120 122 123 119 105 114 152 169 164 158 156 157 151 143 142 137 130 115 101 105 108 121 146 165 174 173 167 157 147 147 147 134 110 94 91 90 82 97 144 182 191 184 172 155 137 126 115 109 112 117 114 108 107 97 84 79 87 130 180 182 172 169 162 166 166 152 139 130 126 143 145 132 137 152 164 171 174 173 168 164 160 153 146 147 154 159 160 161 163 166 171 175 177 174 168 163 162 158 149 139 136 138 137 146 153 143 128 114 109 106 111 120 114 115 120 129 132 130 144 161 174 188 200 205 207 206 207 209 208 208 210 212 210 204 199 195 191 186 184 182 178 175 174 177 179 176 169 162 153 145 136 127 122 123 123 114 111 132 141 133 134 148 161 164 164 164 161 157 154 147 138 131 126 126 133 143 152 148 140 144 157 167 176 180 170 158 153 158 158 153 168 177 162 151 157 152 142 136 130 125 125 135 140 130 122 126 135 140 132 115 107 113 124 118 111 121 124 121 120 121 127 136 139 140 146 151 151 147 149 168 188 198 202 202 199 197 193 188 184 179 173 168 170 176 173 169 173 175 172 164 154 149 146 138 135 138 134 125 110 92 92 113 137 149 148 143 138 134 128 125 110 103 106 102 97 105 123 134 140 147 153 161 170 172 164 153 144 140 137 125 114 111 125 147 154 146 142 153 157 149 143 141 138 128 114 106 107 106 108 118 129 131 132 146 167 180 179 174 172 172 170 162 154 153 155 157 152 141 128 118 110 100 84 64 58 66 82 95 93 96 108 117 121 128 141 164 184 193 205 213 212 209 209 206 203 206 209 210 207 204 200 196 193 189 189 190 189 192 194 184 173 174 -9999 
-9999 128 127 118 112 106 106 109 110 110 112 112 122 130 126 121 115 108 103 105 116 116 107 106 110 118 121 111 96 113 152 163 160 159 155 155 147 142 140 131 123 114 103 102 108 128 154 172 181 180 176 167 156 146 136 123 107 98 97 96 96 121 162 187 195 190 174 154 134 121 111 107 110 116 113 108 101 85 73 73 97 147 184 189 182 168 162 175 174 158 142 127 128 142 138 134 143 151 157 159 159 158 160 163 160 153 148 149 154 158 162 164 165 169 175 178 175 170 167 167 165 160 144 125 130 141 141 147 153 143 124 112 109 109 123 133 119 113 119 128 126 122 135 154 173 190 198 201 204 207 208 209 208 205 205 206 204 201 199 197 190 184 183 181 180 180 179 179 178 173 167 159 149 142 135 126 119 117 117 114 120 136 135 124 133 154 162 159 156 155 151 151 152 140 127 125 127 129 131 137 141 139 136 146 161 168 176 179 176 175 164 152 150 145 150 162 160 158 163 159 147 137 132 134 140 148 142 127 126 137 149 153 137 116 111 111 111 107 112 133 138 134 130 130 141 151 150 150 148 138 126 128 152 188 208 208 205 203 199 194 187 180 174 172 168 165 167 173 173 169 170 170 165 154 144 141 140 130 127 131 126 121 112 96 100 119 135 150 154 148 144 139 124 108 94 93 96 101 114 132 142 144 147 150 149 147 145 141 136 139 143 139 131 124 122 131 151 167 168 160 158 161 154 148 155 158 145 126 114 108 106 113 121 131 146 159 162 170 186 197 197 193 187 175 166 166 170 168 163 159 146 131 128 122 109 98 85 72 68 71 83 89 98 120 134 127 119 126 144 170 192 210 218 217 210 202 207 209 200 193 193 202 206 206 206 206 201 190 183 183 187 189 191 191 188 189 -9999 
-9999 121 110 101 102 104 107 110 110 107 113 122 129 129 121 111 99 89 81 80 90 91 84 91 100 110 111 101 96 120 150 156 155 152 146 143 137 132 127 121 122 122 117 111 119 142 164 173 178 179 171 154 135 120 114 114 109 104 102 99 100 123 158 176 177 174 164 143 121 114 117 116 117 117 112 104 91 78 71 75 109 165 194 198 191 172 161 166 163 147 128 117 124 133 133 137 146 148 148 147 142 136 138 146 152 152 149 151 155 158 161 165 167 170 171 171 170 170 173 173 167 160 140 124 146 161 147 139 142 132 115 109 111 118 132 126 107 107 120 126 125 130 150 170 183 193 197 197 202 207 209 208 206 204 202 201 198 196 194 192 185 181 180 177 176 177 176 176 174 171 165 156 147 140 133 125 117 117 121 123 128 134 132 134 154 173 175 168 162 158 155 158 161 140 122 124 130 134 137 140 140 139 140 150 157 160 163 161 159 163 157 148 151 143 139 151 154 147 140 145 152 148 142 143 150 152 141 135 141 151 157 153 139 133 138 131 123 121 128 142 146 147 147 145 150 150 149 148 138 125 123 142 175 203 213 213 209 205 196 182 171 167 168 170 170 167 165 163 155 150 154 154 147 135 129 133 135 130 133 134 124 120 109 92 95 114 135 156 157 149 147 136 113 96 96 105 115 129 139 134 123 126 131 128 121 119 118 117 119 131 140 133 126 125 129 145 164 164 156 160 171 168 153 148 151 147 138 128 118 111 119 134 143 155 171 180 184 188 192 204 208 203 197 188 177 169 169 165 163 161 148 131 125 117 108 103 88 76 66 65 78 93 118 151 165 155 145 150 159 164 178 201 206 205 208 203 204 209 207 200 198 201 202 201 202 207 207 200 194 192 189 189 195 203 204 202 -9999 
-9999 118 114 108 109 111 112 114 114 109 111 114 113 112 103 90 80 73 64 65 80 81 77 88 99 105 99 88 94 121 144 149 148 148 144 140 134 129 126 126 132 140 131 114 115 138 162 167 165 157 137 117 98 88 91 98 103 105 100 91 95 119 147 157 155 157 155 136 120 123 130 122 112 106 100 95 84 75 71 78 116 168 190 192 184 169 162 161 152 131 116 114 123 132 132 134 138 141 142 141 136 136 144 150 151 149 148 152 156 156 159 165 168 167 166 166 168 172 176 175 168 159 141 137 170 177 139 116 114 109 104 104 109 121 123 108 98 110 122 121 126 149 180 200 206 204 198 196 199 203 205 204 204 203 199 194 191 190 187 185 185 184 181 176 172 171 171 174 175 172 163 153 145 135 128 122 118 124 131 129 127 131 136 147 167 181 183 179 173 166 159 158 156 140 132 141 142 142 142 140 136 134 137 144 150 153 152 146 145 150 154 155 156 144 136 143 143 131 121 130 143 142 140 143 144 137 132 137 147 156 159 154 147 154 158 146 146 152 152 154 156 157 154 147 142 140 141 137 130 128 140 166 182 187 186 190 195 195 184 167 162 165 168 169 168 165 160 152 141 137 138 136 132 127 132 143 146 146 150 147 137 132 118 100 107 132 155 165 158 148 136 115 93 90 110 129 140 137 127 112 101 109 112 105 107 116 120 118 119 131 129 119 121 121 124 144 159 144 135 141 143 150 157 163 161 152 139 123 112 120 132 135 143 166 183 184 185 193 194 199 202 197 196 195 189 180 170 160 159 156 144 137 133 123 111 95 77 72 69 74 90 112 144 170 181 182 182 184 183 185 189 194 198 197 205 206 201 199 201 201 200 200 199 200 203 199 199 204 208 210 203 196 194 196 198 200 -9999 
-9999 133 134 126 118 113 110 109 108 107 111 110 101 94 85 77 72 64 55 60 77 75 76 95 103 103 91 82 95 122 141 146 147 150 149 144 140 135 130 129 138 147 125 93 90 115 150 163 154 129 102 87 73 67 68 67 69 73 74 76 98 131 149 150 142 143 142 131 122 120 113 101 96 90 80 76 72 70 70 82 126 167 179 181 176 168 159 143 127 116 114 117 122 126 128 128 130 135 139 140 138 150 161 159 152 143 141 147 151 148 152 157 160 163 166 167 168 171 173 171 163 150 140 146 168 157 113 95 100 104 106 101 104 116 112 99 95 96 99 103 123 158 191 208 211 205 196 196 200 202 201 202 204 204 197 190 187 184 181 181 180 179 178 174 170 168 169 170 167 159 149 141 133 125 124 124 124 127 129 124 119 125 133 143 157 171 178 178 172 164 159 158 154 144 145 156 156 152 143 135 132 129 130 137 144 144 138 133 137 149 162 164 162 154 141 140 137 127 117 122 130 136 144 147 141 129 129 140 150 153 150 145 141 146 142 134 142 150 155 158 161 165 159 143 135 137 135 130 131 142 162 178 178 168 157 155 167 176 167 159 165 170 169 168 165 161 156 148 141 140 140 139 138 142 151 158 156 152 152 149 148 147 134 122 132 146 153 161 164 154 134 116 111 123 141 147 139 119 104 91 88 105 111 113 125 133 134 124 116 109 102 108 120 121 116 125 128 123 134 133 131 146 155 165 167 159 138 116 107 116 118 123 148 176 190 194 202 210 207 207 208 203 202 197 186 177 166 156 150 138 124 118 121 122 113 97 92 97 88 82 97 128 160 177 185 192 199 197 193 203 210 210 204 195 194 200 200 193 193 198 201 203 199 201 208 204 196 196 198 202 204 199 195 193 187 182 -9999 
-9999 154 149 130 116 109 105 103 103 105 112 110 98 92 90 88 79 70 68 83 94 89 96 108 104 97 87 85 103 126 142 147 149 150 148 145 142 136 131 130 135 135 104 74 72 95 140 157 145 111 83 70 65 60 51 46 43 41 43 58 95 133 157 165 161 156 144 126 116 111 102 94 96 94 91 89 81 75 68 81 132 171 181 187 186 177 162 149 139 129 122 120 118 119 121 124 129 137 144 142 140 151 157 152 141 131 131 141 145 143 146 151 158 168 170 167 163 162 164 163 153 141 141 146 144 120 90 85 99 110 109 98 105 118 113 99 88 80 84 96 115 150 177 186 183 183 190 198 202 201 199 198 197 195 192 187 182 179 179 178 173 171 173 170 167 167 167 164 157 148 142 137 131 128 129 131 129 123 120 121 118 124 133 142 152 162 168 168 163 157 159 163 157 150 152 150 144 141 130 121 124 125 124 130 137 135 126 126 136 149 161 159 159 165 152 141 139 132 120 116 127 150 163 152 132 124 138 152 154 146 137 130 127 126 122 122 128 134 143 143 147 156 139 117 122 126 122 122 132 155 179 193 190 173 155 149 153 159 162 167 173 171 169 168 163 157 151 145 141 141 144 144 145 148 153 155 153 149 145 143 145 141 127 122 129 134 147 164 166 156 148 146 151 157 155 141 111 91 92 93 97 111 119 126 131 128 120 116 114 104 103 118 131 135 132 134 132 135 149 155 166 166 154 155 154 145 127 114 107 104 109 138 177 195 205 216 225 228 222 212 209 202 195 193 185 175 167 161 151 137 125 123 125 120 114 111 113 107 81 70 97 143 169 178 185 195 206 210 209 208 207 205 201 200 197 194 193 192 193 197 200 203 202 200 205 209 204 198 195 199 204 200 196 195 192 186 -9999 
-9999 149 141 120 110 105 103 102 104 110 116 121 122 120 115 101 82 79 95 116 125 120 118 113 102 95 89 91 110 131 144 148 148 144 139 138 137 132 129 129 131 121 91 69 63 85 133 144 127 100 78 62 58 49 43 47 49 50 52 63 85 111 135 146 147 147 137 120 115 117 113 108 109 108 109 104 94 85 70 95 155 183 190 195 189 173 163 167 160 139 126 121 116 116 117 121 128 135 141 141 141 145 143 135 129 123 125 138 145 144 152 162 166 166 161 156 154 155 159 160 150 138 137 130 113 93 77 78 92 102 102 100 109 118 108 91 84 83 98 112 129 159 173 173 171 179 191 199 202 201 197 191 185 181 182 183 182 181 179 176 172 170 168 165 163 161 159 159 157 153 149 145 142 141 141 138 135 126 123 127 120 124 138 144 148 154 159 159 154 152 158 160 152 149 147 135 127 127 121 120 125 121 118 124 133 132 126 126 134 146 152 146 151 169 161 142 144 144 126 112 126 154 170 155 132 129 140 144 142 137 132 130 129 127 125 126 131 138 141 133 136 138 109 95 108 105 103 115 139 168 190 205 207 197 184 174 155 140 148 167 176 178 175 170 162 153 147 144 144 145 145 144 146 147 147 150 153 151 150 151 152 143 127 120 117 127 153 168 162 154 155 156 154 150 144 120 92 91 101 99 102 112 119 115 110 106 102 106 114 114 118 129 144 158 162 167 162 155 158 170 180 168 149 141 132 123 115 113 118 128 150 184 203 207 212 222 227 225 220 208 194 178 170 171 168 172 173 163 152 143 140 145 140 129 130 127 114 90 69 76 116 155 169 175 180 187 196 209 220 217 205 199 199 199 195 190 189 195 198 194 188 189 198 199 197 206 212 213 210 205 207 205 198 198 201 199 -9999 
-9999 135 120 109 105 102 100 101 108 118 127 137 140 132 118 95 81 92 114 127 132 128 119 112 106 100 98 109 134 153 155 149 140 132 125 120 115 113 115 121 123 112 88 72 65 89 132 129 113 100 84 71 69 57 58 73 85 96 98 99 104 113 121 119 115 113 113 117 121 121 118 119 128 122 104 88 82 78 74 119 176 189 182 176 169 160 158 157 147 136 132 126 121 118 118 123 128 129 132 138 143 143 135 128 127 125 124 129 133 139 152 160 160 155 148 147 150 155 160 160 149 134 130 123 110 92 79 83 91 90 87 88 91 92 79 73 81 87 103 128 162 189 190 185 186 193 198 201 203 202 197 192 188 185 184 185 183 181 178 174 171 168 165 161 158 154 154 159 162 158 153 150 149 149 147 144 139 128 121 122 119 124 135 137 137 142 149 152 153 154 156 153 149 148 141 128 124 126 126 131 128 122 126 134 137 131 123 119 124 135 135 129 136 149 143 133 145 153 135 121 134 150 157 156 140 131 129 125 122 121 123 128 132 132 130 133 140 141 134 130 134 125 102 102 107 96 97 126 163 189 205 215 222 221 215 204 179 156 148 151 162 171 169 161 155 149 144 145 149 152 153 153 154 154 152 150 146 143 151 162 163 153 139 125 116 130 156 169 165 160 164 160 147 133 113 81 73 89 86 74 83 104 113 108 99 97 99 103 105 108 121 134 145 159 165 166 166 159 155 153 149 140 135 134 129 120 111 115 134 161 188 205 215 219 219 221 221 214 206 196 178 161 158 153 152 164 167 158 147 140 144 142 127 132 146 133 107 81 75 89 125 152 162 167 174 179 181 188 202 207 205 207 206 199 194 194 195 197 198 196 191 187 188 191 194 207 217 220 217 205 199 194 195 201 205 197 -9999 
-9999 125 110 104 102 99 97 101 110 119 127 136 131 117 103 85 83 99 115 121 121 120 118 116 114 111 116 135 155 162 156 140 129 120 112 105 96 92 96 104 105 96 80 70 68 87 125 128 121 118 105 101 105 99 106 124 141 148 137 134 138 132 126 121 115 109 109 115 122 121 121 130 138 121 97 87 80 74 81 126 171 181 172 159 151 145 144 143 142 143 139 130 125 124 127 132 134 133 135 141 144 143 141 140 138 136 136 137 134 136 144 148 150 147 143 145 150 156 160 160 149 135 135 134 120 98 92 98 93 80 71 68 73 75 65 70 85 88 103 141 180 199 197 192 195 199 201 204 204 202 195 191 195 198 194 187 180 178 176 172 170 168 166 163 160 159 161 165 164 158 153 152 152 150 146 144 136 124 115 118 121 124 130 131 133 140 150 154 153 151 148 143 144 147 144 136 131 131 129 126 123 125 134 139 138 129 117 112 119 126 120 113 114 111 108 116 132 141 136 137 142 134 120 127 128 120 119 115 109 106 110 120 129 133 131 131 129 122 116 117 116 106 102 113 113 105 117 152 178 191 199 207 220 227 220 216 208 196 177 159 155 157 154 149 148 146 145 148 153 157 159 159 159 158 155 148 138 134 142 150 148 140 131 118 116 140 165 173 168 168 171 161 136 110 82 60 64 72 64 67 85 103 113 112 107 110 110 107 105 111 124 132 136 143 148 156 169 169 156 144 134 126 129 137 140 135 127 131 147 170 190 200 207 212 211 211 208 201 193 185 169 156 152 146 146 150 146 141 143 148 148 134 122 132 126 98 75 62 65 87 128 155 165 173 182 190 192 189 193 199 204 207 208 206 201 199 201 200 200 204 205 203 201 200 199 211 220 219 221 215 204 201 203 200 201 198 -9999 
-9999 123 111 102 98 94 91 93 101 108 118 128 127 110 92 80 83 96 107 110 114 117 119 121 122 126 139 155 157 148 136 125 120 116 110 103 94 88 89 90 85 78 68 62 63 77 116 143 148 142 128 123 124 127 143 161 172 171 157 154 160 151 137 128 118 110 108 112 114 114 119 131 130 108 93 92 88 85 95 132 167 177 171 158 140 124 119 119 122 126 126 123 123 127 135 141 141 140 141 144 144 143 146 148 146 145 149 152 147 141 141 142 140 136 136 144 152 156 158 153 140 130 132 125 106 87 93 102 88 73 59 58 71 76 71 84 97 91 107 152 184 193 193 192 195 202 207 208 208 203 194 192 195 195 190 182 176 174 171 169 169 169 168 166 165 166 167 166 161 154 150 150 152 148 143 140 131 119 116 119 121 123 130 130 133 143 152 153 148 145 144 145 150 153 150 144 137 133 126 120 124 129 131 133 134 132 125 124 129 128 121 115 111 98 94 102 105 107 111 127 134 106 81 90 104 110 116 111 104 101 104 110 117 122 122 118 113 105 104 110 110 110 114 116 111 116 143 175 184 185 187 198 215 221 212 211 214 213 201 181 168 160 154 151 152 150 148 149 153 158 161 161 161 160 156 148 142 138 141 142 136 131 126 113 120 155 179 182 180 180 170 148 125 106 91 82 89 95 90 94 105 117 123 120 118 126 126 123 122 118 113 118 129 131 133 146 165 170 162 146 131 120 124 134 137 136 140 157 176 187 195 197 195 193 192 190 184 176 173 170 154 146 149 148 147 143 134 134 143 151 144 128 128 128 105 77 59 52 65 102 144 167 180 192 199 206 211 210 207 208 212 214 210 207 202 196 202 206 206 210 211 211 219 224 216 215 219 217 221 220 212 211 210 204 196 192 -9999 
-9999 94 87 82 84 83 79 83 97 106 111 116 111 94 85 82 85 96 106 110 113 117 121 126 132 141 156 161 151 139 129 119 117 112 104 97 88 82 82 81 75 69 61 56 55 68 112 155 168 159 140 130 127 132 147 163 171 169 159 160 171 171 161 139 118 108 106 110 113 114 117 121 114 95 89 93 94 95 107 141 165 167 161 151 133 114 106 106 108 111 113 117 122 128 137 145 147 145 144 144 144 142 143 146 147 147 148 148 145 140 137 133 128 126 134 150 157 154 149 137 120 115 116 106 93 82 91 101 87 69 52 58 81 88 88 108 117 107 126 166 185 185 184 186 191 202 209 210 209 206 203 202 196 187 180 176 176 175 171 167 164 166 168 168 167 167 167 166 160 153 149 152 155 148 142 136 127 118 116 117 118 124 128 125 128 139 148 151 149 148 152 159 166 164 155 144 136 133 124 120 124 127 129 132 132 132 132 132 133 131 126 123 118 103 101 101 91 88 96 111 109 77 58 73 93 102 117 119 111 108 107 108 110 111 109 106 106 102 104 116 125 131 127 112 108 118 151 187 195 194 200 210 217 207 189 189 199 203 196 191 184 175 166 163 162 159 153 151 153 156 158 159 161 159 153 147 146 144 151 154 146 138 126 114 129 164 185 190 191 182 162 140 122 111 104 99 103 108 98 98 110 121 128 126 126 133 136 135 134 131 127 129 129 127 133 150 163 162 155 138 123 116 118 128 136 145 155 176 197 208 207 198 187 182 182 175 163 157 152 139 126 135 147 149 143 133 129 130 131 130 125 122 128 119 101 90 73 65 86 127 158 180 198 210 215 212 210 211 212 213 215 220 214 202 196 193 197 205 203 205 208 207 213 224 219 212 215 215 215 217 217 215 209 200 189 185 -9999 
-9999 50 43 48 62 70 75 90 112 116 112 107 97 86 85 85 82 91 104 110 112 116 122 132 144 157 165 159 145 139 133 124 119 108 94 82 71 66 69 72 72 69 64 57 48 59 108 148 162 160 145 132 127 130 143 155 158 155 152 158 172 179 177 159 137 124 117 118 119 120 120 117 108 94 92 96 98 97 113 151 166 158 147 139 127 115 111 111 111 111 112 116 123 129 137 145 148 149 148 148 148 146 146 147 146 144 142 139 139 139 135 127 122 129 141 154 158 150 142 129 118 119 118 108 99 92 103 114 96 70 58 77 108 116 122 136 135 126 147 175 179 177 181 187 193 197 198 198 196 198 204 204 195 183 177 177 179 180 175 167 159 160 162 163 164 163 164 164 158 152 151 157 159 150 142 134 125 118 116 115 115 117 121 123 128 137 148 154 152 150 154 162 167 164 155 145 138 137 130 124 127 130 132 133 131 128 125 126 130 133 129 122 109 95 104 109 97 90 99 104 93 70 61 73 85 90 114 128 119 113 112 112 112 111 107 105 107 106 111 128 138 135 122 110 111 114 146 189 202 200 204 206 198 172 161 168 177 176 178 183 184 184 180 176 170 163 155 155 158 157 157 156 154 149 142 141 145 148 155 155 145 134 115 110 134 162 174 175 172 160 141 128 116 110 102 90 90 90 78 90 110 125 137 135 136 139 137 133 133 141 150 150 142 136 141 155 160 147 133 120 121 121 122 129 141 162 177 189 200 208 206 194 183 177 172 168 163 158 146 130 124 131 139 139 131 125 128 129 124 120 119 121 120 105 97 96 85 86 116 151 178 198 206 212 218 214 208 209 212 211 205 209 210 204 203 200 193 192 190 193 202 208 209 216 218 213 214 212 209 215 222 221 215 202 189 180 -9999 
-9999 34 27 35 51 61 74 100 122 122 116 112 100 90 84 80 80 97 115 115 111 115 127 145 165 179 182 172 159 149 137 130 121 102 85 72 62 58 61 66 69 72 72 64 52 67 118 143 151 152 142 130 120 126 142 151 147 143 143 149 160 168 171 167 160 148 137 126 118 119 121 121 116 104 99 104 107 107 123 159 169 158 145 136 128 120 115 113 113 111 110 114 121 127 133 139 143 147 152 156 156 153 152 151 146 139 130 128 135 141 141 134 133 145 152 151 147 142 141 137 138 142 141 129 116 112 121 126 102 75 72 95 128 140 145 147 139 135 155 173 174 180 189 195 198 195 189 183 175 177 188 191 185 182 180 180 179 176 170 164 161 163 163 160 156 153 154 155 149 147 149 155 158 150 140 131 123 119 118 119 114 113 120 126 129 135 146 153 152 151 154 162 165 160 154 147 141 137 130 122 133 143 141 137 133 128 123 125 135 137 130 119 104 101 113 115 104 100 103 98 86 73 68 72 72 77 103 120 116 114 115 116 116 114 111 109 111 114 123 137 135 119 109 107 104 106 144 178 189 195 200 197 179 159 162 176 177 166 165 168 174 178 179 177 171 161 154 157 160 158 156 152 145 138 132 134 142 149 152 146 134 120 110 123 146 156 158 153 143 127 116 116 116 120 106 82 83 87 83 104 125 139 150 149 143 135 125 122 129 141 145 145 146 145 144 146 143 129 124 125 130 133 138 142 146 163 180 186 186 193 196 191 183 173 161 158 162 163 156 146 143 149 150 144 138 138 139 142 140 134 129 127 123 104 94 87 81 97 139 180 205 213 206 198 202 203 206 211 212 204 192 190 199 205 204 197 187 182 181 183 194 206 209 213 217 212 208 210 211 215 218 213 208 204 196 191 -9999 
-9999 43 34 47 54 53 64 83 97 96 97 100 96 88 77 72 81 105 124 113 100 111 139 166 184 195 197 188 171 152 139 136 119 93 79 68 60 55 56 61 67 73 75 66 60 83 131 147 151 150 138 122 115 129 143 145 139 135 134 135 142 151 154 151 148 143 138 130 127 126 122 120 114 103 102 110 119 122 125 148 163 164 157 150 143 129 110 101 102 104 106 111 118 121 125 131 134 141 153 160 161 155 148 141 134 123 116 123 136 145 148 148 152 160 158 151 143 140 145 150 155 160 159 148 130 128 136 128 101 81 77 94 126 145 143 137 134 135 149 165 181 193 190 187 194 198 196 188 178 177 178 178 180 183 183 179 175 169 165 163 166 173 172 161 152 148 149 146 140 140 145 151 152 143 130 124 121 118 118 118 111 112 126 131 131 137 149 155 154 151 155 165 168 161 154 144 137 133 127 122 136 146 141 138 136 133 132 135 138 133 127 122 115 120 127 120 111 107 106 98 86 74 73 73 64 67 88 101 107 120 126 123 118 115 112 107 107 111 116 121 115 102 96 95 93 122 179 191 187 191 192 187 176 170 176 182 174 166 164 161 162 159 158 163 162 157 153 154 156 156 155 150 144 139 136 141 152 157 150 141 130 122 129 151 160 155 152 144 131 116 113 116 115 109 85 69 87 97 92 102 112 122 135 135 130 127 129 139 147 147 139 132 130 127 127 127 120 119 137 149 148 148 151 155 163 170 177 180 185 190 194 189 173 163 161 162 162 159 156 155 162 166 159 151 150 151 151 151 147 143 139 132 118 96 85 74 71 98 153 207 229 232 221 201 193 193 198 204 206 195 183 182 185 186 190 191 192 199 201 195 194 198 202 205 208 206 205 209 211 208 204 198 196 199 203 209 -9999 
-9999 69 60 72 67 59 68 75 73 69 68 72 76 75 69 70 85 109 117 104 99 124 153 175 186 186 182 172 154 138 136 131 106 82 73 64 57 53 57 67 75 79 77 64 59 85 137 159 158 150 136 123 123 137 141 136 132 130 129 127 132 135 131 123 115 114 118 125 137 138 126 115 104 96 103 116 129 133 124 144 159 160 156 152 143 127 110 106 110 110 113 118 122 123 124 132 137 139 141 142 147 145 134 122 113 109 122 137 144 151 150 147 155 168 168 160 154 152 158 165 167 167 159 148 132 133 139 117 96 82 76 92 123 142 143 137 132 134 150 167 185 194 190 190 195 199 199 196 198 199 190 184 185 185 182 178 172 169 166 166 169 173 168 156 150 150 150 145 139 139 144 148 146 132 117 109 107 107 110 110 106 114 127 132 134 142 153 160 160 159 167 179 177 167 158 147 140 136 131 131 140 144 138 137 137 140 147 150 143 132 128 128 123 122 122 117 112 109 107 101 94 86 82 78 65 62 76 82 94 122 134 123 111 106 102 98 98 100 102 105 103 98 95 94 107 161 207 209 198 189 180 171 168 172 177 176 172 171 166 156 149 149 158 162 158 153 154 155 157 157 153 149 147 146 147 156 160 146 132 133 138 147 161 165 151 144 151 150 144 141 138 129 117 94 69 75 96 92 84 95 107 116 120 119 123 135 152 158 148 142 144 141 130 124 127 122 117 121 128 128 131 142 152 168 186 193 190 192 199 193 185 179 171 169 168 161 150 145 149 159 165 159 155 156 149 145 148 148 142 137 135 132 106 76 67 60 70 112 171 213 228 234 235 225 211 200 197 198 198 181 172 171 171 173 186 199 203 202 201 198 195 195 195 196 203 215 216 208 197 190 193 198 197 198 204 207 -9999 
-9999 125 111 100 83 78 86 84 72 64 61 59 61 61 64 77 100 118 118 115 133 164 172 176 178 171 157 141 123 119 122 110 87 73 68 63 60 59 68 80 85 88 85 70 65 102 154 173 170 154 138 135 135 133 127 119 122 131 137 140 142 136 130 121 105 100 102 113 128 133 125 116 113 117 124 130 131 124 115 142 161 153 147 141 129 117 114 128 137 130 121 118 121 125 126 130 129 125 120 120 128 130 120 108 102 105 121 128 134 141 134 132 147 163 168 163 163 168 168 168 172 168 149 134 129 131 125 103 92 86 82 94 116 134 143 145 139 143 158 170 181 187 200 210 209 203 197 197 202 206 203 198 193 189 184 178 174 171 169 168 168 165 158 153 157 160 156 150 145 144 147 148 143 128 113 106 107 111 113 111 111 118 127 132 135 143 154 164 172 178 188 195 187 175 167 157 150 144 139 139 144 146 143 140 142 147 154 156 150 142 141 138 130 125 122 115 112 111 109 106 102 95 86 80 61 52 64 75 99 126 122 105 99 100 98 96 98 100 101 102 101 100 102 105 126 166 187 192 194 187 180 176 175 175 176 174 174 166 154 152 156 167 174 168 157 153 155 159 161 154 140 135 143 152 156 158 149 135 137 149 162 169 164 144 123 131 150 154 154 155 152 140 123 98 86 98 103 87 85 105 119 130 133 132 132 136 141 126 115 125 133 130 124 127 124 115 114 116 117 117 123 142 170 192 200 198 194 194 194 185 174 166 164 166 159 148 142 140 143 150 154 159 164 161 154 148 144 138 131 126 120 110 85 65 64 67 97 152 189 209 218 223 226 224 217 212 210 207 202 193 193 188 193 194 190 197 201 201 202 201 198 196 191 185 185 194 201 201 191 180 180 188 191 187 185 183 -9999 
-9999 193 174 144 119 108 98 85 74 84 85 73 66 58 63 79 102 119 125 135 165 188 186 179 175 168 152 127 109 106 103 85 67 60 60 64 68 72 76 79 80 88 93 83 93 146 186 194 184 163 147 141 130 117 112 116 129 136 139 147 151 150 148 134 109 98 102 117 130 135 134 135 142 151 150 140 129 114 105 127 150 151 146 138 125 118 122 138 148 145 142 145 150 145 131 122 117 114 116 119 121 118 111 108 110 117 120 113 116 121 120 131 148 157 162 160 159 155 145 148 154 148 132 123 120 113 104 99 99 95 87 91 109 129 140 144 144 158 167 170 178 185 195 206 211 206 197 191 193 200 204 202 197 192 186 181 176 173 169 166 164 159 155 156 161 163 160 155 152 150 149 147 143 131 119 119 125 127 124 119 120 124 128 131 133 139 149 163 176 186 195 198 191 181 173 161 153 149 145 143 146 149 148 147 150 155 156 155 151 150 150 144 134 132 129 122 118 115 113 111 109 97 81 69 49 49 74 94 113 113 95 90 100 107 106 103 103 103 102 98 90 89 97 106 126 155 167 180 198 205 202 194 188 183 178 171 163 151 153 167 175 178 169 157 150 152 158 164 165 156 144 142 148 153 150 144 140 151 170 181 183 170 148 127 121 140 152 146 142 143 138 124 112 106 108 111 109 96 97 114 122 135 148 152 146 140 128 113 117 124 115 105 113 126 126 126 129 127 131 139 147 162 185 199 197 187 186 189 183 174 169 165 160 158 155 152 144 134 134 138 142 156 166 161 156 156 155 148 140 135 121 101 75 63 77 102 151 188 196 207 217 223 221 216 212 213 210 205 204 210 213 198 192 200 204 202 200 204 209 206 200 196 191 186 178 173 180 187 187 187 182 175 170 169 168 169 -9999 
-9999 210 205 198 189 170 143 117 106 113 103 86 77 68 69 74 85 99 107 125 161 186 187 174 160 152 139 120 107 98 85 66 56 56 58 62 68 65 59 58 63 81 94 91 116 169 200 204 188 169 156 142 122 105 108 127 138 133 131 136 145 152 151 134 104 94 116 143 154 155 154 155 154 150 141 134 132 123 116 130 146 148 145 133 122 123 134 146 149 151 160 174 177 158 135 126 125 127 130 128 123 117 117 126 138 148 149 141 136 134 133 141 149 153 155 150 142 133 132 141 139 128 119 118 115 105 101 103 104 100 87 92 114 131 138 140 145 162 168 167 181 191 191 191 195 196 196 195 197 200 200 199 196 192 187 181 176 171 168 165 163 158 154 153 154 156 158 159 155 148 147 146 142 133 126 128 131 131 129 126 126 126 126 128 131 135 144 158 171 180 187 189 185 180 174 161 153 152 151 150 152 154 151 151 157 162 159 155 154 153 150 140 134 138 136 128 124 120 116 114 105 85 65 55 49 68 100 110 111 105 105 110 116 115 111 108 107 106 101 90 78 81 96 112 138 169 187 204 217 219 212 200 189 175 168 163 156 154 168 180 180 173 159 149 146 151 161 169 171 168 166 169 163 152 141 138 151 172 189 196 186 164 146 135 134 146 149 137 135 139 132 121 116 120 118 115 115 96 95 120 135 146 149 149 149 149 139 132 137 136 123 115 121 132 143 149 147 140 137 140 158 177 177 171 167 165 167 169 168 164 161 157 157 161 161 153 141 139 147 156 155 152 150 148 151 158 165 163 156 144 124 104 77 67 88 126 171 191 188 191 203 215 218 218 212 203 192 185 187 197 204 194 175 168 175 185 197 203 202 200 198 195 194 199 196 182 175 173 172 180 186 180 165 160 161 164 -9999 
-9999 206 207 211 212 209 202 185 167 138 103 92 93 92 87 75 70 74 77 98 136 158 163 152 135 124 116 108 100 85 71 62 60 62 60 60 59 48 39 49 60 79 88 88 121 165 187 188 176 167 159 143 127 117 127 143 142 141 142 141 145 147 143 124 97 98 136 165 174 173 166 160 148 132 122 125 132 131 131 143 151 147 140 125 112 114 125 136 141 142 147 152 144 129 125 125 125 131 134 133 132 129 130 137 146 159 170 171 167 161 153 148 146 141 134 126 123 133 147 155 148 136 129 130 129 119 111 105 105 102 86 95 111 120 132 142 153 162 162 170 192 201 197 188 185 192 200 203 202 195 188 191 194 192 185 179 174 170 168 167 166 162 159 161 159 156 152 150 143 138 143 145 143 137 132 132 132 132 132 129 124 123 123 126 132 139 148 160 169 178 183 182 180 181 176 164 158 156 158 162 162 158 150 151 162 167 162 158 157 156 151 143 140 143 135 125 123 121 117 109 89 65 53 51 61 85 108 112 108 116 135 136 125 117 112 110 110 108 102 89 82 96 115 132 154 181 204 220 223 214 199 191 182 164 157 155 157 161 167 167 163 162 159 154 151 155 163 167 169 168 168 170 165 155 148 155 173 188 197 198 185 166 149 135 127 131 132 124 128 133 135 131 123 118 106 104 104 85 94 115 124 131 133 132 133 138 140 138 139 140 137 134 137 140 139 137 137 136 135 143 163 173 164 150 147 150 152 152 155 155 153 152 154 160 161 155 151 157 163 165 162 155 147 143 151 160 163 158 146 131 111 92 75 79 107 141 174 194 196 194 199 207 207 204 203 199 189 180 176 183 199 205 190 163 148 156 178 193 193 189 186 186 188 190 187 171 162 164 170 171 167 166 161 153 150 153 -9999 
-9999 203 204 207 208 209 210 205 201 186 160 149 139 126 113 90 76 70 70 88 107 109 104 99 98 100 97 95 89 72 64 67 68 63 61 63 57 42 40 60 76 88 88 93 131 165 178 175 163 154 150 142 136 135 145 154 156 160 158 153 151 146 135 115 95 104 141 167 176 174 167 157 136 122 115 112 117 123 125 126 135 137 129 115 105 110 119 129 135 135 136 135 122 110 113 114 117 127 130 137 144 143 141 140 142 152 161 165 169 169 161 156 154 146 136 125 128 149 163 168 166 157 154 152 145 130 122 111 105 96 85 94 100 109 132 150 157 160 164 180 202 207 204 197 194 197 202 204 201 189 182 188 191 189 185 181 175 170 167 167 167 166 168 168 159 151 144 137 129 133 144 147 146 141 135 136 137 135 130 124 121 121 120 124 135 143 148 160 174 182 184 183 182 183 177 168 162 160 164 169 164 155 148 156 170 171 165 160 156 151 145 138 136 133 118 113 119 119 113 98 75 57 51 54 66 86 107 110 102 105 118 124 122 117 112 111 113 113 107 99 101 117 132 146 160 179 196 208 210 202 194 192 185 171 165 161 157 156 154 150 149 153 157 158 158 158 155 153 155 156 156 154 157 161 166 175 184 190 191 189 181 162 140 123 113 119 124 120 121 130 135 122 105 97 85 85 85 74 91 106 111 122 131 138 137 136 136 139 144 144 143 147 154 155 143 135 134 134 136 152 165 164 161 161 160 159 157 154 152 149 151 154 153 155 153 152 153 156 158 159 159 164 169 166 166 167 159 146 131 117 98 84 84 103 141 175 195 207 213 213 212 211 209 205 203 201 194 188 186 188 192 194 193 194 185 177 179 187 185 178 176 180 182 177 170 171 174 174 177 173 160 151 148 148 147 145 -9999 
-9999 187 197 201 202 204 205 205 208 209 208 205 188 168 150 126 116 107 97 96 92 82 72 65 65 72 77 81 76 60 62 75 76 67 68 74 64 50 55 76 93 107 117 132 157 171 175 171 152 138 137 136 128 129 138 146 149 150 146 148 153 150 134 111 97 102 128 158 170 164 155 141 122 121 117 111 113 118 113 104 114 121 116 109 111 124 135 138 135 130 131 131 122 113 118 123 132 142 145 149 147 142 146 146 141 144 148 153 166 170 166 164 163 159 151 142 149 166 174 176 177 176 177 170 152 134 128 115 106 104 102 106 103 115 141 153 153 159 169 187 204 210 212 212 206 200 198 203 205 201 200 199 194 188 183 179 173 168 168 168 166 165 165 156 146 147 147 142 139 146 151 149 145 136 130 134 138 133 123 115 114 116 119 124 133 136 138 155 175 184 184 181 181 181 176 170 164 162 166 166 159 150 149 164 178 175 167 163 157 149 142 132 129 126 115 115 120 113 102 89 72 56 52 58 69 88 103 96 83 82 96 113 123 124 117 115 119 117 110 110 118 128 144 161 175 189 198 202 202 199 201 201 193 184 183 179 168 161 160 159 158 156 157 158 155 151 146 145 146 147 141 139 153 167 176 182 186 189 188 182 172 151 127 112 113 129 136 129 126 136 131 105 90 87 85 87 83 74 90 110 123 138 150 157 153 146 142 146 155 156 156 155 157 157 152 150 148 145 146 157 159 159 165 169 166 162 162 158 152 149 152 154 152 152 148 150 155 157 159 163 169 175 177 172 169 165 152 133 115 101 89 85 94 122 169 204 215 216 217 219 217 207 200 198 197 192 194 201 204 199 190 186 196 208 204 191 183 190 195 195 190 187 186 181 177 185 185 178 172 166 157 143 132 134 142 146 -9999 
-9999 164 177 185 192 199 203 204 206 209 210 210 205 200 191 180 176 169 147 120 98 84 73 63 58 59 62 66 60 51 62 80 82 75 80 86 73 67 81 106 126 148 168 179 181 176 172 156 133 130 135 122 104 103 114 121 121 122 122 127 132 128 114 95 88 89 111 147 159 151 139 126 118 123 127 131 132 130 118 104 110 115 113 111 119 135 144 143 134 130 133 136 133 135 143 144 145 151 156 156 144 138 140 137 125 127 132 144 163 169 170 174 174 168 160 158 165 170 167 163 164 170 175 166 147 131 124 113 113 123 124 116 107 121 145 153 157 166 176 191 205 211 217 218 213 204 196 198 202 206 210 206 198 188 181 176 171 170 172 171 166 162 158 150 150 155 155 153 154 157 153 148 141 132 129 131 131 123 111 107 107 112 118 122 129 133 142 160 176 183 181 175 173 174 172 166 161 161 163 162 155 150 152 168 179 176 169 165 160 154 149 139 135 134 132 134 128 110 97 90 77 64 64 72 82 94 98 88 76 79 94 113 129 133 125 127 128 116 105 108 119 132 159 182 195 206 209 206 202 201 201 198 191 186 186 185 178 174 175 175 170 165 167 168 164 161 160 155 151 145 136 139 155 166 170 173 180 188 187 178 168 152 127 117 126 136 138 134 133 136 118 90 84 88 95 93 86 87 105 124 135 148 160 162 155 153 153 155 155 156 160 159 159 159 158 162 166 162 160 158 154 157 164 167 165 161 160 158 159 158 159 163 164 158 151 155 159 159 161 163 166 167 160 152 150 147 138 128 112 96 90 92 110 150 196 217 220 215 213 216 211 201 187 183 184 186 199 209 213 205 195 192 195 198 195 185 178 183 194 204 203 191 179 173 175 178 172 159 152 150 141 126 120 126 139 154 -9999 
-9999 139 143 157 175 188 195 200 202 202 204 206 208 208 207 207 210 207 187 160 130 104 87 75 69 69 69 67 58 51 62 75 79 78 86 90 84 90 112 143 173 193 204 203 193 177 157 127 112 119 117 95 78 74 86 95 99 105 107 107 97 89 83 75 75 79 103 137 140 130 125 123 122 127 136 141 138 137 128 109 110 121 126 125 135 140 134 129 127 135 144 149 150 152 153 145 139 141 149 150 140 137 135 125 113 120 127 143 163 170 175 184 188 186 182 178 171 163 156 153 157 160 157 148 137 128 123 113 114 123 122 108 104 123 146 157 165 171 177 191 202 206 207 205 203 201 199 201 203 202 204 206 197 186 183 180 176 176 176 173 168 162 159 158 160 159 154 154 154 151 146 142 138 136 136 135 132 123 114 111 107 113 121 122 129 140 156 171 181 184 181 175 176 179 175 165 159 157 159 158 151 147 150 162 176 178 172 167 162 153 145 141 141 143 143 141 127 111 104 101 92 84 85 90 99 106 106 99 90 94 106 124 141 143 133 137 132 116 107 112 124 145 181 201 210 218 217 211 206 200 192 187 183 177 170 169 170 174 180 178 172 172 178 181 179 178 178 172 167 159 150 155 166 167 163 163 173 186 188 178 170 160 136 126 130 130 134 130 129 132 113 94 90 90 89 85 90 104 120 127 131 146 159 160 156 159 161 156 150 151 156 161 163 161 161 167 173 172 170 163 160 166 166 160 156 152 146 148 158 164 167 168 167 163 163 167 167 167 170 168 164 153 141 146 148 140 134 127 112 101 99 107 139 189 218 228 226 215 209 214 209 205 199 193 189 196 205 208 211 212 210 204 197 194 194 191 182 181 190 197 197 189 177 171 172 172 167 157 148 136 122 118 130 143 154 164 -9999 
-9999 116 120 135 148 163 177 183 182 183 193 203 208 208 207 210 213 213 206 198 183 153 118 92 82 81 77 65 52 51 63 74 79 83 93 102 107 117 137 162 189 206 210 200 188 167 135 110 102 102 90 74 63 59 74 88 96 101 99 94 84 86 87 81 83 87 110 133 128 120 125 133 138 145 147 138 126 131 127 110 114 135 146 150 154 139 120 120 129 144 155 158 156 153 145 136 138 144 148 142 129 131 132 129 131 141 149 161 166 158 155 169 187 196 197 192 182 175 171 171 172 163 150 141 131 125 119 109 109 114 112 103 107 125 147 161 168 173 178 189 196 198 194 189 190 198 207 211 208 206 208 205 191 185 185 183 180 176 174 168 162 162 166 167 166 164 162 163 157 149 146 143 139 139 139 136 132 129 125 117 113 122 133 132 137 151 163 170 175 180 182 183 189 193 186 174 166 158 155 155 150 148 149 163 182 181 171 166 159 146 140 140 138 137 136 133 124 114 117 118 112 100 90 95 104 106 107 101 93 98 114 137 157 154 139 136 131 126 129 142 159 181 205 216 220 221 218 215 210 200 188 182 176 166 157 155 160 172 178 172 165 168 176 180 178 177 180 181 183 178 172 177 183 177 167 164 173 182 182 172 171 165 135 120 120 125 129 124 128 130 115 102 97 94 93 94 102 110 116 116 126 146 159 160 159 162 165 164 162 163 161 160 165 171 175 176 177 181 181 175 176 174 163 157 154 151 146 144 146 153 159 156 149 151 166 176 181 183 180 172 163 152 153 162 156 145 140 129 114 108 112 133 180 214 226 231 231 222 212 217 214 210 209 205 200 202 200 196 199 209 213 206 199 198 192 183 176 181 189 189 188 188 185 176 167 163 160 158 148 127 121 135 154 168 187 200 -9999 
-9999 126 135 138 134 138 146 149 149 163 183 200 206 205 205 207 210 211 210 209 208 202 176 142 119 102 86 70 63 68 77 85 90 94 97 101 112 128 147 165 183 196 193 182 168 138 113 101 96 95 88 78 67 66 88 106 112 109 106 101 102 114 115 108 108 110 125 139 135 123 121 133 147 151 141 127 119 126 125 115 124 142 155 158 150 134 135 147 152 151 148 148 149 145 131 124 136 138 132 124 121 124 117 118 127 138 157 167 156 136 137 157 173 181 186 189 191 191 183 177 173 166 160 150 141 133 116 106 105 111 112 106 108 124 146 156 162 174 184 194 197 195 189 185 189 196 204 207 206 210 213 205 191 188 185 181 175 172 169 162 158 159 161 163 167 170 170 164 150 143 146 146 144 146 141 131 129 130 121 111 115 133 146 142 145 157 165 167 168 172 173 177 188 196 190 177 168 160 159 162 160 162 167 183 194 179 161 156 150 137 129 129 130 132 134 135 125 116 117 112 105 93 84 90 96 98 102 94 88 98 115 138 154 148 134 129 133 147 162 179 195 204 209 214 219 221 218 216 210 193 181 177 171 165 165 167 172 178 175 162 153 154 163 170 172 174 177 180 182 181 182 189 192 186 181 183 186 181 168 158 161 146 114 109 115 118 115 120 132 132 120 109 106 108 107 108 110 109 111 118 141 163 168 168 166 166 168 173 175 175 174 177 183 186 187 185 183 187 186 186 183 166 146 146 148 151 156 153 147 148 153 153 148 150 162 170 173 174 172 166 157 151 152 148 137 134 134 124 116 117 138 181 217 223 226 228 229 224 212 209 209 207 206 207 207 201 192 184 181 185 190 189 194 197 187 173 170 178 187 187 186 190 193 186 174 159 150 150 137 132 146 166 183 196 204 211 -9999 
-9999 147 157 152 139 132 130 132 147 172 185 187 185 182 188 201 207 208 208 208 210 209 205 199 185 160 131 106 94 93 94 97 97 96 92 96 112 124 137 157 175 183 177 170 155 122 105 97 95 103 102 93 86 93 117 126 125 128 133 134 140 145 139 132 128 127 136 150 152 140 128 129 131 126 119 112 115 126 127 124 130 142 153 152 142 144 158 165 160 144 131 130 132 121 107 108 118 111 108 118 122 122 125 135 140 144 157 159 143 134 143 153 152 154 162 165 170 175 170 164 161 161 160 154 149 131 108 105 113 128 128 111 107 125 147 154 157 163 178 193 195 187 184 188 195 198 198 199 203 206 206 201 190 186 181 171 163 164 166 159 153 152 148 144 149 155 151 140 130 132 140 144 150 151 139 131 134 129 113 105 117 135 141 138 145 156 165 171 177 178 174 175 184 189 179 167 161 157 160 167 171 177 186 198 199 178 161 154 145 127 118 122 125 128 131 133 126 116 110 104 100 92 87 90 97 106 112 102 95 98 109 128 137 132 124 127 150 178 191 196 203 209 214 215 217 223 226 221 203 177 165 161 160 167 180 184 188 184 170 154 144 145 153 161 168 173 173 170 170 174 177 180 182 182 188 193 189 177 161 149 141 118 104 114 113 100 99 121 133 126 119 113 113 112 107 110 116 116 118 129 150 166 170 173 171 167 167 170 173 180 186 191 191 184 183 183 183 184 186 193 190 174 163 159 151 147 151 154 155 154 152 155 158 160 162 157 148 147 154 156 151 140 132 126 120 121 121 114 118 141 182 218 226 221 221 220 219 217 206 198 199 196 191 191 191 187 188 189 183 174 170 174 185 191 190 188 181 171 172 177 174 174 180 183 182 174 166 157 139 148 170 187 201 207 200 192 -9999 
-9999 145 152 144 136 138 137 138 149 160 156 148 144 149 172 193 199 201 203 205 206 204 206 208 207 201 188 164 142 125 112 102 96 93 94 107 119 119 126 143 157 161 157 153 143 124 118 121 129 137 127 114 111 122 143 147 146 150 156 160 159 158 152 145 141 139 144 158 158 147 142 139 126 116 111 109 116 127 130 132 134 139 148 152 154 163 168 164 154 141 130 122 110 92 87 98 109 105 111 131 139 142 152 162 160 156 159 158 150 149 153 153 148 148 158 161 161 164 165 164 157 148 146 146 135 115 105 114 130 142 132 115 116 137 157 161 157 156 169 181 189 194 197 203 208 207 204 204 205 201 194 186 182 182 180 171 163 163 162 155 148 145 140 141 143 140 131 124 125 133 139 138 139 135 125 127 126 115 106 102 115 129 126 128 139 151 160 167 175 183 190 187 183 182 171 163 157 153 159 168 175 184 193 196 190 175 162 151 138 124 123 131 135 134 133 136 130 116 108 107 101 91 85 89 103 115 118 104 93 100 117 133 138 138 138 150 178 199 201 197 203 212 221 224 225 229 234 225 196 171 162 154 146 150 158 163 171 173 163 153 152 163 176 177 171 164 154 147 152 161 167 171 174 177 183 187 184 177 166 152 138 123 122 124 104 86 98 121 120 109 109 109 110 108 106 113 121 124 128 138 151 156 158 164 165 164 169 175 181 191 197 199 195 189 188 185 183 182 183 189 186 179 182 180 167 159 155 149 144 139 138 145 150 153 152 141 134 142 149 148 146 142 135 130 123 115 107 105 128 171 209 225 224 218 214 209 203 202 203 201 198 190 180 173 175 187 199 202 200 191 179 173 178 185 193 193 180 160 146 143 147 152 156 165 170 165 162 154 151 174 191 201 203 200 196 194 -9999 
-9999 125 124 117 121 135 141 140 136 130 123 122 129 151 176 180 178 182 192 201 202 203 206 208 208 207 205 201 195 183 161 143 133 124 121 123 119 116 126 140 146 148 149 148 141 128 132 148 166 169 155 143 136 138 153 163 167 165 164 165 159 160 154 144 141 139 148 158 154 140 138 140 132 122 113 107 115 123 125 125 123 124 138 153 161 168 165 152 141 136 131 122 103 84 86 105 116 112 115 133 147 155 156 154 152 154 162 156 142 144 157 167 169 163 157 158 166 170 171 171 162 155 155 150 138 131 129 130 130 126 119 113 116 138 161 164 160 163 179 185 196 210 214 214 211 206 205 209 211 206 199 193 190 187 179 170 164 163 158 151 145 147 152 155 149 139 131 128 137 145 141 132 128 123 116 115 107 103 103 102 112 117 113 119 131 141 148 155 166 182 190 184 185 184 175 168 160 160 169 176 180 188 190 185 175 159 143 134 138 141 144 152 157 150 149 153 140 125 115 102 89 84 80 82 95 109 113 93 84 104 131 149 156 158 159 168 187 199 198 197 208 216 222 229 233 234 234 215 182 164 163 161 151 144 142 145 155 159 157 158 166 184 197 191 172 154 145 149 159 163 167 173 174 177 181 182 177 171 163 154 144 135 134 122 95 83 96 106 102 99 103 110 114 114 114 118 125 132 137 149 163 168 166 165 163 166 177 189 197 202 202 200 197 194 192 187 185 184 182 180 172 165 168 171 172 170 157 139 132 133 138 142 142 143 139 128 135 148 146 144 150 152 147 141 128 109 98 106 142 177 201 216 220 217 213 209 202 198 199 197 194 190 190 192 195 199 202 202 201 198 192 191 193 193 193 187 177 166 154 146 148 154 157 157 156 157 163 168 184 203 207 207 203 192 185 187 -9999 
-9999 123 113 106 113 126 134 134 131 127 123 123 141 168 179 173 171 174 179 187 193 199 204 206 206 205 204 204 206 206 202 197 189 177 169 160 147 140 148 153 151 150 152 152 148 143 149 159 166 166 163 153 139 143 154 155 157 157 157 157 154 151 137 124 125 134 147 149 147 144 145 143 134 126 117 109 114 114 109 105 98 100 123 144 151 157 149 129 122 122 126 124 114 104 117 133 134 124 124 132 134 135 141 152 159 167 167 148 132 139 150 157 165 169 164 160 164 168 177 182 173 169 167 162 161 161 146 127 111 108 115 115 115 135 155 160 160 163 183 198 209 214 215 214 211 207 205 205 209 213 212 206 197 182 166 157 154 154 151 146 143 150 157 154 148 142 134 128 139 147 142 139 137 128 117 112 108 110 111 113 118 119 116 121 133 141 152 164 175 188 190 189 197 191 174 167 165 169 177 184 188 191 186 178 166 149 141 148 161 162 158 161 154 139 147 159 145 129 108 90 87 93 92 89 95 100 93 73 71 101 134 160 171 168 161 161 171 179 182 192 207 218 225 231 233 228 220 192 163 147 147 148 149 155 158 158 161 158 157 163 173 185 192 183 165 157 163 173 175 170 170 167 166 173 177 172 161 152 144 136 127 124 123 108 86 80 86 96 101 102 108 118 121 117 117 124 132 137 142 154 169 176 177 175 175 180 190 200 206 207 199 191 188 187 186 184 184 185 187 181 172 168 170 173 177 171 152 139 144 152 154 151 146 142 133 128 135 137 134 145 158 155 151 142 122 107 113 139 170 187 201 214 219 220 219 220 217 212 206 197 193 195 201 206 205 199 196 194 187 182 188 199 202 195 189 185 181 174 170 172 173 168 160 149 155 180 195 199 208 212 209 207 204 197 187 183 -9999 
-9999 128 120 118 123 129 127 123 128 135 130 125 141 155 158 159 164 164 161 167 178 186 196 200 200 202 203 205 208 208 207 208 205 198 195 196 191 192 197 186 168 159 154 148 142 140 145 146 145 146 147 129 110 122 135 144 148 146 147 147 139 122 105 98 106 123 129 123 126 132 133 133 129 128 118 110 117 109 103 99 84 78 98 121 134 138 124 106 109 118 125 125 122 129 149 160 154 147 151 157 148 136 133 140 150 162 164 151 147 145 135 133 140 150 160 169 173 178 189 188 177 176 177 179 180 165 135 111 103 118 134 129 123 133 146 155 154 154 175 200 213 215 214 214 217 220 214 205 205 209 205 196 183 166 155 153 149 143 143 141 138 140 143 143 143 141 133 128 140 148 144 144 142 133 121 117 117 119 119 120 126 130 130 139 147 153 164 171 181 196 200 201 205 196 180 176 173 172 176 184 190 190 184 176 162 153 161 170 170 164 152 146 137 131 150 153 134 116 97 86 90 100 97 91 100 99 85 72 79 114 148 165 169 163 155 152 156 162 171 188 205 217 219 221 222 215 201 173 146 131 128 124 131 147 159 165 169 166 163 171 177 181 181 169 155 160 170 174 175 174 173 169 171 176 171 161 151 141 128 115 109 109 109 97 82 81 91 105 111 110 121 133 131 122 121 127 134 140 147 160 169 172 174 181 190 196 202 206 206 202 193 187 188 191 187 183 181 182 184 180 176 175 175 171 166 160 154 158 166 168 165 160 153 147 143 142 139 131 127 140 141 128 127 119 109 114 139 176 195 203 210 216 221 223 224 223 221 215 206 196 194 195 197 199 199 198 189 176 166 167 177 186 185 182 179 175 170 163 163 170 173 166 155 154 174 196 206 206 206 206 204 203 206 206 199 192 -9999 
-9999 131 133 135 136 136 129 124 131 141 141 143 149 141 135 135 134 130 129 141 155 167 180 183 185 193 200 202 203 204 204 205 207 203 204 209 211 215 217 207 196 187 171 155 140 128 123 122 124 127 125 108 94 108 123 134 132 124 121 116 106 91 85 86 99 109 102 101 115 122 120 121 121 117 102 101 115 112 110 105 83 78 105 123 126 118 100 90 99 111 122 127 127 139 156 165 161 159 170 179 174 164 151 145 146 154 163 168 171 165 155 150 145 141 145 152 161 175 180 173 172 182 192 195 182 147 118 107 112 134 145 130 115 124 141 152 149 149 177 204 214 215 214 214 217 220 221 218 212 203 193 182 168 156 152 153 144 135 136 134 130 132 136 137 136 132 128 134 150 152 137 134 138 134 127 125 125 128 129 127 129 132 139 152 152 155 165 171 184 198 203 205 208 200 191 189 180 173 175 182 187 186 181 175 163 163 173 173 162 156 139 129 127 131 148 138 115 100 93 84 86 103 98 95 100 94 90 88 99 129 153 158 159 156 150 149 157 168 177 190 205 216 218 218 215 203 181 151 126 119 123 125 132 144 155 162 168 167 170 180 181 176 169 155 148 161 167 168 173 177 179 177 179 178 166 155 146 134 120 111 110 110 106 96 88 92 105 119 126 127 140 149 140 131 130 130 136 145 157 168 173 174 179 189 198 202 203 203 201 195 188 185 186 187 183 179 174 171 171 171 173 175 173 166 158 155 162 174 176 172 166 161 157 156 154 152 150 141 133 129 115 104 107 104 112 138 177 206 212 211 211 213 217 219 219 217 213 208 200 194 191 189 191 193 195 192 181 168 163 170 175 173 169 166 159 156 158 161 163 163 164 165 162 167 178 189 195 197 197 197 194 194 201 209 208 202 -9999 
-9999 144 147 147 146 144 139 138 140 143 147 154 156 140 126 116 109 105 104 113 127 136 135 137 148 170 185 188 189 193 197 200 204 203 206 210 210 211 210 206 207 207 197 185 171 157 148 146 144 137 123 106 102 121 132 126 113 106 102 95 87 81 84 91 109 116 113 125 141 144 143 142 135 125 115 124 137 131 124 121 110 125 161 156 136 119 98 92 103 117 126 122 118 130 145 155 156 159 169 175 178 176 171 174 172 166 165 173 182 185 190 187 175 170 170 164 163 173 175 173 179 188 195 191 164 125 113 116 121 131 135 121 116 132 144 150 151 161 196 217 220 220 220 220 219 218 221 221 212 198 186 175 162 152 147 145 137 134 137 134 129 130 135 139 139 133 132 142 154 146 124 124 130 127 126 129 133 139 141 136 134 137 147 155 151 158 173 184 192 195 197 203 206 201 191 186 179 176 177 182 187 184 179 174 170 174 178 169 148 139 126 118 112 113 129 114 93 90 88 80 87 107 103 103 96 81 84 92 100 119 146 164 173 168 157 155 164 177 183 188 198 211 219 220 210 188 161 134 119 122 131 141 151 159 161 161 161 160 168 179 177 167 160 151 153 170 175 170 170 173 177 177 174 168 160 152 145 137 129 125 122 117 108 99 96 101 111 125 135 137 145 149 140 136 136 135 143 156 165 171 176 180 189 198 204 206 206 206 203 196 189 185 183 180 176 175 172 171 169 167 169 171 171 170 169 168 170 175 174 167 157 154 155 154 154 155 155 152 150 133 109 105 111 112 126 159 194 211 212 207 203 202 205 208 211 213 212 208 208 207 201 195 193 193 193 189 184 180 178 180 178 173 168 159 147 143 147 152 156 159 169 183 189 187 179 175 175 178 181 184 188 188 190 200 207 204 -9999 
-9999 149 150 152 155 155 149 145 145 144 139 135 133 128 119 111 104 100 100 108 117 115 106 108 121 142 153 158 166 177 185 194 199 198 201 204 204 205 206 206 206 208 207 205 201 196 194 194 189 178 163 148 145 158 166 159 150 146 142 134 124 115 119 133 152 161 168 180 184 181 182 179 175 171 169 174 173 161 155 161 166 186 205 190 167 147 125 126 140 148 140 118 111 116 123 133 140 149 159 168 176 177 180 193 197 187 175 170 172 179 190 195 196 198 196 186 180 175 172 181 190 192 187 169 138 116 120 123 120 123 126 122 127 140 145 151 162 182 212 223 224 223 221 220 221 221 218 212 202 191 179 164 150 143 139 138 136 138 144 139 127 127 132 137 144 144 139 141 142 134 124 128 125 116 115 123 132 142 147 141 141 150 156 154 153 168 187 194 197 198 197 201 207 204 193 184 181 181 181 185 189 186 180 175 176 175 164 146 127 119 116 111 94 98 122 102 89 98 95 86 93 105 98 99 91 79 94 105 104 120 152 173 182 175 168 168 176 189 194 196 201 211 216 214 199 178 158 139 127 124 132 148 163 169 161 155 157 160 167 172 167 158 154 152 159 173 172 161 162 165 168 171 170 164 157 153 150 149 149 145 137 127 115 105 104 106 108 120 128 127 136 145 144 143 143 142 156 170 173 177 180 187 199 208 212 213 211 210 205 197 190 184 181 177 172 172 176 180 179 173 172 175 178 181 180 172 166 166 166 161 154 151 148 143 143 143 140 141 143 128 112 115 121 127 142 166 183 189 191 192 190 190 192 198 205 211 210 208 212 215 211 202 197 194 192 190 189 187 184 183 182 176 168 160 151 144 138 141 153 165 176 189 194 193 180 164 159 168 174 179 187 190 190 192 196 194 -9999 
-9999 154 153 152 156 158 152 150 148 143 131 122 123 123 123 123 116 114 121 127 125 117 113 117 125 128 123 124 138 157 172 182 185 189 195 199 199 200 204 203 201 203 206 207 207 207 208 209 208 205 202 199 198 200 202 200 197 194 194 192 185 175 177 188 197 202 208 209 204 201 201 200 203 204 200 198 193 187 187 193 199 210 217 208 198 184 171 176 185 180 162 143 139 132 129 129 129 141 158 169 173 172 175 181 182 179 176 172 172 178 187 194 200 202 197 185 170 157 159 169 174 176 168 148 126 120 127 126 115 112 119 129 134 137 142 152 170 196 215 219 219 220 220 220 220 218 211 202 192 181 168 154 144 141 140 139 136 135 140 136 128 132 134 134 138 139 131 130 129 126 129 135 133 121 117 122 130 144 149 142 141 146 148 148 158 180 193 196 202 207 210 211 209 202 190 185 188 187 184 187 192 188 180 175 174 167 142 123 119 114 111 104 82 100 129 113 107 112 100 90 94 97 90 96 92 81 104 120 121 144 171 177 172 166 167 171 180 196 206 215 221 222 218 214 198 182 167 151 135 127 136 154 167 171 161 156 161 165 169 168 160 152 148 150 157 163 154 146 156 163 167 173 171 163 156 155 158 161 159 150 142 134 123 117 120 123 121 128 128 122 136 150 154 154 153 156 171 181 182 182 183 191 203 210 212 211 211 210 203 193 183 178 177 174 170 171 176 182 183 180 180 182 183 181 176 166 160 161 160 155 150 145 136 129 125 122 120 122 118 105 108 119 124 134 150 167 175 176 178 181 183 184 185 189 199 209 213 212 211 213 211 205 200 196 193 191 190 188 188 187 182 172 165 159 155 149 145 149 159 167 169 172 171 174 167 151 155 172 184 189 194 200 205 204 198 192 -9999 
-9999 163 162 160 162 160 159 162 161 151 139 134 132 126 126 128 127 131 142 142 129 120 120 129 134 121 110 108 114 126 142 146 149 165 172 168 171 181 188 190 194 201 203 205 206 206 208 208 207 207 207 207 208 208 208 206 205 204 206 207 204 200 203 208 210 212 214 211 207 205 205 204 207 207 204 203 202 201 200 201 205 209 210 205 203 202 197 198 201 196 188 184 181 172 166 151 140 147 156 160 159 158 157 152 150 156 165 171 174 180 186 192 195 195 190 182 173 168 163 154 149 147 144 135 129 128 125 117 105 103 118 132 134 137 146 156 178 203 212 211 211 216 220 221 216 207 197 188 180 172 164 155 148 145 141 136 131 129 130 128 125 130 130 124 123 119 113 122 130 129 130 135 140 127 120 126 133 141 139 130 128 130 137 154 175 189 195 201 210 216 220 216 206 193 186 188 191 190 184 187 193 190 183 177 169 152 128 125 132 118 107 98 89 115 131 119 115 106 96 94 98 96 89 90 90 88 111 126 130 159 186 187 174 165 165 171 183 204 216 224 229 229 225 221 206 190 175 157 140 133 140 153 164 173 175 177 175 169 169 163 152 143 140 144 151 151 145 148 162 171 174 172 164 156 153 156 163 164 153 141 136 132 124 121 131 140 140 145 141 136 149 160 161 160 162 170 182 188 186 183 182 189 200 205 205 203 202 201 194 187 182 180 180 177 176 178 181 183 184 185 185 182 176 170 164 160 162 164 159 152 145 137 129 122 115 110 112 115 109 96 97 104 119 141 157 167 170 171 174 178 181 184 187 192 200 212 220 219 214 210 209 206 201 194 189 186 184 184 187 185 175 163 159 158 156 152 154 155 151 145 140 138 140 149 155 157 167 179 185 188 194 199 201 202 200 192 -9999 
-9999 177 171 169 172 165 164 166 165 159 154 147 136 129 134 142 144 150 155 149 136 134 135 134 124 108 103 105 109 111 109 106 118 130 122 120 135 147 152 158 171 184 186 192 197 196 200 202 203 203 203 205 206 206 206 204 203 203 205 207 204 202 206 210 212 211 208 205 203 203 202 203 205 203 201 202 203 203 202 201 202 202 199 196 199 201 201 202 202 202 201 200 198 197 197 186 169 158 149 142 140 146 154 156 153 154 161 169 173 180 186 190 188 178 167 170 183 186 167 148 139 126 118 119 130 128 114 105 101 108 126 132 131 137 145 161 188 208 210 207 206 207 209 211 211 204 192 183 176 172 168 160 150 141 136 132 129 126 125 122 118 118 119 120 124 119 117 129 138 139 138 138 129 110 109 122 129 128 119 110 115 125 142 167 181 187 195 206 211 215 216 212 204 194 191 192 188 180 176 184 193 194 189 184 171 149 140 147 143 120 108 105 104 120 123 114 110 93 90 102 105 94 82 76 89 101 115 125 135 165 184 182 169 163 168 184 205 223 226 226 226 225 225 227 216 200 182 159 136 123 122 134 149 162 175 185 182 174 169 156 143 136 136 141 146 143 143 153 165 167 160 154 151 149 152 160 165 153 134 126 130 130 119 117 133 143 145 148 144 144 159 170 171 167 169 177 186 188 185 185 188 196 201 203 204 200 194 188 184 185 187 188 188 185 184 185 186 185 186 187 186 177 166 157 152 155 164 166 160 152 145 137 127 117 113 111 114 117 114 104 99 110 136 157 171 177 173 171 174 178 181 183 189 197 204 211 216 217 214 208 204 202 198 189 182 180 180 178 177 173 164 158 157 160 163 165 171 166 146 130 129 131 131 136 141 149 161 176 190 188 185 184 181 182 190 194 -9999 
-9999 180 169 171 172 165 162 159 155 156 157 147 137 141 149 150 145 145 142 132 128 143 147 132 115 104 107 117 126 125 116 114 119 110 95 102 125 136 135 137 141 144 153 169 177 178 185 192 198 201 202 203 203 201 200 198 196 197 201 202 200 200 204 208 210 207 201 199 201 200 199 202 204 200 197 197 197 197 196 195 197 200 198 200 203 201 201 202 201 201 201 201 200 202 205 204 196 179 156 139 133 139 150 158 163 169 172 170 171 179 184 185 182 168 161 167 175 175 167 160 143 122 119 127 135 123 103 101 107 120 133 135 134 134 139 155 182 200 204 205 207 206 204 204 207 205 195 186 180 176 170 158 141 132 130 127 121 120 123 125 125 126 130 140 146 142 144 147 143 143 147 140 119 101 102 118 129 124 111 112 124 137 158 177 179 183 197 209 213 214 215 214 208 199 198 194 181 170 172 183 193 196 191 186 172 154 155 155 139 120 116 114 109 118 122 115 111 94 92 102 99 86 72 81 109 114 114 122 143 169 175 163 153 160 182 205 220 230 234 233 227 224 229 237 224 199 173 143 114 101 110 129 146 156 165 174 177 174 165 149 136 133 134 138 140 138 143 155 161 159 153 151 148 145 149 155 150 130 113 113 122 123 111 116 136 147 146 143 141 146 165 180 180 173 174 179 181 181 183 189 196 204 207 205 203 197 190 185 183 183 187 192 193 190 187 187 187 186 184 183 179 170 160 151 150 157 164 165 160 152 144 139 131 122 118 122 126 122 114 111 120 149 167 176 186 192 189 183 181 182 181 180 184 193 202 201 201 205 205 203 201 195 192 189 187 185 181 176 169 163 160 158 160 167 174 181 188 183 163 142 133 128 126 135 143 153 166 179 202 204 191 182 182 185 190 200 -9999 
-9999 172 173 180 179 173 170 167 162 159 154 145 146 152 147 135 128 123 117 110 117 139 144 130 122 129 149 164 162 148 136 132 123 108 102 120 144 150 143 139 131 129 141 154 158 158 166 177 190 199 199 199 197 195 196 194 192 194 195 190 190 195 197 196 194 191 189 190 195 196 195 196 195 191 185 181 181 179 176 179 186 190 191 196 199 198 199 199 197 198 199 200 200 201 205 205 203 201 190 174 160 152 145 140 147 159 164 164 169 173 175 174 169 163 170 174 173 172 176 177 162 153 161 161 145 117 105 115 125 134 137 133 131 135 143 162 187 198 201 208 216 217 214 209 206 202 194 187 183 179 171 153 135 132 130 119 112 121 132 134 134 134 136 141 144 146 147 141 135 137 140 135 127 122 124 139 143 129 125 138 146 156 173 183 183 191 202 209 212 213 212 211 205 200 199 192 180 177 186 196 199 197 192 188 173 155 150 145 136 128 123 117 115 128 127 115 114 102 97 103 101 92 75 92 112 106 107 115 141 163 163 154 161 188 214 225 230 239 243 245 244 240 238 236 206 165 137 111 90 94 118 142 160 168 170 173 170 161 149 137 132 132 132 135 135 135 144 152 153 152 152 148 142 140 143 144 136 121 110 111 114 108 101 111 128 133 130 132 140 150 171 182 177 173 176 178 176 175 177 183 190 198 204 202 195 187 185 185 184 182 185 191 192 187 184 187 191 189 182 175 169 164 160 155 154 155 157 159 156 147 139 137 136 131 125 124 118 107 105 117 142 171 179 185 194 202 204 200 193 189 189 192 190 188 187 187 194 201 204 201 192 185 186 190 192 189 183 180 177 173 170 170 176 181 185 190 192 189 181 171 153 135 129 144 162 179 185 184 191 194 192 187 189 191 191 200 -9999 
-9999 182 189 194 193 186 182 179 175 166 152 141 142 144 137 131 129 124 127 132 139 143 134 126 131 150 173 183 171 149 138 137 131 118 122 146 159 153 147 146 137 137 147 153 150 146 150 159 169 176 182 186 184 188 193 190 187 183 177 172 176 183 183 180 176 176 178 176 176 176 175 177 178 170 160 156 154 147 142 145 153 159 162 168 169 173 183 186 184 186 192 197 200 200 203 204 203 206 208 203 197 188 169 147 136 140 148 158 170 174 168 154 141 147 165 175 178 177 178 178 177 187 192 180 159 139 135 144 150 150 143 134 137 146 158 183 205 209 209 216 220 217 213 212 210 203 194 187 180 173 163 144 132 134 128 114 116 133 139 134 133 132 134 139 145 148 144 137 131 127 131 133 134 137 146 160 159 147 148 154 155 163 176 180 184 196 205 206 207 208 208 207 204 202 197 188 177 179 191 198 199 195 193 194 183 163 153 155 152 138 124 115 119 127 117 110 114 105 98 107 105 86 71 82 92 96 111 125 152 164 158 162 196 228 239 242 246 249 247 248 250 248 244 223 169 127 107 90 84 102 130 148 166 174 176 174 164 151 139 131 130 133 136 137 134 135 144 150 148 147 146 143 140 139 139 141 137 123 110 108 106 100 99 108 119 121 123 137 150 161 176 178 171 170 174 175 173 171 171 175 182 191 196 194 186 182 182 182 183 182 183 184 177 171 176 188 194 191 182 172 167 165 161 159 156 152 149 149 149 140 134 136 135 131 126 116 101 95 107 128 155 177 181 187 197 206 210 209 203 199 199 202 201 190 181 188 200 206 202 192 180 178 184 188 187 184 184 188 190 188 182 180 185 186 187 192 196 195 194 195 188 173 158 159 170 177 170 166 171 175 180 184 183 181 184 193 -9999 
-9999 191 195 196 194 188 184 183 177 169 159 146 142 141 137 141 144 142 151 155 148 138 125 123 134 144 150 147 136 126 133 142 132 120 134 154 157 152 153 152 142 149 166 165 151 142 142 144 143 139 142 151 156 167 167 152 142 137 139 147 156 159 158 155 155 164 166 153 147 149 150 154 157 149 141 138 132 124 116 113 116 124 129 132 132 140 152 154 153 161 173 185 193 196 200 203 203 204 205 205 207 207 197 177 160 156 158 162 170 173 160 138 135 152 169 178 182 181 174 169 171 180 182 173 165 156 151 155 154 148 143 140 147 152 162 185 205 213 214 215 215 212 209 210 207 198 188 180 171 162 147 131 126 126 119 118 133 142 133 125 129 136 146 159 165 157 147 146 144 141 146 144 138 140 148 157 161 162 162 163 164 171 176 177 184 196 204 208 208 207 209 211 209 205 196 186 177 180 188 191 193 193 194 195 186 167 162 168 156 132 115 106 111 116 109 111 114 102 91 92 83 65 63 81 91 109 130 144 166 171 165 182 220 240 246 248 250 250 247 246 247 244 234 195 141 113 99 90 95 113 132 145 160 170 173 171 164 152 140 132 131 134 137 137 135 140 149 152 151 151 151 148 144 141 140 137 128 111 98 95 97 101 106 115 125 134 150 163 167 172 176 171 167 172 174 173 171 168 168 174 181 187 190 188 184 182 181 180 180 178 178 176 171 172 182 192 193 188 181 176 171 166 162 163 166 164 157 152 148 144 144 146 141 132 121 113 109 114 129 150 171 184 186 190 199 208 213 213 209 206 204 198 190 184 184 192 203 204 192 184 183 183 181 180 180 182 188 193 192 188 182 177 173 173 179 186 187 185 185 186 185 181 179 173 169 173 165 154 160 174 183 185 182 182 190 191 -9999 
-9999 188 189 188 187 182 181 179 172 170 167 157 152 150 146 148 151 148 150 146 134 127 122 128 136 138 136 128 117 118 131 135 117 112 139 160 166 167 161 149 143 168 184 167 143 136 134 130 125 114 112 118 127 138 128 108 102 107 120 133 138 138 137 135 138 149 144 124 123 137 142 140 138 130 124 117 112 112 111 109 115 117 113 112 116 123 129 126 128 136 144 155 163 173 185 194 197 200 203 205 207 207 206 200 194 187 172 160 155 152 146 147 165 178 181 178 176 176 175 170 163 164 164 159 153 145 144 151 145 138 140 141 143 144 160 187 203 209 211 211 210 210 210 208 199 184 171 163 162 157 143 132 128 124 125 137 148 146 133 128 137 148 159 167 166 155 148 149 153 158 161 153 143 143 146 150 155 161 165 168 172 176 178 179 188 198 205 209 209 209 211 212 209 206 198 191 187 189 190 189 195 201 201 195 182 168 164 162 140 116 103 100 111 120 118 116 111 92 78 73 70 64 70 88 91 109 129 145 170 175 175 200 229 239 246 249 249 249 248 247 246 239 215 166 124 109 103 103 110 121 132 145 159 170 176 176 168 156 143 134 132 132 131 129 130 140 150 152 150 148 145 137 131 134 133 125 111 96 87 88 93 103 115 127 139 152 169 175 170 167 163 157 163 175 176 174 171 167 168 176 181 183 185 185 184 183 180 178 177 175 175 178 184 189 192 193 188 182 179 179 178 174 171 174 179 179 174 165 157 155 157 156 148 136 124 127 141 159 179 191 198 200 198 197 202 209 214 214 211 207 203 193 181 175 176 180 189 192 183 181 185 185 176 168 169 179 188 189 185 182 181 178 173 171 174 177 173 166 167 171 175 181 194 194 178 172 174 165 163 178 191 193 188 183 187 191 -9999 
-9999 184 184 185 183 177 173 170 167 166 162 154 156 160 158 156 152 149 149 145 137 131 133 139 139 135 134 129 124 124 128 125 112 121 148 158 159 159 151 142 147 166 162 138 129 131 129 127 122 113 117 122 123 121 107 100 107 122 134 136 133 133 136 139 145 148 134 116 125 141 140 132 125 111 99 94 96 105 111 117 127 122 110 109 114 116 115 116 119 116 116 121 125 138 154 166 179 191 198 202 204 204 206 204 202 203 186 161 142 133 137 157 179 181 176 168 158 155 164 167 155 150 148 145 143 141 146 151 141 138 141 137 139 149 174 196 201 202 204 207 203 198 197 194 184 169 158 156 157 149 139 136 131 129 136 144 142 138 136 142 155 163 168 168 161 152 151 156 159 162 163 158 147 141 141 144 152 159 162 163 167 174 180 185 192 197 197 200 207 216 221 217 213 211 203 195 192 191 191 192 200 206 203 192 181 167 157 147 128 112 105 111 126 135 128 113 95 77 69 69 80 82 84 95 97 113 128 152 178 182 189 218 235 240 246 248 248 246 245 244 239 221 185 139 111 108 110 111 116 125 137 153 169 180 182 177 166 155 146 140 133 127 123 122 128 138 145 146 144 141 135 125 121 125 122 112 103 95 91 94 103 115 130 141 150 160 170 172 165 158 152 150 162 175 178 174 171 170 176 184 187 186 184 182 182 180 174 172 174 176 178 184 189 189 189 191 188 184 182 182 185 186 182 181 183 180 174 166 160 158 157 155 152 149 151 163 181 202 220 223 219 217 213 207 205 207 211 211 209 204 198 191 185 179 170 162 160 159 158 166 173 173 167 162 162 173 181 178 174 174 177 181 185 183 175 168 160 157 162 169 176 182 185 185 177 167 168 167 162 170 184 189 188 184 182 187 -9999 
-9999 185 187 186 180 172 170 172 171 168 162 156 161 167 168 166 166 168 170 168 161 155 160 161 151 144 140 135 132 128 125 124 129 151 169 163 152 146 142 139 144 144 132 125 132 138 137 137 134 132 141 142 134 122 108 111 127 141 146 145 145 146 146 151 157 154 142 132 140 145 135 127 118 101 90 91 97 106 112 118 124 119 115 117 116 112 110 111 110 101 105 114 118 125 130 137 153 170 181 189 197 202 205 203 202 205 200 180 155 139 134 143 155 158 155 149 143 148 157 159 155 153 145 142 142 138 139 139 136 140 138 137 147 160 182 198 201 200 201 202 196 186 181 178 173 167 165 164 152 132 127 130 127 128 134 135 130 130 138 152 165 169 168 164 155 149 156 165 168 169 170 162 149 145 146 149 155 159 160 161 166 175 187 194 198 198 196 199 208 217 221 219 216 213 203 197 194 194 195 199 204 205 197 188 182 171 156 144 134 124 118 124 137 140 123 99 79 72 75 80 97 101 102 113 120 128 136 167 187 191 208 234 241 242 246 248 246 242 237 229 209 175 141 113 103 107 110 109 110 120 134 151 170 179 175 164 151 143 141 138 131 127 129 132 137 140 141 140 137 135 129 122 121 123 119 112 107 106 105 110 121 132 141 147 155 166 174 172 164 156 152 152 163 173 175 169 167 170 178 187 189 185 179 176 177 175 168 168 173 177 183 188 188 186 187 191 191 189 188 188 188 188 188 189 188 178 163 154 151 148 144 144 151 166 184 200 216 226 231 231 227 223 219 214 208 205 206 205 200 195 191 189 186 181 171 156 141 130 131 146 157 159 161 164 163 167 170 167 166 168 171 177 185 187 178 164 157 161 167 172 174 175 169 159 156 158 160 159 154 155 163 172 179 185 186 184 -9999 
-9999 190 192 187 179 178 184 187 185 180 169 164 169 173 176 177 178 182 186 188 182 174 179 181 174 168 159 149 144 140 141 151 166 181 184 172 161 154 147 142 142 139 136 138 146 152 151 150 142 140 145 142 135 124 117 127 139 147 152 160 167 163 156 162 162 153 147 140 138 134 125 120 116 110 109 111 112 115 116 115 113 113 118 121 118 114 110 108 101 95 110 127 130 125 124 131 141 148 153 165 185 198 202 204 204 206 206 198 185 175 157 143 140 145 147 142 143 154 161 161 164 168 164 159 152 135 126 125 131 137 135 142 150 157 177 195 200 200 200 199 195 190 187 184 179 174 171 163 145 125 123 127 127 132 135 137 136 137 146 159 166 164 161 156 149 150 161 167 167 168 169 163 156 158 163 162 161 161 160 161 163 173 188 197 204 208 210 211 209 205 205 210 212 206 198 193 190 193 197 201 204 201 197 194 190 182 169 157 151 139 125 123 131 127 106 85 73 76 89 96 98 97 102 112 122 127 140 173 190 201 223 239 242 243 245 245 241 232 222 206 174 143 125 114 112 113 112 109 109 117 131 149 167 170 163 152 139 132 129 127 127 135 145 147 144 141 139 137 134 133 130 126 124 122 119 115 111 111 110 109 119 133 146 156 164 173 177 173 167 159 154 157 166 171 167 158 158 165 174 182 182 177 173 174 175 172 169 172 175 178 184 187 185 183 185 189 191 190 190 189 186 188 195 200 196 180 160 148 141 134 129 134 153 178 200 219 235 238 234 231 227 222 219 218 215 208 202 198 192 186 184 185 186 183 174 157 135 118 121 138 154 163 169 172 172 172 161 148 153 158 160 170 180 182 181 178 180 187 189 184 178 175 170 162 156 155 154 153 152 150 155 166 177 184 188 192 -9999 
-9999 194 194 188 186 190 196 197 189 178 167 168 175 178 184 186 191 197 200 197 189 182 185 186 184 186 183 175 167 165 172 181 188 192 182 166 157 151 145 145 147 149 151 154 159 160 153 139 132 139 145 136 124 116 118 131 139 147 159 167 166 159 162 173 168 156 152 144 135 131 126 120 120 127 130 127 125 123 119 110 103 105 113 117 116 113 110 107 102 103 117 127 125 123 128 135 140 136 129 137 158 175 186 195 200 204 207 206 202 202 193 170 152 145 143 139 141 148 156 160 163 166 167 164 152 136 134 139 143 143 139 145 151 160 181 196 201 202 201 201 200 200 199 194 185 174 167 156 144 135 137 141 140 140 140 141 142 147 158 168 169 163 156 150 147 152 159 159 158 159 159 157 158 167 173 170 165 164 164 162 162 173 185 193 202 206 206 207 204 198 198 202 206 204 200 193 187 191 194 196 199 201 204 203 197 191 180 167 156 138 118 113 118 109 90 78 75 83 97 98 82 82 94 101 112 122 141 172 190 208 230 239 238 236 234 230 221 211 197 177 151 134 130 130 127 120 117 114 114 122 139 157 168 167 161 151 137 129 126 127 132 144 153 151 146 141 138 136 134 133 131 127 122 119 120 117 112 106 99 98 116 140 161 175 178 179 177 172 167 160 159 166 171 171 164 155 155 163 172 179 178 173 173 179 181 178 176 179 181 182 184 184 182 182 184 188 190 190 190 187 187 194 199 197 187 169 153 142 135 128 127 143 170 191 207 224 237 239 236 231 226 219 215 217 216 205 195 193 193 189 183 179 175 169 162 152 139 132 137 151 166 177 181 181 183 181 164 154 160 158 159 170 175 175 179 190 198 202 200 194 185 175 170 172 175 171 163 160 164 166 169 177 186 189 187 194 -9999 
-9999 197 196 194 193 197 198 192 181 175 174 180 184 186 191 195 201 207 207 197 186 182 188 191 190 190 187 184 184 186 190 190 188 182 169 165 161 155 150 149 151 159 167 170 170 167 154 137 140 152 152 134 129 128 124 135 142 152 160 158 150 149 160 172 170 159 147 137 130 130 125 117 121 131 129 121 120 119 112 95 86 97 112 116 114 113 110 107 106 111 119 120 118 121 129 133 130 119 114 123 134 144 154 169 189 202 205 204 203 204 204 195 173 150 137 134 134 138 144 152 159 160 158 157 148 141 147 153 154 148 145 152 160 174 192 198 199 198 199 204 208 207 202 193 181 170 162 153 147 144 151 156 152 146 144 145 148 154 162 168 167 161 155 151 150 154 157 156 152 148 144 143 151 163 170 170 170 171 170 171 176 185 188 192 199 203 205 205 202 196 193 199 210 210 203 194 189 192 192 191 195 201 207 204 195 188 177 162 145 126 111 106 105 93 79 76 81 88 98 91 71 77 103 113 118 129 146 173 199 219 232 236 230 220 211 206 200 192 180 161 142 132 133 135 124 115 118 118 116 125 144 157 162 164 159 147 135 132 135 139 144 149 152 152 150 149 149 146 139 133 127 120 118 121 127 123 112 102 95 104 134 161 176 183 181 176 169 162 157 155 162 170 172 170 163 155 154 163 175 180 175 172 177 185 188 185 181 181 182 183 185 185 185 186 189 191 190 190 190 189 191 195 190 176 159 145 136 132 132 135 152 179 197 205 213 223 229 230 229 226 224 218 211 208 204 193 186 188 194 192 181 170 159 151 147 146 147 151 160 171 182 194 194 187 188 187 184 190 192 184 186 188 183 180 188 197 199 197 197 199 198 191 185 185 186 186 188 189 192 192 190 190 196 197 186 179 -9999 
-9999 198 200 200 199 202 200 194 187 187 190 193 194 195 200 202 203 202 200 191 181 184 195 199 193 176 162 167 181 193 193 185 178 167 161 167 173 176 173 167 167 171 174 174 171 168 158 153 165 169 152 134 142 143 141 152 156 161 157 144 140 146 155 162 162 147 130 122 120 122 118 118 127 128 118 108 107 113 113 102 102 120 128 123 119 116 112 105 104 113 121 126 127 129 134 135 127 122 129 138 141 141 144 158 176 187 192 199 203 205 205 202 192 171 152 141 138 141 143 147 154 155 157 160 157 152 152 156 156 150 148 154 162 178 194 199 198 194 194 200 206 207 202 194 184 173 161 154 154 156 157 158 156 156 158 159 159 161 161 162 161 158 158 159 159 157 156 155 149 142 136 138 147 152 151 157 163 163 167 178 188 194 197 199 204 211 215 213 206 199 199 206 215 214 204 196 190 190 190 191 197 204 206 200 190 183 172 161 144 123 106 97 92 78 72 80 83 82 84 78 69 85 120 136 139 146 158 181 210 226 227 223 211 196 187 184 180 175 167 156 144 136 132 125 113 108 116 117 115 123 140 149 154 166 171 159 148 153 174 202 230 246 247 241 236 234 231 221 197 167 141 128 132 142 151 157 165 180 193 211 224 220 211 202 193 183 172 162 157 160 168 177 185 190 188 177 164 153 141 129 131 154 186 215 237 248 249 245 243 243 240 237 238 239 236 217 183 152 131 120 116 115 109 102 97 99 111 130 154 186 214 224 224 224 225 227 227 225 224 222 220 213 200 187 181 185 190 193 195 191 181 171 163 159 157 155 155 159 166 166 164 169 176 183 191 195 199 203 203 203 204 202 197 199 206 206 204 203 206 208 207 205 198 187 178 182 195 205 208 209 207 203 203 203 196 181 -9999 
-9999 193 201 203 202 206 209 206 200 198 199 200 199 202 205 205 203 199 195 190 189 198 205 199 180 158 156 169 184 189 182 171 169 168 168 173 179 184 186 185 181 169 156 156 163 163 156 160 174 170 152 142 148 150 152 159 158 156 150 139 141 151 161 165 156 138 126 125 127 126 122 126 130 123 113 105 106 114 117 114 125 143 142 132 126 122 116 109 112 123 129 131 133 136 145 151 151 155 162 165 162 157 157 164 166 167 179 195 204 206 206 205 204 200 185 166 159 158 150 143 143 147 159 168 169 167 170 171 164 157 157 161 164 176 186 196 205 206 201 193 188 188 187 184 175 163 153 153 160 162 158 156 153 151 151 151 156 160 160 160 161 161 162 164 163 160 157 154 149 147 148 157 164 156 148 152 152 150 162 176 183 191 201 205 204 205 210 215 215 217 221 217 212 208 205 201 195 194 196 198 205 208 206 199 191 185 177 166 141 108 85 83 82 72 79 89 86 80 76 69 73 97 125 137 138 141 159 186 213 223 219 208 194 182 175 169 162 158 155 149 142 133 124 118 112 107 107 109 106 114 131 141 146 171 189 184 179 182 192 207 228 247 253 244 229 219 212 203 186 160 139 135 140 144 146 152 167 187 203 209 204 191 178 169 161 157 157 164 172 176 180 185 192 195 190 176 157 139 123 119 141 175 204 227 243 253 253 248 246 246 241 232 225 216 203 175 145 127 114 104 101 101 101 102 105 111 122 140 172 210 228 229 222 213 204 196 189 187 187 186 184 179 166 149 142 147 152 147 137 132 138 143 148 154 164 169 160 152 159 167 167 166 177 191 193 190 188 187 186 188 195 201 203 199 185 166 152 152 157 156 150 145 140 140 154 169 181 185 183 179 174 170 165 164 173 187 -9999 
-9999 192 197 195 197 206 211 206 199 200 203 201 200 203 205 206 207 204 200 197 201 203 197 183 164 157 168 185 190 181 168 166 173 179 174 172 175 179 180 172 162 150 149 161 164 160 158 164 171 160 143 139 151 156 151 153 152 149 150 147 151 161 172 169 149 134 129 130 134 132 124 119 117 113 110 111 113 109 100 99 114 133 139 137 134 129 121 118 129 139 136 128 125 133 149 163 173 179 184 184 181 175 171 167 164 163 171 185 194 199 204 206 208 209 205 192 175 159 144 137 135 137 147 157 162 170 177 177 170 165 168 170 170 176 183 195 205 207 201 189 176 171 172 168 158 149 148 157 164 159 153 149 144 140 137 138 146 153 157 162 164 162 161 161 159 158 159 158 156 156 162 176 179 166 160 164 162 163 172 176 176 183 194 199 196 196 203 213 220 225 226 220 212 207 208 204 196 196 199 203 209 212 207 197 190 184 175 157 123 90 74 82 93 89 98 101 92 90 81 79 93 109 122 131 135 141 158 184 207 213 207 200 195 189 183 173 163 158 154 148 140 128 118 114 111 102 102 105 103 112 130 140 144 178 199 195 194 195 188 173 160 157 159 158 154 145 133 130 128 115 111 123 130 127 123 120 116 114 109 104 104 112 119 122 124 131 149 170 183 186 187 187 185 177 160 140 131 134 147 175 202 213 215 215 213 210 202 189 187 178 139 102 90 92 103 110 121 143 154 157 161 164 165 165 166 167 171 183 202 217 222 218 206 192 182 175 173 174 173 171 169 169 165 157 150 145 141 134 127 127 135 144 152 165 181 195 198 195 194 199 202 201 203 203 190 179 169 162 157 157 164 174 178 172 156 140 136 139 142 142 142 142 140 143 153 160 166 165 160 155 155 155 152 152 160 174 -9999 
-9999 192 186 182 183 190 192 189 188 196 200 198 196 197 198 202 205 203 200 202 204 195 182 167 156 156 169 183 182 168 164 174 185 186 173 167 168 171 168 156 150 155 167 173 163 154 154 158 157 141 126 134 151 151 147 151 152 155 158 155 158 168 170 159 141 133 127 125 128 124 113 106 103 101 101 103 98 84 81 93 113 130 139 141 141 135 129 136 147 153 148 138 136 143 155 167 177 187 195 197 193 186 177 171 167 163 162 169 181 193 203 206 207 208 207 203 188 165 149 141 134 131 139 147 151 156 159 163 166 169 171 170 170 178 188 194 195 192 188 187 184 181 176 165 154 152 158 164 162 152 142 135 135 140 144 148 153 154 158 163 162 161 163 164 160 160 166 168 165 162 167 175 174 167 168 173 176 179 181 181 182 187 193 194 197 200 202 207 214 221 222 218 214 212 211 203 194 191 193 199 204 207 202 192 186 180 166 146 115 90 85 104 127 115 109 103 92 95 84 87 107 116 124 136 150 156 161 182 196 192 183 185 191 191 185 176 169 166 161 151 139 126 114 111 113 106 103 104 104 117 133 143 147 186 205 199 195 197 195 190 184 177 167 151 139 132 123 124 120 100 98 118 126 125 124 123 120 116 114 119 131 144 152 156 161 170 180 187 189 190 190 191 186 167 138 118 120 140 170 202 215 216 215 212 206 194 176 164 166 153 115 93 89 91 101 113 130 150 158 158 162 165 167 168 171 182 202 222 231 230 223 211 201 197 196 198 204 208 205 197 191 189 189 188 185 180 177 178 179 180 180 181 186 194 203 215 228 235 228 218 211 208 207 201 186 179 172 163 153 148 147 148 150 154 157 166 178 183 183 185 189 193 195 191 175 159 156 161 166 173 180 184 185 181 172 163 -9999 
-9999 188 183 180 174 170 167 163 169 180 182 179 179 178 181 187 189 188 188 192 193 189 182 168 159 163 178 190 186 175 174 179 179 174 165 166 170 168 162 156 163 170 168 164 158 152 149 147 141 126 123 141 153 145 138 142 144 148 151 153 162 175 173 156 141 134 125 120 117 109 100 96 94 92 91 91 83 75 83 107 126 139 147 149 149 143 146 159 165 167 163 160 164 169 170 170 173 182 194 200 198 192 185 178 172 166 160 159 165 180 195 201 204 207 207 204 201 195 179 155 136 134 146 153 152 149 148 153 164 171 167 164 171 183 195 200 198 194 189 192 195 192 180 163 154 157 165 164 154 141 128 124 128 136 144 152 159 160 159 157 157 160 164 162 159 165 173 173 169 169 176 177 172 169 172 178 182 182 179 182 189 196 200 202 209 212 211 208 209 213 216 217 217 216 212 204 194 187 190 196 196 195 191 185 183 175 160 139 107 86 95 129 152 128 107 98 94 104 95 92 104 110 117 136 155 155 156 171 180 175 169 172 179 184 182 177 174 173 163 143 127 113 104 109 119 112 101 101 108 121 131 138 141 184 203 201 196 195 191 188 190 181 160 135 120 114 111 113 106 83 89 117 127 128 128 128 127 126 134 155 173 181 185 189 194 198 198 196 194 192 192 191 180 153 127 121 139 165 192 213 219 217 214 210 199 179 155 144 148 139 112 101 100 102 111 126 144 155 158 157 160 165 169 174 184 203 220 229 228 220 207 197 195 195 197 201 206 210 209 203 196 191 189 188 187 184 180 178 179 182 186 191 197 202 206 213 224 232 231 223 214 210 208 200 187 183 182 179 172 166 162 157 153 154 158 169 179 181 178 175 173 173 176 182 175 158 150 152 158 165 173 179 182 177 166 155 -9999 
-9999 190 191 190 180 174 168 160 163 168 164 161 160 159 164 169 168 165 166 168 172 178 177 163 160 170 187 199 197 189 187 186 178 171 164 167 172 170 165 166 174 173 166 163 159 154 147 139 130 124 129 140 143 126 116 122 124 130 139 147 162 181 181 163 145 131 121 115 110 103 96 93 91 88 89 93 92 95 112 139 156 162 163 163 162 161 169 178 180 182 181 183 188 189 184 174 168 172 181 189 195 196 194 187 178 169 163 162 165 176 189 196 201 205 206 204 203 205 198 179 158 149 152 154 151 150 150 159 168 169 162 167 181 192 203 207 207 202 195 200 203 196 179 160 155 160 163 157 148 137 130 130 131 137 143 149 157 162 161 158 158 158 158 156 157 165 170 167 166 172 179 177 170 166 168 174 177 176 173 180 192 198 203 209 215 218 218 214 211 210 214 220 222 219 215 208 196 186 190 194 189 186 185 185 180 166 150 121 88 82 111 146 154 131 105 95 101 110 101 91 94 101 113 139 154 150 148 152 161 166 168 175 183 190 190 183 176 167 149 129 116 106 103 113 124 117 105 111 124 129 131 130 130 179 200 203 195 189 181 178 182 173 150 126 114 110 107 105 91 73 90 122 134 135 136 136 136 138 154 174 185 189 193 196 198 202 205 204 199 192 187 182 169 148 137 145 167 184 196 207 215 216 212 202 181 153 129 129 146 150 130 123 124 127 139 154 158 154 152 153 159 170 181 192 206 220 227 226 220 209 197 194 194 195 198 201 203 203 204 204 200 195 190 189 189 188 185 182 183 189 198 205 209 211 210 214 223 232 236 230 220 213 209 199 186 183 183 182 179 179 180 177 171 166 168 176 180 177 173 171 170 171 176 177 168 158 152 151 153 158 163 168 169 165 159 154 -9999 
-9999 200 203 200 194 193 191 184 185 182 174 169 163 162 170 173 166 158 152 149 154 160 154 140 144 160 174 179 179 182 189 192 186 177 168 169 176 177 175 175 174 169 164 159 156 152 144 133 123 123 128 131 124 100 97 109 110 115 121 129 147 163 166 159 144 129 116 110 105 101 96 93 91 90 100 115 124 139 158 177 188 187 184 182 181 182 189 194 195 198 202 207 208 207 198 181 169 168 169 172 177 184 188 186 183 174 168 172 176 177 176 177 186 200 205 205 203 204 203 201 192 177 163 152 143 141 149 161 168 164 164 177 196 204 205 203 202 198 195 199 196 183 167 157 159 161 154 143 140 140 141 143 147 153 153 153 161 169 166 162 163 159 157 155 156 160 157 153 157 163 163 159 156 159 165 168 168 168 175 192 201 203 208 213 215 216 217 220 223 222 220 221 222 220 218 211 200 188 189 190 187 186 188 183 164 144 127 97 80 98 138 157 148 127 101 90 97 102 92 83 88 101 116 133 145 143 139 140 151 165 175 185 193 196 193 183 172 158 139 122 116 116 119 129 136 129 118 127 139 137 131 124 125 177 196 204 188 178 170 174 180 173 151 130 123 121 116 106 86 76 100 129 140 141 141 141 141 144 160 169 172 180 188 193 197 203 206 202 194 184 175 168 160 151 147 155 173 185 192 198 203 206 198 178 150 129 125 145 168 172 148 140 143 147 159 167 159 147 144 147 160 182 201 213 222 227 226 220 208 196 192 193 193 194 196 195 191 187 187 192 196 194 192 192 193 194 194 195 198 205 212 216 218 218 215 213 215 223 231 231 226 219 211 198 186 183 183 182 181 186 194 196 194 190 190 190 185 178 180 188 196 204 208 203 188 171 161 158 157 157 157 156 154 154 158 161 -9999 
-9999 210 210 207 205 205 204 202 204 199 189 184 178 180 189 190 183 173 160 151 151 151 140 128 136 152 159 154 154 167 180 184 179 172 166 167 178 186 184 179 171 164 157 153 155 151 143 134 127 129 129 126 113 90 96 107 104 102 100 112 132 145 150 151 143 128 112 104 102 100 97 94 94 104 129 153 169 185 194 201 204 201 201 201 198 198 202 206 209 215 218 219 218 217 210 196 183 174 169 166 167 172 174 178 185 184 183 182 174 164 152 151 168 189 201 204 204 205 207 208 207 201 182 157 141 143 153 163 165 162 166 183 201 209 207 202 197 192 191 190 178 161 155 157 163 159 146 139 139 136 140 146 152 160 162 164 170 171 162 156 158 156 154 152 152 152 149 149 153 153 153 153 154 162 169 169 167 174 187 202 206 205 206 210 214 216 215 218 224 227 222 218 220 220 217 209 198 186 183 185 186 189 187 168 141 128 112 94 102 130 155 151 135 121 99 85 88 92 86 81 87 98 107 121 140 140 132 137 151 173 191 197 198 196 183 171 164 152 132 116 115 121 123 130 134 130 121 128 137 134 127 122 132 181 192 200 177 168 166 174 179 171 151 133 124 119 112 102 87 87 109 132 141 142 142 142 141 145 159 162 160 165 176 186 197 206 206 198 188 177 168 161 156 152 150 157 173 184 190 193 191 185 172 155 141 136 147 169 182 176 149 141 144 147 154 156 148 141 143 151 172 196 212 220 224 224 218 207 195 189 190 191 190 192 194 190 182 176 175 176 178 183 191 198 202 206 211 215 217 218 219 220 219 219 215 210 208 211 218 222 224 221 213 196 184 183 184 187 190 197 202 202 202 201 199 195 188 189 203 217 226 228 225 216 203 187 170 163 161 158 157 159 162 166 172 172 -9999 
-9999 212 212 211 210 209 207 208 211 207 200 198 195 196 201 201 195 187 178 173 174 168 154 145 154 164 165 158 156 157 160 164 166 165 157 156 167 175 179 183 181 171 158 157 157 150 145 140 137 138 131 121 103 93 112 122 119 112 109 119 128 128 124 127 129 118 101 97 101 101 100 101 110 137 167 182 192 202 205 209 210 208 211 212 209 209 214 215 218 221 222 221 220 218 215 211 203 188 174 167 164 163 167 181 195 197 196 189 176 163 151 153 168 181 192 200 204 206 208 210 211 209 199 174 156 155 159 160 157 156 166 186 201 207 206 204 198 190 185 181 171 156 153 156 160 159 152 149 141 135 138 138 142 152 157 163 165 160 150 149 153 154 156 155 155 155 155 157 158 158 163 164 166 174 176 174 178 189 198 204 204 204 204 207 214 216 212 211 213 213 211 213 216 214 208 199 190 180 177 182 186 189 180 153 137 134 120 116 133 145 145 127 117 123 110 93 90 94 90 84 88 95 101 122 144 141 133 141 158 179 202 207 202 193 176 167 160 145 125 113 111 111 110 115 121 120 109 113 122 119 116 120 142 184 187 189 165 162 166 173 171 156 137 119 105 94 88 86 88 99 114 130 140 142 142 141 139 145 157 159 156 157 163 173 188 197 194 183 179 173 166 162 161 160 157 159 170 181 185 186 179 164 152 148 150 154 164 172 172 162 139 131 133 135 139 141 141 145 155 167 188 204 211 214 216 212 203 193 188 187 186 185 187 193 197 195 189 181 175 170 170 181 194 205 212 219 225 229 227 222 219 219 218 217 215 211 208 209 213 214 216 216 208 191 182 182 186 193 199 203 204 201 198 194 189 185 187 200 215 228 234 229 217 205 197 189 172 163 163 165 169 176 184 190 192 186 -9999 
-9999 213 213 213 213 210 209 212 214 210 208 208 205 203 208 208 202 196 191 194 200 196 185 180 183 186 187 184 179 169 158 153 152 143 132 138 149 155 164 177 178 165 159 159 153 145 141 137 135 135 131 121 108 116 143 152 152 145 140 134 119 95 79 89 100 89 86 100 105 101 107 121 145 177 192 195 202 207 209 211 211 210 212 211 208 210 213 214 216 217 216 217 217 216 213 214 213 204 186 163 148 148 165 188 201 201 196 191 186 179 170 170 171 169 173 186 200 208 209 210 210 209 204 191 177 167 156 145 139 144 162 182 194 199 203 203 199 189 184 181 167 156 158 160 158 155 149 141 135 139 142 140 146 151 150 151 151 149 146 151 158 161 160 157 157 158 160 163 167 172 171 162 165 175 178 181 189 196 202 206 207 211 215 217 218 219 219 215 211 208 209 211 211 207 203 196 188 180 178 182 181 177 161 139 134 134 127 132 144 141 128 117 126 139 125 103 96 97 94 88 90 98 106 124 139 137 140 154 171 187 208 211 200 186 174 169 160 144 127 116 110 111 113 116 122 117 103 106 112 109 110 122 150 182 181 170 151 156 161 161 149 132 116 102 90 81 75 74 86 105 116 127 138 141 142 141 137 144 155 157 155 155 155 161 171 174 161 147 147 154 158 161 165 165 161 157 159 163 166 167 159 148 143 144 148 154 162 167 160 149 132 122 122 125 129 136 147 159 169 181 196 203 203 204 204 200 194 190 189 190 189 187 193 201 205 205 201 196 194 194 198 203 206 209 214 221 227 230 229 223 218 217 216 219 221 219 213 211 213 214 215 213 202 186 181 184 190 196 200 202 203 201 194 186 184 186 193 203 208 219 222 211 196 186 179 172 163 159 164 172 180 187 193 199 202 202 -9999 
-9999 214 215 213 211 209 210 214 213 209 210 211 207 207 213 212 204 198 195 201 208 208 205 203 200 202 205 204 200 195 185 171 154 134 131 147 154 152 152 151 145 144 151 148 140 135 134 130 128 129 132 130 132 153 171 170 165 157 152 142 113 81 72 84 80 67 83 101 99 107 130 156 180 201 205 205 210 211 211 211 210 208 207 204 201 201 202 202 203 201 201 203 206 208 212 217 218 215 203 181 164 162 173 188 198 197 193 194 197 193 183 177 173 169 173 183 193 201 204 207 207 206 204 200 196 184 157 135 131 143 162 177 187 192 195 195 192 188 188 180 165 164 170 169 161 151 140 133 144 157 157 159 162 154 145 145 148 151 153 158 162 162 159 152 150 152 159 167 172 171 160 155 166 176 182 190 198 203 205 204 205 212 220 222 218 219 221 218 212 211 214 212 206 204 204 200 192 181 177 177 169 158 142 131 130 136 139 139 140 128 115 118 132 135 124 106 92 88 86 87 99 110 110 118 127 129 144 164 178 191 211 212 196 176 163 159 156 142 128 120 117 122 122 122 127 120 108 111 115 116 122 136 162 182 177 152 136 141 139 131 121 112 104 93 87 85 82 82 92 106 115 122 134 140 141 140 134 141 153 155 154 152 151 154 156 145 127 117 120 134 147 155 157 157 156 152 147 144 143 143 141 137 137 137 139 143 148 151 148 143 133 122 122 125 129 139 154 166 171 180 186 184 187 195 201 199 196 195 199 207 207 207 210 212 212 209 205 205 211 219 223 221 217 208 202 203 208 214 219 219 216 218 220 225 230 229 222 216 214 215 216 210 195 183 182 188 195 198 198 199 200 200 194 188 191 196 201 202 198 198 196 192 191 190 187 183 179 171 172 176 180 187 192 197 202 205 -9999 
-9999 214 215 212 208 207 209 211 210 209 209 209 209 215 220 215 209 205 202 210 216 214 212 208 204 207 211 211 210 208 206 195 175 156 159 171 174 169 157 139 129 138 144 134 128 127 129 127 123 126 136 145 154 168 177 173 168 163 164 161 144 129 128 116 91 89 108 108 109 139 169 189 202 210 210 208 210 210 210 210 206 201 197 195 194 194 190 185 183 181 183 188 193 201 210 217 219 219 212 204 201 197 189 181 177 178 187 197 202 202 200 198 192 183 180 186 190 191 197 204 206 205 205 207 205 195 173 151 146 156 168 177 185 190 191 189 187 187 185 176 172 176 179 174 164 154 145 148 164 171 168 169 164 151 148 153 154 157 159 160 158 157 156 154 152 157 169 178 176 165 160 173 187 189 189 196 204 210 211 208 210 216 219 220 219 219 218 215 209 206 210 210 204 200 200 198 191 179 172 169 159 152 149 145 147 155 149 132 119 105 97 108 113 115 116 96 81 74 71 86 110 119 116 119 114 115 143 160 166 178 197 197 181 163 151 146 143 131 123 123 122 122 119 120 124 119 113 119 132 142 147 154 174 183 173 143 130 124 108 99 99 102 99 89 84 87 93 104 115 115 114 120 132 140 141 138 132 141 152 153 150 146 147 149 137 118 108 107 113 125 134 140 143 147 151 151 145 139 137 134 133 132 132 133 133 133 129 127 128 133 132 124 122 121 122 132 147 155 153 151 157 171 188 199 204 202 200 203 214 225 227 225 222 215 209 202 198 204 212 221 226 224 217 204 194 188 185 187 194 200 201 203 205 208 214 217 214 208 207 208 207 199 186 181 186 193 197 197 197 197 198 199 199 200 201 199 201 198 188 178 173 176 186 196 204 209 206 189 180 179 180 186 193 197 199 199 -9999 
-9999 213 214 212 211 211 211 213 211 208 208 210 213 219 220 216 214 213 215 221 222 216 213 210 209 213 216 214 211 210 210 204 192 186 191 195 195 192 178 158 147 145 141 131 127 130 135 133 130 137 151 163 168 173 178 178 179 178 182 186 185 192 193 175 159 156 151 145 158 184 199 207 211 212 209 206 206 204 205 203 198 191 188 188 187 184 177 172 175 177 182 185 185 190 201 210 214 216 215 213 214 211 193 163 143 146 164 187 204 212 218 217 206 190 184 188 192 188 192 201 205 206 207 208 206 199 189 182 183 177 174 179 184 191 196 193 187 181 177 178 180 181 180 173 163 156 157 171 180 175 170 165 153 147 155 158 157 161 165 167 168 169 169 167 169 180 192 191 176 166 174 191 199 196 198 207 213 215 213 214 219 221 221 217 211 208 212 215 214 211 210 208 208 208 205 199 188 173 162 155 147 151 158 156 153 146 134 116 101 93 96 106 111 121 115 86 74 67 64 91 118 119 112 105 89 102 145 152 146 155 173 176 166 156 148 141 132 122 121 124 118 111 113 121 128 125 125 141 163 168 163 157 177 185 165 124 111 102 88 84 87 91 89 80 80 92 108 127 136 133 126 124 131 139 140 137 132 143 152 148 142 141 143 136 114 99 99 103 112 121 122 121 129 140 147 150 147 139 138 136 133 132 132 132 130 125 116 111 112 116 118 116 113 108 111 128 146 155 156 163 179 194 203 206 205 203 202 211 223 230 233 227 219 206 196 192 197 206 211 217 223 221 209 198 195 192 186 182 185 190 188 182 178 177 181 188 190 191 193 197 196 187 178 180 188 194 195 195 195 196 199 202 204 206 205 201 198 191 178 167 163 164 168 176 187 200 207 194 183 179 180 186 193 197 197 198 -9999 
-9999 212 214 214 214 215 216 215 213 211 212 215 216 217 214 212 211 213 216 217 215 212 212 211 213 216 216 213 211 210 209 206 203 204 207 209 207 201 190 179 173 167 157 147 147 155 157 154 156 166 178 183 182 183 185 185 185 182 187 195 202 209 211 207 206 197 185 187 196 204 206 207 207 205 201 198 195 195 197 195 187 179 178 180 179 178 178 184 190 190 190 187 177 174 183 194 205 212 215 217 217 213 196 170 154 151 156 172 194 208 212 209 205 203 202 193 181 173 175 185 199 204 205 207 207 201 199 200 209 207 189 183 184 188 196 195 185 177 173 175 176 178 176 166 159 158 171 185 182 174 170 159 148 148 158 162 167 175 176 176 179 182 180 177 182 192 195 183 167 169 181 189 191 192 201 211 212 207 205 208 212 215 217 216 208 201 206 217 223 222 217 215 216 215 211 198 180 162 150 148 151 159 158 146 133 126 120 104 92 97 105 106 110 119 104 78 73 67 71 102 122 107 87 78 76 99 138 144 135 149 170 173 166 158 150 140 130 121 118 115 104 102 120 144 157 154 156 176 187 180 168 165 195 195 160 108 95 89 83 83 86 87 81 79 94 120 141 155 159 158 154 148 147 152 154 151 149 156 156 145 138 138 134 117 97 91 96 101 109 115 112 109 113 122 132 141 146 139 132 135 135 133 132 130 125 117 109 105 107 107 106 112 120 124 139 167 190 201 207 218 225 219 211 207 206 204 207 218 227 230 231 217 206 200 191 192 202 209 212 214 218 217 200 193 195 196 197 196 196 192 185 177 173 172 174 177 182 185 187 190 191 183 178 183 190 193 193 193 195 199 202 204 204 204 204 203 200 189 176 168 165 165 166 169 177 193 204 197 186 181 180 184 192 196 197 198 -9999 
-9999 212 212 211 213 215 214 213 214 213 214 217 216 214 212 211 209 211 213 210 207 210 214 213 213 214 213 212 211 210 209 209 210 210 209 210 209 205 198 193 190 189 183 174 174 181 182 181 185 191 196 196 193 186 183 186 187 187 193 203 209 213 213 211 208 208 208 208 207 204 198 195 196 194 192 191 189 190 189 183 174 166 164 169 173 180 189 196 197 194 191 181 168 168 172 176 189 200 204 206 206 206 206 204 199 184 171 171 181 192 199 203 207 214 214 201 185 176 173 178 189 200 204 206 205 201 204 209 210 216 210 194 182 178 179 177 175 176 171 169 172 175 172 160 157 165 179 180 169 166 164 155 150 154 166 176 184 189 182 173 175 178 176 177 182 186 180 170 167 178 191 194 191 186 190 196 192 187 188 196 205 211 215 219 222 220 213 211 214 217 220 220 218 215 207 192 174 157 153 161 170 168 151 134 131 131 119 97 90 101 102 95 98 104 92 78 84 84 89 114 117 94 76 81 95 111 135 144 143 165 187 182 172 167 160 151 140 127 116 108 104 123 160 185 190 184 189 202 199 188 185 196 223 215 159 108 100 96 94 101 112 118 122 134 156 176 187 193 195 193 193 193 191 192 193 193 191 192 183 165 151 140 125 105 91 91 99 104 107 108 106 107 111 117 126 137 145 137 125 134 141 136 132 126 119 112 111 113 119 120 116 122 136 149 171 200 219 227 228 230 231 229 221 213 208 207 214 224 228 229 226 212 204 205 199 200 207 212 213 214 214 208 190 192 196 197 199 199 195 185 176 172 172 172 174 177 182 184 185 187 189 189 191 194 194 193 194 196 199 202 204 204 204 204 203 203 204 202 195 187 180 176 178 184 193 205 211 206 194 185 182 183 190 195 196 197 -9999 
-9999 209 207 208 211 212 210 211 213 213 214 216 215 214 215 213 211 213 213 209 207 213 215 210 210 212 212 211 210 211 212 212 213 212 210 210 211 208 204 201 199 196 191 184 185 190 192 193 197 199 199 198 194 186 189 198 198 199 205 210 213 217 218 215 215 218 218 212 206 199 192 190 190 190 191 189 184 179 175 170 168 164 165 171 176 185 193 194 191 190 187 173 161 166 171 169 173 183 189 189 193 201 210 215 215 206 195 185 181 187 196 201 209 217 219 214 206 201 199 200 198 200 204 205 205 203 207 211 207 209 221 208 188 176 166 159 164 174 174 173 175 171 161 155 163 175 180 172 163 157 154 151 151 161 177 187 191 189 176 165 171 175 173 173 176 177 172 172 179 189 198 197 193 189 190 189 185 183 186 195 206 212 216 220 225 227 219 209 209 216 219 216 215 214 208 197 180 166 169 174 173 158 136 132 142 133 116 100 100 108 101 97 100 106 99 94 104 100 98 110 100 87 83 98 120 127 139 148 155 177 196 191 183 178 173 167 157 144 138 142 157 184 206 211 206 198 205 212 206 201 205 218 230 212 160 131 128 130 137 152 168 179 187 196 203 205 207 209 209 208 209 210 211 211 211 211 212 212 208 199 185 165 142 123 112 114 119 119 111 103 102 110 121 131 140 149 148 128 120 133 143 142 136 128 123 124 130 141 154 156 146 138 138 148 170 197 211 217 217 221 224 227 226 219 213 213 220 225 225 223 218 206 198 202 208 213 216 217 217 213 202 182 176 192 197 194 192 189 185 179 175 172 171 171 173 176 181 184 184 184 187 194 199 199 196 195 197 200 203 204 204 204 204 204 203 204 208 211 211 208 203 198 196 200 207 214 216 212 199 189 186 187 191 194 193 193 -9999 
-9999 206 204 208 211 210 208 208 211 211 213 216 214 213 214 212 212 214 212 209 209 212 212 208 209 212 211 209 209 210 211 212 212 210 207 206 207 205 205 205 205 202 194 188 189 193 193 193 198 200 199 197 192 194 206 212 208 207 210 211 215 221 220 216 216 218 216 209 200 191 188 190 191 191 190 187 180 174 172 173 175 175 179 187 191 195 194 190 189 193 189 171 161 165 169 168 170 173 174 177 188 203 214 219 220 218 214 202 194 196 197 198 208 218 221 217 212 210 213 216 212 203 197 198 200 202 207 209 206 209 219 216 200 184 170 160 163 174 180 178 178 169 158 158 168 177 175 165 155 148 150 150 151 165 185 193 189 182 171 169 178 179 176 172 169 168 168 176 185 192 196 193 192 196 201 199 196 196 198 202 206 209 213 217 219 218 215 215 217 220 219 215 213 213 210 200 183 173 173 168 157 138 125 133 134 116 110 99 98 108 105 107 111 117 119 116 118 104 95 96 86 87 92 110 133 134 139 147 160 179 193 194 191 185 179 177 174 170 179 193 207 218 219 216 211 207 211 214 212 213 216 220 221 193 169 180 183 184 188 195 201 204 205 205 204 204 205 205 205 204 206 207 207 206 206 206 208 209 209 209 206 198 187 177 171 170 165 150 128 113 108 113 121 126 131 135 121 97 100 117 134 147 151 147 146 151 160 173 184 187 178 162 147 146 166 191 203 206 209 213 216 217 217 215 212 213 218 220 218 215 207 191 186 199 219 229 226 222 216 201 176 159 173 193 196 193 190 189 189 188 184 175 168 165 166 169 174 177 176 176 179 186 188 186 186 192 199 203 205 204 204 204 204 204 204 204 208 210 210 209 210 211 208 206 206 206 201 193 185 181 184 189 193 191 187 185 -9999 
-9999 206 206 211 211 209 208 208 209 209 211 212 210 210 210 209 210 212 210 209 209 212 214 212 210 211 210 209 208 208 208 208 207 206 204 203 203 203 206 208 210 208 201 198 200 199 195 195 201 202 199 200 202 210 217 214 209 207 208 209 213 216 212 208 210 210 208 202 193 189 191 194 194 193 192 192 189 186 188 190 190 190 193 198 201 199 193 187 187 192 185 165 161 170 177 182 184 177 168 171 184 196 207 215 221 222 218 214 206 199 193 195 207 215 217 213 211 212 213 215 211 199 188 185 187 195 202 203 204 208 212 212 205 192 173 163 165 172 177 177 175 169 165 166 168 172 170 161 151 151 160 161 160 174 189 190 182 175 170 176 182 175 171 166 166 171 173 181 190 196 197 194 196 203 207 208 210 210 209 207 202 198 205 214 215 209 210 216 218 217 216 216 217 218 212 192 171 158 152 147 140 126 122 130 117 106 107 90 87 107 115 119 122 130 135 133 126 105 91 88 87 96 108 125 138 133 137 148 165 180 189 192 192 190 187 188 189 193 203 212 217 219 217 214 212 212 216 218 217 217 216 215 212 183 173 201 205 204 202 201 201 201 199 198 198 197 198 199 200 200 202 204 205 204 203 204 205 205 206 207 207 208 208 207 206 206 203 190 172 159 150 140 128 116 110 103 85 75 87 103 130 158 171 172 172 175 182 189 193 195 193 185 170 160 168 184 195 201 205 207 206 202 197 195 200 207 212 213 212 210 202 191 198 217 233 238 231 219 201 178 161 162 178 189 193 194 197 199 199 196 189 177 167 161 155 151 151 153 156 162 167 168 161 157 163 181 198 204 204 204 204 204 204 204 204 205 209 207 202 201 206 211 211 209 202 192 181 174 171 171 175 183 191 191 187 183 -9999 
-9999 207 208 211 210 208 207 207 208 209 209 208 207 208 208 206 207 208 207 207 208 213 215 210 208 209 208 208 207 206 208 207 206 205 203 205 207 211 212 210 210 209 204 203 207 207 204 203 203 202 202 207 214 222 222 214 210 210 210 211 211 207 202 199 199 197 197 195 191 195 199 201 198 197 200 199 195 195 199 203 205 205 205 205 203 200 192 185 184 184 176 163 171 190 202 208 205 190 179 182 186 185 187 197 215 224 220 222 217 201 191 197 207 212 212 211 211 212 211 209 203 194 188 185 183 187 193 200 207 208 207 206 204 197 181 170 170 172 171 169 166 167 170 170 171 171 167 163 157 163 177 177 176 187 193 188 178 172 167 171 171 162 163 163 171 184 189 196 205 207 203 198 203 209 209 208 212 214 215 213 206 196 194 201 206 209 214 216 216 216 217 220 222 221 208 183 157 143 141 139 136 128 127 127 115 112 110 88 93 125 136 131 133 138 136 136 125 95 81 84 91 102 118 130 127 124 137 153 168 180 185 188 191 194 197 200 202 206 210 214 217 218 217 215 215 216 217 217 215 213 210 208 207 177 167 194 198 196 192 190 190 187 182 178 176 175 181 190 193 194 199 204 205 202 198 199 200 200 202 204 206 208 209 210 210 211 212 209 206 203 201 193 169 140 118 100 87 89 105 126 153 173 181 185 189 193 195 195 194 195 196 195 190 185 183 184 186 189 190 190 188 182 174 177 191 200 203 204 205 205 201 201 216 229 232 229 217 198 179 167 165 171 180 186 191 195 198 198 194 187 182 180 177 168 155 142 133 133 142 156 162 155 142 139 152 177 196 203 203 203 203 203 203 203 203 206 208 203 199 201 206 211 215 214 208 198 189 183 176 169 169 176 184 185 183 180 -9999 
-9999 205 206 208 208 207 206 206 206 208 208 207 206 208 207 205 207 208 206 205 207 212 211 206 209 210 208 208 206 207 208 208 210 208 206 209 212 214 211 207 208 209 204 204 209 212 211 209 208 206 207 213 218 222 219 212 213 215 218 219 216 209 202 200 199 196 198 196 194 199 202 203 198 199 202 199 194 195 202 209 214 214 212 209 207 204 198 194 194 193 185 180 194 210 218 220 210 195 194 195 188 179 175 186 207 222 219 223 221 207 198 199 204 207 208 209 208 207 205 201 193 189 189 188 184 184 191 200 206 207 207 206 203 201 195 189 183 177 173 171 170 173 178 178 177 172 167 169 170 177 188 184 183 190 191 185 175 167 163 166 166 167 176 181 191 200 205 211 215 212 205 205 207 205 195 190 192 202 216 221 221 213 198 185 186 200 213 217 216 216 219 217 215 211 196 174 154 149 149 141 141 137 127 125 123 122 116 100 114 145 147 139 135 126 122 125 107 76 70 82 92 101 110 112 108 120 144 157 166 177 183 187 193 199 204 207 209 210 212 215 218 217 216 215 215 214 213 211 208 205 202 202 203 169 154 180 183 180 176 174 172 163 151 143 140 148 173 194 196 197 203 207 203 195 189 188 186 186 191 198 205 209 212 213 212 212 212 210 210 211 212 213 206 190 168 147 133 134 148 167 177 176 176 182 190 196 198 196 194 194 195 195 192 191 189 180 173 169 166 165 165 159 158 174 190 194 192 192 194 193 191 194 202 203 198 191 181 171 165 165 167 173 181 185 189 191 189 185 182 179 181 185 184 176 167 161 157 154 158 162 158 146 137 141 163 184 196 203 203 202 202 202 202 200 198 202 208 209 210 211 210 212 215 216 214 210 208 207 200 186 175 173 172 163 157 157 -9999 
-9999 206 207 210 210 209 209 207 206 208 209 207 207 207 205 204 208 208 204 204 206 209 210 210 212 210 207 208 208 210 210 211 211 208 208 210 211 208 201 200 205 208 206 207 211 212 212 211 210 209 210 214 216 218 212 208 212 218 222 222 218 213 210 213 212 207 206 203 202 204 207 207 203 203 206 206 202 201 207 213 217 216 214 213 214 214 209 206 208 208 203 203 210 215 216 212 200 196 201 196 184 174 170 174 185 199 206 216 218 211 206 200 194 194 201 205 202 201 198 190 186 186 187 185 183 187 194 195 197 204 208 206 204 205 206 207 203 192 184 184 185 187 189 189 186 179 177 181 180 187 194 188 185 186 185 178 166 156 159 169 176 186 198 205 211 214 216 219 218 213 210 212 212 202 188 183 183 192 208 220 226 226 218 199 186 190 200 207 209 211 212 209 203 193 178 164 158 154 146 136 139 137 126 127 130 130 126 119 135 152 151 143 120 101 105 107 89 68 72 86 98 104 105 107 113 134 150 153 162 175 184 187 193 200 204 208 211 213 214 216 217 214 212 213 211 209 207 203 199 196 197 197 191 151 136 163 166 164 163 164 161 144 126 123 126 149 185 205 207 205 209 208 199 189 187 187 186 190 199 208 213 215 213 212 209 210 212 210 209 210 210 211 212 210 207 202 195 189 187 184 173 166 169 174 177 181 184 187 190 192 192 189 182 180 181 173 164 157 153 150 146 142 153 176 188 189 186 184 182 176 167 162 159 158 157 156 156 158 159 162 167 177 185 188 188 187 185 184 185 186 186 183 182 182 183 185 188 186 175 160 147 140 139 154 177 189 195 202 202 202 202 202 200 192 190 200 208 215 221 222 218 213 210 208 206 207 211 217 217 207 193 179 164 152 148 152 -9999 
-9999 209 213 215 214 213 211 206 206 210 209 207 207 207 208 209 210 206 201 204 208 211 212 212 211 207 206 209 212 213 212 210 207 202 203 209 210 207 204 205 209 211 211 209 209 210 211 210 207 208 210 213 215 212 207 206 211 217 220 216 211 211 215 220 217 211 209 208 209 210 212 213 212 212 215 218 212 207 210 211 213 214 215 216 218 217 208 205 208 210 210 211 211 211 209 203 200 203 203 195 186 177 178 185 187 191 196 206 211 211 208 201 195 194 196 198 198 198 195 192 194 192 188 189 192 196 195 191 194 204 209 206 205 207 208 209 210 203 193 192 196 195 193 194 191 188 191 193 190 193 195 192 188 186 182 171 161 160 174 189 197 205 211 215 218 218 220 221 218 213 213 217 216 209 202 202 203 207 207 211 218 227 231 225 212 199 193 195 202 208 206 204 201 191 177 167 165 152 135 128 133 135 127 123 129 130 120 121 141 154 152 135 107 95 101 104 94 82 85 96 107 111 112 125 137 145 146 147 160 176 185 187 192 199 205 210 215 216 215 214 212 210 210 208 203 202 201 197 193 189 183 170 157 128 124 152 156 155 158 162 158 135 126 142 164 193 209 213 212 209 209 207 197 192 194 197 202 211 220 225 224 218 212 209 209 211 211 210 212 212 209 209 209 210 212 214 215 213 209 195 178 174 178 177 172 171 174 181 187 190 190 184 175 176 182 178 168 158 152 144 138 137 154 174 184 186 183 180 172 160 149 142 139 138 140 145 152 159 163 168 176 186 191 190 188 186 185 187 189 189 184 179 180 187 193 195 192 183 166 149 140 139 146 167 183 188 190 197 201 201 202 198 188 179 187 200 203 207 216 220 216 207 200 199 201 205 209 209 205 200 195 181 166 161 163 168 -9999 
-9999 216 217 215 213 213 210 206 208 212 210 209 208 209 211 213 212 207 206 211 214 213 212 211 207 202 204 211 214 211 206 206 206 203 206 211 212 211 210 210 211 214 212 209 208 211 212 209 205 208 211 212 209 204 202 203 207 211 210 202 199 203 207 208 207 209 210 211 212 214 214 214 216 215 216 216 207 203 206 207 211 213 215 215 213 210 201 199 206 210 211 211 209 208 205 201 207 211 206 199 193 191 201 204 194 182 182 199 210 212 210 207 206 204 198 193 194 196 195 199 202 198 196 200 200 198 192 190 199 205 204 204 205 208 208 207 207 203 196 190 187 183 182 187 191 196 203 206 203 198 194 191 183 178 176 174 178 186 199 208 212 215 216 215 216 217 219 217 211 209 215 220 216 209 209 210 217 225 216 204 206 216 225 230 228 215 201 199 205 207 202 205 214 206 187 172 163 140 121 123 133 137 122 118 133 126 113 130 153 154 142 123 105 102 108 116 108 91 93 106 116 123 126 138 147 148 154 160 172 185 189 189 195 206 214 219 221 218 214 209 207 206 205 200 196 196 192 187 178 162 140 121 116 115 129 149 152 154 158 160 154 134 146 188 216 229 226 219 214 207 206 204 200 198 200 203 209 217 226 229 224 216 214 215 216 216 215 215 216 214 210 208 208 210 212 213 213 213 214 208 202 200 193 181 171 172 178 184 189 190 189 182 174 179 186 186 179 168 155 145 142 151 168 180 184 183 179 173 161 151 145 141 138 136 138 147 159 169 175 180 188 194 193 187 183 180 177 175 173 172 171 170 171 176 183 185 177 164 153 147 143 143 152 166 171 170 172 180 189 194 194 183 171 173 190 195 191 196 203 204 198 194 196 201 205 208 208 199 183 170 168 169 167 167 171 176 -9999 
-9999 215 217 214 212 213 213 212 215 217 215 212 211 212 211 210 211 209 210 214 211 209 209 211 206 202 208 215 213 207 207 211 211 210 213 215 213 210 207 205 208 214 213 209 209 212 212 209 207 210 211 209 206 203 199 199 201 202 196 188 186 191 193 189 188 192 200 207 213 217 215 215 216 213 209 205 200 199 201 207 215 215 212 209 207 207 203 203 210 216 216 213 209 208 206 204 211 213 207 202 198 199 205 199 181 169 176 193 207 214 216 218 215 207 198 192 192 194 196 199 197 195 197 198 195 193 191 197 206 206 203 202 202 202 205 207 207 204 201 197 183 172 174 183 191 198 206 207 202 197 194 186 175 175 179 188 200 208 215 219 218 215 211 208 209 211 212 208 206 208 211 211 205 202 207 213 223 229 222 210 202 201 210 220 226 225 218 209 200 191 190 204 213 197 176 167 152 129 121 124 126 130 118 122 132 121 129 162 170 149 135 124 107 108 118 125 111 91 102 124 129 131 130 138 144 144 160 175 189 197 198 199 206 216 221 220 217 213 208 206 206 204 199 190 184 175 164 155 135 115 105 102 109 127 147 151 150 154 156 155 150 145 173 213 228 230 228 223 213 200 197 200 202 202 203 207 210 218 228 228 221 217 218 219 220 219 219 219 218 215 208 205 205 207 209 209 209 210 212 211 213 214 205 187 176 179 184 188 190 190 188 180 175 182 187 188 186 179 169 164 170 181 192 194 188 180 174 166 154 148 145 143 145 150 160 171 179 182 184 186 190 191 187 182 177 171 166 161 157 157 159 160 162 165 169 167 159 153 151 150 149 148 149 148 145 148 159 170 177 176 173 165 164 176 185 177 177 186 187 183 180 186 198 207 209 207 203 195 180 164 161 171 181 184 185 186 -9999 
-9999 211 216 214 214 222 227 227 226 223 218 215 214 213 210 208 206 204 205 208 206 206 209 210 208 207 214 217 212 208 212 213 211 210 213 214 211 207 205 205 209 215 213 209 209 211 210 207 207 210 211 209 208 207 204 202 199 194 187 181 180 184 185 182 176 174 184 196 203 209 211 213 212 207 201 196 196 197 200 208 216 215 211 209 207 208 208 208 214 218 219 215 211 210 208 209 214 213 208 203 198 195 196 191 183 179 182 190 201 212 221 223 218 207 197 190 185 187 193 194 187 182 182 186 190 191 193 198 200 199 198 200 203 206 209 209 207 204 204 205 198 187 184 186 189 192 196 195 191 193 191 182 181 188 196 203 212 218 223 225 222 215 208 206 206 208 208 208 208 203 198 198 200 204 212 219 226 227 225 219 210 208 209 209 215 223 228 224 212 198 193 195 191 169 162 166 155 139 133 125 121 128 122 126 131 131 152 172 165 142 134 122 96 102 115 110 101 97 119 137 125 118 122 131 136 138 158 180 196 204 209 214 217 220 218 210 206 205 203 202 200 194 184 168 152 139 132 120 100 97 107 116 132 158 167 155 149 155 159 157 155 161 188 213 218 220 223 218 203 192 198 206 206 203 204 206 208 218 227 225 219 218 219 220 220 219 219 219 218 213 204 199 197 199 203 207 210 211 210 211 214 214 210 200 194 194 192 191 191 191 188 178 176 184 187 186 185 184 185 188 194 199 204 200 188 179 181 178 169 161 153 151 161 180 193 194 191 188 186 186 185 184 182 181 177 173 168 163 157 156 156 158 162 167 169 164 157 153 151 150 149 148 145 142 144 156 169 174 170 161 158 157 161 170 168 165 174 178 176 174 177 190 203 210 210 206 200 198 197 189 179 182 194 205 206 203 -9999 
-9999 209 219 217 218 231 238 235 231 224 215 215 213 208 207 205 202 199 199 205 209 211 211 211 209 208 214 214 209 207 208 208 207 207 208 208 207 206 207 209 212 214 211 208 209 210 209 207 208 210 210 208 208 208 207 207 203 197 191 186 184 185 184 181 175 176 184 185 186 191 196 200 199 198 196 192 196 201 204 210 216 218 216 213 210 209 211 212 214 217 217 216 212 210 210 210 212 211 209 205 200 198 198 193 188 181 181 187 197 212 223 221 215 210 200 190 183 183 186 183 175 170 172 183 192 193 191 187 184 177 176 186 200 210 212 207 203 203 206 208 207 202 195 191 189 189 192 190 185 187 187 184 192 202 209 215 221 224 227 227 224 217 211 211 213 215 217 216 210 199 197 204 209 212 218 222 223 222 221 218 218 218 208 200 201 210 222 229 231 225 215 204 187 164 165 173 167 147 132 125 125 130 130 137 148 159 170 171 161 145 136 118 95 109 116 104 103 107 126 133 116 113 123 131 136 148 173 194 205 211 215 217 217 216 211 203 199 199 198 191 182 173 161 145 134 130 125 112 107 118 133 139 157 182 179 156 150 164 178 178 177 182 198 211 214 214 212 202 188 191 205 210 204 200 200 204 209 220 226 221 216 216 217 219 219 219 219 219 216 209 200 193 191 194 200 205 210 209 208 211 212 212 211 210 211 209 204 198 194 192 187 178 180 185 185 182 181 186 192 197 198 200 202 197 190 194 202 206 202 191 175 170 181 193 195 191 190 190 188 184 180 179 180 181 180 178 175 168 160 157 156 157 163 168 169 165 159 156 153 151 150 150 151 153 161 171 172 163 156 154 156 156 157 162 164 173 183 180 174 174 184 200 209 212 209 203 198 201 208 208 198 190 194 205 209 206 -9999 
-9999 207 219 219 221 232 237 235 230 218 207 209 206 207 211 207 203 202 206 212 215 213 210 210 209 210 214 211 205 203 207 207 205 205 206 207 207 208 209 211 213 212 209 208 208 209 209 208 210 211 209 208 208 208 208 208 207 205 202 199 196 194 191 186 183 185 190 189 185 184 182 183 184 189 193 195 204 209 209 214 219 221 219 215 209 208 213 214 212 213 214 213 211 211 212 211 209 209 208 206 206 205 203 199 194 189 188 189 196 207 214 214 216 218 211 201 196 189 176 167 167 171 179 190 195 192 186 182 178 165 158 167 181 193 200 200 199 203 208 209 209 207 204 199 193 191 193 190 185 189 194 195 203 211 216 220 222 222 223 225 223 217 214 216 220 225 227 221 207 197 199 208 212 215 218 219 219 217 216 215 215 209 199 197 199 206 217 224 227 227 226 217 198 182 182 182 168 142 126 127 130 135 147 153 160 171 175 172 166 151 136 118 105 121 121 114 115 115 131 132 117 118 129 136 148 168 191 207 215 216 214 212 210 208 204 197 188 182 175 165 154 147 139 135 138 142 139 135 145 160 167 165 181 193 178 156 157 178 191 188 187 198 209 214 212 205 195 185 182 190 199 200 196 198 203 209 215 222 224 217 213 213 214 215 217 218 218 217 214 205 195 189 188 193 199 203 204 201 201 207 211 210 210 212 213 213 212 208 200 193 185 177 180 181 178 178 183 190 196 198 198 200 201 199 202 207 204 202 200 190 182 184 188 186 183 186 192 193 188 182 177 175 175 178 179 178 175 170 165 162 159 161 166 167 167 165 162 161 160 159 160 161 163 165 168 166 157 146 145 151 155 155 156 164 172 183 189 186 179 179 193 206 213 210 203 197 196 199 203 206 205 199 196 200 204 202 -9999 
-9999 204 214 216 218 224 227 228 225 209 197 200 203 211 216 211 208 210 215 219 216 211 210 211 210 211 212 209 206 208 211 208 204 206 209 209 209 209 209 210 211 209 208 208 208 209 208 209 209 209 209 208 209 208 207 208 207 205 206 206 205 205 202 200 197 196 201 202 198 192 185 183 183 187 193 199 208 210 210 214 218 219 216 212 208 209 214 211 208 209 209 209 211 213 212 209 209 210 209 210 212 209 204 201 198 200 200 195 193 192 192 199 214 222 220 218 210 191 169 159 164 176 189 197 195 188 183 181 179 175 173 173 175 180 191 198 197 199 203 206 208 208 206 204 201 198 195 194 196 202 205 204 208 213 217 218 216 212 211 216 218 216 217 221 228 232 231 222 205 194 198 209 214 217 217 216 217 216 213 209 205 200 204 206 205 208 212 213 217 223 227 222 206 194 189 180 163 139 125 130 138 145 153 154 160 167 167 165 161 147 132 120 113 120 111 116 124 126 141 133 118 121 129 138 161 188 206 215 217 215 212 208 206 203 199 187 164 151 144 137 129 123 124 132 146 156 159 166 179 185 182 179 191 190 168 157 165 182 185 180 184 198 206 205 199 191 182 177 177 184 189 188 188 197 208 214 217 222 220 215 213 213 213 213 214 215 215 213 209 200 191 188 189 194 201 204 199 191 190 199 205 208 209 210 210 211 212 211 206 198 185 176 176 174 175 181 189 195 198 198 198 199 200 201 203 197 185 175 165 158 166 180 186 185 187 193 196 193 185 181 179 175 172 173 175 176 175 173 172 170 168 170 173 171 169 168 168 169 171 174 176 177 177 175 170 159 146 140 141 147 153 155 159 168 177 183 186 188 186 190 200 208 210 201 192 191 195 198 197 198 200 201 200 202 207 209 -9999 
-9999 201 209 212 215 216 220 223 220 207 197 203 211 217 217 214 214 214 218 219 215 212 212 212 210 210 212 210 210 212 210 204 204 209 212 212 209 208 208 208 209 208 208 208 209 209 208 209 209 208 209 209 208 207 208 208 204 201 204 209 209 208 208 208 205 204 209 209 205 200 195 194 192 191 194 200 205 206 208 212 215 215 212 210 210 212 213 208 207 208 208 209 211 212 209 208 210 211 212 215 216 211 205 204 203 205 203 192 182 176 175 183 197 207 216 220 210 192 180 174 174 185 197 201 198 192 186 182 183 189 193 190 184 182 189 196 196 197 200 204 206 206 205 206 207 206 203 201 203 205 204 204 207 211 215 213 208 206 206 208 209 213 223 228 232 234 231 220 199 189 199 209 211 211 211 211 211 210 205 199 198 205 213 213 211 210 208 209 214 220 222 221 211 197 186 177 164 147 135 140 149 146 145 153 163 167 167 163 154 141 128 123 124 117 109 124 134 130 133 122 114 122 131 148 180 205 215 217 216 212 208 204 200 194 185 165 142 138 141 133 120 113 123 140 157 170 176 181 189 188 183 181 191 180 159 162 171 178 176 175 182 191 192 188 185 182 178 173 170 172 174 173 175 185 196 204 212 216 213 209 209 209 210 210 211 211 207 203 196 187 183 185 191 197 204 207 200 189 188 193 197 201 206 208 209 209 209 210 209 203 190 179 174 173 180 188 194 197 198 197 195 195 196 196 193 183 172 162 150 148 164 182 194 198 199 200 197 189 181 180 180 177 173 170 171 173 174 173 174 176 176 180 181 177 170 168 170 174 178 181 182 179 175 170 164 153 144 140 140 143 149 154 162 173 180 182 183 185 190 197 200 200 196 184 181 188 196 199 198 199 201 201 201 201 205 212 -9999 
-9999 195 207 211 212 214 218 223 222 216 205 207 218 222 219 215 214 213 215 218 217 216 214 211 208 209 212 212 212 210 207 204 208 211 212 211 208 208 207 207 208 208 208 209 209 209 209 209 209 209 209 209 208 208 209 209 204 203 208 212 209 207 208 208 207 207 209 208 206 203 200 202 201 196 195 195 196 197 202 209 214 212 210 210 210 211 211 207 210 212 210 211 212 211 209 208 210 212 214 217 217 210 204 204 205 203 197 184 176 176 177 178 178 183 196 206 204 201 200 201 202 203 205 207 206 201 193 186 187 192 192 192 188 185 184 186 193 196 195 197 200 204 206 207 208 208 207 206 204 202 201 203 206 208 207 202 200 203 205 203 199 202 218 228 227 227 225 211 187 183 197 206 203 199 197 196 197 200 196 191 195 206 212 212 213 212 210 209 209 211 213 215 209 198 191 184 175 162 150 147 147 138 140 156 167 170 169 157 141 131 121 120 125 118 114 126 128 121 117 113 116 128 140 165 198 213 216 214 211 208 203 198 187 169 151 136 131 139 147 139 125 124 143 161 172 180 184 185 189 186 182 182 190 174 162 177 182 184 185 185 186 187 184 181 181 180 175 169 164 166 166 164 165 171 177 185 195 194 184 180 181 184 186 191 199 202 197 190 183 178 180 186 192 199 204 207 202 197 195 194 193 194 197 204 209 210 210 210 211 208 202 194 189 188 191 194 196 196 193 189 186 187 190 189 185 176 167 159 154 161 176 189 201 206 204 200 192 183 179 179 181 180 176 172 171 173 173 172 174 176 179 182 180 172 163 161 166 172 174 172 168 161 154 148 145 144 144 144 143 143 148 157 167 176 181 182 182 182 186 190 185 176 169 169 178 188 192 194 195 198 201 201 199 199 201 205 -9999 
-9999 189 206 213 215 217 219 222 223 220 207 204 218 224 219 212 209 209 212 218 220 220 214 210 209 212 214 214 212 210 209 208 210 211 212 212 209 207 205 206 208 210 210 209 208 208 208 208 209 209 209 208 208 208 209 209 207 207 210 212 207 205 207 208 208 205 203 204 207 206 204 208 208 203 202 199 194 190 193 203 208 207 210 212 209 209 210 209 213 215 213 213 213 211 210 210 211 213 213 213 212 207 203 206 211 210 210 198 189 187 184 181 178 175 177 184 198 211 215 219 224 221 214 212 212 206 198 192 192 194 195 195 190 185 181 182 189 194 191 192 196 203 206 206 207 207 207 208 207 201 198 200 201 199 196 195 195 197 198 198 196 195 203 213 213 208 208 199 179 182 197 203 199 196 191 186 186 187 184 183 191 202 205 205 208 211 211 209 207 208 212 213 208 200 198 196 189 174 150 135 134 133 139 156 164 163 159 141 126 123 116 114 124 121 113 115 117 115 114 117 125 137 150 177 204 212 212 210 207 203 194 183 162 138 127 129 135 141 146 144 140 151 170 178 180 183 184 184 186 183 180 181 186 172 172 194 199 200 198 194 189 185 181 179 180 178 171 164 162 165 167 165 164 166 169 177 184 172 149 140 137 139 143 153 172 188 192 189 187 188 190 194 198 201 203 204 203 204 204 201 199 199 199 203 206 208 210 211 210 210 210 208 207 207 204 198 193 188 182 177 176 182 186 187 182 173 166 162 165 174 182 186 189 189 187 183 178 175 176 179 181 181 179 176 175 175 174 174 178 181 183 184 179 172 166 163 162 164 162 157 150 144 138 133 136 144 148 148 147 149 156 165 169 173 177 179 178 176 175 172 161 148 148 162 177 184 184 182 181 183 187 189 191 193 195 195 -9999 
-9999 190 207 217 221 222 219 218 216 208 197 201 214 218 215 207 204 206 211 215 218 215 208 209 214 217 219 218 214 213 212 212 211 211 213 213 210 206 206 208 211 213 211 208 208 207 207 208 209 209 208 208 208 208 209 209 207 207 209 211 210 208 206 206 206 200 198 205 210 208 208 211 209 206 206 205 201 195 197 202 200 201 212 216 208 208 211 212 217 220 216 214 213 211 210 210 210 210 208 207 208 208 210 216 221 222 223 215 197 180 173 177 180 179 175 177 197 225 232 229 230 226 219 216 215 207 199 196 195 199 202 203 200 195 190 186 187 190 191 192 195 195 197 202 206 207 207 209 209 202 197 197 197 196 197 199 197 195 197 196 196 196 193 187 178 171 175 176 170 176 192 199 201 201 197 191 187 181 179 184 195 205 206 206 210 212 213 211 207 207 210 210 211 207 207 206 197 174 141 126 139 141 136 150 151 146 144 128 117 120 112 111 123 119 112 111 112 114 115 120 129 142 158 185 205 208 207 206 206 199 179 153 130 117 124 140 145 145 151 153 153 162 173 178 182 186 187 186 184 181 179 179 178 171 181 200 204 201 194 188 185 184 182 182 183 177 168 162 161 165 168 167 165 166 173 183 185 170 146 132 122 118 122 136 157 176 190 194 196 199 199 200 201 202 201 200 201 205 210 210 211 211 208 205 203 205 208 210 211 211 211 211 212 214 213 205 193 181 173 171 175 181 184 184 181 175 172 172 176 180 182 180 175 169 166 164 163 165 171 177 182 183 184 185 184 180 177 179 183 187 189 188 185 182 177 171 164 158 152 146 142 142 141 142 153 164 163 156 154 157 161 163 163 168 174 176 176 172 166 161 155 151 155 164 170 174 175 172 165 162 164 168 174 178 182 184 -9999 
-9999 194 209 217 221 220 214 212 207 195 191 199 209 211 209 204 202 205 210 212 212 208 206 213 219 221 222 220 217 216 217 217 215 215 216 215 212 210 210 212 215 214 211 209 209 208 207 208 209 208 208 208 208 208 209 208 208 208 211 212 212 210 207 207 205 199 202 209 211 209 209 208 207 207 209 210 207 206 207 201 189 190 204 207 196 200 211 217 221 221 217 215 214 212 210 208 208 207 205 206 210 214 219 224 226 223 221 218 204 184 175 175 179 181 184 191 205 225 236 230 229 221 222 221 216 207 202 199 197 202 207 208 208 207 200 190 185 184 188 192 193 190 189 197 204 206 206 207 208 205 200 199 200 201 204 204 204 205 206 202 198 198 195 179 161 159 169 172 168 172 188 200 206 208 204 199 192 190 193 198 205 213 216 216 217 218 217 212 206 205 207 211 213 211 213 206 183 153 131 131 155 145 128 141 144 143 140 123 115 115 107 107 115 110 106 106 105 107 113 119 128 144 169 195 205 204 203 203 196 177 143 113 103 108 125 146 152 152 155 151 141 144 156 173 187 193 194 194 189 185 183 180 172 169 181 190 189 184 178 176 176 179 184 191 195 187 175 167 164 165 168 166 166 172 184 193 187 173 155 138 130 123 129 146 160 169 182 195 199 201 200 199 198 196 194 195 201 207 209 210 212 214 213 211 210 208 206 207 208 209 210 210 211 213 213 210 202 190 179 177 179 180 180 180 178 177 179 181 181 181 180 179 175 170 165 160 158 162 170 181 187 190 193 196 192 185 182 183 185 188 191 190 187 183 178 172 166 160 154 151 150 151 155 165 174 174 170 169 171 170 166 160 159 165 172 179 183 181 175 171 171 172 170 165 163 164 165 162 155 151 152 157 162 164 167 170 -9999 
-9999 191 204 211 216 213 205 204 203 201 201 204 208 208 205 203 202 206 212 214 212 211 213 220 224 224 224 222 217 214 217 220 218 217 218 216 216 215 214 215 217 218 217 215 211 209 211 214 212 209 209 209 209 208 208 208 208 209 210 209 209 209 209 209 205 202 205 208 209 210 209 208 209 212 210 205 202 205 206 198 191 191 190 178 173 192 212 220 218 216 215 216 216 214 210 207 207 207 207 208 211 217 221 224 224 219 215 218 219 214 198 183 181 187 195 201 202 204 211 211 213 206 214 218 213 211 209 205 202 206 209 205 203 202 201 200 196 188 186 191 193 194 193 193 194 199 204 207 207 205 203 205 206 206 205 204 207 211 211 205 203 204 201 185 171 175 185 191 186 183 193 200 205 210 210 205 199 199 202 204 211 219 221 221 222 224 221 212 206 204 203 205 204 204 206 191 159 134 127 134 147 130 116 134 148 151 139 123 116 114 111 111 108 100 95 94 95 100 108 116 127 152 183 200 202 202 202 191 165 133 101 88 103 127 148 165 166 161 154 133 119 129 155 181 197 201 201 198 191 186 186 182 164 161 174 175 173 170 168 169 173 181 191 202 203 193 183 178 174 173 172 170 173 185 196 197 185 172 160 142 135 140 152 165 173 176 183 193 195 194 194 191 188 187 190 198 208 210 207 205 205 209 215 217 215 210 205 204 204 206 208 209 210 211 209 210 210 205 199 195 186 181 181 179 175 175 178 180 181 181 180 178 177 176 172 167 168 176 185 190 192 194 198 198 193 188 185 184 185 188 190 188 183 177 173 170 167 165 165 166 166 168 175 182 181 175 175 180 183 180 173 166 165 170 176 183 189 193 193 190 188 181 167 154 154 157 154 149 146 148 153 159 161 157 151 149 -9999 
-9999 184 193 207 216 209 199 200 203 207 210 210 211 208 203 202 203 209 217 219 217 217 220 225 227 226 224 220 215 212 217 221 218 217 217 217 218 217 215 217 221 223 222 218 214 215 221 221 215 211 212 211 209 207 208 208 208 208 208 208 209 208 208 207 203 203 206 208 210 210 210 212 216 214 206 200 200 205 206 205 207 207 199 183 181 201 215 213 205 206 211 215 215 212 208 207 208 209 208 208 213 217 219 221 217 210 209 216 222 222 212 198 194 197 199 197 192 187 188 191 196 199 207 215 218 220 215 208 205 207 206 203 201 198 200 202 200 194 193 198 198 196 195 189 183 190 203 206 206 205 204 208 211 208 203 202 203 203 200 196 199 202 197 183 178 183 187 189 186 183 189 192 196 203 205 204 200 201 202 203 208 214 220 223 221 214 208 207 208 203 200 199 198 198 195 180 152 136 131 128 129 117 109 123 138 139 127 120 118 115 111 104 98 93 90 90 91 98 105 115 136 170 195 201 200 199 190 163 129 106 92 98 130 158 173 180 177 165 145 120 117 144 176 197 206 207 203 194 185 183 184 178 149 145 165 167 167 167 168 172 180 188 193 193 189 183 181 181 184 187 187 183 188 197 202 198 187 176 162 139 130 155 184 191 193 194 195 195 189 186 186 184 183 188 198 208 213 212 207 204 202 204 211 214 212 209 207 206 206 207 208 209 210 210 209 211 213 212 212 210 199 194 189 182 177 175 174 175 178 179 179 177 177 177 177 177 184 193 193 188 185 187 191 192 191 189 183 178 179 183 185 183 177 173 170 169 168 169 171 173 175 180 185 189 189 186 182 176 171 169 169 169 172 177 181 183 186 190 193 194 191 180 162 149 147 151 150 146 146 149 155 161 159 152 147 146 -9999 
-9999 168 178 203 209 205 202 203 205 208 212 211 211 208 204 204 208 214 219 218 217 220 220 221 224 222 219 215 213 213 217 220 217 216 217 218 218 216 215 219 224 224 221 218 217 221 225 222 215 213 216 215 210 209 210 210 209 208 208 209 209 208 208 205 201 204 207 210 211 211 212 215 215 209 205 205 207 212 212 212 213 212 209 206 204 207 204 191 187 195 205 212 213 209 206 207 209 210 210 211 215 216 217 214 203 200 207 214 218 218 215 215 212 208 202 195 189 186 189 197 207 210 210 214 220 219 212 206 205 204 202 202 201 198 198 197 196 194 198 201 197 195 195 194 189 194 204 206 206 204 204 208 210 206 201 199 198 196 191 189 193 195 192 188 191 196 192 183 178 180 188 194 199 202 201 198 196 198 199 199 204 207 209 214 212 202 197 204 212 213 208 204 205 199 185 167 145 131 120 113 114 113 107 113 127 129 120 114 108 100 94 89 89 88 87 88 92 100 108 125 159 188 199 199 192 177 151 120 103 102 109 127 154 166 168 170 168 155 133 119 132 168 193 204 210 208 198 187 182 183 183 171 134 130 153 157 158 161 165 171 178 179 175 171 171 175 178 180 186 190 188 187 193 197 198 198 196 183 159 131 131 171 204 208 204 202 201 196 186 183 185 186 190 200 209 214 215 212 207 204 203 204 206 208 210 210 209 208 208 207 204 205 207 208 209 211 212 212 213 212 209 207 196 185 179 175 171 171 173 177 179 179 178 177 176 181 191 195 189 179 175 179 186 190 191 185 171 163 162 163 165 169 172 170 168 170 173 173 171 171 175 182 186 190 192 189 177 163 157 158 162 166 170 176 179 181 183 182 182 179 174 166 162 161 162 160 157 155 157 154 151 151 151 152 157 158 -9999 
-9999 152 166 193 197 201 205 207 209 214 217 212 209 207 203 205 210 216 217 214 213 215 213 212 216 217 214 212 215 217 217 217 216 216 218 218 217 216 217 221 223 220 219 219 220 223 223 221 216 216 220 220 216 215 214 212 210 209 209 209 209 209 208 204 202 206 210 212 212 213 214 214 210 207 207 207 210 214 214 214 214 210 208 209 209 206 192 177 179 185 191 198 204 206 206 209 212 212 211 212 214 214 213 208 200 204 211 215 217 217 217 222 223 215 205 197 194 195 199 204 211 214 211 210 215 211 204 203 201 198 197 199 198 197 201 204 204 204 205 200 193 194 197 197 196 197 196 197 201 204 206 207 207 205 202 200 198 196 194 192 194 194 192 193 198 202 199 195 191 192 199 203 206 208 205 199 195 195 198 201 204 202 199 198 199 203 204 203 206 209 207 208 209 199 178 154 130 112 101 102 109 118 116 115 127 130 124 114 102 93 88 87 88 88 86 86 95 112 130 156 186 198 198 188 168 147 125 107 107 115 125 143 159 165 165 161 155 142 126 125 148 184 200 205 207 202 188 181 181 182 180 166 126 117 142 149 150 152 157 163 165 164 162 163 168 174 177 177 178 175 173 179 189 192 193 193 193 173 142 133 153 189 211 213 208 204 201 194 183 180 183 189 199 209 214 215 215 211 206 203 202 202 203 205 208 211 209 205 203 199 196 198 201 204 206 208 210 211 211 212 213 214 207 194 181 173 170 171 173 176 182 186 184 179 175 181 191 193 187 179 175 179 185 190 188 176 159 153 151 148 149 157 166 167 165 164 165 164 162 162 168 176 178 178 178 174 168 163 162 164 166 165 167 171 173 174 174 176 177 172 162 156 160 169 174 171 164 164 165 158 146 141 144 153 160 160 -9999 
-9999 157 163 185 190 196 206 209 214 220 220 214 209 205 202 205 210 213 213 209 209 211 209 207 210 211 210 213 216 217 217 215 214 216 218 217 215 215 216 219 220 217 217 219 221 224 223 220 217 218 222 224 221 218 218 216 212 210 210 211 211 210 207 203 206 212 212 214 216 216 215 214 212 210 209 208 210 213 214 214 213 209 209 211 210 208 199 189 185 182 181 181 186 194 198 210 217 212 209 211 211 210 210 208 207 212 216 216 215 213 211 217 220 214 209 210 214 211 208 209 212 214 214 213 214 208 203 201 198 196 197 200 202 204 210 213 213 212 211 209 205 204 202 197 197 198 191 185 189 199 205 207 207 206 205 204 203 203 199 196 196 194 192 193 198 200 201 204 201 201 204 202 204 204 200 196 196 198 203 207 206 204 203 199 199 205 207 205 202 201 204 210 208 192 168 143 117 96 88 97 110 127 123 111 122 133 133 118 101 94 90 90 92 92 91 94 117 148 170 188 201 202 193 171 147 135 126 122 126 129 135 149 162 170 173 167 155 139 131 138 159 188 200 202 200 191 182 181 180 172 160 145 113 105 134 147 148 149 153 157 159 161 161 163 168 174 173 168 165 164 170 181 189 193 191 188 178 152 128 144 176 198 212 216 212 207 201 193 180 172 170 177 192 204 211 214 214 210 204 200 195 192 195 202 206 208 203 196 190 188 191 196 197 197 198 202 206 209 211 213 214 216 216 207 191 178 173 173 174 176 180 182 180 176 176 183 190 190 184 178 177 180 183 187 185 172 160 161 161 159 159 163 168 169 164 156 151 148 148 152 158 162 160 157 156 159 163 166 168 168 167 167 170 171 170 167 165 167 171 171 164 157 157 162 166 166 166 168 166 157 144 140 145 152 156 157 -9999 
-9999 168 152 164 173 185 202 211 218 221 220 213 207 203 203 208 212 212 208 204 206 210 210 205 204 206 208 212 214 213 213 212 214 219 221 218 215 214 215 217 217 214 213 216 218 222 221 215 214 215 219 225 226 222 219 212 207 207 210 212 213 210 208 208 214 215 212 214 217 216 215 215 214 212 210 210 212 213 213 213 212 209 210 212 210 208 206 204 199 193 187 180 180 181 184 199 207 205 206 207 208 208 209 209 211 215 216 213 211 207 206 212 214 212 212 218 224 220 210 204 205 211 216 214 213 212 210 205 198 197 200 204 208 212 215 215 213 209 206 210 214 211 205 197 196 197 194 187 185 192 201 205 206 206 207 206 206 204 199 196 195 192 192 194 197 200 205 208 203 202 201 197 199 197 193 193 198 203 206 207 209 211 208 205 205 209 211 210 208 206 208 208 197 167 135 111 91 77 73 84 98 113 111 104 122 134 124 103 87 84 88 93 97 101 105 123 161 191 199 202 201 196 180 154 137 133 130 130 132 133 142 159 171 178 180 174 160 148 147 152 164 184 195 199 195 188 182 178 165 140 118 107 98 97 127 146 148 150 154 157 158 159 161 163 168 173 170 163 160 165 176 185 190 193 191 184 167 138 122 150 183 199 212 217 216 211 202 188 168 153 146 152 165 179 191 201 207 203 194 184 175 171 182 198 203 202 194 182 178 184 191 193 191 187 186 193 202 208 211 214 214 214 215 214 207 195 184 176 173 173 173 169 165 168 176 183 184 180 173 169 174 183 186 187 187 181 176 183 187 188 189 188 181 169 160 158 156 155 156 159 159 154 146 144 149 155 159 163 165 163 162 164 168 171 172 171 168 165 167 169 166 161 159 162 166 167 166 165 164 156 145 140 144 148 152 152 -9999 
-9999 164 131 137 153 178 200 212 219 221 218 212 209 209 208 210 213 213 208 206 211 215 212 205 201 204 211 214 212 209 210 210 214 221 223 216 212 214 217 218 216 212 209 211 214 216 211 205 207 211 217 226 232 230 216 199 195 202 209 213 212 210 210 213 216 215 212 214 217 216 213 213 212 210 209 212 213 212 211 211 211 210 211 210 208 207 207 208 206 203 198 191 186 178 173 179 179 181 189 192 197 204 208 209 212 214 212 210 207 204 202 209 213 212 213 215 213 204 195 191 193 203 213 213 212 213 212 205 200 199 202 205 208 211 212 210 206 201 198 200 204 203 200 197 195 194 195 193 191 194 198 201 204 205 206 205 205 204 201 199 195 193 195 198 201 204 208 208 201 199 197 195 196 193 190 193 198 202 204 205 208 211 209 208 208 210 214 213 210 207 201 189 165 121 85 65 57 54 60 75 85 91 94 100 119 117 93 76 71 74 83 96 107 115 129 158 191 206 205 201 192 177 160 143 132 132 136 137 136 139 154 171 179 182 182 175 163 160 163 160 162 178 190 193 190 181 172 157 131 102 89 90 96 102 124 145 148 150 154 156 157 158 159 162 167 169 166 161 162 170 182 188 190 192 189 177 153 129 123 151 177 193 209 216 215 210 194 170 146 132 130 140 149 155 164 174 183 181 169 159 152 158 179 196 197 193 186 175 177 186 189 189 186 180 180 189 198 204 209 212 213 213 214 215 213 208 199 187 176 170 165 161 160 168 177 181 179 172 165 164 175 187 191 190 191 191 192 204 210 212 210 200 179 162 162 169 173 175 176 173 163 151 144 145 148 148 147 152 158 161 161 162 166 170 176 180 179 175 173 172 170 169 170 174 178 178 173 167 164 159 150 141 137 139 143 143 -9999 
-9999 140 113 124 145 174 199 212 218 218 216 215 216 216 209 208 215 219 217 219 225 225 217 207 206 214 221 220 215 211 212 213 216 222 222 212 209 217 220 219 217 214 213 215 218 215 206 202 206 210 218 229 236 230 205 181 187 199 207 211 210 210 212 214 214 212 212 215 219 218 213 211 210 209 211 214 214 210 210 211 212 211 209 208 207 207 207 208 206 204 203 203 199 187 176 174 167 161 166 173 184 195 202 206 208 209 208 207 205 201 199 206 211 211 212 212 205 197 192 188 185 190 199 206 209 207 206 204 202 202 203 203 203 205 203 202 201 198 197 196 191 187 192 196 193 192 196 196 194 192 189 194 201 203 206 206 207 207 207 205 202 200 201 203 205 206 206 203 196 195 198 198 197 194 193 197 199 202 205 209 214 217 217 219 217 213 212 208 202 190 170 145 115 76 49 39 42 53 66 79 83 83 85 90 95 82 63 59 61 67 80 100 120 133 155 182 199 204 203 196 178 152 141 138 134 137 142 145 147 153 168 178 183 183 179 171 166 168 167 158 155 171 184 186 176 161 145 125 102 88 91 105 121 123 129 145 148 152 156 158 159 160 162 166 168 166 163 163 167 176 184 187 188 190 185 166 142 127 129 154 174 188 202 208 203 188 162 137 125 121 126 139 147 149 150 154 156 154 147 143 145 160 183 192 189 186 185 181 181 186 187 186 183 176 180 191 197 200 204 208 212 213 214 214 214 211 209 204 192 179 169 165 168 175 181 183 181 172 166 168 179 189 192 191 189 190 199 215 218 213 201 181 163 162 171 178 180 182 181 173 159 148 145 147 146 142 140 144 154 163 167 168 171 176 179 181 183 184 180 174 173 173 175 174 174 175 172 169 166 162 158 149 140 136 136 135 -9999 
-9999 128 114 126 146 172 197 211 214 212 212 217 220 215 205 209 221 227 227 228 230 229 221 213 217 223 226 224 218 216 216 216 218 223 222 214 213 220 222 221 220 219 221 223 223 217 210 207 208 211 221 234 235 216 183 171 185 197 204 205 207 211 213 212 211 209 211 217 220 218 213 211 211 213 214 215 213 210 210 211 212 209 206 208 209 209 208 208 206 204 205 208 209 202 191 187 176 169 175 178 183 190 196 201 203 203 206 206 203 199 197 204 208 205 207 211 214 216 212 196 181 177 185 200 210 205 206 208 208 207 203 200 200 202 201 203 204 202 203 201 192 187 193 195 186 187 197 202 203 200 194 195 196 196 204 207 208 209 209 207 207 206 206 208 208 205 203 199 195 197 200 198 195 195 195 197 201 203 203 207 214 217 218 222 221 214 208 200 185 159 132 108 85 59 41 42 55 71 82 84 80 80 80 79 72 58 50 53 58 71 94 124 146 160 179 195 200 203 199 183 156 133 135 145 150 154 155 156 160 163 169 176 181 177 167 166 170 170 164 155 158 178 189 182 164 144 127 112 99 97 113 138 159 150 138 149 153 159 167 172 176 179 184 186 184 181 179 180 180 181 181 179 181 182 174 152 135 130 138 162 180 189 194 190 173 147 124 114 115 118 125 138 146 148 149 148 144 141 140 140 145 162 181 186 184 184 187 186 182 184 186 186 181 173 181 195 199 199 201 204 210 213 213 213 213 211 211 213 209 202 192 182 179 180 180 181 180 175 170 173 184 191 192 188 181 177 183 194 195 187 172 159 159 169 177 180 180 180 177 166 150 140 137 143 148 150 150 153 157 163 167 171 177 181 181 180 181 182 177 169 167 170 172 169 164 160 161 164 166 167 165 156 144 137 134 131 -9999 
-9999 128 123 129 149 176 199 210 210 207 209 213 214 207 203 211 223 228 227 224 223 223 218 214 218 221 223 220 216 215 216 216 219 222 219 214 213 220 222 221 222 225 227 227 220 214 211 209 210 216 228 236 225 193 171 176 191 198 202 204 209 214 216 215 213 211 214 218 219 216 212 211 213 215 215 214 212 210 210 209 210 209 209 211 210 208 206 206 206 204 206 209 210 207 203 203 194 191 196 191 187 189 194 198 198 200 208 208 204 202 201 205 204 198 199 207 216 223 221 207 197 193 195 207 217 210 210 213 211 207 201 200 203 206 208 211 211 209 208 204 197 196 196 189 180 186 198 204 207 204 197 189 180 184 200 207 207 208 207 207 208 208 208 210 208 203 199 198 200 203 204 198 195 196 196 199 203 199 191 193 202 204 207 210 212 210 201 183 157 131 110 85 71 59 45 53 72 83 82 76 72 74 75 73 64 54 51 56 72 105 144 172 183 189 197 200 198 197 184 151 123 121 143 163 173 175 166 161 163 163 164 172 177 168 161 170 176 171 163 160 170 190 198 184 159 138 127 121 118 124 144 164 179 163 147 165 174 184 195 200 204 206 206 204 202 201 199 197 193 186 181 176 172 165 153 141 140 143 154 176 190 194 185 163 136 116 108 106 109 115 124 138 146 148 148 146 140 136 137 141 146 162 177 182 183 185 187 189 184 183 186 185 177 170 185 199 202 201 201 205 212 215 211 212 213 212 212 214 214 215 211 202 191 181 174 173 174 173 173 176 186 191 191 184 173 167 167 168 164 159 155 156 166 176 180 181 180 178 172 161 147 137 137 146 155 160 164 169 170 170 170 172 176 177 173 170 172 174 173 171 170 173 176 174 168 162 159 163 170 173 170 158 144 134 129 121 -9999 
-9999 127 119 127 156 187 204 210 209 206 205 208 207 202 202 209 216 219 216 211 210 213 212 209 211 213 214 213 211 213 214 216 218 218 215 212 213 220 223 223 225 229 230 223 214 210 208 206 211 224 235 233 209 177 174 189 197 198 204 211 214 218 222 222 220 218 220 221 217 213 210 210 214 215 212 212 212 210 209 209 211 212 211 211 209 207 204 205 205 203 205 207 207 207 207 211 208 207 206 196 187 189 195 198 194 198 209 209 206 206 206 208 207 201 198 200 205 203 202 205 216 216 207 205 209 207 210 211 205 199 199 203 207 210 211 210 210 210 209 205 200 198 192 185 182 189 196 198 197 193 191 183 171 174 188 198 201 203 205 207 208 207 207 209 209 203 198 197 201 207 207 202 201 200 201 205 204 193 189 192 195 197 200 201 203 203 187 156 128 108 89 65 61 54 41 55 71 75 74 71 69 70 72 72 67 60 66 89 128 171 194 200 201 201 201 198 191 179 143 102 101 131 162 181 187 184 167 155 159 164 168 175 178 172 169 179 182 175 167 165 174 184 188 175 149 133 134 140 146 156 170 180 190 174 165 190 196 203 213 216 216 213 209 206 208 209 204 200 195 188 186 183 176 165 153 150 156 161 171 183 183 176 162 136 114 106 105 106 107 112 122 138 149 153 154 148 140 135 135 138 146 163 177 182 186 189 189 190 188 182 185 184 173 169 190 202 203 203 204 210 218 218 212 213 215 215 214 214 214 217 217 215 206 187 177 175 174 173 173 177 184 187 186 179 173 174 175 173 168 162 159 164 175 183 185 185 182 176 169 159 152 153 161 163 163 164 170 176 179 177 172 169 168 164 156 149 149 155 162 168 171 174 173 169 167 164 162 168 176 176 170 161 148 134 123 112 -9999 
-9999 151 141 149 179 202 210 210 208 205 205 208 210 208 208 210 210 209 207 206 208 211 209 205 206 207 209 210 212 213 215 216 217 214 212 214 217 222 225 225 227 231 229 219 213 210 206 202 209 228 236 222 189 170 184 202 205 206 214 220 222 223 226 226 222 220 222 223 220 213 210 210 210 210 208 208 208 208 209 209 211 211 209 209 209 206 203 204 205 205 208 209 208 209 210 213 212 211 208 199 194 196 200 200 197 200 205 201 198 202 206 209 210 209 207 198 186 171 170 191 216 223 216 205 201 204 208 207 202 202 206 207 208 210 209 205 204 207 208 205 203 203 200 195 192 194 197 198 196 197 198 194 189 186 181 178 185 195 204 207 206 206 208 210 211 208 205 205 206 206 204 201 195 186 190 197 196 192 197 200 199 197 194 193 189 178 155 127 107 93 81 69 70 55 46 62 68 71 75 77 75 74 80 87 87 93 121 160 189 204 205 203 202 195 183 174 160 140 108 93 126 164 180 188 189 180 161 151 159 168 174 178 179 175 172 180 183 176 168 166 170 171 167 154 134 131 146 156 164 174 184 192 202 188 181 202 202 207 215 215 209 203 201 202 203 205 201 196 192 189 188 187 185 179 172 167 164 162 173 180 168 155 143 125 112 109 112 120 125 131 142 159 173 175 168 157 149 145 142 141 148 168 186 196 202 203 199 194 190 183 183 182 169 171 195 204 204 205 209 218 223 220 214 216 216 215 214 213 214 216 217 216 211 203 198 189 179 174 172 174 176 174 171 171 174 178 180 180 178 174 169 172 182 190 192 190 183 175 168 162 161 172 183 180 174 174 174 173 171 167 164 163 161 156 148 141 136 136 141 149 156 159 156 152 150 150 157 165 166 159 150 146 144 140 133 127 -9999 
-9999 190 182 186 204 214 215 211 206 204 206 211 214 215 215 212 208 208 209 209 210 210 208 205 205 206 208 211 214 215 215 215 215 211 209 214 217 220 223 225 226 229 227 218 214 210 202 196 210 230 230 206 179 183 204 213 212 212 215 220 221 220 219 220 219 219 223 225 219 210 209 210 208 207 206 206 207 209 210 209 210 209 207 210 209 205 202 204 207 209 211 210 210 211 211 210 208 208 208 205 203 206 206 202 198 199 199 192 191 198 204 209 211 211 216 208 192 181 187 202 217 224 222 215 211 214 213 207 207 211 212 210 209 211 209 204 205 208 206 203 204 209 211 209 205 204 204 203 202 202 199 198 200 197 185 175 180 194 204 204 203 206 208 209 210 209 210 212 211 206 195 186 172 160 173 185 187 189 196 198 193 180 167 161 152 133 112 93 81 77 80 85 85 71 68 76 73 77 83 85 88 93 109 123 131 153 184 202 206 207 203 201 194 169 147 134 115 102 102 120 162 183 185 185 183 173 160 158 166 172 174 178 178 170 168 178 183 177 169 164 164 163 154 143 134 143 166 173 178 188 194 200 206 188 179 198 202 208 215 212 200 195 199 199 195 194 190 184 187 191 191 191 193 193 192 190 187 181 181 174 163 159 148 133 128 134 146 162 174 187 201 204 199 186 170 158 155 155 154 153 159 177 195 206 213 213 208 201 195 186 179 175 163 175 200 206 206 210 217 223 224 221 216 216 216 214 212 211 213 215 213 211 211 213 213 203 187 176 170 167 167 163 159 161 167 173 177 179 179 177 172 172 176 185 191 186 179 174 170 166 168 179 190 192 189 188 183 175 168 165 165 165 162 157 152 149 145 140 140 144 148 145 138 138 141 145 152 155 147 136 132 138 149 159 163 163 -9999 
-9999 208 196 196 210 217 215 209 204 204 208 211 214 216 215 208 203 207 210 210 208 207 207 206 206 207 209 210 211 212 211 212 211 207 207 211 215 216 218 219 219 222 222 215 210 202 190 190 210 226 219 194 185 203 218 219 215 210 209 211 212 208 205 209 215 219 221 220 210 203 211 217 216 215 213 213 215 215 212 210 209 206 206 209 209 207 207 209 211 210 208 206 209 211 211 209 209 207 207 209 209 210 209 205 199 199 199 197 198 203 209 213 213 211 216 216 212 215 224 223 220 219 220 220 219 221 219 211 212 212 211 210 211 213 208 201 203 206 203 200 206 214 218 217 213 209 207 207 207 203 198 199 196 189 186 190 192 195 196 194 198 204 206 205 207 208 208 209 210 208 198 188 176 173 188 187 176 170 173 173 164 150 139 133 124 110 93 78 71 75 89 98 97 88 87 89 91 107 120 126 132 142 161 172 179 192 203 206 204 200 192 179 159 134 118 111 103 107 126 148 170 181 181 180 177 173 167 168 174 175 177 180 175 166 171 185 190 182 169 160 155 151 140 135 138 157 183 191 195 199 200 202 205 183 173 196 201 205 211 208 198 198 203 199 194 194 187 182 189 195 195 198 205 207 207 207 207 205 201 192 185 181 170 162 171 185 196 203 203 206 208 198 184 169 157 151 151 153 155 159 169 182 191 198 205 208 205 200 192 174 155 150 156 186 207 209 210 217 223 224 224 221 217 216 215 213 211 211 214 216 213 212 214 214 214 212 204 191 175 164 163 160 157 156 159 164 170 174 174 170 165 165 169 175 181 180 177 174 169 165 169 181 191 195 195 192 188 182 178 178 180 178 172 165 161 162 161 162 164 162 157 149 139 135 141 147 149 143 130 119 122 138 156 166 166 161 -9999 
-9999 212 197 197 212 219 217 211 207 207 207 207 209 210 206 199 198 207 212 212 209 209 209 208 209 212 212 208 208 209 209 208 207 205 206 212 215 215 214 214 212 212 209 203 196 187 180 188 208 218 207 191 197 214 221 221 217 212 207 208 210 207 204 208 215 216 213 209 204 207 217 220 218 219 220 221 221 216 213 211 209 205 206 210 211 211 212 213 214 211 206 205 209 212 213 213 214 210 210 211 208 207 208 207 203 201 201 202 203 206 211 215 210 205 207 210 213 222 230 227 217 213 217 221 221 221 221 216 215 214 212 211 213 215 209 201 201 200 196 199 210 219 222 218 211 207 207 211 213 212 208 206 198 192 195 201 198 187 172 170 180 189 195 200 205 208 208 208 208 209 208 206 203 203 210 204 186 173 170 163 151 142 139 134 125 111 97 87 87 99 115 121 116 108 111 129 149 165 173 178 185 190 197 199 201 205 205 198 186 174 155 130 117 110 104 108 120 136 154 165 171 177 176 174 173 173 172 175 182 183 181 177 167 161 175 194 196 184 169 157 146 139 132 134 150 174 196 203 203 202 204 207 210 186 178 201 201 202 208 206 198 199 202 199 196 198 199 198 200 201 202 208 212 211 210 209 207 208 210 210 206 202 199 196 200 203 205 205 198 190 180 169 163 161 155 149 147 144 143 153 169 181 186 188 191 191 186 174 159 135 119 127 164 207 219 216 217 219 219 219 220 219 217 215 214 213 212 214 217 220 219 217 217 214 214 215 214 207 193 180 170 160 154 154 156 158 160 162 161 156 153 161 170 173 177 180 179 172 164 159 164 173 175 177 181 184 181 177 177 181 186 187 182 175 169 167 170 177 178 172 164 156 146 143 149 151 143 128 115 113 124 139 150 150 141 136 -9999 
-9999 210 195 198 213 220 220 215 212 205 197 196 199 198 195 194 201 212 217 218 218 218 217 214 219 221 215 209 211 214 213 209 207 207 210 215 218 215 213 212 210 207 202 195 188 183 184 194 208 212 203 199 212 223 224 223 221 215 207 208 215 214 210 211 215 213 209 208 209 214 219 217 213 217 220 219 218 215 213 214 213 211 214 214 212 212 211 211 211 208 205 208 212 215 215 214 214 213 213 211 207 208 210 209 205 203 201 200 197 198 200 200 196 193 197 201 208 215 221 218 212 211 216 219 218 217 220 218 214 214 213 212 213 215 211 202 199 199 198 203 213 219 218 211 202 202 210 216 219 218 215 212 206 202 204 204 194 175 159 156 159 165 176 185 191 200 205 206 208 209 211 211 210 211 213 213 209 203 200 191 177 169 164 157 148 137 127 125 133 147 157 154 146 143 158 185 201 203 202 204 208 207 207 204 202 199 187 165 145 130 112 102 107 105 100 116 136 144 152 160 167 171 167 164 163 166 172 181 189 192 183 169 157 159 179 197 199 188 170 152 140 139 143 155 169 190 208 210 203 203 209 213 213 186 176 200 200 202 206 203 197 201 204 203 202 203 205 206 207 208 211 212 210 208 209 209 208 211 214 212 208 209 211 207 201 197 193 191 189 186 181 175 170 166 159 151 146 137 136 149 165 177 183 184 180 171 157 142 130 126 133 158 198 219 224 223 219 211 206 207 210 209 206 206 210 213 215 217 219 223 223 220 217 213 212 213 213 212 209 206 199 179 162 155 155 156 156 152 148 146 151 165 176 178 178 180 180 173 160 152 153 156 156 160 169 173 168 161 162 169 176 183 184 179 174 172 175 177 173 166 159 148 137 142 147 141 127 114 113 127 144 153 153 147 144 150 -9999 
-9999 200 189 195 209 216 214 209 206 192 183 190 197 198 200 206 213 221 224 225 224 223 221 223 230 228 216 211 217 221 218 213 211 212 216 220 219 214 211 210 208 205 201 197 193 191 193 200 208 210 206 210 220 225 225 225 223 216 207 209 217 216 210 210 212 212 210 209 210 215 218 214 210 215 215 212 214 215 215 219 219 220 221 217 213 212 211 209 209 207 205 209 214 217 215 213 213 211 211 209 209 211 211 208 206 205 205 200 194 193 191 188 187 188 191 197 208 212 213 211 210 211 211 209 207 207 210 211 210 215 215 213 213 215 213 206 201 203 206 210 216 219 214 204 198 208 221 227 226 222 218 216 211 205 204 203 195 182 175 173 168 164 166 165 171 183 190 195 201 208 211 210 209 211 212 211 212 213 214 210 204 200 198 197 194 187 183 186 192 197 198 193 185 183 194 207 211 210 211 212 211 209 207 195 182 167 143 118 105 97 89 95 101 98 101 119 136 139 145 155 159 157 151 149 151 155 163 175 184 187 178 161 153 164 183 195 197 183 158 137 132 140 155 169 177 194 211 211 203 205 212 213 211 181 172 198 202 204 206 202 200 205 208 207 206 205 204 206 208 212 212 209 206 205 208 208 208 213 218 214 209 211 212 206 203 201 195 191 190 189 187 184 181 175 166 160 161 155 155 163 169 173 175 174 166 155 146 143 150 163 177 199 218 218 216 217 211 203 203 203 199 188 180 185 199 211 216 217 219 221 222 218 212 210 211 213 212 212 214 216 217 209 186 165 157 156 155 150 147 153 167 182 188 185 178 172 173 173 164 158 157 158 161 163 162 157 149 146 151 157 163 170 176 179 182 182 180 173 166 161 150 132 125 131 128 117 111 112 125 144 157 160 160 162 170 175 -9999 
-9999 188 182 188 200 204 202 199 196 182 182 196 205 209 215 221 224 227 228 228 226 223 223 228 233 227 214 212 222 225 220 216 213 215 218 219 216 210 208 209 208 205 203 202 199 198 200 203 207 209 211 217 222 224 225 225 222 213 205 209 214 213 210 211 213 213 211 209 209 212 214 211 209 212 213 212 215 219 221 224 224 223 224 218 214 217 215 211 210 208 206 209 214 216 213 210 210 209 209 209 209 210 209 208 207 208 208 205 202 201 197 195 195 192 191 199 215 215 208 203 203 203 199 196 195 196 198 201 209 216 214 212 211 213 216 215 208 208 216 223 228 226 216 205 204 219 231 233 228 223 219 215 208 202 201 202 202 199 197 193 183 173 166 161 163 166 170 180 192 202 206 203 202 205 206 207 210 211 212 211 211 210 211 215 214 210 209 212 212 211 208 207 204 202 206 210 210 210 211 209 203 197 185 161 144 129 107 90 87 89 87 89 84 90 109 127 139 139 143 151 148 139 134 135 139 144 151 160 167 170 164 151 149 166 184 192 186 161 133 121 126 141 159 172 179 192 206 210 207 207 211 210 207 180 175 204 208 209 209 207 206 208 210 208 206 204 204 208 211 211 210 207 207 208 211 211 208 210 213 210 207 211 212 208 205 204 201 198 196 195 194 193 191 186 177 173 178 174 176 182 182 176 169 161 151 144 144 153 167 180 188 203 215 212 208 207 205 208 212 204 187 169 164 174 191 204 211 214 216 218 217 212 205 205 209 213 213 212 214 215 217 216 209 190 171 162 161 159 158 168 184 195 194 182 166 156 156 159 163 171 177 179 179 174 158 143 139 146 153 154 156 160 168 178 184 182 175 170 165 157 139 122 121 124 122 122 125 131 142 153 160 165 172 180 183 178 -9999 
-9999 190 189 191 195 198 199 200 197 190 197 209 215 221 227 230 230 229 229 229 226 222 224 229 230 220 210 214 222 222 217 214 212 214 217 216 212 207 208 212 212 211 210 208 205 203 204 205 208 212 216 219 221 222 222 220 214 207 204 208 212 214 215 217 218 218 215 211 213 215 214 210 206 207 210 213 217 220 222 224 221 217 220 217 211 214 216 213 211 209 208 211 214 214 211 210 209 209 209 209 208 208 208 209 209 209 210 210 209 208 205 204 203 199 197 206 216 211 198 192 192 191 189 187 189 192 198 208 218 219 213 209 207 211 217 217 211 212 225 236 240 231 216 209 214 223 226 223 216 213 211 206 199 194 196 203 206 205 201 194 185 182 178 171 162 155 158 167 176 182 183 180 179 183 187 193 198 200 203 206 208 209 211 214 211 209 209 210 209 207 205 206 205 205 207 207 202 198 195 188 180 165 137 108 96 92 84 82 90 96 95 90 83 95 116 131 140 141 140 142 136 127 125 126 130 135 139 145 152 154 150 141 143 162 182 187 168 136 116 115 125 142 159 174 186 195 208 213 210 206 207 206 206 183 180 206 208 209 209 209 209 211 213 211 207 206 207 210 211 210 208 208 209 212 214 213 210 208 208 205 204 208 210 209 204 204 205 205 203 203 203 203 200 196 193 190 187 180 188 200 195 181 166 154 144 139 140 144 151 161 174 192 205 205 202 201 205 214 215 203 187 178 179 187 194 197 202 208 212 215 215 210 203 203 209 214 214 212 213 213 214 214 214 212 200 182 170 165 166 176 187 189 178 158 142 135 131 131 140 158 175 182 183 177 163 151 150 158 162 160 160 162 169 176 177 172 167 167 162 145 123 113 122 130 137 145 149 148 150 157 170 180 184 186 183 175 -9999 
-9999 201 206 204 203 206 210 211 211 207 213 219 222 229 232 233 231 227 227 227 223 220 222 225 222 213 207 212 215 213 210 210 209 211 216 218 214 210 212 215 215 214 214 211 207 206 207 209 212 216 219 219 219 219 218 213 207 204 205 210 215 218 222 223 220 219 215 213 217 220 216 209 203 204 210 214 216 216 215 213 207 206 210 209 206 210 214 211 210 211 210 210 211 211 210 209 207 208 209 208 207 206 207 208 206 206 209 210 210 209 207 209 208 203 202 207 211 203 192 186 186 185 184 185 187 192 202 217 228 223 215 210 208 212 215 214 211 217 229 235 234 223 213 213 215 215 209 200 191 191 194 194 191 188 193 202 205 202 198 193 190 193 191 181 169 162 159 160 163 164 161 157 158 162 166 171 176 181 189 198 202 204 206 206 203 202 203 202 201 200 201 203 203 204 205 196 180 168 158 146 138 119 94 79 76 74 73 84 93 94 96 98 102 110 116 122 125 126 128 128 124 122 124 126 129 130 131 135 136 133 132 130 134 149 164 160 132 109 106 113 125 141 159 181 195 202 211 216 212 205 204 205 208 184 178 199 202 205 207 210 211 213 213 209 206 207 209 209 210 210 209 208 210 213 214 212 210 208 209 209 206 207 209 209 206 208 212 212 210 210 210 207 202 201 204 199 193 190 200 206 194 178 167 156 144 138 137 138 141 147 160 180 193 198 199 203 210 217 219 215 210 209 211 211 206 199 198 204 211 214 214 210 204 205 212 216 215 212 212 212 212 214 214 215 214 201 178 164 168 180 183 174 158 144 134 127 121 118 123 140 160 172 175 170 167 172 175 173 172 171 171 172 172 173 171 166 162 158 143 124 111 114 131 145 153 156 153 149 152 162 176 186 187 183 179 176 -9999 
-9999 206 213 207 208 215 220 222 220 218 221 223 225 229 231 231 226 221 222 223 219 218 220 220 214 207 205 208 207 204 206 208 210 213 219 221 216 211 212 214 214 212 212 210 209 210 212 215 219 221 221 220 219 218 216 212 206 205 208 212 218 221 223 222 219 219 215 212 217 221 217 208 201 205 212 213 213 211 208 205 202 205 208 206 206 212 213 209 208 213 214 214 213 211 209 207 207 210 210 207 205 203 206 209 206 207 210 209 209 208 207 210 209 205 204 204 204 200 193 188 184 182 181 182 184 190 198 206 216 219 216 212 212 218 220 218 215 218 222 220 216 214 215 214 205 194 187 179 175 178 183 186 186 185 192 200 201 198 197 196 193 196 194 186 182 179 174 170 167 163 160 157 156 157 158 162 166 170 178 186 194 200 200 200 199 199 198 196 196 198 201 201 198 195 182 161 142 127 116 112 106 90 81 83 80 78 86 91 91 94 96 98 113 116 115 113 103 105 112 113 114 122 131 135 138 137 136 137 131 119 116 115 114 120 121 108 90 88 99 114 132 150 170 189 198 201 207 212 210 203 202 206 210 183 173 199 204 207 208 210 210 210 209 206 205 207 209 209 211 212 212 211 212 214 213 210 208 207 211 212 209 208 209 207 206 207 210 212 211 210 210 207 205 206 207 203 201 202 202 195 180 173 171 161 148 140 140 143 148 156 166 178 186 192 200 208 215 219 223 225 224 225 227 227 220 211 205 205 209 213 214 210 205 208 215 218 215 211 210 211 212 213 213 213 213 209 196 182 182 184 177 163 153 148 145 140 135 134 143 158 169 174 174 170 174 186 191 184 180 180 179 178 176 173 166 161 157 143 122 110 110 126 146 156 157 152 147 153 165 172 178 183 181 174 170 174 -9999 
-9999 205 209 208 212 217 222 224 221 221 222 221 223 226 228 225 220 217 217 217 216 217 217 214 208 205 205 206 204 204 208 211 213 216 219 218 211 207 209 211 212 210 209 208 209 212 216 223 228 227 225 222 221 220 219 215 210 210 212 215 217 218 218 218 218 220 215 211 215 220 217 210 204 210 215 212 212 210 207 206 207 209 210 209 212 216 212 206 210 215 216 213 210 212 212 210 210 211 210 207 205 205 210 212 210 211 212 209 210 209 207 209 208 205 206 205 202 199 195 189 183 178 176 176 177 179 180 176 176 188 204 210 214 219 221 219 217 216 211 207 209 214 216 207 192 183 183 179 177 178 181 184 183 182 191 200 200 195 194 194 194 198 198 192 190 189 193 195 187 178 172 168 166 163 162 165 170 171 172 175 183 192 197 199 198 198 200 201 201 203 203 197 191 180 154 131 118 106 103 105 100 94 98 98 94 104 117 112 105 99 92 99 117 115 119 127 120 125 130 130 135 148 154 153 152 148 145 144 133 114 99 91 89 92 88 76 71 82 103 127 151 170 187 199 202 206 211 217 215 207 204 208 210 181 173 203 209 209 210 210 210 210 210 209 208 209 209 210 213 214 214 214 213 214 212 207 205 208 212 212 209 207 206 205 204 205 209 212 210 206 207 210 210 209 208 208 208 207 202 194 183 182 183 174 160 151 152 157 163 169 176 181 184 188 195 202 208 213 219 224 224 225 228 228 225 220 216 211 209 211 213 211 207 212 218 219 215 210 210 212 213 214 213 212 212 213 210 207 200 185 168 155 151 151 151 151 153 160 171 180 182 178 175 174 183 189 190 188 186 182 179 177 173 166 156 150 141 122 108 108 120 140 155 157 154 150 153 167 182 186 184 180 173 167 168 175 -9999 
-9999 202 211 217 218 216 221 223 219 217 217 216 218 221 221 218 215 214 215 215 215 216 213 208 205 206 207 205 203 206 210 213 214 215 215 212 208 205 208 211 211 210 209 208 209 214 219 229 234 229 223 220 221 221 218 214 211 212 214 214 215 214 212 213 216 217 213 209 213 217 216 213 209 213 216 212 213 211 207 207 210 212 213 213 216 216 211 209 215 216 213 208 206 212 215 214 214 215 213 208 205 209 214 213 211 210 209 209 210 209 207 208 207 203 203 202 199 198 193 188 185 180 171 163 159 160 160 156 156 165 185 205 214 218 218 216 213 211 206 205 207 206 198 184 176 181 188 189 188 187 189 192 187 188 197 202 196 190 192 194 195 197 198 196 195 198 205 205 200 193 187 181 178 177 179 183 183 177 172 170 174 180 184 187 188 193 199 203 204 204 198 183 172 158 139 128 120 113 115 117 108 102 106 105 111 125 126 120 112 105 108 126 135 129 138 156 163 167 167 165 169 174 171 162 156 150 146 143 130 108 87 78 81 85 83 81 92 114 139 161 177 187 198 205 209 214 218 220 217 211 208 208 208 181 173 205 209 209 210 211 213 214 215 213 210 209 210 211 211 211 211 211 211 211 208 204 206 211 213 211 206 205 206 206 209 212 215 215 211 207 208 211 209 207 210 211 208 205 206 208 206 207 203 194 184 177 175 173 173 176 180 184 185 188 193 198 201 205 209 214 216 220 223 223 222 222 222 219 215 212 213 212 210 216 220 219 215 212 213 213 211 210 211 210 211 213 213 215 210 186 162 153 151 151 153 158 169 184 191 190 182 174 170 173 181 183 182 186 190 184 175 169 164 157 151 142 123 102 98 111 132 151 157 152 149 154 166 180 190 190 184 174 168 169 177 183 -9999 
-9999 199 215 219 215 213 219 221 214 210 211 213 215 216 216 215 214 213 213 212 212 213 209 205 205 206 206 206 206 207 210 212 212 212 211 209 207 207 210 212 212 210 209 208 210 215 223 231 232 222 214 214 218 218 213 209 209 210 212 213 213 211 210 212 214 214 211 210 211 213 212 213 211 210 212 214 218 216 211 210 211 211 212 212 213 212 211 214 217 212 208 208 208 212 215 215 217 221 218 208 207 211 213 211 209 207 208 209 209 208 207 209 208 205 203 199 195 194 189 188 191 189 180 166 156 154 156 158 163 171 182 200 213 216 215 211 206 201 198 199 200 194 182 173 173 181 189 195 202 205 208 204 195 196 198 194 187 185 192 196 195 196 198 198 202 208 211 208 204 202 197 191 188 190 195 198 193 184 175 173 177 177 175 175 179 187 194 196 195 191 175 154 144 135 126 118 111 112 117 116 106 100 105 108 112 115 113 117 119 122 133 145 143 145 157 169 177 182 184 180 175 171 165 158 154 151 148 146 135 116 103 109 117 118 121 137 161 180 190 194 195 198 203 209 213 217 219 217 214 210 208 207 211 185 174 204 209 209 211 214 216 217 218 214 209 211 212 210 209 208 209 210 211 210 207 206 210 213 212 208 205 206 209 212 214 214 213 211 210 209 210 212 210 210 213 211 206 204 209 215 214 213 206 198 193 190 190 185 180 181 185 188 189 190 195 202 206 207 207 207 208 216 220 221 221 223 223 223 222 219 217 214 214 218 220 220 216 212 210 205 200 202 206 209 212 214 215 215 212 197 178 165 157 153 158 171 186 198 199 191 177 171 171 177 181 181 181 186 190 185 176 169 164 159 152 135 111 95 101 124 145 156 153 145 147 158 174 186 190 185 175 168 167 171 175 175 -9999 
-9999 197 212 214 208 208 217 218 210 206 208 210 212 213 214 214 212 210 209 208 209 210 207 206 208 207 207 209 210 209 209 210 210 210 210 208 209 210 211 211 211 209 208 209 210 217 227 230 225 214 208 211 213 212 208 208 212 213 215 216 215 214 216 219 218 216 215 212 209 209 211 213 211 208 210 218 223 221 216 212 212 212 213 213 212 211 211 215 214 206 206 210 210 213 214 215 220 224 218 209 210 213 213 210 208 208 208 208 208 207 207 209 208 205 205 203 201 199 197 195 198 201 197 186 175 167 163 165 172 180 190 201 209 208 206 203 196 189 189 191 194 192 190 190 192 197 200 208 216 217 213 202 190 188 187 184 183 185 189 192 191 195 200 201 206 211 211 208 205 205 200 195 194 197 199 194 186 180 179 185 191 187 181 178 180 187 188 178 171 160 139 127 124 121 113 103 100 107 106 97 94 100 113 119 116 112 115 126 135 137 139 144 149 160 171 176 182 188 190 182 170 163 158 156 155 155 155 157 150 138 144 168 183 182 186 197 205 207 207 204 202 204 209 213 216 219 218 214 212 210 210 210 215 188 173 206 213 216 219 221 221 220 219 214 210 212 213 211 212 213 213 214 216 214 210 210 213 213 211 208 207 209 213 214 212 209 207 208 208 208 210 212 212 212 212 209 207 209 213 213 207 203 200 196 191 190 192 193 193 192 193 194 192 187 187 194 204 209 209 208 212 220 221 220 221 223 223 223 223 223 221 218 217 218 219 218 213 206 200 194 191 196 203 209 213 215 214 213 212 210 208 197 176 162 162 172 181 184 181 172 166 166 173 181 184 184 186 188 188 186 183 181 176 167 150 120 95 91 114 145 159 156 145 142 153 169 186 196 194 183 171 166 166 165 162 159 -9999 
-9999 193 204 208 207 208 214 214 207 203 205 208 209 211 214 213 210 208 207 207 208 209 208 208 208 208 210 211 209 207 208 209 210 210 210 209 211 211 210 209 209 209 210 210 211 220 228 227 220 212 209 211 211 209 208 211 214 215 215 217 217 217 220 221 220 218 216 212 206 206 211 214 213 211 213 219 223 222 218 215 218 222 221 219 216 213 211 212 209 204 208 212 212 212 213 216 223 223 215 210 211 217 216 213 209 207 207 208 208 205 206 207 205 204 207 208 209 210 208 209 212 210 203 192 184 176 168 169 177 188 198 207 209 203 201 198 191 188 192 196 199 202 202 202 205 209 211 215 218 213 201 186 175 176 178 181 183 183 183 186 186 190 194 195 202 202 195 189 186 187 183 181 185 186 183 174 168 169 179 190 196 193 185 181 181 181 167 145 132 117 101 98 98 96 95 96 102 106 97 90 99 112 124 128 123 118 123 134 139 138 140 149 160 171 177 177 179 181 179 167 157 155 157 158 159 158 160 162 161 163 182 202 210 211 211 211 208 207 209 208 206 208 213 217 219 219 215 211 211 213 212 211 216 190 177 213 222 226 228 228 226 224 220 214 210 211 213 215 217 218 217 220 223 219 212 210 212 212 211 210 210 211 213 212 209 204 205 208 207 207 208 209 210 210 209 206 208 210 210 208 204 202 204 204 201 198 196 199 203 204 202 198 192 182 177 181 193 204 209 212 220 224 222 221 222 223 223 222 221 221 219 217 215 213 213 210 203 195 191 190 190 195 203 208 211 211 210 211 212 213 215 211 198 185 174 166 162 157 149 144 146 156 169 177 180 182 185 190 191 190 190 188 182 164 135 101 88 102 132 151 152 143 141 153 170 183 193 198 193 181 172 170 168 164 158 154 -9999 
-9999 191 197 207 211 209 210 209 205 203 206 209 209 211 212 211 209 206 206 207 206 208 210 208 206 209 210 207 204 203 205 207 209 210 210 211 212 211 209 208 209 212 212 210 211 222 228 223 215 212 212 212 211 210 211 212 212 212 213 213 214 218 220 219 218 217 215 210 204 205 212 215 215 213 216 220 223 222 220 220 225 229 226 222 219 215 213 212 209 209 213 214 212 211 214 218 222 218 213 211 213 218 218 211 202 203 207 208 207 205 207 209 207 208 211 210 210 210 209 215 217 208 195 188 183 175 168 170 180 194 206 213 211 204 201 195 190 190 197 203 205 207 205 204 208 211 211 212 209 197 181 167 160 162 164 167 168 164 164 164 158 160 166 170 177 174 164 153 145 139 131 138 152 157 155 152 154 156 161 163 164 166 171 177 178 169 144 116 97 77 63 63 66 73 83 93 104 104 94 96 110 117 122 123 120 118 121 132 135 133 138 151 166 174 172 169 168 165 155 145 143 150 159 163 163 160 161 166 173 186 202 209 210 210 209 208 208 208 209 209 209 211 215 217 219 219 216 213 215 216 214 214 222 199 186 222 230 232 231 229 227 224 218 213 211 212 217 222 223 222 223 227 229 220 210 209 211 214 214 214 214 213 212 211 207 203 207 210 209 210 210 209 209 208 207 208 209 208 206 207 208 206 208 210 211 208 203 203 207 206 201 196 189 177 172 171 179 192 206 219 226 226 222 221 221 219 217 215 212 210 207 204 201 198 196 192 189 187 188 189 189 195 203 207 207 206 207 209 212 212 211 210 208 207 198 177 157 142 129 124 131 147 161 165 164 165 175 187 195 197 195 185 164 136 109 88 93 119 140 143 139 142 157 176 191 195 189 183 178 176 176 175 174 171 165 161 -9999 
-9999 193 196 203 205 204 207 209 209 209 212 213 209 210 212 211 209 206 206 205 203 207 213 209 205 208 208 203 201 202 204 207 208 209 210 210 210 210 209 209 212 214 212 209 213 223 225 218 211 210 211 210 209 209 210 211 211 211 212 211 213 217 217 215 215 214 213 210 205 207 212 214 213 213 217 220 221 221 220 222 228 230 223 216 216 217 217 217 217 218 217 213 211 212 216 218 218 214 212 213 214 217 218 205 195 205 210 209 208 208 210 211 210 211 210 208 207 207 208 212 210 198 189 186 182 179 178 178 184 197 207 208 200 198 198 193 190 191 199 205 207 205 201 202 208 209 206 203 196 179 162 151 146 146 146 143 135 126 120 111 108 126 137 132 130 129 128 118 104 94 93 107 128 140 145 146 137 125 119 115 114 119 129 140 143 136 113 86 65 46 39 44 55 67 79 89 96 92 85 91 102 105 106 106 105 106 115 128 132 133 139 152 169 174 167 161 161 158 149 145 150 162 171 173 170 167 170 182 194 202 207 208 209 208 206 207 209 209 210 211 212 213 215 217 220 220 218 218 222 221 220 222 231 210 195 226 233 233 231 228 224 219 215 215 216 218 225 230 230 228 228 230 227 217 211 212 216 220 221 218 215 212 210 209 205 205 210 215 216 216 214 210 207 206 208 210 211 209 208 209 210 209 210 212 214 212 206 205 208 204 193 184 173 163 165 163 164 174 193 213 224 224 221 218 212 206 200 196 192 189 186 184 180 174 170 169 172 178 183 187 189 194 203 206 205 203 201 202 207 210 211 211 211 212 210 198 173 146 128 121 127 136 136 130 127 133 152 172 184 186 179 158 128 106 92 81 95 121 130 133 146 168 187 198 201 195 180 167 166 170 172 171 171 173 172 172 -9999 
-9999 200 199 200 196 198 208 212 213 212 212 210 203 206 212 213 211 209 207 206 203 209 216 209 205 208 207 203 203 207 210 210 209 208 207 207 207 207 207 209 211 212 209 207 213 222 223 214 208 209 210 208 207 208 208 208 210 211 212 211 213 216 213 211 213 214 213 211 208 208 210 210 208 210 216 218 217 216 215 218 222 222 215 211 213 218 220 220 222 223 218 212 211 213 216 216 214 213 215 218 217 217 219 207 197 206 212 209 207 209 209 209 209 209 206 204 207 208 207 207 204 197 192 187 183 188 198 195 187 185 182 172 171 183 192 191 189 192 198 204 206 201 199 202 204 198 186 179 172 162 155 147 139 138 137 126 106 92 85 74 85 113 111 92 87 90 91 79 68 70 81 102 123 137 139 122 95 81 82 86 88 90 92 90 86 79 65 48 33 23 25 41 60 71 77 82 82 76 72 80 90 96 97 98 104 114 124 134 137 138 143 155 168 169 158 155 159 164 164 167 176 185 189 186 183 183 190 203 211 210 209 209 209 209 208 210 211 212 214 216 216 216 215 218 222 223 224 226 227 226 228 233 240 216 198 225 232 232 230 226 221 217 218 221 221 222 228 233 233 230 228 227 222 215 214 215 219 222 220 216 213 211 211 210 208 210 216 221 222 220 213 207 206 209 212 212 210 209 207 207 209 210 210 212 212 210 207 207 209 206 196 180 159 147 153 155 154 160 172 187 199 196 190 187 183 183 181 178 175 174 175 174 168 159 154 156 160 165 172 179 185 192 201 203 200 196 191 192 198 205 208 211 212 212 212 210 201 179 156 142 134 125 112 108 111 126 146 160 161 152 135 112 95 88 82 78 96 116 122 139 167 191 203 201 191 181 172 166 163 161 160 161 164 170 176 180 -9999 
-9999 207 201 201 195 195 204 210 209 206 204 203 198 205 217 217 214 211 209 208 208 215 218 209 205 209 210 208 209 212 214 213 211 210 209 208 206 206 208 209 208 207 205 204 213 224 224 214 208 210 211 208 206 206 207 208 210 212 211 210 212 213 211 212 215 215 214 212 208 205 205 207 207 210 216 215 212 210 210 211 212 212 210 210 213 219 222 220 220 220 215 211 210 212 216 217 215 217 221 223 220 218 218 211 202 203 207 206 207 209 209 209 209 207 205 205 209 208 206 205 202 203 201 195 191 196 205 203 182 162 142 130 139 161 177 175 174 179 182 190 194 191 194 198 192 172 148 140 141 144 152 150 132 124 121 105 84 70 65 68 89 92 63 45 49 55 53 43 41 53 74 97 114 118 101 71 55 57 67 74 77 77 74 67 59 50 40 30 19 15 25 47 64 71 73 78 79 74 74 80 88 96 102 108 122 134 139 141 141 142 147 156 162 159 156 163 173 181 183 186 195 201 201 198 197 200 207 215 217 213 209 208 208 209 209 211 214 216 219 218 217 216 215 218 224 229 231 231 228 229 234 240 241 215 198 223 231 232 228 223 220 220 222 224 223 224 229 232 233 229 223 220 216 214 214 215 218 218 216 214 213 214 214 213 212 216 222 224 225 220 210 206 209 214 216 213 210 209 206 205 209 212 211 210 209 207 207 207 208 208 205 197 180 167 163 158 151 150 151 154 153 140 134 133 138 147 153 158 164 169 174 172 161 152 151 155 157 158 161 167 175 185 194 195 190 186 183 186 192 194 195 201 208 210 212 212 213 209 199 185 161 134 117 117 124 138 147 144 129 114 97 84 79 77 73 72 90 114 133 158 173 181 182 174 166 164 168 169 163 157 158 163 166 168 173 174 -9999 
-9999 210 202 202 198 195 203 207 202 195 196 202 203 210 221 221 213 211 212 212 213 216 216 210 207 210 212 211 212 214 215 214 213 215 214 210 208 210 212 211 208 207 205 204 212 222 221 208 204 210 210 206 202 203 205 208 211 213 211 210 210 211 212 214 215 213 210 207 205 202 203 207 208 212 215 213 209 207 207 207 208 210 210 211 214 218 218 215 215 216 213 210 210 216 221 221 220 221 224 225 221 217 216 214 207 202 202 203 206 210 211 210 209 208 207 209 210 207 208 207 204 205 205 202 201 201 202 196 174 146 121 112 120 131 134 127 130 141 150 163 169 169 179 178 154 122 106 109 115 121 128 121 98 93 96 85 72 65 69 87 94 71 45 39 45 43 37 33 34 49 74 89 89 76 53 37 41 52 62 68 70 69 67 61 54 46 37 26 13 16 43 68 72 70 78 89 90 84 82 85 94 107 118 128 141 149 148 146 146 151 159 165 169 168 172 182 190 195 197 198 204 206 205 204 205 209 214 217 217 213 208 207 207 209 208 211 216 218 218 216 216 215 216 221 230 234 232 228 226 228 234 238 237 211 198 220 228 229 226 222 222 223 225 225 224 226 229 231 230 224 217 214 213 212 212 214 216 216 216 216 216 216 216 215 214 217 222 225 225 218 208 207 212 217 216 212 209 208 205 205 211 212 210 209 208 206 206 206 207 209 210 209 205 200 195 179 157 144 139 136 125 110 110 112 113 117 122 130 141 153 163 162 152 147 151 156 158 160 163 170 180 186 187 184 182 180 180 185 187 178 172 180 190 198 206 211 214 214 212 209 197 175 154 142 137 138 132 119 103 91 81 76 75 76 71 64 87 125 161 180 175 162 149 144 151 161 168 165 157 157 163 169 170 168 165 163 -9999 
-9999 215 206 204 198 198 209 209 198 190 193 204 213 218 220 212 202 207 216 217 215 214 213 210 209 210 212 212 212 214 215 214 214 216 214 211 212 215 216 214 209 209 206 205 212 217 211 199 199 207 207 202 198 201 204 207 210 212 211 209 208 211 213 212 209 205 203 202 202 201 202 206 209 211 213 212 208 206 206 207 209 211 212 211 212 214 213 211 213 215 214 213 218 223 225 223 221 222 224 224 221 218 218 218 211 203 201 201 202 208 213 214 214 214 213 211 209 210 212 210 207 207 207 205 205 204 201 192 168 138 111 102 107 108 98 89 95 106 120 133 133 130 132 117 87 74 80 91 98 100 97 83 65 72 84 81 78 80 95 111 96 74 72 78 79 71 69 69 71 90 103 86 64 49 34 29 40 53 61 65 65 63 62 61 56 47 35 19 9 32 77 101 102 105 112 115 107 95 89 95 109 126 136 141 153 162 161 158 163 172 179 184 189 192 195 198 199 202 204 204 208 208 207 208 207 210 214 215 214 210 207 206 208 211 211 213 216 215 214 215 217 219 222 229 235 235 230 227 224 225 229 230 231 210 194 216 222 223 222 222 223 224 224 225 225 226 228 227 224 219 214 212 212 212 211 213 216 217 217 217 217 217 216 215 214 216 221 226 225 217 209 209 214 218 215 211 210 208 206 207 211 211 209 208 207 207 208 207 208 211 212 212 211 211 211 201 174 148 137 132 120 109 111 111 110 110 112 117 126 137 144 145 143 146 154 161 167 175 184 194 198 191 182 180 179 179 181 184 178 161 157 163 169 181 197 207 210 210 211 212 211 208 197 171 145 130 118 104 92 82 76 75 75 75 68 62 93 135 166 178 168 152 145 150 163 170 169 161 157 161 167 170 171 170 168 169 -9999 
-9999 215 204 200 199 206 217 214 201 192 195 209 217 217 213 201 192 204 219 220 215 211 212 212 210 210 213 215 215 215 214 210 212 215 213 213 216 219 219 214 209 208 207 208 214 215 207 198 200 207 209 205 204 206 206 206 209 210 208 206 206 208 209 207 202 200 202 204 204 203 203 205 208 210 212 211 208 207 207 208 209 211 211 210 210 210 209 209 210 212 212 216 223 224 219 217 219 221 222 223 223 223 224 221 212 204 201 199 200 210 221 224 227 227 219 212 210 211 210 208 210 209 207 207 208 209 209 202 180 151 125 115 113 106 93 84 85 92 99 103 101 93 80 62 51 60 77 87 92 92 86 69 60 73 85 88 92 98 111 119 108 106 123 127 119 122 133 138 141 152 144 114 99 87 70 64 68 71 72 74 72 67 69 73 68 57 49 45 58 103 137 144 147 155 152 138 125 113 116 130 144 156 162 167 179 187 186 185 191 197 199 200 204 204 204 205 205 207 207 207 208 210 213 215 213 213 214 213 209 204 203 204 207 213 217 220 219 216 217 220 222 226 230 234 238 237 232 227 224 223 226 226 232 212 187 211 213 211 212 214 215 217 219 220 221 221 220 217 215 214 213 212 211 211 211 213 216 217 217 217 217 217 216 215 215 216 224 231 228 217 211 211 214 215 215 217 215 210 208 209 211 211 210 210 209 209 209 208 210 212 212 212 213 212 210 207 198 169 141 127 119 113 113 111 110 111 116 124 131 135 135 133 135 146 163 178 191 200 208 211 204 185 177 178 179 179 180 179 163 147 152 161 167 176 186 194 198 201 207 211 211 210 206 192 167 141 118 101 90 84 84 83 73 66 63 70 117 145 157 162 159 158 163 173 179 175 164 159 165 170 172 174 175 175 176 179 -9999 
-9999 207 195 194 203 215 221 218 208 199 200 214 214 205 202 196 191 202 217 219 212 208 212 217 215 215 218 221 219 212 208 207 214 218 216 215 217 217 215 209 206 207 209 211 213 212 208 204 206 212 214 210 208 206 204 206 210 210 207 206 205 205 204 202 200 201 205 207 207 204 202 204 207 209 210 211 211 211 211 210 207 205 206 208 208 208 207 207 207 207 208 212 217 217 211 211 218 220 221 223 226 228 228 223 212 205 202 199 203 220 232 233 232 230 220 212 210 209 208 209 212 209 208 211 213 216 216 212 205 193 179 169 149 123 100 88 87 92 94 90 84 72 53 45 52 69 83 90 92 91 82 66 66 80 91 101 110 116 123 130 137 153 167 165 161 168 176 179 178 175 164 160 169 166 155 150 145 139 137 137 132 126 130 128 116 111 119 135 162 188 190 181 177 178 174 163 151 147 158 173 183 190 193 196 201 204 202 201 205 209 209 209 210 208 206 207 210 210 210 211 212 215 218 219 219 217 215 212 207 203 203 207 210 216 222 223 220 218 220 224 229 234 237 237 239 237 228 221 221 220 222 223 234 216 181 207 208 206 210 212 212 213 214 215 215 213 211 211 211 211 212 211 211 211 211 213 216 217 217 217 217 217 216 215 216 221 231 235 226 215 211 211 212 213 215 219 215 209 210 211 213 214 213 211 210 210 209 207 213 215 210 208 210 210 207 206 207 196 162 132 118 114 113 111 113 118 126 132 135 136 133 128 130 142 163 183 197 206 210 209 193 174 174 177 177 177 175 166 145 137 152 164 170 172 172 176 182 190 200 207 208 207 206 205 204 187 153 123 106 103 106 96 71 61 65 85 135 153 158 161 165 171 176 178 177 167 159 165 174 178 179 179 179 179 179 179 -9999 
-9999 202 192 195 208 217 219 218 217 211 205 213 209 196 197 196 191 200 212 216 212 211 222 228 225 223 224 226 221 211 209 219 227 227 222 217 215 213 210 208 209 210 210 211 212 211 211 212 215 219 217 211 208 204 204 212 216 214 212 209 207 204 203 202 202 205 209 211 208 204 202 206 210 212 214 217 218 217 216 211 206 203 206 209 207 207 208 208 208 208 209 211 213 211 207 210 216 217 219 223 227 228 225 220 212 207 207 205 214 231 237 234 229 225 216 206 199 205 216 219 220 215 212 216 219 220 219 217 218 217 212 209 193 157 123 105 102 104 98 86 74 57 43 48 68 86 94 97 97 94 85 80 91 103 112 127 136 142 150 163 175 183 181 177 179 188 193 192 189 185 181 182 183 184 188 189 190 192 195 196 193 193 199 193 181 182 189 193 196 199 201 199 196 193 192 191 184 182 187 195 203 206 202 198 198 200 200 200 206 212 211 209 209 209 210 213 216 216 216 218 219 222 224 222 220 216 212 209 207 206 209 215 218 221 223 220 218 219 222 228 235 239 240 236 231 223 210 211 217 216 217 221 236 220 174 204 209 212 217 218 218 217 216 216 214 212 211 211 212 212 212 212 212 212 211 213 216 217 217 217 217 217 216 216 220 228 235 231 219 212 212 212 213 215 218 221 215 209 211 212 214 213 210 208 208 210 209 210 218 217 207 207 210 210 206 206 207 205 195 166 136 122 116 115 121 128 134 136 136 136 133 130 134 142 150 156 162 170 180 183 170 162 168 170 169 167 162 150 134 137 154 163 163 161 162 169 176 182 189 196 203 209 211 214 217 214 196 162 130 116 110 92 72 73 83 105 139 154 161 164 166 169 169 164 156 146 152 165 173 176 178 178 178 182 185 186 -9999 
-9999 200 196 201 211 215 215 215 218 215 205 206 205 199 199 196 190 198 211 215 214 217 228 232 228 226 226 228 227 223 225 235 236 230 224 217 212 210 209 210 213 213 212 213 212 212 215 218 220 220 216 209 205 205 211 220 221 216 212 209 205 202 200 202 205 208 210 209 205 202 205 212 216 218 219 221 220 216 213 209 207 207 212 215 212 211 212 214 216 215 215 215 213 210 205 208 212 213 217 220 222 221 216 214 214 216 221 220 225 234 234 230 224 218 211 197 189 203 219 225 223 215 214 220 221 220 222 222 221 220 218 216 210 195 175 160 150 137 118 97 81 70 67 87 110 116 114 112 109 107 110 121 139 151 162 169 168 172 182 192 198 196 190 185 187 193 196 195 193 192 191 190 187 189 193 192 193 196 199 201 201 204 207 205 201 201 201 201 201 201 204 205 203 200 201 202 200 199 202 207 207 203 198 197 198 199 200 204 211 213 210 208 209 211 214 217 219 220 222 222 223 226 226 223 219 213 207 207 208 209 215 223 225 225 223 221 224 228 231 235 239 237 232 224 213 208 210 218 221 218 218 222 240 223 165 202 213 216 218 219 219 219 219 220 218 215 213 213 213 213 214 214 214 213 212 214 215 216 217 217 217 217 217 219 225 231 232 223 214 212 213 214 215 219 222 224 220 217 216 213 213 211 208 206 207 210 209 212 216 209 203 208 211 209 205 206 210 208 208 205 182 150 131 130 135 140 141 141 140 136 134 137 143 146 141 133 127 125 128 129 133 146 159 160 158 153 146 139 134 143 157 159 156 155 161 170 176 181 186 192 202 211 213 214 213 210 206 193 168 141 117 102 100 110 123 137 148 148 152 156 157 153 152 150 143 143 156 166 172 177 179 181 186 197 204 204 -9999 
-9999 206 204 208 213 213 213 213 213 208 202 204 206 203 203 197 189 197 212 217 218 221 227 229 228 226 223 223 229 232 229 232 231 224 219 213 209 210 209 210 214 215 213 214 213 214 218 219 218 216 211 204 205 209 214 219 215 209 206 205 202 200 199 204 209 209 206 204 204 205 211 219 220 219 220 219 216 211 208 206 208 209 214 218 217 216 217 221 224 221 216 213 212 212 209 210 212 215 218 219 219 219 217 219 225 230 237 235 234 235 230 224 216 212 205 189 182 197 212 221 219 209 211 219 217 214 219 221 216 216 217 215 212 210 207 205 198 184 164 147 140 140 147 166 174 161 151 146 142 147 160 172 180 189 198 198 194 195 200 204 204 202 199 198 200 202 201 202 205 204 201 199 199 201 202 199 199 200 202 203 203 204 205 203 201 203 204 205 204 203 206 208 206 204 205 205 205 206 210 212 207 202 204 207 207 207 209 213 216 214 211 214 216 218 221 224 224 225 225 223 225 225 221 217 213 209 205 206 208 211 220 227 226 224 224 232 240 243 241 240 240 235 229 225 222 226 231 228 226 224 222 226 246 226 154 202 216 218 218 218 218 219 221 222 218 214 213 213 214 214 215 216 215 214 213 213 214 214 215 215 215 216 218 222 226 228 225 220 214 213 214 215 216 219 223 226 225 223 218 213 212 211 210 209 209 210 209 208 208 204 205 209 211 210 207 207 210 210 210 213 207 188 169 162 160 159 158 156 142 126 131 143 147 140 130 121 116 112 108 106 115 137 155 156 151 145 140 137 137 148 160 161 157 157 163 168 172 176 182 188 195 201 208 212 211 209 211 211 205 188 163 149 148 148 153 158 148 134 132 140 140 132 133 140 148 161 168 170 175 182 187 194 202 209 216 219 -9999 
-9999 213 210 212 215 214 212 211 209 205 202 202 202 200 202 199 192 199 212 219 222 223 222 225 227 225 218 217 226 231 224 219 218 213 210 209 208 208 207 208 212 213 214 214 213 215 218 217 213 210 206 204 208 212 212 211 206 203 203 203 202 202 204 211 216 214 209 209 212 215 219 220 217 215 216 215 210 207 206 208 210 211 212 215 217 218 218 222 224 220 213 210 211 215 216 215 220 224 222 221 224 226 226 230 236 241 244 242 243 243 234 222 210 205 200 182 175 188 199 213 214 202 204 212 210 208 214 215 210 211 213 213 212 210 211 212 210 206 199 195 196 197 198 203 202 195 191 187 182 187 197 199 199 203 207 207 205 206 209 210 207 205 204 205 204 203 204 209 212 210 206 207 210 211 210 207 207 207 206 205 205 204 202 200 201 205 209 210 208 207 210 210 207 205 207 208 209 210 212 211 205 203 211 212 209 212 214 216 218 219 221 224 224 224 227 228 226 225 224 222 221 219 213 209 207 205 203 206 210 216 223 225 224 228 237 248 251 248 243 238 234 232 235 240 239 238 231 223 230 232 227 232 251 221 140 201 215 216 216 217 217 218 220 220 216 212 212 213 214 214 215 216 216 215 214 213 213 212 213 213 214 217 220 223 224 224 223 220 215 214 215 215 217 220 225 229 229 222 215 211 211 211 210 209 207 206 206 205 205 207 209 211 212 211 208 207 208 208 209 209 208 205 201 194 184 178 176 169 134 113 130 142 135 123 115 113 114 116 115 115 123 138 148 151 150 146 141 135 135 146 157 161 159 159 161 161 160 161 162 165 168 175 188 203 210 211 212 213 210 202 194 187 176 168 173 176 160 144 143 146 138 127 126 132 149 166 171 171 175 183 191 201 208 211 215 218 -9999 
-9999 213 211 214 216 213 210 208 206 203 198 194 193 194 196 197 198 203 212 218 221 218 214 219 223 219 210 211 219 218 212 208 209 208 206 209 207 205 205 208 213 217 218 217 215 216 216 212 209 209 209 210 213 212 208 207 205 204 205 204 205 209 214 219 223 220 216 217 220 220 219 216 213 211 210 208 204 204 207 211 214 212 210 212 215 216 215 219 222 218 212 211 215 221 221 221 228 233 226 226 231 232 233 237 242 245 245 241 243 245 238 222 206 201 201 181 171 178 186 204 206 192 194 205 208 208 214 213 208 208 211 213 211 211 212 212 210 208 207 206 204 203 204 207 208 208 210 206 199 203 207 206 206 209 212 210 206 208 213 212 208 206 206 207 204 202 207 213 214 210 205 209 214 213 211 209 212 213 208 207 208 205 204 205 208 212 213 213 211 210 211 209 207 206 209 210 208 209 209 207 202 201 207 208 209 212 213 216 221 225 227 226 224 223 225 224 217 215 217 215 209 206 203 202 202 201 203 209 214 221 227 228 233 245 252 252 249 246 241 235 228 219 218 224 227 228 214 205 226 235 228 235 253 207 123 198 214 214 216 217 218 219 220 219 215 212 212 213 213 214 215 216 215 215 215 214 213 212 213 214 217 221 223 223 222 222 221 218 213 213 215 215 217 222 227 231 228 220 214 211 210 209 208 204 200 200 203 205 206 209 212 214 213 210 207 206 206 206 206 207 207 209 209 206 196 186 181 168 127 125 141 133 116 110 110 111 114 116 117 122 129 128 123 132 143 141 133 125 127 139 149 154 156 156 153 151 151 151 150 151 156 164 176 192 206 211 212 212 210 204 201 203 199 193 195 202 200 185 176 169 153 142 137 136 150 167 177 182 186 190 195 200 208 212 210 203 -9999 
-9999 212 213 216 216 212 207 205 204 203 196 191 194 196 194 197 201 203 206 209 208 207 205 210 214 208 202 207 212 211 212 212 213 212 208 208 208 209 211 214 220 223 221 217 215 215 214 212 212 214 214 215 216 213 209 209 209 209 210 211 214 218 222 224 224 221 217 217 219 219 216 212 210 209 207 205 204 206 210 213 214 210 209 212 215 214 214 219 222 220 217 218 222 224 222 225 234 236 229 229 236 239 240 242 245 246 243 241 245 245 239 223 206 201 204 185 166 166 174 188 191 182 190 204 207 210 213 212 209 210 213 214 213 212 212 211 211 210 208 207 206 207 209 211 212 212 212 207 202 207 211 212 211 212 212 208 206 211 214 211 207 206 207 208 205 206 212 215 214 209 207 213 215 212 208 207 210 209 206 207 211 208 207 210 213 215 213 212 210 209 208 208 207 208 210 208 205 206 208 207 203 202 206 210 213 213 211 213 219 223 223 219 216 215 215 211 204 203 207 200 192 194 199 201 200 201 210 219 225 238 246 244 246 250 249 247 246 244 240 236 231 220 214 214 215 215 199 191 211 229 229 235 253 188 109 195 215 217 219 220 221 221 221 218 214 212 211 212 213 214 215 216 216 215 215 214 213 213 215 217 221 223 222 221 220 219 219 214 209 210 212 214 217 222 227 228 223 217 214 212 210 208 204 202 200 203 210 216 217 217 220 219 213 208 206 205 206 206 207 209 209 210 210 208 204 195 184 167 141 153 154 123 104 105 108 110 114 117 119 124 121 106 101 116 131 126 115 112 124 138 144 147 150 149 145 147 151 152 151 156 164 173 182 191 203 210 211 211 211 208 205 210 212 207 207 215 221 201 186 176 165 162 157 155 160 172 186 194 197 199 199 198 201 205 199 180 -9999 
-9999 214 216 215 212 206 201 201 202 203 197 194 200 200 197 199 202 200 200 200 197 200 203 207 210 205 202 208 211 215 222 221 218 217 213 211 216 219 218 218 221 223 220 217 214 212 212 214 216 218 217 217 217 215 212 211 212 216 220 221 222 224 225 224 223 220 218 216 216 217 214 210 209 208 207 209 212 214 214 215 215 213 214 217 217 215 215 221 224 223 222 226 227 222 221 231 239 237 231 234 240 243 245 246 247 244 238 243 247 244 238 224 205 197 201 187 163 157 164 177 182 183 196 206 207 211 213 213 213 213 216 216 214 214 214 215 214 210 207 207 208 210 210 210 211 212 211 205 204 210 214 215 213 210 209 207 208 212 213 210 208 208 208 207 206 208 213 214 210 208 210 213 211 208 205 205 208 208 207 210 212 209 206 208 212 214 212 210 208 207 207 208 208 208 208 206 205 208 209 206 203 205 210 217 219 216 211 211 213 212 208 206 203 200 199 198 194 195 197 190 190 202 208 207 205 212 229 242 246 250 247 235 227 233 241 243 242 241 239 237 235 229 223 219 214 203 189 184 197 220 231 234 249 167 99 190 217 221 223 223 222 221 219 216 213 211 211 212 213 215 216 217 217 216 214 212 211 211 213 216 220 221 220 219 218 218 218 211 205 206 208 210 213 217 220 219 215 212 211 211 210 209 208 209 211 213 217 219 221 225 225 218 210 207 206 206 207 209 212 213 211 210 210 208 206 203 196 180 165 172 168 141 122 113 111 112 115 118 120 119 104 89 92 107 116 110 102 111 130 144 148 149 152 149 149 155 155 154 156 165 175 184 189 192 197 205 209 211 212 211 209 212 214 212 214 220 224 200 177 167 165 167 171 173 171 173 181 190 195 198 198 194 192 191 181 163 -9999 
-9999 218 216 211 205 198 195 197 200 202 198 197 202 203 201 204 205 203 201 201 200 206 211 213 214 211 212 218 222 228 231 224 219 220 219 217 220 223 221 220 220 221 221 220 217 214 214 216 220 220 220 220 221 220 217 215 218 225 228 227 224 223 223 224 223 222 219 217 215 215 212 209 209 210 213 219 221 220 218 219 220 220 218 217 218 219 221 226 228 226 226 230 230 221 224 237 242 238 237 243 245 244 247 249 250 243 231 236 241 238 233 220 200 190 193 187 168 158 163 177 184 183 197 211 217 222 222 218 214 212 214 213 212 214 216 216 214 207 205 208 209 209 208 209 211 212 211 208 210 214 215 215 211 209 209 209 210 212 213 212 209 207 207 206 208 212 216 213 208 208 210 210 206 203 204 208 211 212 211 211 211 207 204 206 211 213 211 207 205 204 207 208 209 209 208 207 209 213 211 207 208 208 212 220 225 223 215 210 210 205 197 191 186 184 188 193 193 195 200 203 208 216 218 214 217 235 251 252 245 242 239 233 223 224 236 241 242 241 239 237 235 231 228 225 217 201 185 185 195 207 225 232 240 143 91 182 213 220 222 222 220 219 217 214 212 212 212 213 216 219 220 219 217 214 209 207 206 207 208 212 217 219 219 218 218 218 217 210 202 203 207 208 209 211 211 210 208 206 207 208 208 208 210 213 215 217 216 208 211 223 220 210 207 207 207 208 209 210 212 211 208 208 209 208 206 205 204 196 183 183 186 183 173 157 145 136 128 126 121 108 88 81 86 93 100 99 101 123 149 160 163 162 162 164 172 177 171 165 167 175 181 184 184 183 184 194 207 212 213 212 212 212 214 217 220 223 227 210 184 170 164 167 178 184 179 178 181 182 180 178 178 177 176 175 166 156 -9999 
-9999 218 213 205 199 197 197 200 202 202 202 202 205 208 209 211 212 209 206 206 209 213 216 217 218 218 221 226 231 234 233 224 219 222 224 220 218 220 221 219 216 216 221 222 220 218 218 222 226 225 223 224 225 224 221 219 224 230 231 229 225 221 223 226 226 224 221 218 216 216 212 210 216 222 227 230 228 224 221 223 224 221 218 220 224 226 230 233 232 230 230 233 231 225 229 241 244 243 245 247 246 242 243 246 251 247 234 234 235 231 226 213 196 186 184 187 180 168 172 183 183 176 191 214 225 228 227 222 215 213 215 213 213 214 216 216 214 207 209 214 212 211 210 211 211 212 213 212 215 215 214 213 209 210 212 212 212 214 216 213 208 205 207 209 212 217 216 208 205 208 210 209 205 202 206 210 211 211 210 209 207 205 206 208 213 213 207 203 203 207 211 212 210 211 212 212 217 219 217 214 213 210 214 225 232 232 220 208 208 209 205 197 189 192 199 202 203 207 214 217 217 220 223 223 231 250 254 249 242 239 239 237 229 223 234 241 244 245 243 240 236 230 224 222 218 210 193 193 200 197 213 226 229 123 86 175 205 216 219 219 217 217 216 215 215 217 220 222 223 223 220 215 210 206 203 203 204 206 208 212 217 219 219 219 218 218 216 208 200 201 205 207 209 209 210 209 208 207 207 207 205 203 203 205 208 212 211 198 200 216 214 209 212 213 213 212 211 210 210 208 206 209 211 209 207 207 208 204 196 197 205 209 205 198 191 181 170 158 138 116 100 95 93 97 101 101 116 151 172 175 172 169 169 175 189 197 195 187 181 179 177 176 175 174 176 185 198 208 211 211 211 211 214 220 224 220 221 216 193 178 174 181 193 194 185 183 186 183 171 160 155 153 154 156 155 153 -9999 
-9999 212 207 201 200 203 204 203 205 207 209 210 211 214 214 214 213 210 209 211 214 216 217 219 221 224 227 231 234 236 231 222 218 221 224 219 216 218 219 216 210 211 220 225 223 220 220 227 231 227 222 223 228 227 224 223 227 231 232 231 226 221 223 226 228 227 225 224 223 222 218 221 230 234 236 234 228 224 225 226 226 224 225 229 231 234 238 238 234 233 235 235 234 236 239 245 245 247 250 250 250 247 246 241 241 244 238 236 233 227 220 208 193 184 177 181 183 180 186 183 173 170 187 213 224 223 221 219 213 213 217 216 215 214 215 215 210 207 212 216 215 214 213 211 210 212 214 214 214 213 213 214 210 212 215 214 215 217 217 211 205 208 211 214 215 213 208 201 204 210 212 208 204 206 210 210 210 208 208 207 205 205 208 210 213 212 207 206 211 220 225 220 217 224 225 225 230 231 228 221 219 220 229 239 241 238 224 205 205 218 222 214 215 222 220 218 218 217 218 220 224 232 238 237 243 254 249 247 243 240 241 242 235 227 236 243 247 249 250 248 241 230 218 216 217 216 204 201 202 196 205 211 213 109 83 172 198 211 218 218 219 222 225 225 226 229 229 227 222 217 213 208 204 203 202 203 206 208 211 214 219 220 219 219 218 218 214 206 200 199 203 208 209 210 211 211 210 209 209 207 204 202 202 203 206 210 209 196 197 212 217 218 220 220 219 216 213 211 210 209 210 214 214 210 209 209 209 206 203 208 214 213 206 204 206 207 205 198 184 171 163 155 154 155 143 134 152 178 184 176 171 167 169 178 193 205 207 202 193 183 176 173 172 173 176 181 186 194 202 208 211 211 212 217 217 207 206 211 196 183 187 194 197 197 191 186 187 186 178 166 155 148 144 141 138 137 -9999 
-9999 208 205 203 205 208 207 206 208 211 214 214 216 216 213 213 213 211 211 213 215 216 217 220 224 227 230 233 236 237 228 217 215 218 220 218 217 217 216 215 211 212 221 227 227 222 221 228 232 227 220 222 230 230 225 225 228 231 232 232 227 221 220 224 229 231 230 232 231 228 225 227 234 237 236 232 224 222 226 228 229 230 232 233 234 239 244 241 234 233 238 238 241 246 244 245 244 245 249 252 253 251 251 248 242 238 237 238 235 228 216 204 191 181 171 171 179 187 192 178 164 170 187 207 216 217 215 213 209 209 211 210 210 211 214 212 206 204 209 212 213 212 210 209 209 212 214 214 214 213 215 214 209 211 214 214 213 215 214 207 206 212 214 214 211 206 202 204 212 215 212 207 206 209 210 211 209 206 205 204 204 207 210 212 214 216 219 224 229 233 234 228 231 239 236 235 236 233 226 219 226 235 240 243 242 240 228 212 211 225 230 224 232 238 230 228 229 226 228 237 245 247 245 241 246 254 244 243 245 245 246 249 240 234 240 245 249 251 251 245 237 228 219 218 218 216 210 203 199 199 202 196 195 102 82 171 193 205 217 224 231 236 236 234 233 232 228 219 211 208 208 208 207 206 205 206 209 211 212 216 220 221 219 219 219 217 213 205 199 198 202 208 211 211 212 211 210 209 210 207 203 203 204 206 209 214 214 200 201 216 222 223 223 222 221 217 213 212 213 215 218 219 215 212 212 211 208 205 206 210 212 209 204 206 211 212 212 210 208 207 204 202 215 222 212 199 193 189 185 182 179 175 178 192 205 210 209 206 200 192 183 175 173 174 177 178 176 179 190 203 210 211 211 212 209 201 203 211 208 198 196 198 196 193 190 186 185 185 183 177 167 156 144 126 106 96 -9999 
-9999 208 208 206 207 208 207 207 208 212 215 217 218 216 212 213 214 212 212 214 215 217 218 222 226 229 232 234 238 237 223 211 212 215 217 219 218 216 215 216 215 214 218 226 228 221 220 228 233 229 222 225 234 232 226 225 227 229 233 233 227 220 220 226 234 237 237 239 237 232 230 231 233 233 232 228 222 223 228 232 233 233 234 234 236 243 248 243 234 234 237 239 243 246 244 245 247 242 243 251 253 252 253 254 246 235 233 234 233 226 211 200 194 185 169 165 176 182 181 173 169 175 187 199 207 212 210 206 208 209 206 206 207 208 211 210 206 205 208 208 209 209 208 208 209 213 216 216 216 217 216 212 208 210 213 211 209 211 212 208 211 215 213 210 208 207 206 211 217 215 210 208 210 211 211 211 210 209 208 206 209 215 220 223 224 227 234 239 237 236 236 235 239 241 236 235 234 228 218 220 239 245 244 241 237 234 229 218 212 217 222 225 234 236 228 229 235 236 241 248 248 244 237 232 238 251 242 241 248 252 253 250 243 240 243 246 248 249 245 238 234 231 228 223 217 215 214 205 199 199 200 188 181 95 82 171 190 201 220 234 242 243 241 236 232 226 215 204 202 205 208 209 209 207 206 208 211 212 213 217 221 221 220 219 218 217 211 203 196 196 203 210 212 212 212 211 209 209 210 207 205 206 207 209 213 217 216 206 208 220 223 224 224 223 220 215 212 212 215 220 221 220 216 216 215 212 208 206 207 210 212 210 210 211 214 217 218 214 212 211 210 212 226 235 236 230 213 195 188 189 189 190 203 218 220 214 208 204 199 196 190 181 175 175 176 173 170 172 181 194 206 212 212 212 210 207 207 212 218 215 207 203 199 193 186 180 180 181 182 181 176 165 147 118 94 82 -9999 
-9999 208 208 207 208 209 209 208 209 212 216 219 218 215 214 215 214 212 212 214 216 218 220 224 228 230 232 234 237 234 217 207 211 215 218 220 220 216 215 217 218 215 216 224 226 220 221 230 235 233 228 229 233 231 226 224 224 226 231 232 227 223 225 232 238 240 241 243 240 235 234 234 232 231 229 223 221 226 230 234 233 233 235 235 236 244 250 244 233 235 237 240 243 244 242 246 250 245 243 249 251 252 252 251 244 236 232 231 226 216 204 200 201 196 173 163 169 171 173 181 183 179 184 192 199 205 203 202 210 213 209 209 209 209 213 212 209 209 210 208 209 210 209 208 209 214 218 219 217 215 213 211 211 213 214 211 209 213 214 211 214 217 213 210 212 213 212 215 217 215 215 215 215 214 214 214 216 218 218 219 224 230 233 233 233 236 241 241 237 234 237 241 241 240 238 237 234 226 217 229 247 249 246 241 236 231 227 221 213 208 208 218 226 224 222 229 235 233 231 236 243 242 234 227 230 244 244 244 249 254 251 249 247 245 246 247 247 244 239 233 230 232 232 224 213 214 217 207 198 199 199 183 167 88 82 172 193 204 225 241 245 245 241 233 224 211 200 198 202 205 208 208 207 205 206 209 211 212 214 219 222 221 220 219 219 216 209 197 191 197 209 213 212 212 211 210 209 210 210 208 207 208 209 211 215 219 218 211 214 223 224 223 223 222 218 214 212 212 217 222 222 219 216 216 215 212 209 208 210 213 214 214 215 217 219 222 220 216 215 216 216 219 228 231 229 224 214 205 198 195 195 204 221 227 220 212 205 194 185 182 181 178 175 173 171 168 165 166 172 182 196 209 213 213 213 211 211 213 221 223 214 205 201 197 190 181 175 175 177 175 171 162 146 120 107 111 -9999 
-9999 211 211 209 209 211 212 211 211 213 217 218 217 216 217 216 214 213 212 213 216 220 223 226 228 230 231 232 233 227 213 207 211 216 219 220 220 216 213 216 218 216 217 224 224 220 223 231 236 236 232 231 231 230 227 224 222 227 233 235 234 229 231 238 241 242 243 244 240 237 237 236 234 231 228 221 221 227 231 233 232 233 235 236 237 241 247 242 234 238 238 240 242 242 241 246 250 247 246 249 250 250 250 247 241 235 231 227 218 207 207 211 209 201 179 167 165 168 180 188 184 177 180 186 192 200 205 210 215 214 212 213 211 213 219 219 214 213 213 211 213 213 211 209 210 216 220 219 215 212 212 212 213 215 215 213 214 217 215 211 213 214 212 212 218 220 216 217 220 224 224 222 221 220 221 224 227 227 227 230 235 238 238 237 238 241 242 239 235 236 241 243 241 243 243 239 234 227 221 231 245 248 246 242 237 231 227 225 222 213 207 210 212 209 211 214 215 217 216 222 236 242 238 236 233 241 246 249 252 254 249 250 250 247 247 247 244 236 232 227 226 230 229 223 216 216 219 210 199 198 197 178 155 85 88 179 203 210 227 242 246 245 238 224 208 197 195 200 203 205 207 207 204 202 205 209 211 212 215 221 223 222 220 220 219 217 206 190 189 207 217 214 210 211 212 212 212 212 211 208 208 209 210 213 218 221 220 216 219 223 221 219 218 218 218 215 212 213 220 225 222 216 213 213 213 214 213 212 214 216 216 216 219 220 221 223 218 214 216 217 218 222 227 227 220 213 209 207 204 202 202 209 217 215 210 207 198 179 162 153 152 157 166 170 167 164 163 163 164 168 178 191 201 208 213 213 213 214 218 223 216 208 202 198 196 188 176 173 173 167 160 153 141 124 131 162 -9999 
-9999 215 213 210 210 214 215 214 212 212 216 218 218 218 218 215 211 213 213 213 219 226 228 227 227 227 228 227 224 218 211 208 212 218 220 219 217 214 212 214 217 218 221 225 223 218 223 231 237 238 235 233 231 230 229 229 225 223 229 237 239 232 234 243 243 241 242 242 240 237 238 237 234 230 227 222 224 230 231 231 231 234 238 240 242 243 244 239 236 238 238 240 242 242 243 245 248 248 247 247 248 248 246 241 235 231 230 228 220 212 218 222 213 200 184 177 170 170 186 183 170 170 174 179 186 202 215 219 216 212 216 217 212 214 223 226 222 220 219 215 217 219 216 211 213 219 222 220 215 214 217 217 218 217 216 214 216 218 215 212 213 214 214 218 225 226 221 222 228 233 230 226 225 224 226 231 233 231 231 233 237 240 240 240 242 244 243 239 237 241 246 246 244 245 244 238 234 229 226 232 242 246 245 243 238 231 225 224 226 223 216 213 210 207 207 202 202 210 211 214 225 232 230 239 241 244 249 251 254 253 250 252 251 247 245 243 237 229 227 225 226 229 229 228 224 219 219 211 201 196 193 172 146 91 105 188 210 213 223 238 244 242 229 208 193 192 198 202 203 205 206 203 200 201 207 210 210 211 217 222 224 222 221 220 220 218 205 184 195 218 222 213 207 208 213 216 217 215 209 206 207 208 210 215 220 222 221 220 221 219 213 211 212 216 218 217 214 215 224 227 220 211 208 209 214 216 214 211 213 216 216 215 217 218 220 220 215 214 216 217 219 224 224 222 213 204 199 198 201 207 209 208 208 207 207 203 188 168 155 147 142 150 165 171 168 164 163 163 163 163 167 173 180 193 207 212 213 212 214 219 214 206 199 192 189 189 188 184 177 167 160 152 143 146 181 213 -9999 
-9999 213 210 211 214 218 219 217 212 211 216 219 217 217 217 213 209 213 215 216 223 228 228 224 221 221 221 218 216 212 210 209 214 218 218 216 212 212 213 215 218 220 222 224 221 218 225 233 237 239 238 236 233 230 232 236 233 223 221 231 237 232 237 246 245 241 239 239 239 238 237 235 230 226 224 224 228 233 232 229 229 234 240 243 245 246 244 239 237 238 237 238 241 243 245 246 248 247 246 246 246 244 240 234 230 231 234 235 231 220 220 222 209 196 186 183 172 170 187 175 157 161 165 174 193 217 227 225 219 212 215 216 212 215 224 228 225 224 222 218 223 226 221 215 220 228 230 226 225 229 232 232 229 224 221 219 217 219 219 217 219 221 224 230 233 229 223 225 231 232 230 228 226 226 229 233 234 232 231 235 241 244 244 243 244 244 243 238 234 240 245 246 245 246 243 237 237 233 231 235 241 245 246 245 241 234 226 222 226 227 222 218 218 221 223 216 207 211 215 217 220 223 221 230 241 246 252 254 254 252 250 251 250 246 242 238 232 227 226 227 229 230 231 232 228 221 216 210 203 196 188 166 144 109 130 194 209 211 216 231 239 231 211 191 187 194 201 204 203 203 202 198 197 204 209 210 209 211 219 223 223 222 221 221 221 218 205 183 201 226 223 209 201 203 213 219 219 214 206 204 207 209 211 216 220 222 223 223 219 210 204 206 212 217 220 219 217 219 228 228 217 208 205 209 214 214 210 208 211 214 214 214 215 215 214 212 210 211 213 214 217 219 217 214 206 192 188 195 206 214 212 207 207 207 205 196 178 164 161 162 168 177 181 177 172 167 164 163 163 164 167 170 172 180 198 212 213 212 212 215 212 197 186 180 178 185 194 191 180 169 164 161 166 192 219 228 -9999 
-9999 209 210 215 218 220 221 218 212 210 216 218 215 214 213 209 208 213 215 216 220 223 222 216 211 212 213 213 211 210 210 211 214 215 213 212 211 213 217 217 219 220 222 223 222 223 230 234 237 239 240 239 235 229 233 241 240 227 218 226 235 235 241 247 245 238 235 234 235 236 234 230 227 224 223 226 231 235 234 229 229 234 240 244 246 248 246 240 237 238 238 239 241 243 245 247 248 245 241 241 240 236 232 230 230 232 235 239 237 224 216 215 203 194 188 184 172 172 184 170 153 152 158 184 216 230 230 225 217 210 209 210 209 213 220 224 222 218 213 208 215 223 219 219 232 241 239 235 240 242 237 232 228 223 224 225 222 224 225 225 227 229 233 236 234 227 221 224 228 227 228 229 228 227 230 236 240 237 233 240 247 247 246 245 244 244 243 239 234 238 243 246 246 246 242 238 240 239 236 238 242 246 248 248 245 241 235 229 228 228 225 222 222 230 238 233 220 216 222 227 227 228 228 226 234 241 250 254 254 251 249 249 248 243 238 235 231 228 227 229 231 231 232 232 229 222 214 208 203 199 189 165 152 132 150 196 206 206 207 218 220 204 189 184 189 198 203 204 201 198 195 194 199 206 208 208 207 212 220 223 222 222 221 221 221 218 203 185 209 232 224 205 197 199 210 219 219 211 205 208 213 214 214 216 220 223 223 221 212 199 202 211 218 222 223 224 223 227 234 231 218 209 207 209 212 211 209 209 212 214 216 216 216 212 210 208 206 208 210 211 212 213 212 209 201 194 197 207 216 218 214 207 207 207 201 187 170 164 170 184 202 209 197 182 175 172 168 164 163 165 169 172 174 181 198 213 215 213 212 213 211 196 181 179 182 184 184 176 166 167 177 192 212 226 227 228 -9999 
-9999 210 215 218 219 218 217 214 210 210 216 216 212 211 209 207 208 212 212 212 215 216 214 208 203 207 212 212 211 210 210 212 215 215 213 214 215 217 219 219 220 221 222 224 225 228 232 234 235 238 240 241 235 227 234 241 239 226 215 223 233 239 244 248 245 235 228 228 230 231 229 227 227 225 221 224 230 233 232 229 229 235 240 244 246 247 246 240 236 237 240 241 242 243 244 245 244 238 234 236 235 233 232 232 232 232 234 239 236 222 214 210 201 197 193 185 178 181 180 164 151 144 158 208 235 236 231 224 213 207 207 208 209 211 217 221 220 216 208 199 200 208 214 225 240 244 240 238 244 243 233 221 217 213 216 223 221 226 232 234 236 235 236 237 233 228 224 226 228 231 236 238 237 234 235 243 247 240 232 239 245 245 245 245 245 244 243 239 235 237 242 245 246 245 243 242 242 241 238 239 243 247 248 248 246 245 244 241 235 230 227 227 227 231 237 236 229 222 227 234 232 232 234 229 227 229 241 252 253 250 247 246 245 240 235 235 234 228 228 232 233 233 233 232 228 220 209 204 203 202 192 170 159 142 153 191 196 191 187 188 184 180 187 194 198 202 205 204 195 188 190 195 203 207 207 206 207 214 221 222 221 222 222 221 221 218 202 194 221 234 223 207 197 198 208 218 219 211 210 216 221 219 217 218 223 226 222 214 203 199 212 223 230 234 236 237 236 236 239 234 219 210 209 209 212 214 213 210 211 214 217 219 217 209 207 212 214 215 215 214 213 213 213 207 198 200 209 215 218 219 214 207 207 205 194 178 170 176 191 209 218 215 202 188 180 176 172 168 165 167 171 174 179 190 202 212 216 213 212 213 213 208 199 194 191 183 169 157 160 182 206 223 234 233 227 226 -9999 
-9999 219 220 218 216 213 212 210 208 209 213 213 211 209 208 208 211 212 211 212 214 214 212 207 205 211 215 215 213 212 213 215 218 219 218 219 219 220 220 220 221 222 223 225 227 231 234 232 232 236 238 238 233 228 234 236 229 217 211 221 231 236 241 241 235 224 221 223 225 227 226 226 225 220 217 222 227 230 231 230 231 235 239 242 244 245 243 237 234 236 238 239 241 241 240 238 235 231 231 233 233 233 233 233 231 228 232 237 232 223 217 210 202 200 198 189 183 185 176 158 150 148 180 227 241 239 235 226 212 206 207 209 211 213 216 219 219 214 206 198 195 196 202 215 230 236 234 233 238 241 231 214 209 204 206 219 223 227 232 235 237 235 233 233 235 235 233 233 234 240 245 244 240 236 237 244 247 240 231 235 240 241 243 244 245 245 244 241 237 238 241 243 244 245 246 244 242 240 238 239 242 246 248 247 246 245 247 248 244 238 233 230 231 232 233 235 233 226 227 234 233 233 236 235 226 223 235 246 249 247 244 243 243 239 234 238 237 228 228 234 236 234 233 231 228 216 204 204 203 201 194 173 160 139 139 168 170 164 160 160 165 183 199 206 206 205 205 202 189 183 197 207 208 208 207 206 208 216 221 221 221 221 222 221 220 217 206 210 227 229 221 211 201 199 211 224 223 217 219 224 225 222 219 226 234 233 223 216 214 223 236 240 242 242 241 240 236 233 236 232 219 211 208 207 209 212 209 203 202 208 213 215 213 204 203 214 219 220 218 213 211 212 212 207 200 205 215 215 216 217 213 208 206 202 191 181 185 198 211 217 212 203 198 195 188 182 177 173 171 172 174 177 184 194 200 205 212 213 212 214 215 214 215 206 184 162 152 160 184 209 225 234 238 232 224 223 -9999 
-9999 223 218 213 210 209 209 209 207 207 210 212 211 210 210 212 214 214 214 215 216 216 214 210 211 216 218 217 216 216 217 219 222 223 221 221 221 221 219 219 222 223 225 226 229 233 234 230 229 233 235 232 227 226 227 223 218 213 211 220 228 231 234 233 226 219 218 220 223 224 223 221 219 214 217 223 226 231 233 231 232 235 236 237 239 238 234 229 230 233 235 235 235 234 232 229 229 230 232 232 232 232 231 231 229 227 233 237 233 226 220 212 204 204 205 199 185 182 174 156 155 172 205 226 236 240 236 227 214 207 208 211 214 214 216 218 218 215 207 201 198 197 197 203 216 227 230 231 235 238 228 209 201 196 202 220 226 226 227 228 230 229 225 223 230 236 234 230 226 230 240 239 233 236 239 244 247 243 236 236 238 240 240 242 246 246 243 241 240 241 242 242 243 246 248 245 241 239 239 239 241 245 247 245 244 244 247 249 248 245 237 230 232 235 235 235 234 229 226 232 233 234 236 236 226 227 236 238 242 243 242 242 243 241 236 239 238 228 230 237 237 232 230 229 225 213 205 207 203 199 193 175 160 136 130 154 158 156 154 156 168 191 205 208 208 207 205 200 190 194 215 220 213 212 210 209 212 219 222 222 221 221 222 221 220 219 217 219 224 223 221 216 206 202 215 231 233 228 228 228 226 224 223 234 242 239 232 231 233 241 246 243 240 238 238 237 233 228 230 227 217 212 208 204 206 206 200 195 194 199 205 208 206 200 200 212 218 218 214 210 209 210 210 209 209 214 224 223 219 216 212 208 207 207 204 202 206 213 214 207 196 193 196 199 197 192 186 182 182 182 181 181 185 189 191 194 204 212 214 214 213 213 216 206 176 152 150 171 199 214 223 232 235 228 219 219 -9999 
-9999 217 211 207 206 208 210 210 208 209 212 214 214 214 214 216 218 218 219 220 219 218 216 213 215 218 219 218 217 218 220 221 225 226 223 221 220 218 218 221 224 225 225 226 228 230 231 229 228 230 230 226 222 223 223 218 216 214 214 221 226 228 230 229 223 218 218 219 221 220 217 214 213 212 220 225 226 231 232 230 230 231 232 233 233 232 229 226 229 232 232 231 230 230 228 226 227 229 230 231 230 228 227 228 228 230 236 239 234 227 223 215 208 210 215 208 186 177 172 152 153 192 230 236 237 239 235 228 217 209 209 213 215 216 216 218 217 216 212 207 204 204 201 200 208 219 227 230 233 234 226 208 192 190 204 220 229 229 227 227 228 228 222 216 224 233 234 230 226 226 239 238 228 234 239 243 245 243 239 240 240 239 236 237 245 245 240 238 240 242 244 244 242 244 248 247 239 237 239 239 240 244 246 244 244 245 246 247 247 246 238 227 228 233 238 240 239 236 232 235 236 236 235 229 219 223 234 236 237 239 240 242 244 241 237 238 237 231 233 239 239 231 228 227 222 213 208 208 203 196 190 173 166 142 131 153 158 158 158 160 175 198 209 210 211 211 209 205 203 212 223 222 214 213 213 214 219 226 228 226 225 224 224 224 226 230 230 225 223 223 222 220 212 208 221 233 235 234 233 231 230 230 232 240 244 241 238 236 236 244 250 249 245 241 238 235 230 225 224 219 212 209 208 203 201 199 195 193 193 194 199 207 208 203 205 214 220 218 212 209 209 211 213 215 215 215 218 224 223 218 212 210 209 210 210 209 212 210 201 192 188 191 198 201 203 203 198 191 186 185 183 182 181 182 184 185 192 205 214 213 212 214 216 213 199 181 168 172 188 202 209 212 216 216 210 208 -9999 
-9999 212 207 205 207 212 214 212 210 212 215 217 217 217 216 217 219 222 223 223 220 218 216 214 216 218 218 218 219 221 223 223 225 226 222 219 218 217 221 226 226 224 223 222 223 225 227 227 225 224 224 223 223 225 223 218 216 215 216 221 225 226 227 226 221 218 218 219 219 215 210 210 211 214 221 223 223 228 229 228 228 229 230 230 232 232 229 228 230 232 230 227 227 227 225 224 225 226 227 227 226 224 225 227 230 232 237 238 232 227 226 221 215 220 222 206 182 174 166 146 150 204 245 248 242 238 235 231 222 213 211 214 216 216 217 217 214 216 218 212 211 210 206 203 206 215 224 228 230 228 226 215 190 186 202 215 226 231 229 228 229 230 225 217 222 231 233 231 226 223 236 238 229 231 236 240 242 240 241 243 241 238 235 235 241 242 239 236 237 241 246 248 244 242 248 248 241 237 239 236 239 246 248 246 245 246 247 247 248 246 237 225 221 222 232 241 241 238 237 240 241 239 235 225 215 214 224 234 237 237 238 241 242 239 237 239 237 233 235 239 238 230 227 224 219 216 212 209 203 194 188 176 176 150 131 153 157 157 159 167 190 213 221 222 222 221 219 216 217 220 222 218 214 213 214 216 223 230 231 231 231 231 231 233 238 241 235 226 224 224 224 223 219 219 229 236 238 237 235 234 234 236 239 241 242 242 241 238 237 244 251 252 250 247 242 235 228 223 220 214 208 206 207 203 198 197 196 196 196 196 197 203 214 221 223 224 222 216 212 210 212 214 218 221 217 209 208 219 225 222 219 216 213 210 207 207 208 204 195 190 189 195 202 207 211 212 206 197 188 183 181 180 180 180 180 181 182 190 203 211 213 214 215 217 214 199 185 176 176 186 191 192 198 204 203 197 -9999 
-9999 212 207 206 210 216 217 214 212 213 215 218 219 218 216 214 217 222 226 225 220 217 216 215 216 217 218 220 222 224 224 223 224 223 219 216 217 219 225 227 224 220 219 220 221 222 223 223 221 219 221 222 223 223 218 214 213 214 218 223 225 224 224 223 220 218 218 219 217 212 210 212 213 217 221 221 223 227 227 226 226 227 228 229 231 231 228 228 230 230 228 225 223 222 222 224 224 224 223 223 221 220 222 227 230 233 235 234 230 228 230 227 223 226 220 197 182 176 162 144 159 221 249 249 244 237 235 234 229 220 216 216 215 216 219 217 214 217 219 216 216 213 210 208 208 213 222 227 227 220 225 221 198 192 198 211 224 231 231 230 231 232 229 225 227 232 233 231 227 224 230 238 237 235 236 236 236 237 242 242 239 236 235 237 239 239 239 237 235 238 246 250 246 242 246 246 242 241 242 236 233 244 249 248 246 246 246 247 249 247 239 227 220 219 225 232 235 234 234 237 240 239 234 226 220 211 211 225 236 237 237 238 239 236 239 241 238 236 236 237 235 229 225 225 221 218 215 212 206 193 187 178 182 151 128 153 157 157 163 180 203 219 227 229 230 229 228 225 223 222 220 216 214 215 215 218 225 230 232 232 233 234 234 237 243 242 232 224 223 223 224 226 227 231 237 240 240 238 234 233 235 238 240 237 234 236 238 238 237 243 250 253 253 252 247 237 224 218 215 214 212 208 205 202 199 197 197 197 197 197 196 200 212 222 225 222 214 207 209 211 213 213 214 214 209 204 209 220 224 221 221 222 217 214 212 211 209 205 201 194 193 201 210 215 217 214 208 202 196 188 182 180 180 180 180 180 180 181 189 201 208 212 213 212 207 203 205 190 175 171 174 182 189 192 191 187 -9999 
-9999 213 211 211 214 219 219 215 214 215 217 219 219 216 214 212 215 221 226 223 217 214 215 216 217 218 221 224 225 224 224 222 222 220 217 217 219 222 226 226 221 218 219 222 223 220 220 222 222 220 221 222 221 217 211 209 211 215 220 224 224 222 221 221 219 218 218 218 216 212 214 217 218 221 222 221 226 229 227 226 225 225 225 226 228 229 227 227 229 229 227 225 222 223 225 227 226 224 224 224 222 221 223 227 230 233 235 233 231 231 233 232 229 228 215 197 191 178 157 138 168 239 251 249 243 235 236 235 230 228 227 223 218 217 220 219 218 220 219 220 219 215 214 213 210 212 221 228 227 214 222 224 208 200 195 207 221 228 230 229 228 226 226 228 233 236 234 232 230 228 227 236 243 238 237 236 231 235 243 243 237 234 235 238 238 238 239 238 236 239 244 248 247 245 248 245 242 245 246 238 229 235 243 247 247 246 247 247 248 247 241 229 224 227 231 234 234 232 230 231 234 235 231 226 223 212 205 221 235 237 235 235 237 236 239 240 238 237 236 233 232 229 226 227 225 221 217 214 208 194 186 175 178 144 123 155 159 163 178 197 209 216 223 227 228 228 228 226 224 222 218 215 214 215 216 220 227 232 233 233 234 235 235 237 240 236 227 224 223 224 227 230 235 238 242 244 243 240 234 232 237 241 242 237 231 230 231 232 233 239 248 252 252 251 248 236 220 212 213 215 216 213 208 203 200 198 197 197 197 197 195 201 214 221 220 212 195 188 200 209 211 209 206 205 203 203 208 214 212 210 215 220 217 213 212 212 211 207 200 190 194 208 216 219 218 213 207 203 200 194 187 183 182 181 181 180 180 182 186 192 201 212 215 214 213 218 224 199 175 164 164 172 179 182 179 176 -9999 
-9999 214 215 215 216 219 219 215 213 214 216 219 216 213 213 212 215 220 221 217 212 213 215 218 220 222 226 227 226 224 223 221 221 220 219 220 223 227 228 225 222 218 220 224 222 216 217 223 224 222 222 220 217 212 208 210 213 218 221 222 219 217 217 218 218 218 217 217 214 212 217 221 222 222 222 222 228 229 226 225 223 223 224 224 226 226 226 227 229 229 228 226 225 227 230 229 227 225 225 226 226 226 227 231 234 236 237 235 232 232 235 235 232 228 215 207 200 170 138 124 178 250 254 252 243 235 236 232 224 229 236 233 226 220 218 218 220 223 221 223 222 215 219 219 210 209 218 226 225 212 217 223 215 204 199 209 217 223 227 226 222 220 220 225 234 239 236 231 231 233 226 235 246 241 237 237 233 234 242 244 238 234 234 238 237 236 238 238 238 242 242 244 247 249 250 245 242 246 247 242 234 234 237 242 245 247 249 247 246 245 240 230 228 233 236 238 237 235 231 227 225 228 229 225 222 209 206 223 234 235 231 230 233 237 240 239 236 237 235 230 230 230 226 226 227 224 219 214 207 193 185 167 171 138 119 157 165 177 196 209 213 214 219 223 225 225 226 225 222 219 217 215 213 214 217 223 230 234 234 235 235 235 235 235 234 229 226 225 226 229 232 236 239 240 243 246 246 243 236 233 240 243 243 237 231 229 229 228 228 232 241 249 249 248 245 236 220 212 214 217 218 217 214 208 203 200 198 197 197 196 193 202 217 220 213 196 175 170 187 205 209 207 205 207 209 209 209 209 207 208 211 214 210 206 206 209 211 205 194 189 201 215 219 219 217 210 205 201 198 196 193 190 189 188 186 183 184 188 192 195 204 217 218 216 217 225 230 203 176 165 165 170 176 178 176 174 -9999 
-9999 216 217 215 215 219 218 214 212 214 218 218 217 215 215 213 213 216 218 214 212 214 219 222 224 227 228 228 226 224 222 220 220 222 223 225 228 230 227 224 224 221 222 223 218 212 216 225 226 223 220 216 211 209 211 214 218 220 220 218 215 213 213 214 215 216 217 215 212 212 218 223 223 222 221 223 227 227 224 222 221 222 224 227 228 229 229 229 229 229 229 228 228 230 231 230 228 225 224 226 228 229 232 236 239 239 239 237 233 234 238 238 234 229 219 215 197 148 114 119 194 253 253 254 247 239 238 231 221 227 236 237 232 224 216 213 216 221 224 225 219 212 223 227 214 206 214 223 223 212 209 219 217 206 208 217 218 222 229 227 220 221 221 224 232 238 236 230 230 232 228 237 247 245 241 239 235 235 239 241 239 235 235 239 237 234 235 236 239 244 241 238 242 247 249 247 244 245 246 246 242 237 231 229 234 241 243 241 238 234 229 225 231 235 234 237 238 238 235 229 220 222 225 219 218 211 211 225 234 234 228 222 226 234 240 240 234 233 235 232 230 230 225 224 228 228 221 214 203 189 182 163 171 137 118 162 179 196 209 213 214 215 217 220 221 222 223 223 221 217 215 215 213 213 218 225 231 234 234 234 234 234 233 231 228 226 225 225 228 233 235 237 239 240 242 245 247 247 241 239 243 244 243 239 232 229 228 227 227 227 234 243 247 247 246 239 224 215 216 218 219 218 217 214 208 203 199 198 197 194 193 205 218 214 199 178 164 162 175 197 207 205 204 207 211 211 209 210 209 212 212 209 203 200 204 210 209 201 199 205 216 222 221 219 215 207 201 196 192 194 196 194 195 197 197 195 195 196 198 203 212 221 219 214 214 219 222 206 181 171 172 175 178 178 176 175 -9999 
-9999 218 216 214 216 219 219 215 214 218 223 223 221 219 216 213 211 217 221 217 215 219 224 226 227 228 228 226 224 223 222 220 221 225 227 227 227 227 223 221 223 223 222 221 218 217 221 227 226 222 218 213 211 213 217 219 219 220 218 216 214 213 212 211 214 217 218 215 213 216 223 225 224 221 221 225 225 222 222 221 221 224 229 233 234 233 231 229 228 227 228 229 229 230 230 229 227 224 224 229 232 233 235 239 240 240 241 239 235 237 242 239 236 230 220 209 177 125 103 127 211 253 251 254 249 243 241 234 225 227 231 233 233 227 218 214 214 218 225 228 216 204 219 232 222 208 215 223 223 213 206 216 218 211 214 219 219 222 227 221 215 222 226 227 229 234 236 231 228 229 228 238 246 245 243 241 238 237 237 238 237 237 240 241 237 234 235 235 239 245 243 236 235 240 246 248 247 245 243 245 246 239 226 215 215 222 228 231 228 219 213 215 229 233 230 234 237 239 237 230 219 221 222 215 214 215 215 223 234 235 225 215 219 231 242 243 233 230 235 234 232 231 227 226 229 230 223 214 199 182 177 166 176 141 124 170 195 210 213 212 215 217 218 218 218 219 220 221 221 218 215 214 212 213 219 225 229 232 233 234 234 233 230 226 225 224 224 225 231 235 235 235 236 237 239 243 246 248 246 245 247 248 246 242 237 232 229 227 227 226 229 236 243 245 246 241 227 218 218 218 219 219 218 217 214 209 203 199 197 191 193 209 214 202 181 166 161 160 166 186 203 206 206 208 210 209 208 209 208 213 217 212 205 205 212 215 208 203 210 216 219 223 222 218 211 201 194 190 188 193 197 195 194 195 199 203 204 202 202 209 217 222 221 214 213 214 215 208 186 174 177 183 183 180 178 178 -9999 
-9999 219 217 215 218 220 218 214 215 222 227 227 222 218 216 214 217 224 225 221 222 225 227 226 225 224 223 224 224 223 223 222 224 228 229 226 222 222 221 219 222 224 222 220 221 223 225 225 224 221 219 217 215 218 221 220 218 218 216 215 214 214 213 214 219 222 220 218 218 223 227 228 224 221 222 224 221 220 222 224 225 228 232 236 236 231 228 228 228 228 229 231 232 231 231 230 228 227 228 234 237 237 239 240 240 240 241 241 239 241 243 239 236 231 217 193 157 116 104 148 237 252 250 253 248 244 243 238 230 230 231 231 231 229 226 221 217 219 226 229 218 201 211 227 223 211 215 222 219 214 210 213 216 216 219 218 216 218 223 218 213 220 226 228 226 229 237 236 226 222 225 237 243 241 240 240 239 238 237 236 235 237 242 243 239 236 236 236 239 245 245 240 233 232 239 245 248 247 242 241 242 236 224 210 206 213 221 227 226 215 208 211 226 231 228 232 235 236 233 227 220 220 221 217 214 216 217 220 231 231 223 213 215 229 243 243 231 226 233 235 235 233 228 228 230 227 219 212 196 176 172 169 179 151 137 171 202 221 217 211 213 216 215 216 217 218 218 219 222 222 217 213 212 213 219 226 229 230 233 233 233 231 226 223 224 224 224 227 234 237 235 234 234 235 236 238 242 246 247 247 248 249 245 239 237 236 233 229 228 227 228 233 239 242 243 239 229 220 219 219 219 219 219 218 217 214 209 202 196 187 194 208 203 185 168 161 160 160 161 174 195 205 207 209 209 208 209 210 210 215 223 219 213 215 220 217 209 208 210 209 209 211 213 209 202 194 189 188 187 192 198 196 193 190 190 194 196 195 197 205 213 219 220 215 214 216 217 212 193 174 172 178 181 180 179 179 -9999 
-9999 220 219 217 218 219 216 214 219 226 229 226 219 214 212 215 223 227 226 223 226 228 227 224 220 217 220 224 224 224 224 224 225 228 227 222 219 222 223 222 224 226 224 221 223 224 224 223 222 221 221 221 219 219 221 219 217 216 215 215 217 217 217 220 224 226 224 223 225 227 229 228 224 221 221 221 219 220 225 229 230 229 231 232 230 225 225 229 231 232 234 236 235 234 233 233 232 231 232 237 239 240 240 239 239 238 240 241 242 243 242 237 236 231 213 183 153 124 119 191 251 249 251 253 248 245 245 242 236 233 235 233 229 226 231 230 226 226 226 227 220 211 214 218 215 209 211 217 215 216 215 209 211 216 221 220 214 214 221 220 216 218 220 225 226 225 234 239 227 216 220 231 238 239 241 239 239 239 237 235 234 235 240 243 241 238 237 236 238 245 248 246 239 233 236 241 247 249 245 237 235 233 227 214 206 213 221 227 226 218 213 215 227 231 228 232 234 234 228 223 220 216 218 220 215 215 217 220 225 226 223 215 215 228 241 241 231 227 232 235 237 235 231 229 229 223 213 209 194 175 172 170 182 166 151 167 201 229 227 218 213 212 209 210 213 215 215 216 223 226 219 212 211 213 219 226 229 229 231 233 231 226 221 222 224 225 225 230 237 239 237 235 234 234 233 234 237 242 246 247 246 245 240 235 237 238 236 234 231 229 229 233 238 239 238 236 230 222 219 219 219 219 219 219 218 218 214 208 195 185 193 200 188 170 162 160 159 158 156 160 183 203 209 209 210 210 211 211 209 212 218 216 214 219 222 218 213 212 209 205 202 199 198 197 194 189 187 187 187 191 196 196 195 192 188 185 184 184 187 192 199 205 213 214 214 216 216 212 201 176 161 161 168 173 175 176 -9999 
-9999 220 219 218 218 218 218 220 225 229 228 223 214 210 211 218 224 227 226 227 229 228 225 223 218 215 220 224 223 223 224 222 223 224 224 223 222 223 223 222 224 227 226 223 223 224 223 221 218 218 220 220 218 217 218 218 216 214 214 216 220 222 222 222 225 228 228 228 228 228 229 228 224 221 221 221 221 223 230 235 234 231 232 232 228 227 228 233 234 235 237 238 238 237 237 235 233 232 233 237 241 241 240 239 238 237 240 244 248 247 241 236 238 233 212 185 162 140 145 222 251 250 252 253 249 247 247 246 241 236 236 233 227 223 230 234 233 231 226 222 222 223 224 219 210 207 210 210 210 220 222 212 208 211 216 218 213 214 221 221 218 217 219 224 227 224 230 237 231 221 221 227 230 236 245 242 238 240 238 234 234 235 238 240 241 241 238 237 239 244 248 249 245 239 238 240 246 249 244 236 231 232 234 227 214 216 222 223 219 220 220 220 228 230 230 233 233 232 227 220 218 213 213 217 214 212 215 220 221 222 225 220 217 225 234 236 232 232 234 235 235 235 233 230 229 224 214 204 191 180 177 174 185 181 163 161 195 233 236 230 221 214 211 208 208 210 211 214 221 223 216 211 211 213 219 226 229 229 230 230 227 220 219 223 225 225 227 234 239 240 240 239 237 234 233 233 233 236 242 245 245 242 237 233 234 236 237 236 234 231 231 234 236 235 234 233 230 224 220 219 219 219 219 219 219 219 219 213 196 184 188 187 173 162 159 158 156 152 145 146 173 202 209 209 209 210 211 210 207 207 209 211 215 220 222 220 217 213 211 211 211 208 202 200 195 188 187 187 187 189 195 196 194 190 185 180 178 180 183 186 190 196 204 211 217 218 216 213 211 185 153 142 145 153 159 163 -9999 
-9999 -9999 -9999 -9999 -9999 -9999 -9999 -9999 -9999 -9999 -9999 -9999 -9999 -9999 -9999 -9999 -9999 -9999 -9999 -9999 -9999 -9999 -9999 -9999 -9999 -9999 -9999 -9999 -9999 -9999 -9999 -9999 -9999 -9999 -9999 -9999 -9999 -9999 -9999 -9999 -9999 -9999 -9999 -9999 -9999 -9999 -9999 -9999 -9999 -9999 -9999 -9999 -9999 -9999 -9999 -9999 -9999 -9999 -9999 -9999 -9999 -9999 -9999 -9999 -9999 -9999 -9999 -9999 -9999 -9999 -9999 -9999 -9999 -9999 -9999 -9999 -9999 -9999 -9999 -9999 -9999 -9999 -9999 -9999 -9999 -9999 -9999 -9999 -9999 -9999 -9999 -9999 -9999 -9999 -9999 -9999 -9999 -9999 -9999 -9999 -9999 -9999 -9999 -9999 -9999 -9999 -9999 -9999 -9999 -9999 -9999 -9999 -9999 -9999 -9999 -9999 -9999 -9999 -9999 -9999 -9999 -9999 -9999 -9999 -9999 -9999 -9999 -9999 -9999 -9999 -9999 -9999 -9999 -9999 -9999 -9999 -9999 -9999 -9999 -9999 -9999 -9999 -9999 -9999 -9999 -9999 -9999 -9999 -9999 -9999 -9999 -9999 -9999 -9999 -9999 -9999 -9999 -9999 -9999 -9999 -9999 -9999 -9999 -9999 -9999 -9999 -9999 -9999 -9999 -9999 -9999 -9999 -9999 -9999 -9999 -9999 -9999 -9999 -9999 -9999 -9999 -9999 -9999 -9999 -9999 -9999 -9999 -9999 -9999 -9999 -9999 -9999 -9999 -9999 -9999 -9999 -9999 -9999 -9999 -9999 -9999 -9999 -9999 -9999 -9999 -9999 -9999 -9999 -9999 -9999 -9999 -9999 -9999 -9999 -9999 -9999 -9999 -9999 -9999 -9999 -9999 -9999 -9999 -9999 -9999 -9999 -9999 -9999 -9999 -9999 -9999 -9999 -9999 -9999 -9999 -9999 -9999 -9999 -9999 -9999 -9999 -9999 -9999 -9999 -9999 -9999 -9999 -9999 -9999 -9999 -9999 -9999 -9999 -9999 -9999 -9999 -9999 -9999 -9999 -9999 -9999 -9999 -9999 -9999 -9999 -9999 -9999 -9999 -9999 -9999 -9999 -9999 -9999 -9999 -9999 -9999 -9999 -9999 -9999 -9999 -9999 -9999 -9999 -9999 -9999 -9999 -9999 -9999 -9999 -9999 -9999 -9999 -9999 -9999 -9999 -9999 -9999 -9999 -9999 -9999 -9999 -9999 -9999 -9999 -9999 -9999 -9999 -9999 -9999 -9999 -9999 -9999 -9999 -9999 -9999 -9999 -9999 -9999 -9999 -9999 -9999 -9999 -9999 -9999 -9999 -9999 -9999 -9999 -9999 -9999 -9999 -9999 -9999 -9999 -9999 -9999 -9999 -9999 -9999 -9999 -9999 -9999 -9999 -9999 -9999 -9999 -9999 -9999 -9999 -9999 -9999 -9999 -9999 -9999 -9999 -9999 -9999 -9999 -9999 -9999 -9999 -9999 -9999 -9999 -9999 -9999 -9999 -9999 -9999 -9999 -9999 -9999 -9999 -9999 -9999 -9999 -9999 -9999 -9999 -9999 -9999 -9999 -9999 -9999 -9999 -9999 -9999 -9999 -9999 -9999 -9999 -9999 -9999 -9999 -9999 -9999 -9999 
