ncols         80
nrows         122
xllcorner     361015.59563119
yllcorner     70223.434086869
cellsize      10
NODATA_value  -9999
479.7099 482.9897 486.5095 488.9924 488.8986 487.3839 486.5052 487.3635 488.9279 493.0161 499.0496 506.7008 513.5758 518.8354 523.535 527.7818 532.3651 537.401 544.0761 552.1105 560.5344 567.5493 573.2548 578.3638 581.433 582.305 582.1504 581.1863 579.0112 576.7728 574.2542 571.5483 569.1353 567.0108 564.9831 562.8452 560.772 558.9993 556.5977 553.9698 552.4354 551.2219 551.1301 551.6541 551.8778 552.1606 551.7917 550.8254 549.7513 548.2123 546.8374 545.5239 544.4885 543.2191 541.6207 539.2711 537.0443 535.1797 533.1943 531.199 529.2266 527.4781 525.5671 523.787 521.9982 520.3564 518.8318 517.5875 516.1075 514.4932 512.9394 511.146 509.267 507.4747 505.778 503.9512 502.0088 500.308 498.7832 -9999 
477.6357 481.2939 485.0381 487.6199 487.6804 486.5432 484.8402 485.7156 488.2072 493.6057 500.0928 509.0478 517.2149 523.3138 528.1188 532.5225 536.2626 539.9258 545.736 552.4241 558.9188 565.139 570.4216 575.1343 578.0823 579.3333 579.5454 578.752 577.1642 575.1356 573.0109 570.729 568.2415 566.1007 563.9462 561.7029 559.8078 557.7852 555.437 552.7604 551.4249 550.2785 549.8508 550.574 551.2156 551.3514 550.9138 549.9799 548.8018 547.2228 545.6821 544.043 542.9795 541.6701 539.978 537.8465 535.6706 533.8228 532.1402 530.4127 528.7789 527.019 525.4069 523.7372 522.1987 521.3325 520.0422 518.1783 515.9611 513.947 512.3363 510.6529 508.8742 507.3792 505.5966 503.5994 501.7878 500.2865 498.5796 -9999 
475.6072 479.5276 483.459 485.9507 485.7899 484.904 482.7738 483.868 488.2242 494.0122 501.4824 508.8919 516.2655 522.0438 526.5817 530.5264 534.6818 538.9893 543.7915 549.197 554.8571 560.7846 566.9423 571.9575 574.8915 576.2717 576.7794 576.3302 575.2753 573.6927 571.8608 569.7013 567.4142 565.1093 562.9875 560.8917 558.7938 556.4308 554.0422 551.8077 550.3732 549.2631 548.6212 549.6443 550.581 550.4837 550.2241 549.1846 547.787 546.3071 544.4651 542.6261 541.4573 539.9847 538.4948 536.431 534.3765 532.4362 530.6777 528.9633 527.5339 526.1578 525.0188 523.7354 522.2859 521.0928 519.9081 517.9435 515.8733 513.8331 512.1729 510.2962 508.862 507.1404 505.288 503.5489 501.7836 500.2493 498.3711 -9999 
473.5954 477.543 481.2168 483.5646 483.4494 482.448 481.004 482.7862 488.2853 494.0231 501.5802 508.4907 514.3207 518.9409 522.8099 526.569 530.5046 534.7809 539.366 544.3716 550.441 557.0767 563.7303 568.9211 571.313 572.9561 573.7925 573.8356 573.2789 572.0574 570.5903 568.6451 566.562 564.3015 562.344 560.2848 558.175 555.705 553.3467 551.4614 549.8805 548.4796 547.5568 548.3337 549.6448 549.6326 549.2289 548.3209 546.6542 544.9385 542.8714 541.3102 539.8373 538.3774 536.8521 535.1512 532.9961 531.0875 528.849 526.9763 524.9165 523.3748 522.8808 521.9624 520.4493 519.4967 518.3407 516.9841 515.1557 513.494 511.8283 509.9794 508.1733 506.6685 504.8122 502.8255 501.0567 499.4451 497.0421 -9999 
471.6706 475.4994 478.583 480.7593 480.9823 479.6123 479.0508 482.3836 488.3095 494.4157 501.1761 506.8815 511.3856 514.79 518.2772 521.9651 526.3944 530.5468 535.3091 540.6626 546.945 553.2321 560.0132 564.865 567.8599 569.7852 570.7841 571.2109 570.8846 570.0179 569.0264 567.4611 565.5673 563.9919 562.0909 560.1666 558.09 555.5668 553.3416 551.3567 549.3521 547.914 546.5196 546.2079 547.8867 548.3467 548.1525 547.1883 545.6082 543.7562 541.5421 539.8414 538.0579 536.4565 535.1707 533.6553 531.664 529.9022 527.5061 525.1517 523.1133 521.3109 520.0242 519.1679 518.2401 517.3886 516.252 515.0916 513.7236 512.1055 510.5958 508.6528 507.1866 506.0721 504.2294 502.5191 499.947 497.2207 494.7813 -9999 
470.0132 473.051 475.9283 478.1189 478.2171 476.6702 477.2403 482.2601 488.0402 494.303 500.38 504.8274 507.9481 510.5381 513.9934 518.1033 522.6 527.1421 532.4488 537.8746 544.026 550.2473 555.9014 560.3192 563.9783 566.6171 567.9855 568.6339 568.7726 568.431 567.4713 566.2389 564.8843 563.7603 561.982 559.9799 557.9508 555.6187 553.5913 551.4744 549.2592 547.6146 545.8059 544.489 545.7054 546.4857 546.1571 545.6307 544.2156 542.3212 540.3771 538.6614 536.8182 535.0866 533.5266 532.3544 530.7082 528.8568 526.5994 524.4193 522.0728 520.0099 518.0939 516.8828 515.9685 515.0386 513.9662 512.672 511.2974 510.1628 508.5937 507.1171 505.7368 504.029 502.2675 501.5266 498.6074 496.2195 493.3705 -9999 
468.0006 470.6048 473.1728 475.3301 475.7187 474.2874 476.3726 482.3081 488.2321 493.8633 498.4635 501.0556 503.6346 506.7046 511.201 516.0179 520.6924 525.1028 529.614 534.9615 541.2767 546.6564 551.3768 555.3625 559.5924 563.4083 565.4495 566.5907 567.0184 566.8794 566.1508 565.3145 564.481 563.4423 561.8951 560.1 558.0438 555.7827 553.6282 551.5723 549.8429 547.6702 545.4072 543.0392 542.7614 544.0601 544.5537 543.6829 542.6843 541.0854 539.3503 537.7235 536.0417 534.1935 532.4217 531.0332 529.5656 527.9789 526.2194 524.2687 521.9342 519.6643 517.3926 515.5313 514.2397 512.9396 511.7478 510.4982 509.1071 508.1229 506.7719 505.9014 504.1095 501.5189 500.6791 499.9749 498.6703 495.4473 492.3507 -9999 
465.3648 467.9749 470.3767 472.3611 472.77 472.068 476.296 482.1142 487.7426 491.7946 494.5745 496.6715 500.0342 504.8086 510.9052 516.7861 521.3186 525.0554 528.2851 532.4838 538.0921 542.7595 547.0743 551.4647 555.7992 559.7913 563.0547 564.8203 565.5612 565.5807 565.1581 564.7316 564.2274 563.1936 561.5847 559.9615 557.9753 555.8994 553.4791 551.8008 550.1991 547.9239 545.4108 542.396 540.2322 541.2139 542.457 542.2146 541.0511 539.2653 537.8826 536.0498 534.5792 533.0496 531.6808 530.313 528.7692 527.3655 525.6479 523.8185 521.4825 519.4926 517.3708 515.2899 513.6 512.0699 510.5811 509.0485 507.6798 506.7215 505.5941 504.8978 502.6656 501.053 500.5334 499.0486 497.0594 494.5638 493.3528 -9999 
462.7105 465.2043 467.3459 467.9966 469.1885 471.4814 476.2264 481.1151 485.3671 488.0216 490.1509 493.1488 498.4376 504.5619 511.3372 516.5135 520.4658 523.9043 527.3503 531.1711 535.0894 539.237 543.4244 547.6178 551.9926 556.1028 560.3536 563.0505 564.132 564.3593 564.4828 564.4055 564.139 563.1047 561.5852 559.7332 557.895 555.8452 553.6581 551.8446 549.9921 547.7772 545.181 542.1314 539.0023 538.1219 539.5461 540.0076 539.2848 537.9365 536.5949 535.1091 533.5477 532.049 530.6934 529.1455 527.7692 526.2789 524.7126 523.135 521.153 519.4117 517.3884 515.4827 513.88 511.8455 510.1078 508.4979 507.0734 505.9102 504.7734 503.7786 502.5812 501.4065 499.7762 497.4568 496.2564 495.6702 495.4893 -9999 
459.2935 460.2233 462.7533 464.9905 468.896 472.0177 475.2494 478.3997 481.1639 483.543 486.5781 491.4828 497.6689 504.485 509.9432 513.8926 517.4336 520.7789 524.0732 527.8779 531.673 535.8387 540.1166 544.2471 548.4045 552.9563 557.7897 561.1688 563.0601 563.7358 564.167 564.392 564.0646 563.1746 561.5615 559.6863 557.7403 555.7056 553.7435 551.5689 549.3981 547.3245 544.9869 541.8487 538.0593 536.0222 536.5555 537.1586 536.6915 535.8363 534.8259 533.3855 531.9248 530.4442 529.0903 527.957 526.6188 525.2111 523.855 522.5066 520.9598 519.1667 517.4574 515.3313 513.6552 512.0029 510.3426 508.6245 507.1489 505.681 504.0792 502.9227 501.8979 500.2907 498.9094 498.3742 498.3491 498.1587 498.2585 -9999 
454.9669 455.5349 459.8962 465.0787 468.4719 470.5607 472.2222 474.3014 477.0449 481.251 486.2108 491.3204 497.1905 502.7266 506.8672 510.3759 513.7809 516.9458 520.4075 524.1734 528.427 532.3848 536.5979 540.8791 545.2878 550.2669 555.3801 559.5942 561.9736 563.0708 563.8716 564.1383 563.8561 563.0969 561.631 560.0291 558.0981 555.7499 553.4514 551.1146 548.8523 546.5146 544.4797 541.9362 538.2893 535.0899 533.9244 533.4433 533.5168 533.6697 532.8907 531.8232 530.4168 529.1632 527.7361 526.4669 525.2562 523.9803 522.7738 521.5581 520.3378 518.8079 517.2208 515.1407 513.4506 511.7472 510.2555 508.555 506.764 505.2609 504.0409 502.9496 502.0187 501.3618 501.0227 500.7598 501.001 501.2306 501.3718 -9999 
450.3875 453.8206 458.5252 462.4215 465.1382 466.9182 468.5424 471.7444 476.1129 481.1982 485.8388 490.3944 495.2948 499.4365 502.9893 506.6073 510.1393 513.3876 516.8442 520.7217 525.0328 528.902 533.2822 537.7195 542.3623 547.6165 553.4636 558.2339 560.8809 562.3604 563.2813 563.6536 563.4689 562.7761 561.5179 559.9949 558.0215 555.6766 553.1148 550.6005 548.3264 545.9109 543.8627 541.7062 538.7927 535.7057 533.0738 531.0009 530.3179 530.6879 530.7509 529.9342 528.8216 527.2375 525.9785 524.6482 523.4156 522.389 521.636 520.5039 519.6899 518.418 517.0695 515.3469 513.642 512.0135 510.1474 508.1042 506.6068 505.5962 504.6625 504.2576 504.0768 503.9465 504.1135 504.267 504.6902 505.2273 505.3689 -9999 
446.9158 450.7858 454.7817 457.6638 460.2092 463.2063 466.6293 471.0996 475.8003 479.9192 484.0605 487.9939 491.9962 495.4959 498.7836 502.6169 506.0098 509.6571 513.3802 517.2139 521.5085 525.5183 529.814 534.1611 539.5005 544.7763 550.9667 556.3187 559.5666 561.1692 562.0491 562.5048 562.5127 562.0032 560.8954 559.1633 557.297 554.8367 552.3402 550.114 547.7754 545.3781 543.3822 541.5559 539.1887 536.4303 533.9336 531.2542 528.8527 527.4836 527.3225 526.8859 526.1638 524.9796 523.694 522.4313 521.4082 520.561 519.8671 519.1665 518.3229 517.0408 515.9288 514.8111 513.7679 512.0223 510.2319 508.6849 507.2343 506.4523 506.5794 506.7403 506.8123 507.3147 507.5555 508.3025 509.2292 509.6236 509.6027 -9999 
443.6724 447.563 451.0049 453.3544 456.8016 461.6714 465.4966 469.4689 473.1338 477.0207 480.8889 484.2379 487.8532 491.2547 494.7413 498.7289 502.1611 505.8304 509.8931 513.8461 518.0516 521.9724 526.2745 531.1656 536.4624 542.2609 548.0193 553.5643 557.5032 559.5264 560.6205 561.2302 561.2532 560.6835 559.6036 558.0693 556.0891 553.8777 551.3163 549.0447 546.9282 544.5961 542.6295 540.8967 538.7371 536.4567 534.3401 532.3336 529.9315 527.5613 525.4733 523.9505 523.0956 521.9692 520.473 519.3491 519.0515 518.5552 517.9546 517.4745 516.8912 515.7407 514.8339 513.7372 512.7993 512.1012 510.4217 509.195 508.4239 508.5173 508.984 509.6964 510.1309 510.8904 511.5273 512.5892 513.6428 514.2262 513.9221 -9999 
439.7988 443.7712 446.6752 449.565 454.6441 459.5486 463.0784 466.4397 469.977 473.6381 476.8911 479.8737 483.1805 486.7068 490.5403 494.9 498.9101 502.5677 506.5585 510.6486 514.7183 518.8094 523.2062 528.4435 533.9614 539.3439 544.4178 549.4972 554.3674 557.1403 558.8835 559.5558 559.537 559.1254 558.2269 556.6639 554.8187 552.6225 550.2281 547.9008 545.7068 543.4377 541.6032 539.8353 537.8245 535.7576 533.9659 531.9288 530.2318 528.5286 526.59 524.3364 522.2365 520.5665 518.7194 517.0234 516.582 516.1718 516.1514 515.9798 515.487 514.0688 513.498 512.9171 512.6097 511.6263 510.8323 510.4039 510.5509 511.2232 511.9624 512.8774 513.7681 514.816 515.8984 517.1995 518.3405 518.3964 517.5967 -9999 
435.4407 439.8941 443.0277 446.9574 452.6072 456.9409 460.0365 463.2417 466.7533 469.7065 472.0352 474.8236 478.2571 481.9853 486.6168 491.6775 495.5883 499.2173 503.4758 507.7173 511.6025 515.9088 520.5986 525.9064 531.1077 535.4436 539.3064 543.0047 547.1743 552.7527 555.6797 557.0861 557.3845 557.1722 556.3674 555.1348 553.1853 551.0383 548.8802 546.4098 544.2078 542.0483 540.1725 538.4666 536.5872 534.7186 532.9058 531.2061 529.8775 528.348 526.7037 524.9684 523.2236 521.2254 519.3976 517.3475 515.1962 514.2464 513.9359 514.0859 513.9033 513.0054 512.7911 512.4196 511.9962 511.9049 511.9023 512.2279 513.0621 513.8092 514.9435 516.1356 517.4622 518.9034 520.5549 522.298 523.1466 522.6117 521.1464 -9999 
431.4518 436.3386 440.6426 446.0782 451.4544 454.3769 456.9778 460.0481 463.2778 465.7828 467.4948 470.0412 473.2802 477.2784 482.8707 488.2657 492.6148 496.7127 500.683 504.5462 508.7733 513.2927 518.0159 522.8583 527.1943 530.5247 532.9462 534.7191 537.7094 544.5045 551.3898 553.8251 554.7167 554.9618 554.3788 553.272 551.3953 549.1591 547.1154 544.9663 542.8217 540.4849 538.6791 536.9933 535.2336 533.5801 531.7446 530.0261 528.6655 527.7361 526.4245 524.7787 523.2539 521.4238 519.7381 517.5681 515.3846 513.5872 512.6555 512.428 512.8871 512.5714 512.2517 512.1034 512.4666 512.8354 513.4021 514.2545 515.4266 516.4166 517.7993 519.3491 521.0482 523.1572 525.074 526.6908 527.1837 526.312 524.219 -9999 
428.3777 434.3608 440.458 445.4666 449.025 451.1733 453.696 456.5121 459.2044 461.3487 462.8469 464.7755 468.0362 473.2583 479.7073 485.4206 490.1051 494.3486 498.1691 501.8188 505.6511 510.4331 514.7457 518.9098 522.7037 525.3038 525.9005 527.2147 530.309 534.4027 543.3229 550.0588 552.0508 552.486 552.0432 550.9749 549.4858 547.4811 545.334 543.194 540.8618 538.4722 536.733 535.1415 533.5044 531.802 529.9079 528.4202 527.3361 526.582 525.6117 523.8846 522.4265 520.4878 518.5004 516.7604 515.1721 513.3691 511.7987 511.2309 511.5541 512.1316 512.4366 512.8181 513.5079 514.481 515.5605 516.6224 517.9258 519.0992 520.6349 522.6382 525.1465 527.3486 529.66 531.0692 531.3289 530.2952 528.1075 -9999 
427.5873 434.3064 439.8593 443.6108 446.0211 448.1379 450.4083 452.4637 454.8188 456.8259 458.6938 461.0016 464.6592 471.1445 477.6121 483.068 487.3916 491.6747 495.5364 499.1076 502.7737 507.1469 511.1399 514.6505 517.7902 519.2325 518.476 520.1437 523.5189 527.928 533.6164 543.3727 548.7507 549.9172 549.6254 549.0178 547.5078 545.4904 543.3612 540.8972 538.4003 536.2185 534.3636 532.9 531.4387 529.7551 528.0588 526.3522 525.299 524.7883 523.7046 522.328 520.694 518.8698 517.0376 515.5691 514.2953 512.8486 511.1423 510.107 510.641 511.9152 512.8638 513.7165 515.0549 516.3854 517.8642 519.0299 520.2704 521.7174 523.8208 526.3708 528.8551 531.3729 533.5962 535.1599 535.1718 533.7567 531.2488 -9999 
429.6216 434.738 438.7295 441.2668 443.1939 444.9328 446.5713 448.444 450.3698 452.1637 454.5271 458.5848 463.8096 469.8331 475.5756 480.5675 484.773 488.5855 492.5949 496.135 499.6658 503.3741 506.7022 509.6843 511.7274 511.4134 511.7209 514.027 517.6982 522.3489 528.132 535.3748 544.0937 546.2124 546.9788 546.8088 545.3446 543.3942 541.1526 538.7845 536.2849 534.0169 532.2719 530.6747 529.3286 527.631 525.8825 524.3267 523.2283 522.3923 521.4445 520.0228 518.5294 516.7724 515.0599 513.679 513.1158 512.2205 510.3304 508.6451 509.4694 511.8564 513.7072 515.6067 517.3437 518.7897 520.3523 521.5242 522.8926 524.7849 527.0779 529.8578 532.671 535.2466 537.5807 538.8403 538.8583 537.6637 534.8367 -9999 
430.848 434.1185 436.6583 438.4972 440.0013 441.3276 442.564 444.2963 445.7514 448.1815 452.5274 458.028 463.9811 469.0558 473.6535 477.9509 481.7771 485.5812 489.6184 492.9603 496.1328 499.2399 502.294 504.8896 505.8497 504.9725 505.5008 508.2651 512.3087 517.1909 523.0986 531.1354 538.6068 540.8585 543.3059 544.3487 543.1635 541.4667 539.2423 536.6609 534.1368 532.0228 530.1624 528.2767 526.7861 525.2184 523.6794 522.268 520.9868 520.207 519.155 517.5939 516.157 514.3978 512.8798 511.9956 511.2036 510.5967 509.0595 507.4573 508.6451 511.9899 515.2563 518.0073 520.2276 522.2582 523.6581 524.7884 526.2619 528.0533 530.5358 533.4526 536.4527 539.2555 540.9731 542.2317 542.1108 540.9681 538.5491 -9999 
429.6516 432.179 433.6421 434.8926 435.9549 437.0479 438.0463 439.2117 441.6668 447.3581 453.7136 459.0807 463.6706 467.4924 471.0229 474.8019 478.5762 482.4206 486.2142 489.3773 492.2752 495.306 497.9315 500.1125 500.5003 499.4071 500.2868 502.8709 506.5826 512.2902 518.3743 526.5562 531.7961 533.8454 538.4697 541.2321 540.6357 539.3884 537.3818 535.0426 532.3601 529.9999 527.9467 526.1287 524.2775 522.6741 521.3983 519.9205 518.6667 517.4525 516.2584 514.7581 513.2012 511.6259 510.7133 509.8127 508.9303 507.9478 507.1057 506.5878 509.5473 513.2234 517.1063 520.2628 523.5592 525.9026 527.6619 529.3962 530.7352 532.5173 534.6808 537.5562 540.4592 542.6888 544.2632 544.884 544.6205 544.0392 541.9899 -9999 
426.9059 428.3872 429.5505 430.8318 431.7498 432.4862 433.0239 434.981 441.7009 449.0154 454.7684 459.0058 462.2934 465.0849 468.0911 471.4923 474.9662 478.7391 482.4048 485.6331 488.3588 491.1642 493.6825 495.3626 495.2547 494.2166 495.1848 497.8375 502.2314 508.0891 515.1721 518.6481 520.7795 525.481 531.9496 536.7787 537.7482 537.0345 535.4568 533.1646 530.4979 528.0651 526.1285 524.1106 522.0209 520.6194 519.0176 517.5446 516.1295 514.558 513.188 511.6108 509.9678 508.8469 508.0134 507.036 505.9844 505.2676 505.8682 507.8865 511.0098 515.188 519.4694 523.3809 527.6277 530.3671 532.2937 533.9269 535.2021 536.9569 539.3116 541.527 544.3021 546.3885 547.0486 547.3737 547.0309 546.4525 545.2911 -9999 
423.53 424.6803 425.8168 426.8726 426.8275 427.1038 430.5111 436.9324 443.5702 449.5271 454.2288 457.5353 459.9908 462.4147 465.015 467.6948 470.6609 473.9236 477.8264 481.4348 484.0576 487.0402 489.0978 490.2244 490.0851 489.1519 490.1259 493.4179 498.6026 505.2318 510.4422 511.4334 512.5314 517.4545 524.0874 531.2781 534.0043 534.1274 532.8908 530.8499 528.5694 526.4737 524.1818 522.0859 520.0867 518.1033 516.6478 515.2294 513.3599 512.2047 510.6632 509.0895 507.8597 506.7508 505.8998 505.1954 504.0262 504.7133 507.0606 510.2145 514.0497 517.94 522.6921 527.2133 531.6975 534.9293 536.8864 538.5056 539.9691 541.5344 543.6 546.118 548.3087 549.62 550.0012 549.501 548.8897 548.487 547.5247 -9999 
419.4181 420.7672 422.0817 422.3372 421.9432 425.2359 432.2206 439.1159 444.4902 449.1053 452.6259 455.2001 457.3129 459.626 461.3192 462.7216 465.2788 468.9065 473.2409 477.127 480.0139 482.4891 484.1959 484.9956 484.6221 484.1948 485.8793 490.3774 496.0828 502.1051 504.9381 504.78 505.6783 510.1285 514.9046 524.1212 529.2247 530.5603 529.6555 528.1528 526.3735 524.4904 522.3345 519.9937 517.8999 516.3339 514.8444 512.9156 511.2953 509.7693 508.4993 507.5092 506.4667 505.6265 504.3935 503.0844 503.395 505.8647 509.3459 513.3684 517.532 521.5616 525.8929 530.469 535.5107 538.8195 540.7227 542.6826 544.606 546.4487 548.7688 550.7353 551.8677 552.1879 551.7322 550.9177 550.1927 549.7416 548.9509 -9999 
414.731 416.1677 417.2656 417.3694 419.544 426.2142 433.6013 439.5764 443.8428 447.4384 450.2863 452.6786 454.8245 456.5003 456.7538 457.9024 460.7025 464.3489 468.8619 472.9222 475.9401 478.1364 479.4202 479.5923 478.7177 478.8705 481.7635 487.0916 493.0561 497.6949 499.0533 497.6258 498.8114 502.9897 507.2123 511.3161 518.7461 525.5193 526.2614 525.3156 524.0725 522.1866 520.1234 518.0252 516.2562 514.8474 513.0923 511.0845 509.1976 507.938 506.868 506.1134 505.3289 504.566 503.1457 502.0065 504.0967 507.7983 512.0539 516.9572 521.5369 525.9856 529.8135 534.9277 539.4427 542.5526 544.5906 546.7318 548.3273 550.1823 552.1351 553.447 554.0648 554.103 553.129 551.9106 550.8769 550.2904 549.2127 -9999 
407.7988 410.1016 411.2881 412.5305 419.3195 427.042 433.4605 438.1967 442.0796 445.2458 447.7614 450.0449 452.1603 453.5963 453.5769 455.2334 458.0682 461.0723 464.527 468.3533 471.6531 473.7819 474.6774 474.4149 473.4021 474.3922 478.2951 483.5879 489.3027 492.4982 492.948 491.1042 492.2746 496.8744 500.6205 503.3903 508.2667 516.6594 522.0923 522.4055 521.4071 519.7095 518.0767 516.2562 514.6188 513.0743 511.4528 509.6677 507.6823 506.1053 505.1096 504.5527 504.015 503.2477 501.4805 502.055 505.5289 509.742 514.8635 520.352 525.5399 528.9976 533.3799 538.3133 542.8785 545.3641 547.2228 549.1748 551.1896 553.1111 554.9692 555.7428 556.1328 555.6081 554.032 552.3377 551.3004 550.0657 548.7408 -9999 
403.8535 404.4133 407.2852 413.1003 420.2266 427.3845 432.3215 435.9924 439.7169 442.9547 445.4977 447.4968 449.6341 450.8589 451.1 452.8314 454.9424 457.5116 460.6249 464.0704 467.1248 469.2295 470.0115 469.4277 468.3714 470.3342 475.5505 481.2813 484.6415 485.564 485.9307 484.6727 487.1093 491.9967 493.8077 497.6163 503.3586 509.6031 515.4755 518.754 518.2344 516.7963 515.4628 514.2635 512.8636 511.4884 509.9264 507.9889 506.0851 504.5616 503.8709 503.2226 502.4266 501.0095 500.3939 503.4104 507.2263 511.5327 516.7855 522.525 527.2164 530.8915 535.5554 540.4329 544.5699 546.912 548.66 550.8094 552.9526 555.1979 556.8625 557.4085 557.4772 556.4988 554.7642 552.9979 551.3036 549.8805 548.3184 -9999 
402.3409 404.069 409.9728 416.1467 422.1661 426.6164 430.2217 433.5688 437.257 440.358 442.8085 444.6783 446.6528 448.0267 449.0861 449.8207 450.5626 452.7393 455.8089 458.7652 462.0634 464.5034 465.2689 464.5497 463.8595 466.7788 472.7694 477.3865 478.7665 478.8191 479.5977 478.8636 482.1089 486.8092 488.0811 492.1282 497.7167 502.9869 509.432 514.3649 514.5366 513.5029 512.572 511.82 510.8971 509.6057 508.1814 506.1242 504.1093 503.167 502.7385 502.0366 500.8393 498.9691 500.9129 505.006 509.1298 513.153 517.5554 522.5606 526.9525 531.1793 536.1671 541.0486 544.8193 547.18 549.3264 551.9456 554.4738 556.434 557.7571 558.4736 558.5632 557.2927 555.2672 553.2926 551.4039 549.822 547.8722 -9999 
401.3791 405.8977 413.0014 417.8533 421.4371 424.2816 427.679 431.1027 434.4806 437.3042 439.6989 441.5086 443.3683 444.8935 445.8952 446.459 446.8056 447.9119 450.4664 453.3376 456.6914 459.636 460.5347 459.8503 459.4773 463.2228 468.7994 472.4023 472.8892 472.3104 471.4236 472.477 476.3438 479.8611 482.9262 488.7289 492.9159 496.9671 503.2396 509.9747 510.5912 509.8723 509.3368 508.9123 508.2004 507.175 505.9233 504.1503 502.6334 502.1017 501.54 500.605 498.7234 498.5736 502.209 507.021 511.4239 515.1576 518.394 522.2365 526.1384 530.6756 535.9836 540.7955 544.4908 547.1512 549.7562 552.74 555.411 557.026 558.4094 559.1661 558.9476 557.6448 555.5938 553.9963 552.1957 550.2057 548.0099 -9999 
401.5323 408.2688 413.1729 416.4442 419.1903 421.7268 424.8527 428.3116 431.5511 434.495 436.6097 438.3394 439.8728 441.3813 442.295 443.0573 443.6395 444.0201 445.731 447.9039 450.6448 454.1425 455.7675 455.1201 455.3815 459.7841 464.5034 467.3083 467.3584 465.733 465.1286 466.1689 469.2018 473.2935 478.9362 484.1261 487.4039 491.6082 497.7212 505.6406 506.8672 506.4293 505.8593 505.44 504.9605 504.3591 503.4851 502.4275 501.1913 500.5151 499.9117 498.6908 497.4467 499.8165 504.2411 509.3578 514.0456 517.1122 519.678 522.5601 526.0125 530.1484 534.9588 539.8539 543.6721 546.636 549.7834 553.1438 555.5632 557.1396 558.5516 559.1135 558.7542 557.5814 556.0161 554.7433 552.9177 550.8727 548.5516 -9999 
401.4501 407.5332 411.2346 413.9421 416.4189 419.1499 422.3334 425.3289 428.6739 431.4922 433.7469 435.3726 436.8985 438.157 439.3661 440.8544 441.3133 441.3596 441.7733 442.8255 444.8766 447.469 449.7133 449.8479 451.1576 454.806 458.8102 461.656 461.7751 459.6536 459.0048 460.5074 463.9762 468.7544 475.2679 478.449 481.8839 486.9252 493.4699 501.5119 502.9958 502.7582 502.5836 502.2854 501.9341 501.2475 500.5424 499.7751 499.075 498.5092 498.1267 496.2348 497.7858 501.8572 506.615 511.4612 515.0431 517.9991 520.7222 523.1293 525.85 529.4063 533.6824 538.5821 542.4752 546.0128 549.5707 552.7664 555.0765 556.7538 558.026 558.4467 558.1102 557.5613 556.5702 555.1086 553.3224 551.2881 548.8941 -9999 
400.4522 405.385 408.4636 411.1709 413.7732 416.4523 419.5114 422.4834 425.4105 428.1714 430.4362 432.3685 434.2532 435.6235 437.332 439.185 439.8792 439.704 439.2129 439.1271 439.6056 441.0593 443.095 444.7122 446.8691 448.68 450.9706 455.3969 456.5889 454.4062 453.0196 454.5867 458.3322 463.0587 469.119 472.7145 477.1548 483.0885 490.9889 497.3517 499.075 499.1758 499.1633 499.0424 498.8339 498.2713 497.2692 496.7213 496.1043 495.4779 494.7983 495.3096 499.4781 504.3334 508.9255 512.3257 515.0708 517.7645 520.4473 522.8557 524.9625 528.0721 532.2017 537.072 541.2322 544.9369 548.7006 552.0013 554.2206 555.853 557.0334 557.7163 557.972 557.748 556.8212 555.1173 553.212 551.3508 548.8826 -9999 
398.0104 402.2799 405.3901 408.1728 410.9541 413.6346 416.4711 419.3575 421.8361 424.5879 426.8262 428.8896 430.97 433.211 435.4716 437.4231 438.3118 437.9839 437.2983 436.8052 436.2009 436.1348 437.0406 438.4521 440.2448 441.2122 444.0681 448.6466 450.6815 449.4019 447.1576 448.2174 452.229 456.9265 462.3952 467.4391 473.2179 480.1071 487.1392 492.8351 495.0125 495.7496 496.0445 496.0771 495.9966 495.3797 494.5199 494.0105 492.9822 491.3198 492.814 495.892 500.4272 505.3731 509.1318 511.7237 514.3371 516.7649 518.9056 521.1296 523.5859 526.7573 530.775 535.2358 539.8528 543.791 547.6633 550.82 553.0395 554.6267 555.9547 557.1604 557.5989 557.5586 556.3999 554.7159 552.882 550.9161 548.2884 -9999 
395.7088 397.9323 402.011 405.1823 408.071 410.765 413.2708 415.642 418.2849 420.9232 423.2244 425.3399 428.006 430.8858 433.4579 435.1369 436.0167 436.2003 435.882 435.5781 434.8994 433.29 432.0607 432.4799 433.64 435.2729 438.6418 441.8405 443.5716 442.9106 441.2263 442.5798 446.7527 451.7963 457.1416 462.1472 468.8011 475.1894 480.8203 486.6225 490.2895 492.084 493.1688 493.5422 493.8314 493.0707 492.1183 490.9563 488.9194 490.0274 494.4285 497.234 500.8859 504.5752 507.8274 510.4129 512.9074 515.0415 517.1412 519.3423 521.9349 525.1019 528.9509 533.313 538.0162 542.4257 546.3596 549.499 551.9014 553.455 554.6555 556.0359 556.3981 556.1111 555.1017 553.5934 551.8458 550.1577 548.0583 -9999 
392.0584 395.2173 398.0074 402.1483 404.9517 407.499 409.7864 411.9511 414.3972 416.819 419.2286 421.7162 424.9877 428.6462 431.0325 432.6193 433.7603 434.5688 434.5395 433.9614 432.8727 430.677 429.2468 429.1521 430.3694 431.4417 433.3179 435.1995 435.9503 435.053 435.1804 437.4584 442.1681 447.17 451.7116 456.3444 462.5612 467.8568 471.8638 477.2457 483.6257 488.3127 490.3177 491.4135 491.7606 491.0523 489.9991 488.4505 486.6423 490.3643 493.7606 495.9464 499.3287 502.8032 505.6776 507.7352 509.1554 511.5611 514.0164 516.7969 519.683 523.0659 526.8345 531.2364 536.1192 540.6365 544.771 548.0291 550.4146 552.0573 553.1672 554.0837 554.4163 553.8397 553.0972 551.9344 550.4454 549.0339 547.401 -9999 
387.9731 392.1403 394.5166 398.9124 401.8728 404.0746 405.9956 408.0542 410.1223 412.5933 415.3655 418.0196 421.6196 425.4379 428.3617 430.2059 431.7524 432.699 432.3956 431.1674 429.7925 428.3738 427.3326 427.6772 428.4026 428.8071 428.6624 428.5656 428.6049 428.4125 429.6054 433.0997 437.7031 441.6504 445.7088 450.8933 456.1857 460.4665 465.0147 470.3681 476.1733 483.9206 487.4595 488.9471 489.4382 488.9378 488.317 486.7786 484.7802 487.502 490.9681 493.2225 496.5987 499.7854 501.6816 501.6288 502.3868 504.8939 508.5682 512.069 515.7001 520.0777 524.292 528.7927 533.6851 538.5547 542.7485 546.3217 548.8967 550.4812 551.3103 551.7629 551.7906 551.3732 550.641 549.567 548.6959 547.8101 546.3963 -9999 
383.9025 387.8817 392.306 394.6967 398.604 400.6786 402.1371 403.7832 405.5147 407.9629 410.3208 413.2057 416.832 421.1087 424.7543 427.321 429.4064 430.5679 429.4787 427.9409 426.851 425.3853 424.871 425.606 426.3243 426.2701 425.2837 423.7372 422.5235 423.0042 424.8558 429.1945 433.0189 435.8759 439.721 444.7355 449.5588 453.1431 456.869 463.2253 470.0645 478.3 484.0607 486.5089 487.1896 487.0013 486.5723 485.3141 482.6752 483.7379 487.4632 490.081 493.3793 495.9692 495.4915 494.4504 495.183 497.8127 501.5212 506.3184 510.8568 515.7975 520.4503 525.6633 530.8341 535.954 540.2771 543.9227 546.8789 548.2084 549.149 549.5707 549.4954 549.0107 548.287 547.5517 546.6047 545.8976 544.4755 -9999 
380.3825 384.2308 388.6007 392.1016 393.7358 396.6215 397.8742 398.7712 400.249 402.3766 405.1824 408.2859 411.9306 416.524 420.7664 423.1399 425.2831 426.7031 425.9792 424.5194 423.449 421.7365 421.6442 422.5249 422.8629 422.9001 422.0596 419.9069 417.8857 418.1202 419.6846 424.3606 427.2759 429.9861 433.8426 438.3194 442.2457 446.221 449.9559 455.6851 462.702 471.0836 479.1322 483.6844 484.9853 484.9162 484.3825 483.1185 480.1707 480.331 484.2986 487.2484 490.05 490.9766 489.4369 488.0085 488.9388 491.1922 494.9275 500.0002 505.7186 511.1074 516.4802 522.1409 527.8502 532.9531 537.3181 540.8602 543.8593 545.5915 546.6636 547.2365 547.2798 546.731 546.1811 545.3623 544.687 544.0229 542.9774 -9999 
376.7428 380.7728 385.0435 388.9312 391.2711 391.2764 391.9517 393.4726 394.7628 396.7996 399.8946 403.4608 407.0793 411.3213 416.0169 419.5069 421.0942 422.2319 422.6074 422.2065 421.1667 419.2012 418.4898 418.8993 419.1011 418.7917 418.2694 416.6317 414.7868 413.9842 414.2305 416.9886 420.8832 424.3125 428.1346 432.3878 436.5894 440.5732 444.8195 450.9535 457.3112 464.8653 474.4635 480.5739 482.3003 482.4287 481.826 480.2887 476.4603 477.4915 481.7001 485.0254 486.6024 486.3074 484.7694 484.1179 484.8192 486.3953 489.1324 494.0034 500.0062 505.7094 511.4582 517.3798 524.0398 529.6277 533.9662 537.6497 540.4783 542.5252 543.8438 544.7103 544.7927 544.6044 543.9818 543.3908 542.8504 542.22 541.1646 -9999 
373.575 377.4442 381.5558 384.8263 388.089 389.1288 388.886 388.4164 389.5551 391.6832 394.9475 398.7114 402.6089 406.3104 411.0329 415.2274 417.4056 418.3531 419.3719 419.8608 418.7256 416.6096 415.2245 415.5489 416.1699 415.9637 414.5799 413.4465 412.082 410.283 409.7032 411.6707 415.6532 419.3082 423.544 427.4807 431.5582 435.1656 440.0388 445.7998 452.2414 460.2148 470.5104 477.3559 479.5353 479.9038 479.4385 477.7707 473.6095 475.1243 480.0033 482.9308 483.2568 481.8198 481.4031 481.76 482.0073 482.3534 484.4953 488.6968 494.0406 499.4913 505.1913 512.3209 519.8023 526.0957 530.2491 534.2861 537.1362 539.1775 540.768 541.5685 541.8895 542.0568 541.7031 541.342 541.011 540.405 539.3789 -9999 
370.317 374.1427 377.7721 381.1963 383.5044 384.2559 384.2013 385.247 385.806 387.0874 390.6214 394.6 398.6819 402.1159 405.9626 410.1621 413.1176 414.3673 415.7949 416.4136 415.7037 414.0578 412.1739 411.8778 412.5239 412.2175 410.4945 409.6287 408.2072 406.1409 405.2217 407.4163 411.2009 415.0246 418.9147 422.9795 426.5755 430.6534 435.9277 441.7545 448.5918 457.4568 467.5065 474.1537 476.5027 476.9423 476.4673 474.751 471.1803 472.3623 478.285 480.3884 480.093 478.7509 479.4619 480.7781 481.0042 480.4491 481.1872 484.0201 488.3904 493.6223 500.3007 507.4702 515.3334 522.1523 526.6054 530.7114 533.9734 536.0088 537.4028 538.4542 539.1581 539.4958 539.7682 539.6446 539.4131 538.9216 537.8923 -9999 
366.9294 370.7825 374.4173 377.6052 380.0296 380.7513 380.1329 380.5086 382.2212 384.067 385.9641 390.5801 394.483 397.4495 400.678 404.761 408.2976 409.7443 411.2858 412.6726 412.8124 412.0013 409.7179 408.2338 407.562 406.9686 405.7882 404.8114 403.2452 401.4586 400.7611 403.5704 407.2723 411.1107 414.9717 418.4408 421.8776 426.2307 431.8327 437.994 445.5428 454.8535 464.8331 470.631 472.9939 473.9623 473.6098 471.4321 468.7921 469.1735 475.105 477.4146 476.6106 476.7936 479.222 481.599 482.13 480.7676 480.4473 482.3356 484.7193 489.4461 496.1177 503.6853 511.3438 518.4017 522.9297 526.9753 530.5408 532.9307 534.6257 535.9307 536.9698 537.711 537.9506 538.1664 538.0153 537.618 536.4388 -9999 
364.2878 367.5765 371.0874 374.4548 376.7479 377.9009 377.1567 377.0509 378.3183 380.4077 382.3549 385.0336 389.5178 392.4053 395.5008 399.0724 402.9491 404.9722 407.4666 409.144 409.287 408.519 406.3447 405.0916 403.5215 401.7588 400.8189 400.5342 399.2482 397.7523 397.036 400.0734 404.0049 407.5776 410.7924 414.0237 417.4181 421.9653 427.7589 434.1509 441.4698 450.3521 459.5537 465.1356 468.9415 470.7794 470.5717 468.9982 466.2337 465.5109 470.674 472.89 472.7719 475.0709 478.7024 480.949 481.5711 480.3412 480.4968 481.5012 482.6866 486.5695 493.4316 500.2535 507.7663 514.4907 519.5223 523.5369 527.105 529.8068 531.8792 533.5739 535.0427 535.9239 536.3977 536.7338 536.685 536.4526 535.4852 -9999 
361.427 364.5302 367.891 370.8362 373.2398 374.3979 373.8422 373.7094 374.2632 375.6446 378.4792 380.7524 383.4153 387.648 390.7325 394.8047 398.6671 400.9181 403.4781 404.3712 404.5381 403.4234 402.185 402.0223 401.0791 397.6888 396.558 397.7367 396.3921 394.5595 393.4212 396.6096 400.8392 404.1159 406.7144 409.5188 413.1633 417.8199 424.2235 430.6445 437.6689 446.3235 454.3542 460.152 464.6443 466.8798 467.3923 466.5936 464.0363 462.7195 466.1063 467.8999 469.458 472.6676 476.4492 478.9875 480.6781 480.4999 480.8238 480.8503 480.7285 483.757 489.6317 496.1245 502.905 509.0155 515.3419 520.272 523.7073 526.5712 529.0519 530.9753 531.8113 532.7689 534.6428 535.0856 535.4211 535.2139 534.5465 -9999 
358.4063 361.3025 364.2866 367.2785 369.6906 371.1182 370.8584 370.3638 369.9251 370.7668 373.0536 377.0441 379.302 382.85 386.8631 391.2821 395.3402 397.2878 398.5273 399.5135 399.155 399.1867 398.6197 398.6389 397.8729 394.7834 392.5052 394.9675 394.4713 392.3967 390.4429 393.2932 397.6562 400.1872 402.2819 405.0718 409.113 414.4899 420.7826 427.2786 434.1724 442.6239 449.9211 455.8439 460.2812 462.4208 463.5424 463.518 461.1588 459.9078 462.8582 464.079 466.2474 470.1766 473.8824 477.0327 479.4645 480.2851 479.8126 479.1931 478.5515 480.0354 485.673 491.0067 496.9413 502.7024 509.5151 516.0973 520.1491 523.4453 526.2034 528.8793 530.6222 530.7081 532.7828 533.6488 533.9929 533.9983 533.5074 -9999 
355.0208 357.879 360.5754 363.3929 366.1773 368.1742 367.9529 366.5939 365.8456 366.1332 368.0612 371.7036 376.5716 378.4795 383.2431 387.3871 390.8791 392.9883 394.4983 395.6591 395.33 395.4708 395.8916 394.709 393.0949 390.3981 388.3128 391.3383 390.8176 388.7179 387.3502 390.5622 393.7042 395.3703 397.529 400.9745 405.7484 411.589 418.0476 424.4224 431.3213 439.0246 445.6054 451.2103 454.9794 457.1877 458.8331 459.4869 457.7741 456.8267 459.6948 461.5511 464.0045 467.9181 471.7683 475.1221 477.1618 477.8513 477.6813 477.0596 475.1264 475.8722 480.9515 486.0384 490.783 496.3257 502.2278 509.6832 515.0979 519.589 522.9596 526.1863 529.546 529.7556 531.2229 532.3857 532.6324 532.6855 532.0006 -9999 
351.488 354.1225 356.9065 359.7206 363 365.3755 364.943 363.6683 362.9748 362.8224 364.0505 367.1032 371.762 376.3529 378.4523 383.49 386.4998 388.9919 390.5114 391.6255 391.8378 392.3191 392.4603 390.9843 388.3161 384.6965 383.6951 385.7384 385.6034 383.3414 383.4492 387.4345 388.3141 388.9132 391.6538 396.1688 401.8497 408.2345 415.2505 422.2191 429.2188 435.9131 441.3017 445.3343 449.1061 451.5155 453.2044 454.5439 453.8758 453.3554 456.8198 459.8163 462.7943 466.4799 470.0392 473.0132 474.4335 475.0657 475.2063 474.6535 472.276 471.5958 475.7759 481.2993 485.3993 490.5019 496.3807 502.9776 509.0384 514.5201 519.4259 523.0042 526.8889 528.4242 529.5325 530.9459 531.3651 531.4012 530.7906 -9999 
347.9732 350.5308 353.3727 356.4265 359.5737 362.3304 362.475 361.757 360.9073 360.5415 361.402 363.8281 367.8487 372.7892 375.727 379.1526 382.733 384.9834 386.6082 387.9829 388.765 389.3488 388.665 386.9929 384.3459 381.3206 379.0594 380.136 379.8704 377.9257 379.5797 383.0846 383.1101 382.8316 384.8226 390.3864 397.8058 405.0189 412.4835 419.7495 425.9936 431.4899 436.0566 439.5419 443.1326 445.6963 446.632 448.72 449.0952 450.1378 455.1473 459.2582 462.2874 465.2727 468.5967 470.8083 471.8663 472.1758 472.2212 472.0526 470.0842 468.6546 471.0256 476.9867 480.4539 484.9314 490.1827 496.5266 502.4689 508.9309 515.2776 519.9012 523.4503 526.4354 527.814 529.2772 529.9493 529.7046 529.3687 -9999 
344.4068 346.9461 349.8512 353.0854 356.2789 359.1557 360.268 359.257 358.1619 358.0805 359.1608 361.0869 364.2386 368.3425 372.685 374.8556 377.6349 380.8445 382.5999 384.6627 385.7363 386.193 385.4384 383.8518 381.5948 378.667 375.3688 374.8977 374.8901 373.5615 375.8805 378.6411 378.3979 377.7529 381.6476 388.014 395.7642 402.7421 409.8622 415.7176 421.1967 425.9117 428.8247 432.9061 437.1259 439.2913 439.1719 440.3555 443.2879 447.3066 453.1758 457.9539 460.9254 463.5997 466.2091 468.3737 469.1931 468.8756 468.6515 468.4426 467.4617 466.3433 467.4115 472.4146 476.019 479.4073 484.3713 489.8929 496.2153 503.386 510.7449 516.3757 520.5343 523.9403 525.5092 527.2327 527.9343 528.1003 527.8802 -9999 
341.4069 344.0373 346.9404 350.0842 353.2919 356.258 357.7695 356.7952 355.7493 356.0805 357.3181 358.7367 361.1686 364.2364 368.1876 372.4233 373.6837 375.1208 377.8529 379.7826 382.0352 383.038 382.74 381.513 379.2719 376.4668 372.7796 370.918 370.5195 369.9725 371.7623 374.5603 372.7734 373.6535 381.3633 388.0666 394.3362 399.9128 405.148 410.0674 415.1554 418.7507 421.2378 426.074 430.9606 432.1534 431.2985 431.6871 436.275 441.869 447.7481 454.0466 458.2365 460.8022 463.6369 466.0961 466.5022 465.6396 465.2732 464.8962 464.7809 464.8919 464.9422 468.3889 472.0085 474.3303 478.6273 484.1066 490.684 498.2776 506.5761 513.246 517.4904 521.1804 523.5499 524.927 525.8951 526.2144 526.2736 -9999 
338.9756 341.5909 344.283 347.2149 350.22 353.2408 355.2242 354.5376 353.5153 354.3137 355.7191 357.0525 358.7443 361.0295 364.5159 368.381 371.7211 372.4913 372.3082 373.3418 376.9661 379.262 380.1468 379.8536 377.6641 374.6086 370.8152 367.7876 366.4071 366.299 367.017 368.6362 366.8985 370.4276 377.3607 383.9628 389.3587 394.0328 398.2458 401.7943 407.3036 411.1783 414.7801 420.5859 424.8214 424.7222 423.7564 423.3096 427.9785 435.7953 442.6973 449.7953 455.5985 458.8038 461.6017 463.7721 463.6519 462.4735 461.8987 461.7422 462.2047 462.7464 463.1251 465.4824 468.5251 469.8113 473.2742 479.162 485.8921 493.5628 501.8227 509.2836 514.4824 518.0793 521.2122 522.1487 523.5963 524.2531 524.5769 -9999 
336.785 339.0764 341.785 344.4859 347.3336 350.2317 352.3194 352.0527 351.4114 352.3463 353.8802 355.2113 356.5845 358.916 361.7227 364.5945 367.0489 369.21 370.4503 370.5269 372.7443 376.3683 377.8605 377.8975 376.2895 373.3994 369.73 365.9236 362.9878 362.4082 361.9572 362.8899 361.7175 365.4623 370.5841 375.7009 382.0441 386.834 390.1906 393.026 398.3386 403.1577 408.4788 415.5098 419.1028 418.3274 416.1018 415.5708 421.9824 430.2843 438.7763 445.412 451.6782 456.8325 459.5229 460.6512 459.9239 458.8085 458.2035 458.4712 459.3712 460.2676 461.0555 462.5889 464.9625 466.2425 469.3232 475.0059 481.4349 489.5364 497.1428 504.929 510.6018 514.4841 517.7333 519.9319 520.9286 522.1586 522.6475 -9999 
334.559 336.645 339.2316 341.941 344.6668 347.4172 349.4267 349.4029 349.2034 350.0965 351.678 352.8177 354.3693 356.6901 359.0523 360.9778 362.8368 364.6558 365.9693 368.7388 369.9427 373.5587 375.7615 375.806 374.3533 371.6572 368.2631 364.6237 360.7469 357.6766 355.7487 357.1586 356.444 359.5087 363.1163 366.8328 372.8167 376.9723 380.3916 384.8879 390.336 394.964 401.7796 409.084 412.7542 412.182 408.7485 410.7377 417.876 425.855 434.2968 440.0069 445.6578 452.0443 454.9602 455.5188 454.8945 454.2322 454.2476 454.932 456.2443 458.1013 458.7481 459.741 461.8083 463.2652 466.0394 470.6743 477.5877 485.2206 492.9239 500.6864 506.7485 510.702 514.2864 517.3253 518.1581 519.5522 520.289 -9999 
332.0136 334.0916 336.5904 339.584 342.1357 344.8196 346.8583 347.2502 346.8689 347.9818 349.5422 350.7402 351.9696 354.1422 356.1674 357.6867 358.9052 360.4315 361.9366 365.482 368.1449 371.1471 373.3757 373.3336 372.1183 369.9768 366.2969 362.6813 358.7899 353.2098 351.429 350.6297 351.5102 353.3689 354.8019 357.5706 361.8093 365.5676 369.8579 375.5233 382.7886 388.2574 395.8511 402.231 406.3699 405.1283 401.9104 408.0614 414.9484 422.1588 428.53 433.6904 439.5297 446.0648 449.4359 450.0688 449.5424 449.1951 449.7589 451.0034 453.343 456.5015 457.7844 458.0685 459.2316 460.4459 461.7427 466.6264 472.7847 480.5316 488.7875 496.6021 502.5645 506.731 510.4763 513.7755 516.0961 516.9141 518.1921 -9999 
329.0493 331.4792 334.226 337.0645 340.0875 342.5511 344.2973 345.0154 344.9672 346.038 347.7904 348.8081 349.7665 351.6211 353.112 354.225 355.3168 356.4143 358.5682 362.54 366.5623 367.7896 370.5847 371.0016 369.7593 368.2427 364.7425 360.9138 356.364 351.2145 350.3517 349.3713 348.6974 349.5992 350.8446 352.1507 353.6762 356.146 359.5978 365.7247 375.14 382.4971 390.2494 396.0327 399.6733 397.3631 397.2011 404.0898 410.8886 416.4882 421.4165 427.9185 434.4776 439.5811 443.345 444.4386 444.125 444.2763 445.5959 447.375 450.6709 454.3234 456.1264 456.3186 456.2171 456.1007 457.3498 462.5157 469.2359 476.1602 484.2801 491.6522 497.7209 502.706 506.4909 510.3041 513.4197 514.5769 515.5618 -9999 
326.4019 329.296 332.1408 335.2585 338.1044 340.6389 342.1978 342.89 343.1522 344.4344 345.7537 346.6374 347.6686 348.837 350.062 351.1981 352.1171 353.2934 356.6749 360.8656 364.5601 365.6708 368.0124 369.0242 367.8447 366.3008 363.3158 359.3303 353.7698 351.4904 350.3336 347.6171 348.0233 348.6036 349.0931 349.5526 350.8798 353.8416 355.9045 357.7329 362.4468 369.8706 378.96 388.8806 392.8045 391.4456 392.8942 399.0382 404.9149 409.8932 415.7178 423.5957 428.981 433.6503 438.0887 439.2653 439.5815 440.0774 441.6414 444.1035 447.3723 450.7844 452.5087 452.4748 451.6489 451.1913 452.9028 458.1984 465.0169 472.2273 479.6539 487.1864 493.2474 498.3701 502.866 506.727 509.6061 512.159 512.6494 -9999 
324.6001 327.5883 330.7223 333.7651 336.7451 339.2731 340.5442 340.7365 341.0193 342.8546 344.3102 345.0253 345.4138 346.0625 347.1729 348.3909 349.1653 350.9012 354.7907 358.9431 362.0545 364.1703 365.3373 366.5473 365.9764 364.4471 361.7359 357.4358 352.6876 351.1035 347.4837 345.9406 346.2879 346.4246 345.6467 343.3682 344.618 347.5032 350.7742 354.0801 357.5161 360.5388 365.5849 375.1747 385.6385 386.0013 386.1452 390.5824 394.9107 400.1707 410.0078 419.1231 424.0394 429.0861 433.2819 434.3472 435.1473 436.127 437.7313 440.5169 443.2541 445.6691 447.5319 447.8207 447.2792 446.7639 448.5222 453.7702 460.2525 467.9256 475.1881 482.3761 488.8638 494.2464 498.9431 503.1385 506.1714 508.4592 510.1843 -9999 
323.4521 326.1376 329.3022 332.4379 335.6777 338.0012 338.3784 338.1925 339.0581 341.6347 343.4254 343.9234 343.4289 343.6046 344.4301 345.4597 346.4388 348.3899 351.9108 355.8547 359.1317 362.1103 362.7961 364.1804 363.9767 362.4587 359.5256 355.338 352.5073 349.1828 345.0459 344.5242 344.9908 343.5145 340.4532 339.4153 339.4869 340.8369 343.6488 346.9882 351.2221 356.4636 360.7748 363.0211 370.6502 375.4536 376.2125 380.8096 384.0991 390.5369 401.3017 414.369 421.0699 426.1722 429.087 430.3447 431.1341 431.8718 433.5163 435.9348 438.3633 440.1365 441.5875 442.3953 442.3931 442.4796 444.8375 449.8764 456.3639 463.1925 470.4975 477.4674 483.5073 489.427 495.1393 499.1685 502.2879 504.9479 506.8229 -9999 
322.0439 324.597 327.4639 330.8839 334.1558 335.8999 336.3127 336.0376 337.4454 340.3656 342.3345 342.2212 341.1321 341.1749 341.9293 342.9527 344.1544 345.9911 349.186 352.8376 356.0097 358.8335 360.8569 360.6881 361.5732 360.1464 356.1834 353.7522 350.9933 346.4536 343.1207 342.9198 341.3152 338.9969 337.0214 336.1987 335.5863 335.7851 337.3411 341.1353 345.7377 350.4849 354.8642 359.8358 363.0034 363.7107 364.6245 369.317 378.4206 385.738 395.4277 408.5058 418.5326 423.4453 426.1564 427.8068 428.5307 428.5952 429.4247 430.8098 432.7196 434.3386 436.0716 437.5169 437.9261 438.4961 441.4175 446.7538 452.812 459.5993 466.8301 472.6143 478.6789 484.9246 490.7542 494.821 498.2373 500.8464 503.092 -9999 
320.2444 322.4424 325.1068 328.7348 332.0383 333.5776 333.844 333.9678 335.2262 337.7251 339.9669 339.4678 338.3867 338.8009 339.4705 340.5062 341.6778 343.5291 346.5456 349.5581 352.5927 355.2059 357.9443 358.8869 357.9948 356.8376 355.0702 352.7615 348.6093 344.6264 341.7227 339.111 335.8099 333.5493 332.5919 332.5751 332.2165 332.1536 333.3585 336.0675 339.5092 343.7433 346.9966 355.1296 360.4036 361.3969 363.0155 365.2343 372.2799 382.2392 393.4467 408.1805 416.5274 421.0728 423.9401 425.7889 426.8261 426.4232 426.0793 426.6737 427.9813 429.4937 431.6873 434.0355 435.4158 436.0608 438.2907 443.5851 449.6137 456.293 463.1765 468.7179 474.3338 480.3226 485.9596 490.1458 493.596 496.4636 499.172 -9999 
318.0063 319.8575 322.426 326.1192 329.1381 330.8123 331.4649 331.3428 332.5576 334.3661 336.1836 336.0519 335.5442 336.1038 336.7205 337.8449 339.4514 341.564 343.9599 346.5362 349.0476 351.8677 354.839 356.9254 357.2815 356.571 354.8011 350.4463 346.6682 342.5411 340.2907 336.7853 333.474 330.3366 328.7784 329.2795 329.1733 329.6213 330.0931 331.0827 333.3512 336.7741 339.1934 342.2021 351.3837 353.0092 357.0107 362.6491 367.1674 380.8417 391.6574 402.5239 413.0768 418.116 420.8306 422.8429 424.585 425.2115 424.8879 424.7537 425.1429 426.7117 428.8527 431.7287 433.7789 434.2813 435.7947 439.9092 445.8218 452.296 459.0167 464.959 469.6977 475.453 480.9851 485.3762 488.9243 492.0739 494.9614 -9999 
315.4674 316.9919 319.3729 322.5835 325.9015 327.7855 328.3033 328.4149 329.0131 330.565 331.8001 332.4957 332.9424 333.6074 334.4865 335.5913 337.0641 338.9716 341.2004 343.2946 345.7323 348.6368 351.4888 354.3495 356.0223 355.9987 353.6704 349.4445 345.1758 340.6871 338.7875 334.9359 331.1917 328.2466 325.9651 326.9104 327.7974 327.389 327.7612 327.7522 328.7163 330.6948 332.0346 334.3674 340.2123 346.2897 352.1526 359.5646 367.3168 374.4776 386.5277 397.806 410.1251 413.4927 415.6973 417.8887 420.3897 423.062 424.4214 424.393 424.4149 424.8691 426.6537 429.5969 431.9329 432.7297 432.9916 436.6758 441.9404 447.6105 454.5 460.1754 464.8818 470.3147 475.9164 480.3893 484.3122 487.5562 490.6407 -9999 
313.1289 314.3137 316.3466 319.2155 322.432 324.5309 325.6154 325.3754 324.9265 325.9289 327.8188 329.5169 330.6826 331.3209 332.2798 333.1654 334.3166 335.7627 337.6987 339.8675 342.2407 345.2591 348.5874 351.5612 353.7094 354.2019 352.1768 348.6339 343.1586 339.2705 336.7542 333.3458 329.2653 326.1811 323.637 324.0901 325.218 325.4054 325.6005 325.4664 324.5908 324.5457 326.5654 330.658 336.8306 342.2988 349.1687 359.0988 366.9825 370.9904 383.8338 396.9314 404.2344 407.4036 409.819 412.2239 415.3409 419.5839 422.7268 423.8839 423.9173 423.8885 424.6393 426.8616 429.3605 430.6584 430.4253 432.5768 437.5537 444.0274 449.8191 455.4339 460.2485 464.7975 470.5706 475.267 479.446 482.9065 486.043 -9999 
310.589 311.8835 313.3175 315.8314 318.5458 320.9795 322.2213 321.5537 320.5299 321.9335 324.7186 327.0179 328.3139 328.8178 330.1173 330.6581 331.4482 332.7792 334.4477 336.858 339.4385 342.575 346.2013 349.3831 351.8501 352.1627 350.1789 347.3929 341.3123 338.1602 334.9908 331.7632 327.7724 324.2132 322.1406 321.3832 322.1876 322.6754 323.218 323.7863 322.3529 319.7454 322.356 326.6381 332.3006 338.3934 346.3758 355.0505 364.8515 370.2527 382.3265 392.3683 396.9334 400.7967 404.5372 407.1913 410.7077 415.3389 419.6985 422.0945 422.9553 422.6563 422.7039 423.9642 425.9374 427.2935 427.5238 428.8463 432.9553 439.5749 445.8012 450.8307 454.826 459.6277 464.7336 470.3048 474.5822 478.0671 481.0192 -9999 
306.8811 308.3011 309.9898 312.1894 314.9406 317.5749 317.989 317.0398 316.3108 319.1753 322.4923 324.5215 325.1487 326.0273 327.8466 328.2177 328.4678 329.6813 331.6228 334.0441 336.9632 340.4438 344.2997 347.698 350.4077 350.2718 348.0751 345.7119 339.2281 336.7455 332.7015 329.606 326.0966 322.5237 320.5074 318.6944 318.9395 319.863 320.2891 321.198 320.4594 316.5017 318.0896 322.9064 329.0993 335.4832 343.8218 352.716 362.2155 369.8717 372.9349 384.7307 389.5002 393.5153 398.5428 402.3156 405.5294 410.6127 415.5194 419.4622 421.3341 421.1831 420.6539 421.044 422.2937 423.3776 423.9327 424.829 428.9628 434.7162 440.694 446.0149 450.2643 455.205 459.7523 464.7386 469.0336 472.87 476.0337 -9999 
305.8123 306.6137 307.5642 308.5351 309.6811 311.2715 312.4156 312.3572 313.6523 317.1009 320.3043 321.7562 322.0165 323.0123 324.7656 325.4947 325.408 326.5177 328.7818 331.3021 334.4894 338.4262 342.369 345.9391 348.9288 348.6405 345.7458 342.6628 337.133 333.9298 329.4489 326.4971 323.9525 320.647 318.3484 317.2478 316.6002 316.9986 317.0164 317.229 316.5497 313.5865 315.7288 320.3356 326.0316 332.9152 340.9922 350.4614 358.9508 366.509 370.761 373.7455 380.3574 386.8276 392.3998 396.356 399.1509 404.705 411.302 416.0424 418.7803 419.058 418.463 418.0932 418.4932 419.2887 420.325 421.0542 424.489 430.2067 436.024 441.0622 445.2934 450.0092 454.7328 458.8141 463.6467 467.5316 470.8796 -9999 
303.2558 303.9114 304.552 305.9754 306.9366 308.2777 309.4568 310.9132 312.3922 313.9467 316.4153 318.4706 318.95 319.5196 321.2774 322.4038 322.8701 323.8275 325.9197 328.2357 331.6159 335.8222 339.7191 343.4343 346.4558 346.3705 342.9443 338.0706 335.7546 330.6243 325.6167 323.0916 321.4803 318.8248 316.649 315.7838 314.9103 315.3564 314.8537 313.8717 311.7216 311.0292 315.0314 318.2932 322.5542 328.4592 337.227 346.7691 353.5868 359.8046 365.9893 370.2941 372.7686 377.6103 385.858 389.9133 393.5358 398.9764 406.2339 412.3029 415.8286 416.4461 415.884 415.3333 415.2587 415.7383 416.6378 417.3212 420.2333 425.556 431.2469 436.423 440.4704 445.2455 449.4438 453.7185 458.3665 462.0465 465.0638 -9999 
301.1671 301.6098 301.8995 302.3268 302.9426 303.8331 305.067 307.5736 311.2643 313.112 314.0816 314.7131 315.6576 316.4702 317.6892 319.2855 320.3091 321.1969 322.8544 325.1396 328.5652 332.638 336.5055 339.7168 342.3637 343.3126 340.1833 335.1379 333.4836 327.7726 322.3257 319.5399 318.3766 316.6956 315.0414 314.3684 313.5864 314.1581 313.7297 311.7096 308.8782 311.6098 314.8815 315.8555 318.4906 324.0699 331.2358 339.7365 348.257 352.804 359.372 363.6673 369.0178 373.3894 376.4005 383.1715 387.2212 394.084 400.2218 406.6923 411.3878 413.3646 413.3953 413.0229 412.3934 412.4173 413.2636 413.8317 416.1085 420.7525 425.9194 431.0381 436.0946 440.1 444.1405 448.4142 452.9935 456.7245 459.5379 -9999 
299.5016 299.6685 299.6977 299.9844 300.0983 300.786 302.4105 305.4901 309.1008 311.3768 312.5318 313.0874 313.3211 314.4551 316.2863 317.609 318.736 319.6414 320.874 322.5798 325.6141 329.3159 332.9611 336.2061 338.4206 339.4561 336.4019 333.5395 330.3535 325.4894 320.7666 317.1588 315.4355 314.1069 313.1238 312.7047 311.9131 312.8302 312.4172 309.7377 307.3036 310.6664 313.4326 313.6505 314.8013 319.8485 326.6411 333.1539 340.9973 345.27 352.0254 357.3931 363.5876 371.0164 374.9393 376.2793 379.4352 387.5001 394.4307 401.2112 406.0746 409.3064 410.3833 410.4263 409.9765 409.6174 409.7776 410.2647 411.4048 415.963 421.5785 426.6747 431.3553 435.1607 438.8096 442.7878 446.6237 450.3516 453.198 -9999 
298.0223 298.0114 297.5518 297.3729 297.8483 298.8009 300.5782 303.9312 306.7375 308.3583 309.0724 309.3649 309.5125 310.9424 312.9069 314.8511 317.7202 319.397 320.4888 321.6277 323.0191 325.9726 329.896 332.6155 334.2924 334.1543 332.2445 332.2041 327.6068 323.4931 320.0311 315.983 312.9954 311.4294 311.4092 311.2837 310.0968 311.7684 311.0629 307.4157 305.9941 309.5624 311.68 312.0008 312.0899 315.6621 320.9271 326.898 333.3422 338.8488 344.0493 351.3692 359.0641 366.2793 371.3634 373.9779 376.9654 379.7317 387.8842 396.2646 402.019 405.1256 407.4158 407.9926 407.9006 407.2218 406.7513 407.028 408.3148 411.4701 416.6037 421.4018 426.1222 429.9716 432.8709 436.9824 440.3177 443.5082 446.5824 -9999 
296.1357 295.728 295.1349 295.1381 295.602 296.7231 299.1307 302.0305 304.0185 305.3767 305.8331 305.9284 306.2206 307.8535 310.3154 312.4955 314.4809 316.5695 318.0909 320.2254 322.5013 324.3416 325.8102 327.7487 329.135 330.0057 331.1283 330.8172 326.0775 321.6743 318.4457 314.4333 310.5256 308.3173 308.7892 309.6851 308.6101 310.3261 309.9458 305.4762 304.877 307.7386 309.5287 310.1175 309.7131 312.0299 316.1888 320.5622 326.3032 331.9171 337.6364 345.0069 353.9528 361.0164 364.6564 366.8851 372.6107 378.273 382.0804 391.019 397.492 401.5152 404.1927 404.9829 404.9012 404.3703 403.7094 403.3759 404.2407 407.1387 411.468 416.1829 420.6597 424.2261 427.1762 429.9738 433.4992 436.572 440.5026 -9999 
293.9848 293.0837 292.4882 292.6187 293.6362 295.5366 297.9473 299.6842 300.9546 301.9937 302.427 302.8333 303.5948 305.581 308.0544 310.262 311.9574 313.9446 315.7014 317.6264 319.5869 322.5641 325.248 327.0208 328.3671 329.5394 330.4332 329.1958 324.6797 320.2797 316.5765 312.7548 308.7156 305.718 306.033 307.6144 306.926 308.1321 308.4438 304.3984 302.3087 304.9556 306.7013 307.1542 307.2682 308.598 311.7363 315.0014 320.0963 325.4804 331.6156 340.1172 348.6208 355.1959 357.5001 360.8106 367.0569 375.6064 381.2803 385.3377 393.3172 397.8668 400.551 401.7324 401.9439 401.3592 400.5524 400.0773 400.2985 401.8437 405.8699 410.8298 415.0974 418.6136 421.118 424.0049 426.4304 430.4869 434.8624 -9999 
291.0606 290.1884 289.6431 290.6058 292.6096 294.5554 296.3567 297.2524 297.857 298.3873 298.9843 299.7525 301.0767 303.4101 306.2562 308.4125 310.0182 311.9917 313.6253 315.7953 317.8078 320.0502 321.9095 323.6562 325.3268 326.2597 327.4126 326.0033 323.2434 319.0602 315.4647 311.6893 307.817 304.2543 303.0233 304.6865 305.0735 305.5713 306.0987 302.9106 300.0064 301.8061 303.1389 303.3089 303.9182 304.8904 307.7819 311.2399 314.8682 320.1046 326.2268 334.6067 342.7502 347.9879 350.341 355.8438 363.7068 372.8966 380.0123 383.6285 388.0032 394.4024 397.3056 398.6663 398.6904 398.0493 397.4742 396.6916 396.8105 397.7011 399.7924 404.6907 409.8716 412.7638 414.3801 417.1425 420.2181 424.8114 429.5859 -9999 
287.6661 287.3465 287.5572 289.0538 290.9888 292.7005 293.8787 294.5002 294.6213 295.1409 295.7281 297.7037 299.8485 302.3595 304.6997 306.6692 308.0762 310.0101 311.778 313.9927 315.9863 317.6989 319.2994 321.0255 322.178 323.2992 323.915 323.4659 321.4701 317.7576 314.8086 311.0107 307.2111 303.6821 301.2435 301.4653 302.3666 303.5435 303.7064 301.1105 298.3226 299.1056 300.1457 299.4041 300.2419 301.6572 303.9883 307.2799 311.0735 316.3559 323.0469 330.2972 336.1147 340.9728 347.1555 354.4409 362.7631 370.8091 377.2074 383.0873 385.7116 389.3084 393.3153 395.1735 395.3918 394.9143 394.0266 394.6978 396.0042 397.4379 398.931 400.3058 402.5898 404.5651 405.7916 408.5883 413.5897 418.9861 423.303 -9999 
284.7144 284.8597 285.6771 287.2495 289.2022 290.333 291.3024 291.4508 291.8324 292.6294 294.7951 297.2449 299.4309 301.3047 303.0062 304.5721 305.9772 307.5412 309.3719 311.5393 313.3234 315.1419 316.7058 318.4982 319.7513 320.6714 321.3711 321.2506 319.9424 316.6385 313.9029 310.9143 306.5751 302.874 300.4619 299.2735 300.7585 301.7117 301.3027 299.4308 297.2626 297.4813 297.9431 296.9081 296.7907 298.5259 300.6037 303.8023 307.1425 312.8156 319.7519 325.0832 329.5311 337.2 345.4551 353.8951 362.4596 369.6669 375.3474 380.1705 384.5376 387.0522 388.8866 391.0968 391.4784 391.8023 392.7337 393.6766 394.7732 396.0304 397.9709 399.9245 401.2993 402.0334 403.2836 405.2974 407.1843 412.3722 418.025 -9999 
282.2713 283.0999 284.249 285.8203 287.2382 288.1761 288.6232 288.9942 290.1239 292.1002 294.7433 296.8274 298.4889 299.791 301.1197 302.4991 303.8008 305.1937 306.884 308.8346 310.6019 312.2363 313.8391 315.5387 316.9234 318.1571 318.9987 319.1729 318.1351 315.4286 313.1233 310.9393 306.5163 302.2939 299.6049 297.5693 299.25 299.9612 298.473 296.9477 296.2316 296.81 296.7622 295.2998 295.224 297.0344 298.7434 301.8627 305.0819 309.7058 315.3988 321.343 329.185 337.1159 345.282 353.3997 360.6441 366.0978 371.4467 376.365 380.5011 383.8194 387.1697 389.1017 390.2858 391.3475 392.2795 392.972 393.1016 390.7422 392.2424 394.5209 395.5989 395.8924 397.0046 401.2426 405.8975 408.8956 415.1503 -9999 
280.0535 281.4632 282.767 284.3214 285.548 286.2515 286.8617 287.6796 289.5965 292.0622 294.299 295.8342 296.9578 298.1556 299.2218 300.6385 301.5287 302.7768 304.4501 306.1977 307.7305 308.892 310.6389 312.4204 313.9458 315.3026 316.2378 316.6999 316.1585 313.9362 311.879 310.4783 307.0127 302.1237 299.0469 296.0134 296.9879 298.0522 296.4992 295.4283 294.371 296.55 295.3153 294.1518 294.8271 296.3087 298.2564 300.8459 304.1511 309.0941 315.1935 322.1625 328.9915 336.0529 343.1717 349.9891 355.0932 360.0081 365.7709 370.9714 375.5461 378.6124 382.0988 385.0506 387.4471 389.8144 391.0676 390.5204 388.8963 388.115 388.4988 389.5425 390.4839 391.3423 392.4673 395.6109 401.3554 407.916 411.7994 -9999 
278.0133 280.0366 281.5206 282.7175 283.5565 284.4432 285.4778 287.2612 289.7216 291.7273 293.2608 294.4083 295.477 296.4412 297.4225 298.6885 299.6373 300.775 302.3509 303.7502 304.8818 306.0719 307.576 309.2234 310.9064 312.338 313.6891 314.1476 314.0001 312.1149 310.1718 309.0946 307.1402 302.6638 298.7701 295.3643 294.7832 295.5282 295.0983 294.3171 293.6039 294.5965 293.9992 293.8005 294.5932 295.8339 298.0066 300.6547 303.6117 309.1032 315.1095 320.7995 327.3136 334.0916 339.906 344.6725 348.9064 353.6948 359.73 364.9323 369.0512 372.7355 376.0777 379.1782 382.4417 384.3201 385.7854 386.6214 386.6606 387.2286 387.4171 388.0417 387.8302 387.4776 389.6911 393.3678 397.212 404.1644 410.6848 -9999 
276.5435 278.2343 280.0067 281.3846 282.6616 284.1067 285.6588 287.5641 289.4094 290.8822 292.0645 293.0837 293.941 294.8843 295.8437 296.8713 297.9291 299.1599 300.3222 301.3827 302.5425 303.7639 304.8741 306.3227 307.8885 309.478 310.78 311.6854 311.6089 309.9522 308.2258 307.3365 306.6378 303.1219 299.4108 295.4674 292.9117 294.1808 293.8515 293.0112 291.2757 293.0623 293.378 293.4192 293.9953 294.8447 296.7609 299.177 303.145 308.3497 314.119 319.377 324.434 330.0742 335.0482 339.0728 342.9662 347.8608 353.6399 358.561 362.1261 365.3659 369.3687 372.8941 377.1826 380.3025 381.4101 382.6682 384.012 384.1701 383.6332 384.1406 383.37 381.4487 385.0371 390.8412 395.991 399.8449 407.3739 -9999 
277.0555 278.6147 280.1882 281.6876 283.4363 284.9647 286.1307 287.4902 288.6534 289.8351 290.7884 291.7836 292.2249 293.1959 294.2246 295.3524 296.3979 297.4621 298.5152 299.3972 300.366 301.4716 302.6517 304.0233 305.3437 306.5958 307.5858 308.4182 308.7367 307.5415 306.4258 305.2904 305.1194 303.3993 299.7059 296.4977 291.9716 291.2864 292.5053 291.7197 288.6453 292.1003 292.9789 293.07 293.2203 293.7933 295.2184 297.1912 301.4199 305.9061 310.9168 316.226 321.5515 324.911 328.8216 333.2604 337.5028 342.6523 348.2083 351.5671 354.4678 358.062 361.9856 365.4686 370.8775 375.4141 377.7328 378.6566 379.4753 380.1489 380.2239 380.6653 380.2468 377.8427 380.7548 387.1528 393.213 397.6034 401.7703 -9999 
277.8265 279.8532 281.2518 282.3798 283.673 284.9753 285.9351 286.8306 287.8989 288.8293 289.6124 290.237 290.8626 291.7234 292.6833 293.7052 294.6747 295.6925 296.5075 297.4825 298.4504 299.2668 300.2937 301.4031 302.5675 303.3726 304.0007 304.7205 304.8818 303.8315 303.0212 302.4691 302.5324 303.5118 299.224 296.1519 291.6589 287.0407 289.7202 287.4583 286.0764 290.4976 292.4757 292.9038 293.0801 293.3364 293.8655 295.6263 299.8314 303.2549 307.438 312.2244 316.4063 319.7253 323.2174 327.2451 331.6589 337.2678 341.6428 343.6504 346.3207 349.8122 353.5678 357.6049 363.8138 369.1829 372.6616 374.1789 375.676 376.8035 376.8086 376.7107 376.0226 373.8731 377.6742 384.1981 390.2884 395.7269 398.9847 -9999 
277.8709 279.8493 281.3706 282.5174 283.4215 284.4581 285.3163 286.2406 287.1421 287.8644 288.5644 289.0894 289.4781 290.2391 291.1212 292.126 293.099 294.0203 294.9627 295.8977 296.6437 297.1381 297.8632 298.741 299.3767 299.8571 300.5273 300.9916 300.6719 299.1066 298.6327 298.3345 298.8369 301.9906 299.3281 294.8087 290.5159 285.2451 285.2057 284.0963 284.2438 288.3691 291.3981 292.3784 292.9234 293.1583 293.02 294.8723 298.4874 300.06 303.4844 307.6056 310.9097 313.9606 317.0488 321.4258 327.0146 332.5499 335.3785 336.9447 339.7979 343.6212 346.3443 351.0427 356.5681 362.3811 365.726 368.4492 370.9899 372.356 372.9007 372.7842 370.9128 369.4768 374.2927 381.9612 387.1967 391.6608 397.4676 -9999 
277.6039 279.3951 280.9662 282.1626 283.1417 283.9422 284.6364 285.4352 286.1798 286.8181 287.2606 287.6532 288.0597 288.5623 289.6019 290.6266 291.6781 292.3458 293.3288 293.9396 294.3392 294.4717 294.788 295.5215 296.0799 296.841 297.2193 297.472 296.7776 294.4145 293.212 293.247 294.638 298.7472 299.7507 293.9869 290.4307 286.9447 282.2725 280.3083 282.7946 285.2318 288.0435 290.6862 291.8842 292.3749 292.1647 293.853 296.1273 297.088 299.7329 303.2065 306.0017 308.222 311.9239 316.7768 323.1981 328.2426 329.1062 330.204 332.7536 336.2659 340.4717 344.9989 351.1253 356.2625 359.512 362.5826 366.023 368.6062 369.2421 368.2765 365.4738 364.5729 369.6047 376.5969 382.1445 388.6628 395.7092 -9999 
275.3024 277.5974 280.0213 281.7765 282.5737 283.1057 283.4362 284.0114 284.701 285.1953 285.6383 285.9961 286.4925 286.9961 287.9256 289.1418 290.0445 290.457 290.9027 291.3135 291.7296 292.107 292.4189 292.6656 293.3499 293.7816 294.0407 293.9569 292.5002 289.8316 288.2689 288.3879 290.643 295.3893 298.4573 293.6887 289.6595 287.1812 282.6168 278.1798 280.6753 282.1308 283.638 287.4474 290.1149 290.7968 290.5707 291.6794 293.8386 294.2368 296.4109 299.0966 300.9879 303.1741 307.3292 314.0124 320.0582 323.2971 323.0032 323.6931 325.7891 329.0374 334.0079 339.2599 343.7866 348.6679 352.0744 355.5253 359.6259 363.3351 364.6957 363.034 359.9166 359.5679 364.2492 370.5612 379.1227 387.5547 393.9973 -9999 
271.6909 275.0691 278.3005 280.6232 281.3038 281.4894 281.5279 281.8392 281.8452 282.3222 283.1552 283.9203 284.5145 285.2555 286.4401 287.6562 288.3596 288.627 288.6677 289.0645 289.8001 290.3416 290.6075 290.8331 290.8967 291.1566 291.254 290.345 288.3253 285.9038 283.8749 284.3916 288.5109 292.4031 295.3963 293.5186 288.8354 286.0222 281.6769 276.0552 277.9255 278.9365 280.0896 284.1549 287.9202 289.0447 289.2862 288.9325 290.6106 291.7596 292.908 294.2138 295.2796 298.6928 303.7275 310.2402 315.8516 317.3128 316.7896 317.7296 319.9831 323.2297 327.9916 333.4257 337.6744 339.8926 343.7984 348.693 353.253 357.5908 359.4116 357.3502 354.2132 354.8022 360.7359 369.0558 378.1232 384.142 389.5376 -9999 
268.1021 272.021 276.1377 279.0876 279.8874 279.7622 279.6341 279.1882 277.9889 277.6668 279.1057 280.7003 281.847 283.1487 284.7236 286.0648 286.5435 286.6239 286.8709 287.0636 288.0579 289.0383 288.9149 288.9612 288.7574 288.452 288.0864 286.5904 284.2291 281.3434 279.9411 282.6285 287.5149 290.697 291.9091 291.9343 287.6327 284.585 281.4359 274.7957 274.8266 275.8001 277.504 280.8813 284.0402 285.828 286.4973 286.0885 286.5584 288.6425 289.6035 289.7332 290.0241 293.1887 299.7646 305.9868 310.7969 311.0955 310.4731 311.7771 314.7121 318.773 322.821 326.7743 330.2108 333.2261 337.1128 342.3499 347.1588 351.7638 354.0224 352.2719 349.3384 351.1644 357.7675 365.7456 373.6816 378.7956 383.4834 -9999 
264.7876 269.3817 274.0939 277.8853 278.5306 278.1463 277.0143 275.4729 273.3774 272.3494 273.5638 275.8638 278.1459 280.1235 282.2594 283.7798 284.2472 284.762 284.6385 284.9047 285.6613 286.1869 286.2913 286.3204 285.9747 285.3995 284.2704 282.6989 279.8777 276.8593 276.7297 281.4463 286.6779 289.3493 289.3508 289.261 286.3613 282.4572 281.2555 276.023 272.0891 273.3233 275.9459 278.1224 280.2136 282.3348 283.3554 282.5516 282.7309 284.7076 285.1827 284.5417 284.7781 289.3107 296.3885 302.3492 305.2142 305.3513 304.7867 306.2305 309.7885 313.6964 316.7736 319.8471 322.8304 326.4156 331.4121 335.6618 340.8929 345.7141 348.4286 347.4835 345.1618 348.4816 354.4848 360.2979 367.011 371.7658 375.5823 -9999 
262.0186 267.0806 272.4814 276.6233 277.2214 275.1852 272.505 270.0148 268.1287 267.1484 268.4278 271.0538 273.4282 276.3058 278.472 280.0858 280.2709 280.724 281.3796 281.896 281.8572 281.8073 282.0828 282.2893 281.8909 281.5258 280.4782 278.2999 275.1209 272.3499 274.2479 279.4665 285.0141 287.6011 287.2618 286.1526 285.6104 281.9749 279.6798 277.2398 270.6035 270.8867 273.6247 275.6052 276.9987 279.0452 280.0618 278.5703 278.9767 280.0404 279.8814 279.4691 281.649 287.4127 292.6613 297.9989 300.1533 299.1581 298.681 301.303 304.6479 307.3639 310.171 313.0851 316.0106 320.4898 324.9061 329.2554 334.1184 339.1324 342.0369 341.5045 341.0308 345.2103 349.9931 354.071 359.2621 363.4456 366.4665 -9999 
260.0728 264.8724 270.024 274.1561 274.7459 271.6376 267.4141 265.0141 263.7616 263.569 264.5843 266.3395 268.5303 271.2314 273.7974 274.3652 273.789 274.1771 276.3013 277.0811 277.1606 277.2208 277.5212 277.6792 277.4847 277.4382 276.5535 273.7864 270.3592 268.3014 271.5644 277.3138 282.3453 284.6225 284.2823 282.7577 282.8516 282.0886 279.0751 276.9492 272.4537 267.4081 270.193 272.0721 273.5256 275.4139 275.1762 273.7872 275.6481 276.3694 275.3008 275.4647 279.3026 284.007 288.5222 293.0505 294.4847 293.68 292.5593 295.4171 298.3494 300.861 303.3997 306.2408 309.6269 313.525 317.9257 323.4487 327.1497 332.0975 335.335 335.2518 337.0137 340.9483 344.1693 347.926 351.5315 354.6468 359.906 -9999 
258.3702 262.2481 266.6263 270.2139 270.873 268.0062 264.4345 262.5656 261.1032 260.9497 261.8419 263.1838 263.7161 265.4382 268.4059 267.8033 266.3578 267.8708 270.5699 271.3568 271.961 272.7276 273.4842 273.8194 273.6506 273.3509 272.4264 269.366 266.0959 265.1738 269.1568 275.1833 279.4525 281.1711 280.6643 278.8771 278.3735 279.2669 277.7307 275.2382 271.6718 265.3934 266.9864 269.097 270.4241 271.3755 270.4624 268.3129 270.9521 271.5862 269.4116 271.4169 275.5482 280.3336 284.893 288.5075 288.8932 287.0753 287.8661 289.9967 292.2084 294.4854 296.9087 300.2457 304.056 307.3222 311.7026 316.2376 321.5803 325.4828 327.7419 330.0671 333.9933 335.8452 337.6028 340.349 343.6982 350.0692 359.3765 -9999 
256.2873 258.8614 261.926 264.8347 266.0436 264.1711 261.7189 260.3705 259.1552 258.3033 259.7881 260.4774 259.6997 261.1116 263.5361 262.8464 259.3884 263.4806 265.3027 265.2707 266.8211 268.7836 269.9659 270.2025 269.7685 268.9334 267.9904 264.6913 261.8728 262.3743 267.2481 272.6194 276.4688 277.9189 277.5025 275.0929 273.4805 274.5672 275.5558 273.8883 270.7374 264.6883 263.804 266.3944 267.2975 267.7933 266.6359 264.1289 264.8156 266.1085 264.0826 267.5855 271.7575 276.769 280.4787 282.9336 283.1311 281.8154 283.2849 284.6756 285.7531 288.3003 291.0533 293.7694 297.1729 301.0267 304.3813 307.5282 314.5909 319.4784 322.9693 326.325 328.6201 329.6684 330.1429 333.4135 340.5884 349.8615 358.9689 -9999 
251.4935 254.0244 256.0786 258.9518 260.452 259.343 257.9357 257.2014 255.3645 254.4969 256.2583 256.2819 254.2165 257.0331 258.3702 256.3837 253.4307 258.1416 260.0547 259.7842 261.8949 264.4516 266.1373 266.9627 266.4948 264.7207 262.9441 260.1566 258.1842 259.6668 264.9313 270.2567 273.6145 274.9767 274.6371 271.7563 269.0699 269.584 270.8918 271.1763 269.9575 267.0156 261.6436 261.6904 263.7439 264.0022 262.9256 260.3795 259.7776 260.6638 260.3039 263.6462 268.2278 272.2521 274.8151 277.2152 277.0968 276.4807 278.5528 278.7848 279.6897 280.914 284.176 286.9052 290.2884 294.7407 296.5378 299.3408 306.338 313.7339 318.3567 319.793 319.1691 321.9531 324.0748 331.3497 340.1349 348.1231 356.5574 -9999 
243.5173 246.5598 249.0536 251.1166 252.9569 253.5954 253.6786 253.4279 250.8058 249.65 251.4776 250.0055 248.7139 251.5301 252.1311 249.7757 248.4617 253.0663 254.5914 255.0779 257.0545 259.5926 261.7525 263.7109 263.4279 261.3782 258.4266 255.3412 254.0356 257.076 262.5641 267.5628 270.4667 271.8281 271.718 268.8281 265.3135 264.9185 266.2809 266.0517 265.9698 266.5774 264.026 258.8122 257.5777 259.3237 258.5626 256.103 254.622 254.9424 256.335 260.696 264.382 268.0022 270.0135 271.2039 271.1245 270.5363 272.8437 272.1606 272.809 275.4051 277.1046 279.8905 283.8376 287.6103 289.4113 293.6934 301.1149 307.8779 311.7241 311.7709 310.4471 314.8323 321.0652 330.0543 337.4638 344.8234 353.1364 -9999 
236.033 237.8814 240.8084 241.5223 243.4402 245.883 248.175 248.7001 246.5795 243.7254 243.6448 241.4325 242.2854 245.1493 245.3155 243.0444 244.0514 247.6827 248.3007 249.1065 251.1839 253.5336 256.6916 259.4447 259.9763 256.6956 253.227 249.8275 249.9562 254.1714 259.5705 263.9362 266.6411 267.9963 267.9258 265.5721 262.065 260.9876 261.6908 261.2909 260.3492 261.1393 262.3664 259.8257 254.076 253.2884 254.3669 252.7236 250.406 249.0227 252.8678 256.1183 259.6751 262.3519 264.5282 266.1053 266.3526 265.5832 267.1516 265.6126 264.9963 267.5175 270.3239 273.4709 277.9397 280.508 284.5969 291.4613 297.353 302.2498 304.9663 304.5655 304.5903 311.1334 318.5294 327.0698 334.5351 342.3223 350.1576 -9999 
225.6253 228.3044 232.5159 233.1568 235.6808 239.8228 241.3457 240.4431 239.1901 237.41 238.3619 237.2829 236.6043 237.481 238.9272 237.0756 238.6345 240.7787 242.0443 243.2289 245.3203 247.1716 250.1277 253.8925 254.995 252.0285 246.5195 244.7759 246.4035 251.3319 256.1234 259.766 262.2059 263.7109 264.0943 262.2002 258.5349 256.5569 257.2104 256.8222 255.0952 254.8446 255.5274 255.1715 252.1644 246.5887 247.3514 247.4614 245.6705 244.4707 250.5663 252.9447 255.0309 256.9508 259.5469 260.7135 261.4394 261.5482 261.8751 258.8649 257.8395 259.9203 263.0909 267.7117 270.6457 275.4929 281.2426 286.9992 290.9074 295.391 298.135 297.3318 300.9542 308.7285 316.2023 324.0234 332.5791 340.9221 347.8041 -9999 
216.0845 217.5643 220.6938 224.3259 229.5985 234.479 233.7814 230.8545 230.0886 232.0511 233.5737 232.3459 232.1166 230.8214 232.5682 232.1203 232.649 234.0775 235.3691 236.7755 238.8369 240.3967 243.8513 248.1192 250.3868 248.336 243.1948 240.8935 243.0709 248.2064 252.7428 255.5343 257.5967 258.9709 259.3105 257.8038 254.9067 252.9723 253.9398 253.4073 251.3138 250.1908 249.7636 248.8582 246.2421 241.1621 239.6222 240.2925 239.54 241.3254 246.4937 248.9522 250.3987 252.2867 254.0185 255.8514 256.9626 256.5392 256.3828 253.1529 251.5451 253.3209 255.8708 259.8942 265.0006 271.4343 276.2716 280.7374 285.0129 288.8048 290.2125 291.53 299.82 305.9485 312.294 321.1182 329.7553 337.7408 344.1303 -9999 
214.0135 215.3172 215.5148 215.9083 219.434 224.4077 224.7435 222.6844 222.6552 227.0798 227.9489 227.3478 226.6326 225.3574 227.1309 226.7765 225.9323 227.5641 229.4809 230.4953 232.4557 234.97 238.3209 242.2278 245.9183 244.2784 240.0971 237.6721 240.4263 245.4766 249.7095 251.703 253.1397 254.104 254.4242 253.5904 250.8306 249.3907 251.0047 251.0667 249.0986 247.5922 245.3779 243.3605 239.5594 235.744 233.463 233.2235 234.0448 238.7638 243.1263 244.8304 246.0726 247.5207 249.1944 252.2305 253.2954 250.9467 250.2022 247.559 246.3212 247.7057 249.9149 253.41 259.3721 265.4381 270.4589 274.9569 279.6575 282.5176 283.2379 289.7709 297.4089 302.8427 308.9857 317.3535 325.6807 332.639 337.5105 -9999 
207.4978 210.4765 213.0081 214.8139 215.3509 215.5746 216.6773 216.9488 218.6183 219.9929 220.6436 221.0669 221.0945 219.8686 220.8744 221.0641 220.703 221.9107 223.2286 223.7589 226.1173 228.8629 233.1826 237.5869 241.056 240.3777 236.9265 235.0242 237.465 242.9156 246.9635 248.0133 248.4225 249.3328 249.5261 248.483 246.5327 245.916 247.7817 248.4467 247.7202 245.7453 242.2668 239.2634 234.7825 230.4639 228.4276 229.1142 231.9594 237.1585 238.7011 241.0049 242.1371 243.6131 245.4911 248.0602 248.7746 245.792 244.1729 242.3159 242.1899 243.7641 246.244 249.384 254.0495 258.8701 264.3431 269.149 273.3561 275.5341 280.8351 288.5064 294.4638 299.532 305.4509 312.7464 320.7059 326.7249 333.0277 -9999 
200.6263 203.607 206.6113 209.3224 211.9149 213.8634 214.7155 214.9585 214.9623 215.1948 215.5974 215.6769 215.692 215.1282 215.2156 215.2615 214.7724 215.6414 216.4753 218.467 220.8354 223.8786 227.5447 232.8487 237.0455 236.5988 233.5747 232.1679 235.8504 240.9388 243.4681 243.3862 243.1137 243.7859 244.1525 243.3868 242.1142 242.4561 245.4619 246.1325 246.0363 244.3796 240.2053 235.8408 230.3932 225.5208 224.3064 225.478 230.6576 233.8936 233.2292 236.3486 238.4837 239.521 241.4849 242.7356 242.57 240.5698 239.1791 238.314 239.0891 241.5316 243.355 245.3766 249.3046 253.2965 258.0038 261.9654 265.8098 270.8004 279.1398 286.3922 291.321 295.581 300.8745 306.7449 315.2581 322.8908 330.1844 -9999 
196.1089 198.4554 200.3277 202.3687 204.6969 207.0996 209.4015 211.3497 212.7513 213.7967 214.2883 214.1411 213.9645 214.0165 213.9586 213.6214 213.5985 213.6671 213.6593 214.0162 215.7471 219.2015 223.6098 228.0539 231.358 231.7779 229.7814 229.8773 234.1852 238.0495 239.0845 238.0735 237.4712 237.861 238.5565 238.0312 238.1059 240.1876 243.6095 244.3707 244.4401 242.3409 237.5126 232.3557 226.6156 221.8521 221.0855 224.0569 230.0772 230.3776 228.6116 231.5641 233.2202 234.5672 236.6311 237.8288 236.9802 236.409 235.8781 235.8749 236.8638 239.1848 240.5459 241.8676 244.6143 247.9382 250.8885 253.6948 258.6133 266.5776 275.7567 284.3549 288.4173 291.6654 295.6504 300.8142 308.4802 318.0032 326.6592 -9999 
193.3731 194.766 195.5943 196.6436 198.4721 200.7288 202.7058 205.8488 207.5859 208.6349 209.7886 209.8622 210.2079 210.2228 209.7816 208.4707 208.1404 208.8911 210.0959 212.1593 213.3511 214.3535 217.9293 223.2264 226.4953 227.446 226.261 227.5853 231.7495 234.4442 234.1868 233.1835 233.1027 233.3129 233.6962 233.9073 234.7099 237.9688 242.1035 242.872 243.0784 241.6425 236.2876 229.6605 222.8581 218.7219 220.3357 225.8577 229.092 226.2618 224.1747 226.4421 227.1234 228.7995 230.6072 231.1504 230.6686 232.2155 232.7646 233.0499 233.9625 235.7911 237.6663 239.145 240.4686 242.6777 244.9877 248.0464 255.6941 264.2798 272.1134 280.0701 284.4659 287.7786 291.2469 296.2851 303.1491 312.645 322.4916 -9999 
191.4988 192.3891 192.9638 194.1624 195.4261 196.5156 198.6013 200.8369 202.7534 204.0056 204.0088 204.8436 205.9733 205.8247 204.114 202.647 201.3573 201.5294 202.8215 206.1099 209.716 212.5983 213.5092 216.6326 221.4539 222.8695 222.9156 224.9691 228.618 230.2285 229.8795 229.2382 229.2574 229.2698 229.6002 230.158 231.7292 235.7171 240.2763 241.7765 242.0232 241.0819 235.0547 227.5798 220.2831 216.7629 219.8955 223.7198 224.3788 222.1638 220.2018 221.4445 223.6152 224.2836 224.1056 224.9766 226.0732 228.0907 229.4646 229.4496 230.9363 234.3203 236.1342 236.1929 236.6286 237.5486 241.2868 247.0544 253.6442 260.2152 266.739 273.4055 280.4139 283.5866 287.3269 292.0331 298.0198 307.8125 318.206 -9999 
189.614 190.0484 190.7444 191.6749 192.5952 192.9851 194.9704 196.6733 198.4937 199.3076 199.0027 199.1122 201.6122 200.8518 198.1196 196.4283 196.6587 197.1835 198.0783 201.6026 205.6034 208.503 212.0612 213.085 215.3614 218.6671 220.0055 222.287 224.8367 225.8406 225.6259 225.4351 225.5464 225.6882 225.9415 226.8219 229.1403 233.8924 238.8867 240.7707 240.5524 238.7599 234.3237 227.1265 219.0962 215.0784 216.395 219.183 218.7289 217.1507 215.9099 219.2955 220.1829 220.3224 218.0437 219.2292 222.2154 224.9661 226.44 225.8669 228.6616 231.4711 232.4865 231.9692 232.4745 235.4266 238.8817 244.0547 249.6254 255.5449 263.1912 271.7413 277.7425 279.9362 282.7162 287.3945 293.601 302.0707 313.1391 -9999 
189.4703 189.5475 189.5817 189.8085 190.0347 190.1855 191.1078 192.2344 194.131 194.1172 193.7152 193.3712 194.2576 195.2045 194.2469 194.6572 195.3726 196.0295 197.2213 198.7715 201.4374 205.2298 207.9974 211.8806 212.9335 213.5102 217.0345 219.6492 220.8458 221.2541 221.3669 221.421 221.6913 221.9069 222.5247 224.2601 227.3882 232.3215 237.1749 239.2585 237.9672 235.5575 231.7775 226.5027 219.1292 213.2789 213.2898 214.4375 212.8802 211.9768 211.6241 215.4854 214.4863 212.8117 212.7216 213.6049 217.1542 220.3032 222.2885 222.4133 223.5589 225.6882 227.6481 227.5403 230.0579 233.3378 236.3029 240.787 246.8374 253.6802 262.0478 270.2362 275.4729 277.4603 279.8311 284.3817 290.9058 296.9138 308.9004 -9999 
189.6423 189.8454 189.9605 190.0636 190.1063 190.3157 190.3534 190.3363 190.684 190.9213 191.3627 191.8837 192.364 192.8311 192.9908 193.1543 193.0898 193.7829 194.2567 196.5933 199.1056 201.7514 205.8434 208.9657 211.7905 212.5667 213.5743 216.4527 217.3712 217.864 217.7374 218.3117 218.6991 219.0786 220.148 222.0783 225.846 230.5833 235.5162 236.9747 235.1427 231.5573 227.3983 223.1943 217.3239 212.2541 210.2696 209.9581 209.4487 209.6545 209.8122 209.5588 209.2791 209.3872 209.6921 210.1155 211.1211 212.3736 214.7809 217.3268 217.3845 218.8415 221.6183 224.9449 228.1842 232.0252 235.1058 238.8078 244.1576 250.3122 257.6841 266.3297 272.2657 275.081 277.708 281.2918 286.9785 294.0346 305.6136 -9999 
189.5706 189.6563 189.8703 189.9973 190.147 190.2522 190.3083 190.3289 190.2702 190.3646 190.7676 191.7295 192.1783 192.2336 192.2599 192.2279 192.5483 192.439 192.6581 193.7164 196.2205 200.3624 203.4389 207.1661 209.2899 211.0403 212.4717 213.0007 214.5222 214.909 215.2376 215.4203 216.1036 217.5657 218.8012 220.2282 223.782 228.6045 233.7664 234.3876 231.6324 228.2648 224.5459 219.6167 214.3923 210.955 209.6882 209.5521 209.76 209.636 208.8421 207.3276 206.6572 207.7003 208.8322 209.0139 210.2267 210.7912 211.1899 211.8035 213.4787 215.6301 218.1015 220.9519 224.4201 229.1673 232.3038 235.3595 239.9327 246.5632 252.8731 260.3738 266.6506 272.3751 275.407 279.0821 284.8236 291.0675 301.1703 -9999 
191.0395 190.9958 190.3495 189.8824 190.0598 190.2779 190.3649 190.4011 190.4137 190.411 190.4447 190.5766 190.8565 191.1705 191.972 192.0214 192.4812 192.8152 192.793 192.7882 193.666 197.2821 201.7868 204.2698 206.4607 208.4979 210.8554 212.2379 212.4426 213.2845 213.7048 214.4322 215.6444 216.8287 217.854 219.5327 222.0647 226.7877 231.0865 231.4106 228.2677 226.1505 222.3663 216.8971 212.0637 209.7391 209.7605 209.3106 208.1945 206.4799 204.9526 204.2868 204.2655 206.224 207.8066 208.7606 210.1768 211.0923 210.6515 211.1431 211.9308 212.8423 214.8615 217.0191 220.6555 225.1708 227.3957 231.2199 235.7803 241.3974 247.4969 254.606 260.2672 267.3149 271.3599 275.2617 282.0829 288.2454 297.2024 -9999 
191.6436 192.0102 191.9738 191.2106 190.483 190.452 190.4357 190.4088 190.4534 190.4325 190.4382 190.3743 190.3822 190.2961 190.5727 191.1449 192.1747 192.8012 193.1545 193.0027 193.0761 194.2366 198.7511 202.5306 204.2408 206.1682 207.6786 210.5457 211.7222 212.1798 212.7231 213.5298 214.9508 216.2996 216.4197 218.0185 220.0468 224.9572 229.6247 229.5189 226.0352 223.6715 220.2583 215.3121 210.7414 209.7872 208.5148 206.4608 204.5054 204.678 203.5815 202.4727 202.1628 202.8768 204.3774 206.8464 207.4775 209.9624 210.0583 209.9209 210.8263 212.0778 212.6583 214.0518 217.2599 221.0094 224.0085 227.4713 231.3401 236.6708 242.6198 249.1325 254.4358 260.5138 266.381 271.016 277.9899 284.6485 294.0493 -9999 
193.6134 191.7479 192.0311 192.0244 192.0271 191.7096 191.3701 191.2614 191.2517 191.2299 190.8871 190.5065 190.4109 190.2128 190.4468 190.5302 190.8389 191.7611 193.1524 193.3687 193.3268 193.809 195.7165 200.224 203.7175 205.1884 205.8292 207.9768 209.8797 211.2533 211.9496 212.2941 212.82 213.8655 214.9362 216.1315 218.3792 222.8 227.6508 227.466 223.2945 219.8817 215.6984 211.775 209.9425 207.9599 204.8743 203.5758 201.8647 203.0191 201.8675 200.1114 199.9576 200.2192 200.8976 203.5735 203.3225 207.211 208.7978 209.5564 209.8061 211.1393 212.0404 212.8819 213.9337 216.8981 220.0612 223.4087 227.6833 232.1183 237.9678 243.592 249.3368 255.2643 261.2697 266.778 272.3654 278.4633 287.7278 -9999 
195.1599 192.2817 192.3331 192.2762 192.6424 192.5323 192.3981 192.3299 192.2526 192.0374 192.5499 191.401 190.7334 190.7077 190.7547 190.7237 190.8278 190.8327 191.0164 192.0597 192.84 193.4257 194.2132 197.9959 202.133 204.1777 204.7489 206.1631 208.2272 209.065 210.8981 211.7015 211.5597 212.2848 213.2497 214.4296 216.5744 220.4033 222.9075 220.5735 218.0433 214.4465 211.2286 210.0614 208.397 205.5285 202.9362 201.4525 199.7725 199.4868 197.5711 196.3797 196.6586 197.1365 197.9243 199.1514 201.0974 203.0418 204.3268 207.1283 207.412 209.0737 209.741 211.5358 213.3589 214.0277 215.8914 219.2914 223.7968 228.2818 233.11 238.32 243.0781 249.2701 256.0316 262.0291 267.0823 272.9906 280.0644 -9999 
192.7743 192.5249 192.3272 192.4927 192.8882 193.058 193.201 193.2113 193.8387 193.0048 192.6792 192.1948 191.8556 191.8124 191.3846 191.0923 190.8488 190.8163 190.6875 190.9259 191.2404 192.3366 193.2523 195.4773 200.1558 203.5779 204.1167 204.7491 206.3662 207.5149 208.4509 210.2792 211.4434 211.4762 211.6555 212.1857 213.6265 214.8167 213.9278 212.2545 211.328 210.2917 209.447 207.3564 205.8898 204.9044 202.2545 200.1725 197.7235 195.9983 195.8495 195.2487 195.5568 195.6436 195.5993 195.7514 196.668 197.4068 199.1875 201.5122 203.9969 206.7634 206.906 209.6266 212.9021 213.9403 214.4726 215.4596 219.1147 223.9272 228.3474 233.7696 237.7906 244.0569 250.6443 256.1599 261.3521 266.9016 272.82 -9999 
193.1224 192.5814 192.147 192.7533 193.5183 193.7659 193.591 193.6366 193.5667 193.2652 193.2395 193.4508 192.8338 192.3598 192.3138 192.2106 192.0261 191.3506 190.9227 191.0107 191.0217 191.0839 191.8592 193.7151 198.0349 202.5053 204.1369 204.3718 205.6853 207.1227 207.8784 207.8381 208.567 210.0323 210.9837 211.1049 211.1673 211.0374 210.8366 210.4013 209.4371 206.8863 204.0728 202.8753 202.3235 202.3449 201.7399 199.4071 195.816 195.2236 195.5328 194.7582 195.0004 195.1197 195.3268 195.6 195.6785 195.7767 196.2326 196.9641 199.7687 202.3836 204.4506 207.9623 210.8114 213.5067 214.6971 214.9512 215.4566 218.4311 223.5733 228.5466 232.7708 238.4088 245.7084 250.9772 254.3587 258.9724 266.7194 -9999 
194.4785 193.5386 193.2583 193.5546 193.8992 194.0289 194.0312 194.0998 193.9314 194.1047 194.33 193.9898 193.9853 193.9759 193.1367 192.6601 192.5325 192.576 191.9384 191.393 191.0321 191.0478 191.0861 191.5887 194.0599 198.8465 203.7445 204.6239 204.9322 205.1992 206.3343 206.6988 206.8058 207.1726 208.0598 208.516 209.7621 210.3992 209.5801 206.8182 203.9958 201.2668 198.7224 197.9355 197.8309 197.2003 196.2292 195.3194 194.5416 194.8905 195.2333 194.5756 195.0099 195.0865 195.3843 195.5195 195.6276 195.7108 195.8002 195.891 196.3498 197.4413 201.0044 206.1744 209.8438 212.208 214.3636 215.1241 215.1892 215.9043 218.1258 222.6794 228.1261 233.8831 240.4906 244.1254 247.5814 253.3923 261.9073 -9999 
198.2634 195.7772 194.0271 193.6022 193.6286 193.8508 193.9629 194.1949 194.2339 194.6736 194.8598 194.7065 194.6255 194.651 194.2859 194.2 193.9895 193.479 193.0193 192.7527 192.3331 191.1643 191.0019 190.9674 191.5208 194.1821 201.345 203.3878 203.8899 203.9529 203.4516 202.8776 202.9772 203.2817 203.7093 204.2177 204.879 205.0856 202.2289 201.0768 198.4402 196.9338 195.7691 195.1007 194.8108 194.638 194.7264 194.8071 194.8884 195.3815 195.9444 195.6497 195.9933 196.0471 196.3062 196.0014 195.8802 195.8367 195.8729 195.9005 195.9111 196.0193 197.2901 202.5313 208.5852 210.823 212.6667 213.6226 214.1094 215.1225 216.1243 217.5438 221.7508 229.1137 234.2807 236.0721 242.0073 249.0885 256.4934 -9999 
200.8613 199.7292 197.6324 195.3089 194.1665 194.0233 194.2189 194.3784 194.2877 194.5288 194.7255 194.7928 194.8249 194.7225 194.4609 194.6155 194.4544 194.5627 194.4744 194.1947 194.2808 192.9913 192.2575 191.3788 190.9686 191.3487 193.8632 197.0765 198.4592 197.7531 196.763 195.3916 194.8159 194.4497 194.9243 195.1065 195.1216 194.8207 194.3115 194.4111 193.9108 193.7944 193.7969 193.9163 194.209 194.5049 194.648 195.1924 196.1143 196.9142 197.5987 197.0352 197.2148 197.4922 197.4396 197.1291 196.9461 196.9696 196.7035 196.3199 195.9936 195.9948 196.0816 196.9446 201.297 204.4745 207.5977 210.0945 211.7587 212.2307 213.2986 215.8691 217.1402 220.4077 223.7948 227.8965 236.5503 243.4357 251.2289 -9999 
200.7874 200.9405 200.3578 198.7807 197.4489 196.6054 195.9647 195.1273 194.839 194.7919 194.895 194.8438 194.7475 194.8247 194.9006 194.9323 194.8674 195.0241 195.1614 195.2856 195.8632 197.1058 197.4672 194.2937 191.9661 191.6516 191.8479 192.2074 192.2404 192.6432 192.7584 193.0574 193.2256 193.2542 193.3017 193.3654 193.3746 193.3989 193.4352 193.4195 193.2977 193.5177 194.2292 194.5875 194.7579 194.7113 195.736 198.3542 199.826 199.4861 199.4501 197.7513 197.9348 197.9062 198.0442 197.9778 198.0643 198.3725 198.1119 198.1674 197.0706 196.0504 196.1754 196.0531 196.3751 198.2637 200.7641 203.3633 206.805 207.6285 208.3269 211.772 215.3938 217.4085 217.6898 221.263 229.7249 238.2282 248.0867 -9999 
200.7813 200.6863 200.5044 199.9461 199.1237 198.795 198.584 197.5656 196.4859 196.0526 195.9563 195.9937 196.1028 196.2675 195.973 195.9632 195.9401 196.4135 197.1364 198.362 200.8548 202.8598 201.9398 198.0312 193.9519 192.5786 192.147 192.252 192.2914 192.4335 192.7579 193.0014 193.1948 193.2492 193.3417 193.3569 193.3532 193.5287 193.8212 194.0103 194.0085 194.3096 194.0538 194.3107 195.2409 198.9377 204.2241 206.6807 208.204 206.5123 203.742 198.8722 199.0351 198.9888 198.5524 198.3087 198.771 198.9536 198.51 198.8045 198.5495 197.7716 196.9933 196.41 196.1871 196.1073 196.1819 196.8722 198.4397 202.0435 203.7552 206.9713 211.2654 216.1482 217.7081 218.6761 224.5218 234.1341 243.8037 -9999 
200.5597 200.8285 201.0662 201.1154 200.9525 201.205 201.0885 200.3204 199.4422 198.9391 199.282 199.0589 199.1999 200.163 200.6668 200.2189 200.212 201.3849 202.3114 203.9875 206.0872 207.0638 205.9682 202.191 197.716 195.1568 193.6846 192.9465 192.5802 192.8604 193.1466 193.2274 193.4767 193.8433 194.1036 194.2469 194.9716 196.174 197.3954 198.3186 199.6483 200.8781 200.6588 201.2781 202.5686 206.1368 210.0359 211.5487 211.764 210.968 207.4458 201.9663 201.8478 200.5597 199.3095 198.6208 199.2431 199.293 198.809 198.8004 198.7986 199.09 198.8215 198.396 197.5943 196.698 196.4336 196.7486 197.1845 199.3488 201.735 204.1912 206.5464 211.6339 216.4532 218.1039 221.4751 229.7003 236.6645 -9999 
200.6631 201.0949 201.3042 201.5456 201.8062 201.8471 202.0252 202.0851 201.8587 201.9968 202.5587 202.8214 203.0656 203.7306 203.7123 203.7133 204.2566 205.5643 206.6446 207.7029 208.5596 209.4291 209.1956 206.5047 202.0095 202.1971 200.8377 199.813 197.9471 198.0365 198.2975 196.7531 196.8755 197.0653 197.8149 199.1375 200.4701 201.9175 203.1955 204.9527 206.5121 208.8757 210.3358 210.8678 211.9034 212.358 213.7234 214.514 214.7919 213.8371 210.8237 205.5899 202.7295 201.7522 200.2993 199.4576 199.8322 200.2664 199.9133 199.6188 199.7811 200.5289 201.5083 202.5603 201.4368 198.9936 197.2698 196.9825 197.1819 197.9039 200.2814 201.5056 203.3019 206.6574 212.3887 217.5685 218.9772 224.9582 235.1456 -9999 
200.6013 201.1385 201.6158 202.0517 202.5623 202.8211 203.1666 203.4318 203.6651 203.6504 203.8667 203.8243 204.1486 204.5401 204.6961 205.1086 205.8774 206.8795 207.9232 208.7815 209.7397 211.2313 212.1486 210.1628 207.5139 209.4888 209.4803 208.8871 208.2954 207.4019 206.2994 204.8192 204.551 204.7104 205.0106 206.1871 207.2169 208.0114 209.5875 211.8251 213.5352 216.1607 218.0163 218.9319 219.3509 218.2412 218.0557 218.5176 218.4718 217.5888 214.1099 208.4469 206.0348 205.1834 203.8736 202.899 203.0875 203.0233 202.9539 204.0483 205.3633 206.0224 207.0389 208.0485 206.5475 203.9998 201.142 198.5219 197.3036 197.5283 199.4348 200.4162 201.4863 203.9662 208.1977 214.5097 218.4275 221.5887 232.5682 -9999 
201.0561 201.4743 202.2754 202.5932 203.395 204.0416 204.5275 204.8049 205.0872 205.1457 204.9535 204.7073 204.7371 205.2823 205.8552 206.2103 207.1117 208.1974 209.397 210.3434 211.557 213.348 214.9646 212.431 212.9986 216.2519 217.0927 217.0812 216.6441 215.3217 214.0361 212.6869 211.5616 211.6014 211.7033 212.8835 213.7206 214.8381 216.673 219.1004 224.7245 226.6976 226.2251 226.5079 225.6178 224.0024 222.9238 222.7524 222.9168 222.0253 218.1837 214.0014 213.085 211.5315 210.1387 209.2696 208.8212 208.1853 208.9427 209.8488 211.2813 211.6981 211.6779 211.706 210.6095 209.1606 205.7072 200.7973 197.3804 197.3231 198.4127 200.0702 200.506 201.7729 204.8042 211.1046 217.4321 219.5677 227.6386 -9999 
