ncols         205
nrows         263
xllcorner     418822.332194
yllcorner     5286157.9304
cellsize      10
NODATA_value  -9999
-9999 -9999 -9999 -9999 -9999 -9999 -9999 -9999 -9999 -9999 -9999 -9999 -9999 -9999 -9999 -9999 -9999 -9999 -9999 -9999 -9999 -9999 -9999 -9999 -9999 -9999 -9999 -9999 -9999 -9999 -9999 -9999 -9999 -9999 -9999 -9999 -9999 -9999 -9999 -9999 -9999 -9999 -9999 -9999 -9999 -9999 -9999 -9999 -9999 -9999 -9999 -9999 -9999 -9999 -9999 -9999 -9999 -9999 -9999 -9999 -9999 -9999 -9999 -9999 -9999 -9999 -9999 -9999 -9999 -9999 -9999 -9999 -9999 -9999 -9999 -9999 -9999 -9999 -9999 -9999 -9999 -9999 -9999 -9999 -9999 -9999 -9999 -9999 -9999 -9999 -9999 -9999 -9999 -9999 -9999 -9999 -9999 -9999 -9999 -9999 -9999 -9999 -9999 -9999 -9999 -9999 -9999 -9999 -9999 -9999 -9999 -9999 -9999 -9999 -9999 -9999 -9999 -9999 -9999 -9999 -9999 -9999 -9999 -9999 -9999 -9999 -9999 -9999 -9999 -9999 -9999 -9999 -9999 -9999 -9999 -9999 -9999 -9999 -9999 -9999 -9999 -9999 -9999 -9999 -9999 -9999 -9999 -9999 -9999 -9999 -9999 -9999 -9999 -9999 -9999 -9999 -9999 -9999 -9999 -9999 -9999 -9999 -9999 -9999 -9999 -9999 -9999 -9999 -9999 -9999 -9999 -9999 -9999 -9999 -9999 -9999 -9999 -9999 -9999 -9999 -9999 -9999 -9999 -9999 -9999 -9999 -9999 -9999 -9999 -9999 -9999 -9999 -9999 -9999 -9999 -9999 -9999 -9999 -9999 -9999 -9999 -9999 -9999 -9999 -9999 
-9999 -9999 -9999 -9999 -9999 -9999 -9999 -9999 -9999 -9999 -9999 -9999 -9999 -9999 -9999 -9999 -9999 -9999 -9999 -9999 -9999 -9999 -9999 -9999 -9999 -9999 -9999 -9999 -9999 -9999 -9999 -9999 -9999 -9999 -9999 -9999 -9999 -9999 -9999 -9999 -9999 -9999 -9999 -9999 -9999 -9999 -9999 -9999 -9999 -9999 -9999 -9999 -9999 -9999 -9999 -9999 -9999 -9999 -9999 -9999 -9999 -9999 -9999 -9999 -9999 -9999 -9999 -9999 -9999 -9999 -9999 -9999 -9999 -9999 -9999 -9999 -9999 -9999 -9999 -9999 -9999 -9999 -9999 -9999 -9999 -9999 -9999 -9999 -9999 -9999 -9999 -9999 -9999 -9999 -9999 -9999 -9999 -9999 -9999 -9999 -9999 -9999 -9999 -9999 -9999 -9999 -9999 -9999 -9999 -9999 -9999 -9999 -9999 -9999 -9999 -9999 -9999 -9999 -9999 -9999 -9999 -9999 -9999 -9999 -9999 -9999 -9999 -9999 -9999 -9999 -9999 -9999 -9999 -9999 -9999 -9999 -9999 -9999 -9999 -9999 -9999 -9999 -9999 -9999 -9999 -9999 -9999 -9999 -9999 -9999 -9999 -9999 -9999 -9999 -9999 -9999 -9999 -9999 -9999 -9999 -9999 -9999 -9999 -9999 -9999 -9999 -9999 -9999 -9999 -9999 -9999 -9999 -9999 -9999 -9999 -9999 -9999 -9999 -9999 -9999 -9999 -9999 -9999 -9999 -9999 -9999 -9999 -9999 -9999 -9999 -9999 -9999 -9999 -9999 -9999 -9999 -9999 -9999 -9999 -9999 -9999 -9999 -9999 -9999 -9999 
-9999 -9999 0.9350029 0.9398756 0.9339596 0.9349488 0.9270085 0.9291552 0.9303312 0.9326248 0.934013 0.9357746 0.9377394 0.9393943 0.9411737 0.942408 0.9437319 0.945645 0.9472016 0.9489595 0.9864693 0.9958096 0.951282 0.9511268 0.9518101 0.9522015 0.954127 1.019819 0.9538527 0.9524344 0.9771569 1.005325 1.030635 0.9547462 1.03951 0.9527723 0.976451 0.971634 0.9853916 0.9578864 0.950697 0.9494066 0.9576311 0.9476788 0.9464348 0.9446349 0.9431902 0.9415669 0.9403366 0.9389561 0.9377426 0.9374264 0.9366433 0.9355918 0.9667767 1.049653 1.115499 1.077544 1.007552 0.9557236 0.933712 0.934227 0.9351294 0.9362559 0.9368671 0.9386481 0.9398489 0.945554 0.9389496 0.9364598 0.9350647 0.9340358 0.9332092 0.9364029 0.9335914 0.9316814 0.9310597 0.9302773 0.9301497 0.929338 0.9298239 0.9312032 0.9308189 0.9306682 0.931175 0.9316121 0.9303396 0.9279183 0.9252449 0.9231032 0.9207202 0.9192255 0.9177157 0.9164513 0.9149431 0.9134564 0.9200523 0.9115972 0.911312 0.9102699 0.9090732 0.909609 0.906671 0.9044157 0.9021817 0.9002671 0.8986331 0.8973277 0.9129709 0.9844106 0.8944137 0.8922476 0.8903526 0.8891147 0.888203 0.8879609 0.8879684 0.8874734 0.886269 0.8855237 0.8847101 0.8843138 0.8836617 0.8906057 0.9680043 0.8842415 0.8857862 0.887651 0.8895454 0.8913251 0.8929985 0.8951025 0.8966924 0.8982217 0.9025367 0.9004264 0.9021154 0.9038327 0.9053907 0.9073727 0.9087017 0.909264 0.9092532 0.9094982 0.9104418 0.9116625 0.9125698 0.9133041 0.9137338 0.9142675 0.9154007 0.917083 0.9169818 0.9175187 0.9175496 0.9178399 0.9245508 0.9204931 0.9226215 0.9171701 0.9168181 0.9171183 0.9233921 0.9316098 0.9178123 0.9199789 0.9191017 0.9177867 0.9161819 0.9147528 0.9137625 0.9123952 0.9109561 0.9100399 0.9091051 0.9077581 0.9096458 0.956911 1.017678 0.9589161 0.9051648 0.9025526 0.9071205 0.9102682 0.9031042 0.9064038 0.9191641 0.9221339 0.9023634 0.898286 0.8975878 0.896834 0.8955465 0.95144 0.9042799 0.892224 0.9412476 1.094343 1.080865 0.9165008 0.892066 0.8931302 0.8941748 -9999 -9999 
-9999 -9999 0.9297909 0.9382569 0.9332446 0.9319896 0.9274541 0.9292389 0.93182 0.9340953 0.9356138 0.9368842 0.9382914 0.9400612 0.9416632 0.9432275 0.9446641 0.9462349 0.9486075 1.027086 0.950475 0.949246 0.9494131 0.9862746 0.996549 0.9516193 0.975685 0.9543392 0.9522903 0.961003 0.9917136 1.009293 0.9752777 0.9660714 0.9956808 0.951534 0.9802373 0.9876855 0.9922493 0.9793093 0.9497537 0.9487507 0.9475728 0.946452 0.9454316 0.9441612 0.942363 0.9407332 0.9394335 0.9381166 0.9366095 0.9436092 0.9438279 0.9708138 1.028221 1.105083 1.1599 1.152344 1.125709 1.114655 1.037085 0.9609343 0.9340153 0.9364765 0.9358554 0.9373947 0.9790349 0.9389192 0.9377909 0.9362782 0.9344592 0.9329756 0.9320359 0.9310458 0.9307358 0.9300886 0.9293875 0.9285883 0.9284511 0.9274445 0.9282575 0.9295639 0.9289728 0.9283191 0.9285831 0.9293795 0.9301446 0.928976 0.9266903 0.9240251 0.9219019 0.920267 0.9190202 0.9176129 0.9158749 0.9141931 0.9125069 0.9123478 0.9094899 0.908457 0.9074504 0.9066026 0.9057809 0.9051002 0.9033702 0.9009029 0.8988743 0.8966531 0.929709 0.9539422 0.894232 0.8920937 0.8904747 0.8886611 0.8872005 0.8860493 0.8859391 0.8854808 0.8849956 0.8838894 0.883238 0.8827568 0.9131525 1.014784 0.8832036 0.8848961 0.886472 0.8884194 0.8902622 0.891958 0.8936425 0.8951348 0.8963041 0.8976235 0.8991922 0.9008835 0.9024071 0.9039977 0.905332 0.9062838 0.9067987 0.9069942 0.9075344 0.9083473 0.9094442 0.9106081 0.9110653 0.9116992 0.9122092 0.9131843 0.9147877 0.9155221 0.9152373 0.9161473 0.9159415 0.9167379 0.9286554 0.9203703 0.926991 0.9157968 0.9263943 0.915932 0.9225144 0.9542891 0.9162769 0.9181185 0.9178851 0.9165924 0.9151179 0.913474 0.912397 0.9115682 0.9102051 0.915772 0.9150171 0.9212288 0.9268739 0.9354725 0.9496958 0.9340675 0.9051695 0.9048643 0.920738 0.9238533 0.9182187 0.9266384 0.9396642 0.9291102 0.9011791 0.8972009 0.8963342 0.8954686 0.9349516 0.9719511 0.9070601 0.8920953 0.9711418 1.237919 1.007915 0.8916593 0.8929737 0.8943211 0.8952055 -9999 -9999 
-9999 -9999 0.9264262 0.9287198 0.9403531 0.9361445 0.9278648 0.9296477 0.931515 0.9336927 0.935855 0.9381503 0.939993 0.9416149 0.9427851 0.9442809 0.9460317 0.9939758 0.9870082 0.9482972 0.9477956 0.9824909 1.01644 1.025205 0.9622419 0.9520058 1.09937 0.952356 0.9508169 0.982004 0.992299 1.00737 0.9499574 0.9519867 1.004211 0.9549341 0.9824572 0.9856493 0.9627091 0.9955287 0.9490084 0.9475077 0.9465576 0.9454961 0.9441636 0.9426492 0.9410744 0.9401534 0.9387722 0.9374362 0.9359621 0.957603 0.9622191 0.9669937 0.9723291 0.9776053 0.9829587 1.002576 1.06987 1.198168 1.27361 1.09563 0.9626332 0.9342507 0.9353372 0.9370511 0.9914747 0.9370792 0.9357891 0.9351379 0.933823 0.9325678 0.9312391 0.9297143 0.9290656 0.9285004 0.9277382 0.9269109 0.9263516 0.9257933 0.9267649 0.9279298 0.9273669 0.9264863 0.9263955 0.9262931 0.9271437 0.9279801 0.9335442 0.9257576 0.9234384 0.9222128 0.9204074 0.9188294 0.9170308 0.9148117 0.9128032 0.9110603 0.909443 0.9075906 0.9063357 0.9051937 0.9040151 0.9030759 0.901661 0.9003814 0.8993698 0.8968731 0.9002453 0.8942831 0.8926731 0.8914213 0.8903609 0.8889768 0.8872859 0.8855656 0.8907608 0.8838489 0.8832442 0.8825036 0.8817184 0.8988965 1.010984 0.8843464 0.8839659 0.8855544 0.887285 0.8889651 0.8904842 0.8919959 0.8936948 0.8944963 0.8956761 0.8973346 0.8991503 0.9002452 0.9015817 0.9029207 0.903512 0.9044527 0.9046636 0.90529 0.9061862 0.9070685 0.9080864 0.90909 0.9096534 0.9101285 0.9109864 0.9123127 0.9140475 0.9137567 0.9140744 0.9147974 0.9146355 0.9155297 0.9163526 0.915506 0.9375131 0.9257369 0.9460366 0.9196788 0.9256729 0.9463562 0.9209294 0.9165274 0.9391042 0.9154217 0.9138148 0.912759 0.9254716 0.9133549 0.9101301 0.9226159 0.9234226 0.9202874 0.9103647 0.9046669 0.9035168 0.9024383 0.9015586 0.9096869 0.937321 0.9368567 0.9331368 0.9489723 0.9593872 0.9358485 0.9107088 0.8993101 0.8954363 0.9248085 1.005346 0.9792361 0.9122492 0.9133187 1.004702 1.251697 0.9378483 0.8922924 0.8936141 0.8951764 0.8964204 -9999 -9999 
-9999 -9999 0.9232697 0.9300472 0.9662188 0.9268107 0.9283267 0.9305153 0.9323728 0.9344363 0.9363319 0.9382031 0.9401816 0.9422442 0.9444041 0.9952334 1.015478 0.9469109 0.9463627 0.9458875 0.9868277 1.027616 1.032224 1.027862 0.9497231 0.9522694 0.9917146 0.950871 0.9557573 0.99257 0.991854 1.013259 0.9489909 0.9505001 1.041895 0.9497189 0.9834107 0.9965041 0.9490652 0.9890597 0.9481942 0.9461411 0.9450592 0.9442916 0.9431908 0.9416959 0.9401652 0.9387679 0.9377387 0.9366286 0.9349703 0.9340848 0.9350723 0.9326642 0.932093 0.9316133 0.9312135 0.9312267 0.9602469 1.003096 1.070885 1.107385 1.024368 0.9466121 0.9343348 0.9359463 0.9609556 0.936411 0.9346499 0.9337828 0.9329113 0.9403154 0.9306924 0.9292514 0.9277046 0.9267707 0.9259724 0.9252114 0.9244471 0.9237984 0.9249935 0.9262702 0.9257594 0.9248594 0.9244085 0.9241619 0.9246476 0.9251223 0.9254082 0.9254418 0.9243254 0.9222177 0.919689 0.9172475 0.9157147 0.9143638 0.9138169 0.9118684 0.9100212 0.9082852 0.9065111 0.9047496 0.9032054 0.9016173 0.900362 0.8988988 0.8980528 0.896981 0.8949737 0.8939239 0.8916526 0.8902671 0.8892885 0.8881592 0.8867809 0.8854973 0.8840532 0.8828005 0.8817215 0.8809288 0.8863811 0.9354724 0.8935789 0.8828142 0.884582 0.8859953 0.887629 0.8889627 0.8901944 0.8915992 0.8923377 0.8933509 0.8950144 0.896485 0.8977861 0.8991063 0.9006323 0.9011338 0.9017123 0.9025757 0.9028515 0.9036353 0.9046703 0.9059239 0.9067551 0.9076762 0.9082496 0.9090031 0.9101362 0.9114125 0.9123201 0.9123688 0.9130628 0.9133883 0.913138 0.9142649 0.9147014 0.9141335 0.9393586 0.9370476 0.9736226 0.9418832 0.9346303 0.9287872 0.9139786 0.915087 0.9224 0.9148908 0.913051 0.9118001 0.9110014 0.9100845 0.9088005 0.9078673 0.9069946 0.9057798 0.9046623 0.9035459 0.9025007 0.9014078 0.9004262 0.9133401 0.9469444 0.9422866 0.9321757 0.9381716 0.9295197 0.9117234 0.900412 0.8954171 0.9080348 1.01266 1.042844 0.9574779 0.9444308 0.950763 1.053338 1.13268 0.9107951 0.892719 0.8941289 0.8955553 0.8972364 -9999 -9999 
-9999 -9999 0.9240589 0.944452 0.9433692 0.9272091 0.9291091 0.9310654 0.9331678 0.9350951 0.93684 0.9385539 0.9403976 0.9429969 0.9883421 0.9447443 0.9447699 0.9447279 0.9485696 0.9947019 0.9930466 1.010806 1.016042 0.9926694 0.9495963 0.9997402 0.9520101 0.949446 0.9711114 0.9831156 0.9848596 1.004344 0.9672458 0.9491336 1.032395 0.9491691 0.9685133 0.9949563 0.9479033 0.9593285 0.9476452 0.9452891 0.9439218 0.9431027 0.9421259 0.9410778 0.9396927 0.9377657 0.9364442 0.9352483 0.9338193 0.9327509 0.9320281 0.9313414 0.9307482 0.9302365 0.9297451 0.9298154 0.9374527 0.942346 0.954693 0.9980929 1.023781 0.983661 0.9333001 0.9344769 0.9360945 0.9389278 0.9406087 0.9455857 0.9510037 0.9659376 0.9483066 0.9290344 0.9273541 0.9261913 0.9249385 0.9233491 0.922601 0.9222398 0.9233776 0.9241222 0.9239894 0.9235187 0.9226505 0.9224618 0.9224397 0.9225862 0.9227075 0.9228881 0.923384 0.9220157 0.9194206 0.9168417 0.915009 0.9132671 0.9118898 0.9107895 0.9097753 0.9085963 0.9072781 0.9057019 0.9039558 0.902251 0.9000914 0.8981985 0.8964738 0.8953614 0.9157407 0.8938728 0.8922228 0.8903 0.8884813 0.8869005 0.8854903 0.8845627 0.8834198 0.8821298 0.8803839 0.9512625 1.080294 0.9536449 0.881121 0.8828255 0.8846318 0.8859378 0.8870467 0.8882566 0.889349 0.8900524 0.8911604 0.8925681 0.8938537 0.8950683 0.896216 0.8978785 0.8989327 0.8994367 0.9000366 0.9006788 0.9014435 0.9024349 0.9036709 0.9047812 0.9054999 0.9063085 0.9070773 0.9080945 0.9094554 0.9181657 0.9108927 0.9111618 0.9114387 0.9118748 0.9118153 0.9129164 0.9131864 0.9259739 0.9388092 0.9255233 0.9523271 0.9334037 0.9239755 0.921302 0.912847 0.9132301 0.9140861 0.9145694 0.9121841 0.9104323 0.9095501 0.9089171 0.9079423 0.9065523 0.9058867 0.9048895 0.9038067 0.9026952 0.9014369 0.9095105 0.9152589 0.9294939 0.9517478 0.9443569 0.938868 0.9364333 0.9180611 0.9008543 0.8948727 0.904282 0.9891925 1.091954 0.9969471 0.9643034 1.014869 1.001536 1.104391 1.089625 0.8926423 0.8930282 0.8945073 0.8960169 0.8975592 -9999 -9999 
-9999 -9999 0.9248603 0.9271697 0.9269916 0.928651 0.9302968 0.932073 0.9338504 0.9357613 0.9376525 0.9391512 0.9408386 0.9735498 0.943126 0.942908 0.9430573 0.9525554 0.9956549 0.9863263 0.9921104 1.006677 0.9885695 0.9481779 0.9505016 1.078569 0.9502816 0.9481646 0.9789435 0.9760224 0.9885373 0.9982768 0.9641348 0.9483429 1.02437 0.9484252 0.9470908 0.9525389 0.9464108 0.9468937 0.9470063 0.9457462 0.9435488 0.9419259 0.9406993 0.9396842 0.9386618 0.9368603 0.9351763 0.9337392 0.9327195 0.9315643 0.930703 0.9299738 0.9293669 0.9288017 0.9283833 0.9342093 0.9354088 0.9399861 0.9426092 0.9598415 0.980468 0.9857892 0.9686033 0.9331122 0.953984 0.955089 0.9602832 0.9565706 0.9570099 0.9706234 0.9339998 0.928408 0.9268973 0.9255542 0.9239116 0.9228184 0.9211712 0.927427 0.9220577 0.9221733 0.9221166 0.9220183 0.9211916 0.9204729 0.9203918 0.9203245 0.9203425 0.9205689 0.9205021 0.9210961 0.9196534 0.9170762 0.9150222 0.9130261 0.9112757 0.9097791 0.9084049 0.9073521 0.905811 0.9046609 0.9033087 0.9016209 0.8999745 0.8977564 0.8957481 0.9302908 0.9075376 0.8928587 0.8921446 0.8905277 0.8887542 0.8867556 0.8848553 0.883346 0.8822879 0.8809457 0.9359028 1.153557 1.387035 1.010445 0.8806833 0.88207 0.8833589 0.8849236 0.8857403 0.8869306 0.8881136 0.8889012 0.8900452 0.8913969 0.8924097 0.8936403 0.8952833 0.8965742 0.8972464 0.8979756 0.898405 0.8990018 0.9002013 0.9014795 0.9025508 0.9033758 0.9041618 0.9050593 0.9063649 0.909202 0.921799 0.9091338 0.9093153 0.909548 0.909978 0.910256 0.9106097 0.9115174 0.9315415 0.9446655 0.9279095 0.9115475 0.9236325 0.911583 0.9120588 0.9122292 0.9114956 0.9113022 0.9117932 0.9128066 0.9114103 0.9094487 0.9081029 0.9072374 0.9069161 0.905962 0.9056851 0.9039869 0.9030145 0.902531 0.9097983 0.9295672 0.9404549 0.9489205 0.9651219 0.9603842 0.9614075 0.9598807 0.9502916 0.9348643 0.9440725 1.020112 1.149031 1.082586 0.9634889 1.006823 1.065496 1.055226 1.221671 1.024965 0.8916532 0.8933445 0.8949211 0.8963666 0.8978599 -9999 -9999 
-9999 -9999 0.9306974 0.9263652 0.9282819 0.9300579 0.9317286 0.9333643 0.9349533 0.9366609 0.9384234 0.9400912 0.9956457 0.9903029 0.9414244 0.9491388 0.9576207 0.9703393 0.9721795 0.9746807 0.9741951 0.9460968 0.9475654 0.9496749 1.061083 0.9503552 0.9483556 0.9472625 0.9811837 0.9788741 0.999973 1.004551 0.9632019 0.947388 1.009088 0.9475864 0.9458069 0.9450051 0.9444591 0.9445912 0.9449381 0.9450921 0.9440998 0.9416652 0.9399379 0.9385958 0.9372045 0.9359009 0.9343652 0.9326774 0.9314567 0.9300731 0.9292409 0.9286079 0.9277678 0.9273547 0.9315838 0.9337258 0.9322944 0.9380182 0.9401598 0.9484187 0.956522 0.9630245 0.9681294 0.932281 0.9602749 0.9331805 0.9324254 0.9550549 0.9467618 0.9471225 0.9287122 0.9273536 0.9254617 0.9240261 0.9228308 0.9215279 0.9302165 0.9699357 0.9205186 0.9205256 0.9203011 0.9204861 0.9196621 0.918937 0.9189435 0.9185321 0.917949 0.9176594 0.9178556 0.9186299 0.9502953 0.9179951 0.9162111 0.9139993 0.9120996 0.9100511 0.9082748 0.9066007 0.9050885 0.9033836 0.9022294 0.9008372 0.8992832 0.8973376 0.8956358 0.9119304 0.8933823 0.8913313 0.8908705 0.8901092 0.8881291 0.8866215 0.8846594 0.8829665 0.8813597 0.897503 1.092882 1.387146 1.290286 1.110547 0.9450011 0.8810835 0.8820665 0.8832785 0.8847604 0.8860641 0.8870437 0.8877475 0.8888354 0.8899448 0.8911771 0.8924489 0.8940886 0.894989 0.8954768 0.8961712 0.8966725 0.8977552 0.89899 0.9002354 0.9011855 0.9023131 0.9034621 0.9046893 0.9109526 0.916502 0.9075813 0.9077018 0.9079421 0.9081312 0.9084384 0.9088081 0.9093003 0.9133852 0.9447783 0.9349738 0.9108686 0.910265 0.910102 0.9102544 0.9103921 0.910347 0.9099045 0.9097179 0.9099604 0.9108099 0.911316 0.9086345 0.9071949 0.9059871 0.9054081 0.9055948 0.9041138 0.9030293 0.9020389 0.9011097 0.9045913 0.9337009 0.9556339 0.9557632 0.9721953 0.9875305 0.9774123 0.9686402 0.9735944 0.9725486 1.034818 1.214162 1.175122 1.00496 0.9762052 1.065147 1.095747 1.137341 1.245042 0.9775672 0.8922185 0.8936999 0.895134 0.896593 0.8980286 -9999 -9999 
-9999 -9999 0.9255586 0.927407 0.929385 0.9313139 0.9329913 0.934497 0.9359467 0.9374081 0.9390824 1.015827 0.9411181 0.940183 0.9402207 0.9573745 0.9732298 0.9550149 0.954425 0.9580006 0.9447994 0.9467833 0.9873726 0.990406 0.96637 0.9480286 0.9466969 0.9561162 0.9620546 0.9633071 0.9878072 0.9963031 0.9717217 0.9462861 0.9885632 0.9467302 0.9446868 0.9436758 0.9430827 0.9423032 0.9422958 0.9429857 0.9426101 0.9415562 0.9401541 0.938264 0.9361658 0.9346141 0.9330524 0.9314874 0.929952 0.9288881 0.9279861 0.9271412 0.9263586 0.9258621 0.9257185 0.9260488 0.9275031 0.9378361 0.9385262 0.9383268 0.9408548 0.942083 0.9335493 0.9311742 0.95637 0.9319221 0.9308057 0.9309393 0.9382093 0.9293156 0.9281269 0.9266084 0.9247777 0.9230312 0.9220066 0.9209279 0.9290525 0.9826332 0.9559129 0.9456086 0.9282148 0.926385 0.9184342 0.9175506 0.9169778 0.9165462 0.9162088 0.9159669 0.9159893 0.9169225 0.9181676 0.916989 0.9150044 0.9136632 0.912364 0.9107957 0.9090677 0.9073837 0.9056208 0.9039391 0.90236 0.9007009 0.8988434 0.8970395 0.895335 0.8939927 0.8925101 0.8903301 0.889098 0.8882796 0.8872704 0.8861851 0.884627 0.8828911 0.881123 0.9483449 1.25242 1.259201 1.207507 1.110539 1.043541 0.9820007 0.9239809 0.8824368 0.8837584 0.8849289 0.8859432 0.8866923 0.8876442 0.8886743 0.8897619 0.8912062 0.8923426 0.8931166 0.8937091 0.8944647 0.8953503 0.8967891 0.8980102 0.8991611 0.9002493 0.901495 0.9028875 0.9044409 0.9055995 0.9057358 0.9061952 0.9064726 0.9065096 0.9068176 0.907062 0.9072194 0.9082103 0.9371451 0.9363321 0.9119512 0.9094208 0.908834 0.9087257 0.9086999 0.9087176 0.9087485 0.908348 0.908226 0.9082689 0.9087955 0.9142816 0.9082981 0.9066059 0.9050727 0.9154199 0.9110169 0.903169 0.9021803 0.9010844 0.9001581 0.9137185 0.9495737 0.9673886 0.9545695 0.9649556 0.9845129 0.9777235 0.9829181 0.9913219 1.007004 1.103878 1.174061 1.055925 0.9913048 1.026973 1.100428 1.150452 1.284945 1.12534 0.9518057 0.8926026 0.8940071 0.8954561 0.8966994 0.8982827 -9999 -9999 
-9999 -9999 0.9264259 0.9286773 0.9300238 0.9314063 0.9340036 0.9358265 0.936902 0.9603568 1.010881 0.9393437 0.9387708 0.9387571 0.9405798 0.9554767 0.9614637 0.9405361 0.9475492 0.9429765 0.9445694 0.9466857 0.9504995 0.9477422 0.9489745 0.9464478 0.9456941 0.9459386 0.9444684 0.946133 0.9724349 0.969807 0.9661583 0.9449636 0.9679281 0.945971 0.9438089 0.9423882 0.9414998 0.9406722 0.9403555 0.9403714 0.9401784 0.9423898 0.9707325 0.9380603 0.9360559 0.9340223 0.9322535 0.9305284 0.9290298 0.9275708 0.9266858 0.9259558 0.9250211 0.9260861 0.9244403 0.9246424 0.9253764 0.9261312 0.9268043 0.9275007 0.9282229 0.9289239 0.9291103 0.9299671 0.943774 0.9311967 0.9293644 0.9345322 0.9406919 0.9282798 0.9271207 0.9260162 0.9241892 0.922294 0.9207251 0.9198509 0.9188071 0.9565122 0.9525887 0.9562657 0.9408523 0.9474831 0.9569439 0.9291658 0.9310912 0.9216495 0.9147539 0.9251803 0.9171568 0.9157169 0.9162281 0.91631 0.9142861 0.9122142 0.9107222 0.9100215 0.9089164 0.9072695 0.9053769 0.9036389 0.9022376 0.9006168 0.8986599 0.8966579 0.8949133 0.8938257 0.8918625 0.8898645 0.8883031 0.8869749 0.8859859 0.8851805 0.8842496 0.8828263 0.8813435 0.9833735 1.198114 1.174627 1.086792 0.9917653 0.9908559 1.036041 1.041984 0.9405634 0.8834158 0.8837473 0.884651 0.8854936 0.8863751 0.8873395 0.8884718 0.8896046 0.890644 0.8914527 0.8921003 0.8931707 0.8944503 0.8957888 0.8971006 0.8984339 0.8994516 0.9007075 0.9021996 0.9031658 0.9038561 0.9042728 0.9047276 0.9051152 0.9050708 0.9052756 0.9056174 0.9072472 0.9076335 0.9306481 0.9130052 0.9084243 0.9080281 0.9074492 0.9074694 0.9073099 0.9071418 0.9070415 0.9068947 0.9067486 0.9068569 0.9073074 0.9084352 0.9080222 0.9059913 0.9044247 0.9244974 0.9200047 0.9043944 0.9013767 0.9002208 0.9108906 0.937723 0.9767575 0.9784279 0.9544269 0.958406 0.9866919 0.9979235 1.012878 1.021309 1.053132 1.097838 1.040435 1.006812 1.039485 1.070516 1.1012 1.201692 1.321728 1.084246 0.9419584 0.8984877 0.8941744 0.8955292 0.8969753 0.8984485 -9999 -9999 
-9999 -9999 0.9263129 0.9270725 0.9289991 0.9314361 0.9336947 0.935578 0.9837455 0.9993783 0.937705 0.9371979 0.9371324 0.9373248 0.9376668 0.9710245 0.9529869 0.9400225 0.9548684 0.9424073 0.9439615 0.9632779 0.9778529 0.9460335 0.9469318 0.945271 0.94438 0.9437822 0.9431426 0.9424296 0.9576197 0.948515 0.9546773 0.9438227 0.9555071 0.9450256 0.9430462 0.941213 0.9400695 0.9391834 0.9384459 0.9384169 0.9386389 0.989224 0.9936767 0.9456437 0.9363165 0.9341565 0.93244 0.9306424 0.928583 0.9271989 0.9460381 0.9489558 0.9408482 0.9456229 0.93985 0.923292 0.9240918 0.9247502 0.9252999 0.9259197 0.9266537 0.9274274 0.9275841 0.9286457 0.9305254 0.9294404 0.9280676 0.950031 0.9487484 0.9272029 0.9255767 0.9247323 0.9235052 0.9220319 0.9204441 0.9190855 0.9177653 0.9453197 0.9452756 0.9476442 0.9331074 0.9413273 0.9632591 0.9315018 0.9196326 0.9263607 0.9440182 0.95703 0.916896 0.9143215 0.9143808 0.9151588 0.9139494 0.9116285 0.9097423 0.9083763 0.9075426 0.9065795 0.9051476 0.9034336 0.9017645 0.9002439 0.8984845 0.8967322 0.8950257 0.8936499 0.8919217 0.8898621 0.8879105 0.8863907 0.8848605 0.8838887 0.8830986 0.882041 0.8852221 1.092343 1.123841 1.089505 0.9950697 0.9540414 0.9896172 1.011178 1.05936 1.072156 0.9915904 0.9431595 0.9127402 0.8895918 0.8852224 0.8861531 0.8871837 0.8881527 0.8891764 0.8902439 0.8910609 0.8921109 0.8934264 0.8948886 0.8963562 0.8974215 0.8988094 0.9003771 0.9011144 0.9017276 0.9022646 0.9026881 0.9031594 0.903529 0.9035117 0.9182729 0.9180633 0.9056598 0.9066097 0.9072224 0.9070748 0.9069379 0.9064858 0.9059509 0.9057284 0.9057869 0.9055593 0.9054894 0.9054341 0.9106247 0.9077513 0.9059104 0.9063202 0.9068879 0.9057383 0.9040285 0.9122893 0.9200191 0.9097866 0.9084197 0.924108 0.9425581 0.9739325 1.010649 0.994099 0.9662954 0.9672602 1.002704 1.033256 1.007031 1.014977 1.085125 1.057573 1.003933 1.027937 1.049478 1.057933 1.110154 1.256733 1.238806 1.07479 0.9411136 0.9022366 0.8941973 0.8954232 0.8968664 0.8982763 -9999 -9999 
-9999 -9999 0.9256533 0.9272493 0.9299079 0.9320248 0.9340812 0.9414399 0.9666537 0.9363266 0.935971 0.9355386 0.9354246 0.9358634 0.9443671 0.9599676 0.9382855 0.940443 0.960124 0.9419798 0.9433663 1.023792 0.9874468 0.9685482 0.9743292 0.944247 0.943186 0.9425259 0.9416737 0.9436746 0.9532571 0.9416405 0.9423221 0.9424874 0.9439976 0.9654636 0.9422571 0.9402403 0.9388599 0.9378417 0.9370788 0.9365935 0.937411 0.9687709 0.9511865 0.9862475 0.955512 0.9348194 0.9329829 0.9312658 0.9294583 0.9278646 0.926264 0.9246708 0.9438819 0.9858044 1.012716 0.9661664 0.9368016 0.9306079 0.9239164 0.9246016 0.9253667 0.9256864 0.9259585 0.9271193 0.9834176 0.9279442 0.9296907 0.9480483 0.9474262 0.9261733 0.9245631 0.9233351 0.9225397 0.9214761 0.9201121 0.9184987 0.9169682 0.9546108 0.9580418 0.9538 0.9351687 0.9409278 0.9439362 0.9271126 0.9140394 0.9139319 0.9332614 0.9343953 0.9125403 0.9126238 0.9124895 0.9129529 0.9131436 0.9117553 0.9095181 0.9076226 0.9059289 0.9049261 0.9042094 0.9028527 0.9013761 0.8997973 0.8981712 0.896554 0.8947791 0.8935241 0.8922581 0.8900393 0.8881317 0.8862896 0.8847166 0.8832181 0.8820478 0.9010751 1.005536 1.152027 1.048443 1.010837 0.9346414 0.9375131 0.9681189 0.9698166 0.968127 0.9829429 1.030213 1.078442 1.045547 0.9995607 0.9361898 0.8849641 0.885944 0.8868617 0.8879125 0.8889541 0.8899888 0.8912932 0.8927015 0.8938525 0.895352 0.8969378 0.8984812 0.8990234 0.8996268 0.900282 0.9008685 0.9011224 0.9017243 0.9209655 0.9529673 0.9484948 0.9271749 0.9127967 0.9052972 0.9058605 0.9055171 0.9053682 0.9049572 0.9043783 0.904255 0.9041685 0.9040284 0.9040353 0.9190012 0.9341491 0.9372751 0.9234385 0.90452 0.9048156 0.913653 0.905131 0.9089691 0.913063 0.9385417 0.9617198 0.9698293 0.9742246 1.006273 1.047562 1.013815 0.9796337 0.9856089 1.028656 1.041095 0.9892313 1.021652 1.08264 1.017305 1.00758 1.048617 1.058598 1.096711 1.227399 1.245062 1.178743 1.065838 0.9581578 0.9120696 0.8944404 0.89533 0.8966431 0.8980592 -9999 -9999 
-9999 -9999 0.926968 0.9287304 0.93058 0.9325375 0.9356191 0.9659169 0.9347284 0.93413 0.9341721 0.9339672 0.9339279 0.9342918 0.9351699 0.9364259 0.9379103 0.9433389 0.9528359 0.9415005 0.9435821 0.9907069 0.9558666 0.9495298 0.9547168 0.9428669 0.9417831 0.9412742 0.9404128 0.9450455 0.9430238 0.9401983 0.9406416 0.9411443 0.9423614 0.9751047 0.9417279 0.939565 0.937865 0.9366018 0.9356618 0.9565239 0.9360947 0.9617444 0.9360756 0.9360146 0.9846858 0.9454992 0.9335415 0.932037 0.9304452 0.9287342 0.9269797 0.9252435 0.9236729 0.9505151 1.078524 1.038176 0.9870453 0.9780383 0.9629574 0.9391435 0.9469035 0.9451207 0.9251935 0.9269199 1.044615 0.9271126 0.9257392 0.9256678 0.9260308 0.9250928 0.9236953 0.9223565 0.9213152 0.9203236 0.9194777 0.9179575 0.9164499 0.9697531 0.999797 0.9693522 0.9489859 0.9664832 0.9573738 0.9325196 0.9130819 0.922263 0.9409434 0.9291638 0.9140435 0.9110851 0.9108036 0.9110513 0.9109398 0.910409 0.9097012 0.9077501 0.9057211 0.9039893 0.9028668 0.9016106 0.9003859 0.8989036 0.8974333 0.895735 0.8941647 0.8933853 0.8917372 0.8901017 0.8884742 0.8865051 0.8848416 0.8832096 0.8825477 0.95829 1.197754 1.030217 1.001997 0.9400228 0.9074003 0.9219731 0.9381843 0.9443817 0.9413802 0.9403549 0.955857 0.9803978 1.007622 1.041531 1.068009 1.01546 0.9522994 0.9112674 0.8868753 0.8880242 0.8892875 0.8906364 0.8918689 0.8932065 0.8948034 0.8959423 0.8965471 0.8973118 0.8981303 0.8986458 0.8992553 0.8998833 0.9196767 0.9511721 0.968682 0.9487156 0.9275487 0.9181144 0.9106326 0.904317 0.904042 0.9040737 0.9037412 0.9029692 0.9026195 0.9026595 0.9025643 0.9057715 0.9239427 0.9353645 0.942069 0.9531648 0.9431556 0.9168024 0.9200353 0.9403424 0.9213116 0.9011628 0.9307674 0.9767586 0.9902027 1.004387 1.043091 1.061065 1.016735 0.9932579 1.015902 1.046501 1.015262 1.001043 1.077884 1.062998 0.9925573 1.018719 1.082319 1.13683 1.261282 1.222201 1.164991 1.119914 1.023627 0.9729756 0.937786 0.9107712 0.8990443 0.8963923 0.8976443 -9999 -9999 
-9999 -9999 0.928016 0.9297873 0.9315449 0.9344437 1.017401 0.9333254 0.9325488 0.9326967 0.9327192 0.9325532 0.9465575 0.9493867 0.9343228 0.9360647 0.9375053 0.9497087 0.9400062 0.9414186 1.003715 0.9424585 0.9445464 0.9433419 0.9693394 0.9417568 0.9406348 0.9397842 0.9391236 0.9384892 0.9383751 0.9387933 0.939172 0.9392879 0.9410072 0.9450374 0.9410728 0.9394981 0.9375247 0.9356275 0.9615634 0.9831457 0.943212 0.9697291 0.9346836 0.9341979 0.9346303 0.9454744 0.9332982 0.9319896 0.9306751 0.9291146 0.9273067 0.9255947 0.923924 0.9224753 1.004225 1.094306 1.010633 1.007409 1.011476 0.989068 1.000405 0.9684739 0.924301 0.9263362 1.021479 0.9261507 0.9244325 0.9241361 0.9241702 0.9236034 0.9230124 0.9216942 0.9203199 0.919227 0.91835 0.9172376 0.9159813 0.9521564 1.005914 0.9789696 0.9615125 0.9609451 0.9343283 0.9299636 0.9178524 0.93334 0.9657448 0.9564183 0.933799 0.9101263 0.9094528 0.9091614 0.9095068 0.9085925 0.9079335 0.9073837 0.9061607 0.9042448 0.9022 0.9006851 0.8990876 0.8974065 0.8951271 0.8935909 0.9316019 0.8927926 0.8907467 0.8894727 0.888276 0.8863698 0.8846725 0.8831387 0.8866065 1.017781 1.039111 1.001117 0.9725028 0.9108064 0.9123546 0.9193885 0.9268374 0.9329521 0.9330914 0.9324716 0.9328066 0.9335544 0.9399437 0.9592375 0.9897015 1.027146 1.047127 1.011957 0.9510782 0.9013661 0.8883215 0.8897096 0.8909664 0.8921971 0.8933969 0.8941234 0.8945568 0.8959486 0.8968237 0.8972712 0.897968 0.900454 0.9221142 0.9431325 0.9555496 0.9495928 0.9329443 0.9204287 0.9119276 0.907271 0.9075638 0.9027756 0.9023719 0.901691 0.9011779 0.9011657 0.9013993 0.9113832 0.927785 0.9408949 0.9440761 0.9523519 0.954962 0.9602569 0.9619801 0.9506087 0.9134368 0.9006435 0.9144058 0.9559333 0.9923149 1.034377 1.067358 1.062204 1.023276 1.002203 1.016307 1.00814 0.9683928 1.015861 1.108784 1.024376 0.9906592 1.073625 1.180779 1.330929 1.263402 1.137392 1.155058 1.071293 0.9818559 0.9642578 0.9424742 0.9200943 0.905023 0.9077547 0.8989663 -9999 -9999 
-9999 -9999 0.9290644 0.9307774 0.9584521 1.014104 0.9326631 0.931683 0.9311216 0.9309335 0.9309645 0.9309356 0.9434176 0.9326321 0.9340853 0.9355343 0.9370635 0.9614676 0.9392391 0.9411866 0.9778527 0.9407989 0.9458708 0.9422187 0.9946502 0.9410268 0.9394687 0.9386663 0.9377567 0.936906 0.9368716 0.9373667 0.937705 0.9380949 0.9397549 0.9404644 0.939243 0.9385916 0.9370301 0.9352862 0.952843 0.9880821 0.9413081 0.9838671 0.9335868 0.9326167 0.9329106 0.9333884 0.93203 0.9305261 0.9297976 0.9285131 0.9271939 0.9258519 0.9242452 0.9228635 0.940001 1.089581 1.028277 1.015468 1.034685 1.031279 1.031831 0.983303 0.9234131 0.9257201 1.038674 0.9254173 0.9234662 0.9227821 0.9223729 0.9217265 0.9214829 0.921019 0.9197174 0.9182944 0.9170797 0.9160227 0.9151348 0.9257725 0.9745995 0.9732662 0.9424501 0.9178776 0.9118456 0.9118603 0.921546 0.9170061 0.9489053 0.9600184 0.9370294 0.9158977 0.9080748 0.9076539 0.9075818 0.9072971 0.9062539 0.9056064 0.9048138 0.9038239 0.9023995 0.9007915 0.8990088 0.8972561 0.8952781 0.9153767 0.9451158 0.8918683 0.8894548 0.8881975 0.8867981 0.8856325 0.8842383 0.8827901 0.927152 1.112564 0.9735742 0.9756175 0.9301183 0.9016197 0.9196011 0.9148238 0.9173522 0.9189799 0.9196158 0.9244822 0.9341391 0.9432243 0.9457399 0.9513708 0.9632941 0.9820207 1.001753 1.015239 1.026524 0.9911944 0.9216931 0.8887863 0.8900114 0.8908464 0.891757 0.8926981 0.8936457 0.8947825 0.8954811 0.896203 0.8970851 0.9015341 0.923106 0.9335485 0.9372997 0.9356774 0.925006 0.9147829 0.9055017 0.9037099 0.9028229 0.9014271 0.9010835 0.900344 0.9056289 0.9157522 0.9228141 0.9266535 0.9393622 0.9570098 0.9641841 0.9676172 0.9709869 0.9775003 0.970794 0.9505961 0.9226828 0.8997597 0.9236116 0.9661897 1.008083 1.042327 1.069015 1.06212 1.026383 0.9910614 0.9751406 0.9531629 0.9514122 1.056107 1.16871 1.060931 1.018961 1.110727 1.251065 1.268776 1.144947 1.117426 1.16246 1.027732 0.9566436 0.9547426 0.924568 0.9033227 0.8956749 0.9022195 0.8999525 -9999 -9999 
-9999 -9999 0.9295353 0.9464161 0.9932112 0.9316174 0.9306947 0.929875 0.929417 0.929253 0.9293442 0.9296625 0.9307198 0.9320375 0.9337993 0.9353268 0.9443165 0.9461962 0.9390761 0.9764805 0.9407982 0.9423066 0.9497184 0.9410943 1.004747 0.940265 0.9383644 0.9372119 0.9363931 0.935438 0.9355195 0.9358349 0.9359835 0.9366488 0.9381378 0.9389039 0.9375424 0.9364259 0.9360602 0.9341133 0.9327906 0.9780676 0.9360686 0.9990522 0.932666 0.931183 0.9311891 0.9319451 0.9313337 0.9298719 0.9283361 0.9272724 0.9261904 0.925117 0.9239554 0.9224936 0.9210589 1.037452 1.048536 1.010879 1.026705 1.052277 1.049302 0.9932806 0.9229406 0.9248326 1.025741 0.9251201 0.9231226 0.9215685 0.9207229 0.9203729 0.9200544 0.9197313 0.9188082 0.9173195 0.9162003 0.9156826 0.9227571 0.9301193 0.9708655 0.9591523 0.917726 0.9110376 0.9105239 0.9104449 0.9104429 0.9131514 0.9458126 0.9565733 0.9392367 0.9286163 0.9219632 0.9090738 0.9059067 0.9058462 0.9051701 0.9041414 0.9032367 0.9024224 0.9014213 0.9002972 0.8987774 0.897174 0.895476 0.8970794 0.8951468 0.890707 0.8889138 0.8873203 0.8858027 0.8847356 0.8835017 0.909842 1.035187 0.9881604 0.9519976 0.9479979 0.8967226 0.8957878 0.9122708 0.9120986 0.9116071 0.9104155 0.9109786 0.9144869 0.9191323 0.9240049 0.9268539 0.9358677 0.9454203 0.9523494 0.9656619 0.9873729 1.022583 1.093078 1.057523 0.9263691 0.8888381 0.889729 0.8905799 0.8915234 0.8924493 0.8933593 0.8943542 0.8952543 0.896238 0.897391 0.9265647 0.9312435 0.9235684 0.9166816 0.9096383 0.9069624 0.9026487 0.9039369 0.9004775 0.9001076 0.8998486 0.8993033 0.9196539 0.9282664 0.9271299 0.9302447 0.9381192 0.9510424 0.9584242 0.9643947 0.9662356 0.9642517 0.9645478 0.9584537 0.9388966 0.9188443 0.9464259 0.989226 1.023009 1.052462 1.074606 1.058778 1.02029 0.9746758 0.9393684 0.9364176 0.9900303 1.14924 1.291779 1.158131 1.036825 1.024362 1.070641 1.097803 1.090991 1.145791 1.149553 0.9880455 0.9408669 0.9447516 0.9147366 0.9059967 0.9030578 0.9050146 0.9000488 -9999 -9999 
-9999 -9999 0.9295099 0.9588266 0.9305807 0.9296161 0.9286711 0.9279675 0.9278681 0.927363 0.9276576 0.9287033 0.9300019 0.9315679 0.9332576 0.9348059 0.9358438 0.9366972 0.9384357 0.9989719 0.9389201 0.9670396 0.9465047 0.9401929 0.9676661 0.9396642 0.9375712 0.9360974 0.9349831 0.9339572 0.933812 0.9344873 0.9345658 0.9349852 0.9365716 0.9373348 0.9362933 0.9348581 0.9345584 0.9329345 0.9317445 0.9599079 0.9318924 0.9685177 0.9319304 0.9303277 0.9294106 0.930074 0.9302128 0.9289218 0.9274071 0.9258353 0.9245915 0.9237249 0.9227814 0.9216387 0.9204856 1.008435 1.056509 1.007695 1.018381 1.044837 1.04185 0.9925127 0.9218188 0.9236147 0.9587222 0.9246854 0.9223287 0.9204128 0.919569 0.9190128 0.9184511 0.918173 0.9179626 0.9167874 0.915287 0.9215147 0.9250556 0.9250575 0.9592259 0.9479485 0.912906 0.9099501 0.9091827 0.9091197 0.9123172 0.9251937 0.930351 0.9270876 0.9221842 0.9198976 0.9135202 0.9095967 0.9069115 0.9044457 0.9037324 0.9027959 0.9019958 0.9007317 0.899933 0.8988461 0.8973636 0.8964813 0.8951567 0.8932964 0.8926432 0.8910169 0.8893055 0.8878447 0.8860936 0.884517 0.9093707 0.9862641 0.9751351 0.9443642 0.9730108 0.9296718 0.8958931 0.908338 0.9092541 0.9040548 0.9017582 0.9033071 0.8983994 0.8925558 0.8880941 0.8903992 0.9027839 0.9184546 0.9281704 0.9341376 0.9466766 0.9681445 0.9996523 1.058796 1.19541 1.122944 0.9548459 0.8980011 0.8893677 0.8904988 0.8913713 0.8923725 0.8934745 0.8944352 0.8953394 0.896422 0.8973333 0.9005342 0.9010215 0.9014405 0.8994818 0.8991125 0.8990761 0.8992358 0.8991528 0.8987738 0.8984925 0.8979085 0.9088082 0.912351 0.9079366 0.9088603 0.9140313 0.9232014 0.9273521 0.9336515 0.9414207 0.9510432 0.9634121 0.9662645 0.947417 0.9460816 0.9716298 1.00421 1.029925 1.058684 1.072891 1.053673 1.008197 0.9578388 0.9156154 0.9425175 1.067757 1.244692 1.29155 1.266873 1.191142 1.095297 1.071453 1.098853 1.165781 1.227052 1.080451 0.9663121 0.9373591 0.9279172 0.9118167 0.915122 0.910241 0.8988034 0.8991389 -9999 -9999 
-9999 -9999 0.928688 0.9295138 0.9285477 0.9273777 0.926769 0.9263614 0.925981 0.9259099 0.9264236 0.9276864 0.9293566 0.9311396 0.9327064 0.9339418 0.93657 0.9361169 0.9379317 0.9954571 0.9378274 0.9791924 0.9439868 0.9389787 0.9391465 0.9391644 0.9370624 0.9350253 0.9336185 0.9325107 0.9324759 0.9329616 0.9328035 0.9334776 0.9348335 0.9352865 0.9352083 0.9331133 0.9494981 0.9319088 0.9307052 0.9543409 0.9304073 0.9383608 0.9387529 0.929468 0.9340893 0.9283363 0.9289814 0.9276613 0.9263676 0.9250569 0.9236803 0.9224083 0.921487 0.920849 0.9223551 1.000632 1.04221 0.9953766 1.003683 1.021182 1.031149 1.014986 0.9219282 0.9221633 0.9242422 0.9394411 0.9220095 0.919849 0.9182267 0.9177106 0.9170502 0.9164414 0.9164295 0.9178755 0.9147317 0.9159263 0.9125506 0.9115458 0.9375122 0.9332001 0.9153074 0.9136125 0.9133134 0.9122691 0.9151203 0.9155921 0.9069408 0.9063274 0.9057764 0.905235 0.9046553 0.9040062 0.9036159 0.9030811 0.9025348 0.9019752 0.9009802 0.8997113 0.8985465 0.8974949 0.896327 0.8950043 0.8938345 0.8926299 0.8917993 0.8904973 0.888991 0.8876626 0.8862059 0.8844628 0.9054341 0.9093356 0.9322981 0.9698262 0.9505011 0.8987459 0.9021256 0.911854 0.9026579 0.8968277 0.8957342 0.8994889 0.895242 0.8885012 0.8884542 0.894583 0.9136839 0.9208146 0.9254489 0.9358196 0.9460465 0.9557065 0.9750125 0.9992072 1.022698 1.09539 1.225611 1.016178 0.9225348 0.8893008 0.8903822 0.8912259 0.8922899 0.8934273 0.8944071 0.8952154 0.8958936 0.8964694 0.8968446 0.8972507 0.8975641 0.8977721 0.8977763 0.8977839 0.8977552 0.8974276 0.8971689 0.8968016 0.8989424 0.8967522 0.8968577 0.8972222 0.8978575 0.8982281 0.9015016 0.9111804 0.928609 0.9491553 0.9671175 0.9782881 0.9658228 0.9779073 0.9964569 1.021721 1.047723 1.066107 1.068377 1.037853 0.9774897 0.9249135 0.9107325 0.9992837 1.251645 1.418894 1.419512 1.353678 1.342226 1.264398 1.194224 1.192618 1.198087 1.10682 0.9982616 0.9600527 0.9363251 0.9114795 0.9113656 0.915528 0.9008507 0.8985648 0.8999183 -9999 -9999 
-9999 -9999 0.9464329 0.9279691 0.9268782 0.9257728 0.9249552 0.9244133 0.9242994 0.9243694 0.9256515 0.9272312 0.929009 0.9306977 0.9320593 0.9330068 0.9342005 0.9354626 0.9377118 0.9382297 0.9364771 0.9646887 0.9430595 0.9374477 0.9375404 0.9718118 0.9366676 0.9344046 0.932523 0.9390907 0.9411266 0.9314284 0.9313707 0.9318352 0.9330233 0.9332802 0.9332533 0.9743692 1.00076 0.9313456 0.929655 0.9641794 0.9291614 0.9300399 0.9376239 0.9288741 0.9270952 0.9268151 0.9272532 0.9265136 0.9254639 0.9243092 0.9229813 0.9215789 0.9204057 0.9197983 0.9264595 0.9972687 1.015189 0.9750311 0.9813609 1.008093 1.018205 1.003336 0.9491184 0.9209619 0.9225338 0.9925091 0.922022 0.91993 0.917351 0.9480013 0.9338988 0.9312176 0.9221107 0.932806 0.944123 0.9231145 0.9129822 0.9147738 0.9288378 0.9243602 0.9199596 0.9176386 0.918286 0.9338866 0.9254161 0.9153282 0.9056133 0.9049102 0.9044678 0.903904 0.9032199 0.9026785 0.9021978 0.9016141 0.9010915 0.9007077 0.900148 0.8989465 0.8976704 0.8964005 0.8950188 0.8936502 0.8923978 0.8915235 0.890137 0.889178 0.8880823 0.8868381 0.9364861 0.9706518 0.9448804 0.9399443 0.9517112 0.9421433 0.903612 0.8914251 0.9064552 0.903497 0.8930275 0.8947218 0.8972588 0.9032789 0.9013799 0.8975574 0.8973868 0.9012955 0.9085829 0.917026 0.9308334 0.9429741 0.9463919 0.9538447 0.9709769 0.9749184 0.96491 0.9670956 1.007898 1.142209 1.094503 0.9669566 0.9001297 0.8901799 0.8910898 0.8924734 0.8932388 0.8939595 0.8946018 0.8950132 0.8953748 0.8959278 0.8962087 0.89628 0.8961625 0.8961629 0.8962788 0.8959322 0.8956574 0.895489 0.8950104 0.8951859 0.8955246 0.8958168 0.8964082 0.8969464 0.8971382 0.9012114 0.9292575 0.9489507 0.9678984 0.9949474 0.9884878 0.9944781 1.005855 1.027183 1.050613 1.058046 1.058239 1.02496 0.9558798 0.922002 0.9708747 1.151976 1.320665 1.375444 1.28737 1.35583 1.26159 1.149177 1.092425 1.065355 1.038274 0.9965824 0.9673468 0.9616454 0.9444232 0.9191859 0.917555 0.9137605 0.8979548 0.8992108 0.9004177 -9999 -9999 
-9999 -9999 0.9360412 0.9263106 0.9251582 0.923852 0.9233525 0.9227094 0.9298697 0.9235412 0.925137 0.9268973 0.9285746 0.9298047 0.9309399 0.9322119 0.9335924 0.9357807 0.9616267 0.9360582 0.9352219 0.9361696 0.9358931 0.9359711 0.9361169 0.9368303 0.9363896 0.9341923 0.931978 0.9303784 0.9338564 0.9300323 0.9299294 0.9304678 0.9316362 0.949648 0.9749636 0.9908381 0.9770494 0.9679242 0.9292477 0.9790693 0.9401655 0.9282621 0.9288841 0.9281496 0.9263879 0.9251693 0.9255446 0.9252701 0.9240666 0.9231579 0.9220206 0.9206281 0.9193841 0.9344346 0.9554405 1.006221 1.003301 0.9629698 0.9615793 0.9903842 0.9889386 0.9654065 0.9361507 0.9197962 0.9210102 0.960245 0.9218314 0.9193 0.9176964 0.9164016 0.954007 0.9795585 0.938018 0.9177855 0.9372724 0.9323053 0.9115745 0.9101015 0.921797 0.9311677 0.9304487 0.92328 0.9211927 0.9344727 0.9255276 0.915764 0.9045277 0.90372 0.9031753 0.9025365 0.9018538 0.9013724 0.9007581 0.9001026 0.899483 0.8990005 0.8989332 0.8979608 0.8967794 0.8953384 0.8938728 0.8923926 0.891948 0.8902398 0.8888192 0.8880084 0.9236611 1.001574 1.040721 0.9942039 0.9558401 0.9289853 0.8979647 0.8848728 0.8853235 0.8926508 0.9030198 0.8979707 0.8880216 0.8906896 0.8895092 0.8902395 0.890654 0.8909497 0.8908921 0.8906819 0.8906012 0.890362 0.8901395 0.8994638 0.9138432 0.9342097 0.9536693 0.9581488 0.9499373 0.9369012 0.928132 0.9465941 1.001851 1.078737 1.038608 0.9622128 0.9205173 0.9031153 0.8935679 0.8926858 0.8931625 0.8934569 0.8939845 0.8944333 0.8946885 0.8949175 0.8979009 0.8949478 0.8946613 0.8945257 0.8963755 0.9103086 0.9232493 0.914206 0.8970966 0.894607 0.8949975 0.8952857 0.8957067 0.9207061 0.9568589 0.9649115 0.9634514 0.9777298 0.9755879 0.98252 1.004827 1.024745 1.037777 1.034963 1.035473 1.00819 0.9498419 0.9563563 1.077342 1.245648 1.228378 1.222915 1.312943 1.192528 1.095179 1.038695 1.0051 0.9926025 0.9866185 0.973876 0.9633728 0.9577574 0.953684 0.9456475 0.9271857 0.9126173 0.9016219 0.8996161 0.9008537 -9999 -9999 
-9999 -9999 0.9251165 0.9240981 0.9227711 0.9222404 0.9217892 0.9239148 0.9369361 0.9230419 0.9247332 0.9264652 0.9276956 0.9289141 0.930276 0.9314286 0.9337029 0.9749619 0.934929 0.9341318 0.9337018 0.9337512 0.9360921 0.9346478 0.9343942 0.9347612 0.9522896 0.9337347 0.9316609 0.9295772 0.9287443 0.9282629 0.9285289 0.9293445 0.930312 0.9629295 0.9788218 0.9464484 0.9335045 0.990216 0.9414091 0.9279585 0.9428958 0.926433 0.9271407 0.9269597 0.9252269 0.923767 0.9247097 0.9241463 0.9228808 0.9221214 0.9208924 0.919641 0.9307473 0.9628267 0.9884872 1.015512 1.012287 0.9692017 0.9472109 0.9607537 0.9522486 0.9324247 0.9180796 0.9183915 0.9196106 0.9211637 0.981054 0.92037 0.919099 0.9175518 0.9160507 0.9144355 0.9352066 0.9559429 0.9212803 0.9117572 0.910714 0.9097421 0.912797 0.9397255 0.9467753 0.938834 0.9253356 0.9284937 0.9293954 0.9170877 0.9036573 0.9025202 0.9018393 0.9011368 0.9005137 0.8998461 0.8991677 0.8986479 0.8980216 0.8973739 0.8969533 0.8966653 0.8956758 0.894299 0.8928755 0.8920093 0.8908467 0.8890707 0.9119335 0.9932155 1.08028 1.097899 1.038684 0.9675947 0.9013088 0.8862315 0.8862672 0.886376 0.8865154 0.8869883 0.8874875 0.8919026 0.888896 0.8897867 0.8905919 0.8914144 0.898243 0.9242483 0.9320976 0.9294899 0.9225371 0.9107432 0.8952291 0.891388 0.8912649 0.8909112 0.9062147 0.9277175 0.9463094 0.9526859 0.9380775 0.9227617 0.913057 0.909063 0.9175647 0.9464483 1.005331 1.050423 1.034189 1.030726 1.037685 1.024904 0.9964786 0.9756943 0.9772356 0.9702109 0.9526268 0.9328694 0.9293033 0.9431531 0.9755226 1.015239 1.023001 1.004267 0.973654 0.9587152 0.9462528 0.9440821 0.9375609 0.9544901 0.9857379 0.9901141 0.9841437 0.9891846 0.9810522 0.9902609 1.023487 1.04939 1.05603 1.027914 0.9981799 0.9682481 0.9507296 1.010898 1.167751 1.205019 1.210502 1.477786 1.220294 1.099916 1.04587 1.027092 1.009821 0.9858731 0.9688019 0.9593599 0.9542467 0.9439655 0.9474434 0.9575597 0.9413367 0.9208771 0.9039037 0.8998424 0.9011557 -9999 -9999 
-9999 -9999 0.9232327 0.9221891 0.9210947 0.9204231 0.9202497 0.9222581 0.9207939 0.9224122 0.9239998 0.9255924 0.9267955 0.9281967 0.9294012 0.9315907 0.9503564 0.9338143 0.9327224 0.9323259 0.9322333 0.9391454 0.950924 0.9333549 0.9330617 0.9332865 0.9386468 0.9331292 0.930804 0.9288343 0.9297284 0.963308 0.9373731 0.9282901 0.9291062 0.9296032 0.932081 0.9296875 0.9392936 0.9563266 0.9287324 0.9274886 0.9255785 0.9248074 0.9252491 0.925423 0.923914 0.9260019 0.9442897 0.9402929 0.9217603 0.9208604 0.9198399 0.918616 0.9369174 0.9598335 0.9791034 0.9973316 1.004432 0.9783174 0.9458939 0.9408385 0.9241476 0.9164016 0.9165957 0.9168307 0.9180078 0.9195068 0.9261406 0.9197202 0.918377 0.91873 0.9436278 0.9151248 0.9133272 0.9256786 0.9678618 0.9274784 0.9140925 0.9122045 0.9137476 0.922242 0.9455526 0.9465846 0.9313927 0.9306555 0.9412895 0.9229192 0.9037312 0.9016075 0.9010915 0.8999668 0.8991433 0.8985813 0.8977687 0.8972856 0.8965267 0.8958305 0.8952844 0.8949616 0.8944277 0.8929915 0.891868 0.891221 0.8894867 0.9044998 1.013452 1.109128 1.164638 1.129428 1.031667 0.9512693 0.9173579 0.8995151 0.8893653 0.887737 0.8879707 0.8883727 0.8887746 0.8891931 0.8898128 0.8909378 0.8921334 0.9248134 0.9299741 0.9356394 0.956963 0.9814214 0.9963502 1.00733 1.010474 1.0092 0.9913343 0.9574556 0.9341063 0.9160485 0.9076548 0.9179282 0.9244475 0.9210765 0.9109756 0.8926798 0.8906742 0.903055 0.9243747 0.9559177 1.00486 1.069944 1.128989 1.157615 1.175417 1.153531 1.176233 1.219565 1.158536 1.097239 1.119169 1.125641 1.102745 1.09494 1.080966 1.077771 1.050908 1.043133 1.030229 0.9981914 0.9709406 0.9759493 1.007348 1.030401 1.026891 1.028075 1.020844 1.02629 1.035815 1.034181 1.023691 0.9898045 0.9562342 0.9557045 0.9960922 1.105448 1.262811 1.236975 1.207303 1.168933 1.159377 1.110723 1.04241 1.01015 1.00911 0.9824219 0.9530656 0.9423297 0.9409139 0.9358918 0.9439994 0.9455754 0.9288611 0.9213983 0.9221184 0.9090305 0.9012508 -9999 -9999 
-9999 -9999 0.921225 0.920014 0.9191167 0.9186929 0.9186196 0.9314325 0.9199959 0.921877 0.9233957 0.9247116 0.9259921 0.9275148 0.9293951 0.9320223 0.932954 0.9319619 0.9310684 0.9306054 0.9324747 0.9435959 0.9417117 0.9317687 0.9317324 0.9316921 0.9326944 0.9324684 0.9306127 0.9284486 0.926598 0.9759055 0.9317385 0.9271078 0.9277158 0.9281177 0.9283062 0.9283301 0.9493608 0.9571571 0.927527 0.9262922 0.9244648 0.951741 0.9515018 0.9699215 0.9229217 0.9429926 0.9705705 0.9810588 0.9218614 0.9197753 0.9187666 0.9177538 0.9359394 0.948575 0.9620585 0.9752929 0.9801304 0.9646839 0.9375687 0.9271125 0.9178081 0.9161714 0.915642 0.9157099 0.9167159 0.9185661 0.9184342 0.9188421 0.9170254 0.9156004 0.9152014 0.9150988 0.9274274 0.9126309 0.9107425 0.9620789 0.9493713 0.9102288 0.908448 0.9118247 0.9274892 0.9559937 0.9505849 0.9417908 0.9572693 0.943019 0.9202213 0.9115618 0.9116969 0.9054442 0.8981467 0.8972119 0.8963298 0.8957549 0.8950971 0.8942661 0.8935521 0.8930797 0.8927502 0.8917422 0.8914332 0.8893645 0.9132693 1.003535 1.0798 1.190454 1.218813 1.007081 0.923916 0.9016899 0.914424 0.9096925 0.893891 0.8906638 0.8892896 0.8896592 0.8905694 0.8913504 0.8919076 0.9071829 1.009154 0.9691874 0.8941627 0.8946776 0.8942707 0.8940102 0.9016808 0.9243169 0.9512571 0.9882844 1.02022 1.028285 1.02584 1.009765 0.9779756 0.9538467 0.9371885 0.9205545 0.912103 0.9135894 0.9243604 0.9375194 0.9512479 0.9701739 1.003556 1.05232 1.100944 1.144403 1.184924 1.211019 1.260288 1.432778 1.246677 1.180232 1.172201 1.197891 1.240646 1.146086 1.106073 1.111452 1.071074 1.006582 0.9751423 0.9595798 0.9567484 0.9793794 1.021903 1.069551 1.078644 1.07668 1.054194 1.020909 0.9854888 0.9607427 0.9522859 0.9447657 0.960389 1.017323 1.090678 1.208242 1.446121 1.266462 1.194568 1.160427 1.126685 1.074248 1.00705 0.9688872 0.9709641 0.9808488 0.960979 0.9435039 0.9370791 0.9328161 0.9284648 0.9145839 0.8977201 0.8985377 0.9173762 0.9296781 0.9238306 -9999 -9999 
-9999 -9999 0.9193661 0.9181155 0.9171626 0.9170077 0.9420728 0.9346806 0.9192761 0.9208751 0.9224057 0.9237922 0.9251603 0.9269629 0.9293128 0.9437227 0.9306604 0.9299202 0.9294228 0.929174 0.9297346 0.9308811 0.9306844 0.9302155 0.9303108 0.9302406 0.9306867 0.9313693 0.9300154 0.9279041 0.9259076 0.9794048 0.9349517 0.925749 0.9259658 0.9266239 0.9268734 0.9268064 0.9615592 0.9683759 0.926064 0.9247805 0.9232434 0.9912673 1.004298 1.033092 0.9488564 0.9502107 1.032301 1.025026 0.9680324 0.9264695 0.9266201 0.9255216 0.9378974 0.9508932 0.9638 0.9762214 0.9766095 0.9579323 0.9290676 0.9141257 0.914017 0.9183727 0.919237 0.9146288 0.9160209 0.9175643 0.9165458 0.9169478 0.9344385 0.9153917 0.9138229 0.9130835 0.912465 0.9129378 0.9476449 0.9289187 0.9334536 0.9162607 0.9151126 0.9153268 0.9271251 0.960736 0.9639697 0.9497606 0.9557565 0.9614909 0.9439434 0.934203 0.9230977 0.9070486 0.8972692 0.8961861 0.8952627 0.8943058 0.8933904 0.8924087 0.8918639 0.8979125 0.8914561 0.8910836 0.8900926 0.9089106 1.004609 1.064939 1.20416 1.099277 0.9511709 0.890835 0.895256 0.9139703 0.9247983 0.9243524 0.9155169 0.8985526 0.8904179 0.8910679 0.8924398 0.9256222 1.016285 1.090668 1.00728 0.8935712 0.8950706 0.8963253 0.8958847 0.8954538 0.8949789 0.8947639 0.8943533 0.8940802 0.8971515 0.91116 0.9431265 0.9939935 1.042126 1.077197 1.099114 1.094147 1.080109 1.089812 1.095306 1.090201 1.120686 1.169912 1.163719 1.151278 1.168555 1.189475 1.210945 1.197442 1.162936 1.152603 1.146346 1.155303 1.160399 1.125962 1.120125 1.126971 1.13587 1.186751 1.214835 1.141615 1.034741 0.984572 0.9635176 0.9750909 1.010738 1.068009 1.10671 1.113247 1.056473 0.9871432 0.9559525 0.9599551 0.9713174 0.9936705 1.051071 1.109823 1.172742 1.29179 1.239629 1.221846 1.169396 1.122538 1.080225 1.028813 0.9781754 0.9599431 0.9601966 0.9751564 0.9662374 0.9456823 0.9338123 0.9214979 0.906481 0.898107 0.8989097 0.8997711 0.9003854 0.9009576 0.901769 -9999 -9999 
-9999 -9999 0.9181519 0.9167519 0.9314654 0.9794152 0.9636746 0.9361954 0.9187326 0.9199657 0.9214763 0.9230382 0.9247305 0.9266891 0.9292254 0.930084 0.928668 0.9278961 0.9275788 0.9276443 0.9285195 0.9294083 0.9290915 0.9286652 0.9287572 0.9288208 0.9290571 0.9295998 0.9293264 0.9272897 0.9252954 0.9706967 0.9588361 0.9402009 0.929867 0.9302462 0.949973 0.9591005 0.9697329 0.9619445 0.924957 0.9235035 0.9329917 1.00538 1.005096 1.029607 1.001039 0.9274318 1.017637 1.010783 1.022498 0.933978 0.9269147 0.9209994 0.9353499 0.9536107 0.9707797 0.9869849 0.9916801 0.9789743 0.9516596 0.9312491 0.9220456 0.9280406 0.9180977 0.9137888 0.9151732 0.9158705 0.9150178 0.9150868 0.9179975 0.9148014 0.9129747 0.9118344 0.9108092 0.9102345 0.9102032 0.9673259 0.9544237 0.9076855 0.9059039 0.9194775 0.9498782 0.9637583 0.9670492 0.957437 0.9550614 0.9682641 0.9735007 0.9605317 0.9284603 0.9009293 0.8963418 0.895303 0.8941951 0.892791 0.8940862 0.9386832 0.9538304 0.9183863 0.8900557 0.889257 0.937273 1.053791 1.072305 1.047412 0.9505188 0.8948346 0.8886451 0.8893727 0.9296626 0.9363918 0.9302473 0.9184313 0.8912671 0.8912617 0.8919115 0.8928568 0.9193491 0.9548566 0.9721842 0.9826562 0.9040052 0.8949838 0.8961707 0.905522 0.9002922 0.8967382 0.9154394 0.9262522 0.9284732 0.9257271 0.9217975 0.9145056 0.9163803 0.9256201 0.9418427 0.9846851 1.068204 1.228425 1.246092 1.207282 1.211368 1.247185 1.456858 1.331086 1.215122 1.207071 1.207074 1.154403 1.080428 1.025665 1.000089 1.01168 1.032858 1.089334 1.143522 1.15461 1.15726 1.118 1.07026 1.056073 1.032525 1.040401 1.112233 1.113516 1.030699 0.9965761 1.001114 1.043898 1.097148 1.107364 1.019086 0.9549189 0.9797418 1.053936 1.073665 1.074556 1.111649 1.174341 1.303502 1.333373 1.167959 1.150646 1.129781 1.093125 1.05439 0.9946789 0.9608415 0.957462 0.9504232 0.9499319 0.9555228 0.9477988 0.9342239 0.9114913 0.8985364 0.8993411 0.9001136 0.9010504 0.9015878 0.9022636 0.9030839 -9999 -9999 
-9999 -9999 0.9166746 0.9153797 0.9709784 0.9890068 0.9535704 0.9340279 0.918034 0.9194232 0.9209012 0.9223565 0.9243819 0.9264736 0.9283409 0.9281421 0.9268476 0.9261233 0.9257374 0.9263766 0.9276402 0.9277852 0.9274801 0.9269904 0.9272319 0.9271801 0.9271524 0.9274661 0.9283281 0.9268109 0.9246224 0.9494996 0.9733975 0.9646485 0.9635342 0.9649813 0.9839894 0.9699531 0.9666795 0.9517748 0.9239171 0.9227656 0.9489751 1.013484 0.9964107 0.9853845 0.9890708 0.9206086 0.9602309 0.9820639 0.9768257 0.9462855 0.9272493 0.9161938 0.9193383 0.9493767 0.9769282 0.9865663 0.9902518 0.9873061 0.9831977 0.9761546 0.9681574 0.9713336 0.9261013 0.9129361 0.9169723 0.9143593 0.9136473 0.9136925 0.9143472 0.9140025 0.912505 0.9111018 0.9131842 0.9183518 0.908632 0.9085815 0.9468515 0.9107882 0.9060739 0.9043831 0.9392068 0.9573854 0.9680767 0.9688643 0.9658745 0.9806759 0.9807684 0.9537906 0.9213493 0.8966755 0.8955534 0.8944467 0.8931239 0.9195462 0.9764051 0.9178702 0.8902494 0.8897582 0.8887921 0.9848039 1.173615 1.100886 0.9420107 0.8887696 0.88908 0.8892058 0.88997 0.9202046 0.9310098 0.9119231 0.8918595 0.8917998 0.8923109 0.9120753 0.9608751 0.9617277 0.8975266 0.8950095 0.8947979 0.9077005 0.8949807 0.8958651 0.8969738 0.9152175 0.9344431 0.8976548 0.919492 0.9332986 0.9454314 0.9615774 0.9675611 0.9616683 0.9594392 0.9548718 0.9411021 0.9338967 0.9454341 0.9870543 1.071393 1.106192 1.106241 1.112566 1.093488 1.030135 0.9937609 0.9895381 0.9869668 0.9735543 0.9518172 0.9530033 0.9969589 1.063929 1.062414 1.068613 1.093294 1.106142 1.177993 1.255639 1.190902 1.150033 1.068329 1.02644 1.044573 1.108479 1.143919 1.096467 1.03134 1.01984 1.063317 1.063545 0.9783164 0.9690222 1.078861 1.13227 1.0719 1.093591 1.184287 1.358765 1.250392 1.194695 1.109711 1.088777 1.082771 1.056188 1.011132 0.9652368 0.9482606 0.9413351 0.9330729 0.9380893 0.9599028 0.9626248 0.9349989 0.9053632 0.8997758 0.9005732 0.9013016 0.9021686 0.9029462 0.9035712 0.9044924 -9999 -9999 
-9999 -9999 0.9153737 0.9158896 0.9820361 0.9600964 0.9367931 0.9304432 0.9175547 0.9186345 0.9204603 0.9223569 0.9241071 0.925673 0.9270875 0.9260432 0.9251024 0.9243705 0.9242839 0.9255705 0.9261044 0.9261788 0.9256437 0.9253565 0.9255735 0.9254676 0.9253359 0.9255295 0.9264643 0.9257646 0.9235987 0.9450396 0.9911287 0.9794189 0.9728352 0.9793308 0.9893633 0.9514574 0.9415699 0.9556383 0.9224183 0.9273317 0.9558672 1.009889 0.986858 0.9595699 0.9775065 0.9470739 0.9530843 1.004951 0.9626757 0.9411866 0.9168338 0.9160063 0.914745 0.9131837 0.9538897 0.9709597 0.9706573 0.9694062 0.9787913 0.9891286 0.9987821 1.008627 0.9402462 0.9120482 0.9228334 0.9128104 0.9123251 0.9121361 0.9127622 0.9294621 0.9118084 0.910342 0.9092867 0.918377 0.9240001 0.9081669 0.9071822 0.9070288 0.9059737 0.9043381 0.906249 0.9387431 0.9606463 0.9642046 0.9652037 0.9726717 0.9548289 0.9214462 0.9002881 0.8959187 0.8946973 0.8934388 0.9063824 0.9478154 0.9129438 0.8899277 0.8884465 0.9575798 1.118836 1.13786 0.9769648 0.9216312 0.8904415 0.890222 0.8904052 0.8906126 0.8910394 0.8912577 0.891691 0.8921042 0.9164083 0.9577729 0.991796 1.013577 0.9916906 0.9123517 0.8950154 0.8965033 0.8962212 0.931338 0.9161376 0.9195942 0.9298452 0.9206028 0.9843166 0.8989516 0.898184 0.9160942 0.9259356 0.9376898 0.9445972 0.941467 0.9474409 0.9617932 0.9669841 0.9550903 0.9359605 0.9173734 0.9183812 0.922287 0.9236898 0.9269066 0.9227927 0.9117504 0.9171281 0.9267128 0.9244951 0.9210059 0.9329857 0.9742306 1.028567 1.056841 1.058565 1.054891 1.06465 1.023107 1.019067 1.071777 1.123738 1.197117 1.209265 1.181295 1.152403 1.146369 1.205362 1.305391 1.119557 1.028882 1.000378 0.9857883 0.9860717 1.048263 1.12159 1.052486 1.057229 1.204229 1.204724 1.150611 1.147939 1.104584 1.05744 1.047063 1.04173 1.020587 0.9848142 0.9557503 0.9439883 0.9428756 0.9424562 0.9475287 0.9562496 0.9436242 0.9213765 0.90637 0.9008637 0.9018229 0.9026421 0.903487 0.9043018 0.9051268 0.9060255 -9999 -9999 
-9999 -9999 0.9140562 0.9321185 0.9729074 0.9491575 0.9226967 0.9178544 0.9170242 0.9185478 0.9199263 0.9210737 0.9224595 0.9245437 0.9252473 0.9239669 0.9230273 0.9223627 0.9230556 0.9242976 0.9244381 0.924409 0.9241282 0.9237731 0.9239336 0.9238014 0.9237208 0.924135 0.969016 0.9247363 0.9228997 0.9498989 1.015777 0.9949526 0.9748389 0.994649 0.9712642 0.9347903 0.9220819 0.9529738 0.9215753 0.9344561 0.9422213 0.9700817 0.9647684 0.9579642 0.9713055 0.9954771 0.9468391 0.9947121 0.9959513 0.9681802 0.9233064 0.9148776 0.913754 0.9122396 0.9386607 0.9641463 0.9544498 0.9478475 0.9556766 0.975928 1.014021 1.038531 0.9689263 0.9117563 0.954284 0.9219359 0.9329315 0.9323626 0.9115178 0.9252344 0.9107996 0.9096238 0.9169748 0.9241812 0.9303979 0.9337714 0.9204901 0.9058042 0.9046978 0.9034839 0.9022908 0.926158 0.9445313 0.952211 0.9513364 0.9463265 0.9241022 0.8987774 0.8960201 0.8950573 0.8939015 0.9055911 0.9218646 0.9008074 0.8972223 0.9555008 1.0723 1.014121 0.9366695 0.8987813 0.8893999 0.8901652 0.8929609 0.8926747 0.8917687 0.8919321 0.8923824 0.9089655 0.9420128 0.9936352 1.027294 1.011389 0.9646001 0.9149653 0.8946211 0.8952295 0.8964441 0.8977608 0.8971167 0.9320589 0.9367392 0.9655317 0.9790398 0.9294322 0.9602537 0.9246112 0.8994354 0.8988691 0.906412 0.9119325 0.9167818 0.9182392 0.925407 0.9413907 0.9537263 0.9575455 0.9510115 0.9286238 0.9165829 0.9141363 0.9044982 0.8948782 0.8948992 0.8953308 0.9109384 0.9246742 0.9257655 0.9300252 0.9459442 0.9682373 0.9687881 0.9601032 0.9650477 0.9777009 1.000857 0.9912082 0.9723139 0.9818506 1.004484 1.051006 1.091247 1.084935 1.067746 1.096843 1.165815 1.252245 1.24902 1.139695 1.081373 1.058538 1.050457 1.044332 1.028144 1.0402 1.171222 1.188782 1.117958 1.112184 1.105569 1.047117 1.016344 1.015555 1.012691 0.9882246 0.9618129 0.9490125 0.9421513 0.9436815 0.9414154 0.9353558 0.9304175 0.9190512 0.9169658 0.9122475 0.9018271 0.9030029 0.9039384 0.9048226 0.9059803 0.9067465 0.9074093 -9999 -9999 
-9999 -9999 0.9126661 0.9552209 0.9657544 0.9396215 0.9139357 0.9150643 0.9160695 0.9177581 0.9186431 0.9196102 0.9213428 0.9234695 0.9234259 0.9223994 0.9213147 0.9206771 0.9219978 0.9226022 0.9226538 0.9229264 0.9225869 0.9222475 0.9223788 0.9218236 0.9220912 0.9233451 0.9589109 0.9240576 0.9223622 0.9299853 0.9900028 0.9702641 0.9484773 0.9980685 0.9621375 0.9462559 0.929168 0.9414197 0.9208805 0.919488 0.9323612 0.9542313 0.9626068 0.9544353 0.9438047 0.9665703 0.9344008 0.9665956 0.98977 0.9720343 0.9380377 0.9141827 0.9128349 0.9112078 0.9542799 0.9693227 0.9513904 0.945483 0.9533224 0.9673468 0.9977418 1.028715 0.9895353 0.9384626 0.9866474 0.9368278 0.9454395 0.9388992 0.9102913 0.9213917 0.9098649 0.912698 0.9249711 0.9185007 0.9116861 0.9300587 0.9287919 0.9205042 0.9037737 0.9023641 0.916321 0.9213355 0.9355094 0.9470453 0.9349843 0.9166771 0.8970692 0.8961117 0.8951955 0.8940782 0.9007665 0.9246418 0.9224649 0.9517455 1.012269 0.9888014 0.9259002 0.8891362 0.8895596 0.8900911 0.8906453 0.8913994 0.8919981 0.9050265 0.9341119 0.9586607 0.9842976 1.026048 1.056421 1.020798 0.9421892 0.8945854 0.8950938 0.8955545 0.8962198 0.8968781 0.8976997 0.9126586 0.8982019 0.9719061 1.007616 1.01199 0.9742028 0.9140677 0.9003462 0.9313977 0.9007601 0.9001583 0.8997057 0.8992626 0.9062262 0.9092902 0.9096099 0.914912 0.9248503 0.9408348 0.9554909 0.9434859 0.9260354 0.9148024 0.9051962 0.9048149 0.9064798 0.9112277 0.9156919 0.9217473 0.9315995 0.9426789 0.9499083 0.9414775 0.9223658 0.9136268 0.9188985 0.9292108 0.9475822 0.9706902 0.9794191 0.9825106 0.9902914 1.003057 1.014196 1.008473 0.9988505 1.007073 1.042212 1.105165 1.243028 1.230537 1.226468 1.150505 1.040495 1.022647 1.078545 1.210429 1.304249 1.15105 1.08868 1.089621 1.066203 1.018499 0.9934045 0.9858191 0.9733393 0.9462476 0.9335381 0.9315804 0.9246536 0.9265949 0.9273219 0.9227533 0.9254588 0.9239716 0.9210389 0.9097301 0.9025558 0.9037735 0.9050476 0.9061513 0.907515 0.9084017 0.9090581 -9999 -9999 
-9999 -9999 0.9116533 0.9426848 0.9372721 0.9217386 0.9131568 0.9190763 0.9151777 0.9161602 0.9173827 0.9186108 0.9208043 0.9223381 0.9216329 0.9205681 0.9196088 0.9197938 0.9207221 0.9209344 0.9208273 0.9211471 0.9210595 0.9207731 0.9207712 0.9528961 0.9236015 0.9360197 0.9296039 0.9227787 0.921714 0.9202336 0.9694085 0.9608873 0.9337531 1.007441 0.9682727 0.949414 0.9502514 0.9422042 0.9425197 0.9187046 0.930953 0.9546006 0.9746886 0.9704122 0.9532557 0.9579825 0.9316407 0.9623827 0.970302 0.9557251 0.941667 0.9136828 0.9122387 0.9105291 0.9660494 0.9756688 0.9641253 0.9697653 0.9819286 0.983624 0.9903085 1.005644 0.9849088 0.9508662 1.011382 0.9517409 0.9499727 0.9386722 0.919691 0.9368642 0.9133021 0.9137824 0.9071587 0.9062064 0.9050599 0.9107929 0.9253365 0.9210823 0.9028282 0.9014846 0.9208986 0.9119161 0.9171578 0.9215578 0.9026502 0.8967401 0.8958486 0.894897 0.8967637 0.9213659 0.9534129 0.9814679 1.015996 1.003827 0.9234426 0.8900849 0.8901799 0.8905354 0.8910943 0.8918071 0.8925962 0.8933036 0.9294847 0.9643511 0.9844861 0.9816043 0.9597878 0.9364011 0.9093084 0.8946365 0.8952155 0.8959436 0.8964488 0.8968825 0.8975246 0.8980148 0.8987972 0.937389 0.8989899 0.966677 0.9925416 0.9518345 0.9073399 0.9000882 0.9011977 0.9532059 0.9139823 0.9017022 0.9133888 0.9144748 0.9196808 0.9260817 0.9264726 0.9214092 0.916928 0.9211097 0.9293821 0.9257383 0.9089967 0.8967146 0.8970851 0.9033164 0.9188274 0.9275087 0.9319876 0.9350799 0.9387655 0.940597 0.9419644 0.9441555 0.9458854 0.9418153 0.9369707 0.9401129 0.9545735 0.968146 0.9698588 0.9724448 0.9714364 0.9596829 0.9500381 0.956882 0.9824027 0.9908482 0.9968712 1.037006 1.113877 1.164202 1.091724 1.036058 1.02635 1.13722 1.386043 1.263257 1.16235 1.109851 1.073717 1.065029 1.025298 0.9819453 0.963814 0.9460258 0.9282501 0.9156051 0.9127244 0.9083093 0.9009595 0.9064538 0.91379 0.9126119 0.9168737 0.9117619 0.9017739 0.9026016 0.9035991 0.904788 0.9059207 0.9072039 0.9086783 0.9098327 0.9106567 -9999 -9999 
-9999 -9999 0.9104962 0.9213964 0.9135788 0.9113134 0.9124436 0.9244724 0.9231814 0.9152728 0.9165312 0.9177405 0.9198238 0.9209281 0.9197357 0.9187316 0.9178739 0.9185641 0.9191403 0.9190621 0.9189801 0.9192249 0.9194171 0.9194599 0.965529 1.003387 0.9593711 0.9722195 0.9214136 0.9211901 0.9208137 0.9193195 1.013578 1.002239 0.9548647 1.025446 0.9719105 0.9349424 0.957266 0.9322678 0.9674905 0.9179795 0.9267052 0.9610431 0.9694927 0.9860374 0.9796341 0.959721 0.9246619 0.9459133 0.9519422 0.94447 0.9459086 0.9335678 0.9115592 0.9099192 0.9826168 0.9977897 0.9824452 0.9993407 1.029484 1.021563 0.9991818 0.9881489 0.9646212 0.9389122 0.9780293 0.9607948 0.9599428 0.970135 0.9501197 0.966789 0.9352763 0.9175941 0.9061304 0.9051427 0.9040664 0.9030614 0.9117041 0.9137933 0.9019253 0.9009015 0.9074907 0.8999795 0.8981287 0.8973435 0.8965214 0.8954719 0.8945875 0.966398 1.046754 1.027961 1.014327 0.9559155 0.8933339 0.8911973 0.8915325 0.8916832 0.892244 0.8930684 0.8936182 0.8938214 0.9095691 0.9271716 0.9351172 0.9206141 0.8945593 0.8951203 0.8953937 0.8955076 0.8958357 0.8961415 0.8966116 0.8972231 0.8977893 0.8983795 0.8989024 0.8992648 0.8997555 0.9014074 0.900068 0.898968 0.8991042 0.8996212 0.9002925 0.9012101 0.904542 0.971464 0.9627262 0.9216737 0.9497251 0.9483855 0.9278107 0.9309216 0.9446931 0.9422375 0.9244018 0.9147596 0.9148905 0.9149557 0.9096127 0.9072638 0.9120958 0.9171771 0.9239229 0.9406899 0.9555359 0.949662 0.9392887 0.9358713 0.9370218 0.949347 0.9538501 0.9398968 0.9269336 0.9251639 0.9383597 0.949842 0.9428974 0.932523 0.9224684 0.9148713 0.9183983 0.9356006 0.9610233 0.9609879 0.9588213 0.9937851 1.040093 1.085669 1.072034 1.0593 1.152544 1.457205 1.221998 1.152552 1.106321 1.065473 1.035098 1.027379 0.9903842 0.940021 0.9243783 0.9133986 0.898642 0.8965455 0.8972128 0.8978438 0.8985284 0.8992607 0.8998647 0.9004857 0.9013091 0.9019965 0.9029835 0.9038367 0.9044644 0.9056529 0.9070218 0.9083893 0.9096829 0.9108144 0.9120483 -9999 -9999 
-9999 -9999 0.909134 0.9224541 0.9093726 0.9104752 0.9116666 0.915649 0.9187266 0.9145006 0.9155421 0.9164966 0.9183798 0.919226 0.9180484 0.9168576 0.9165984 0.9173757 0.9173728 0.9171668 0.9171129 0.9175346 0.9178523 0.9361134 0.9751736 0.9764134 1.01269 0.9234114 0.9198397 0.9193076 0.9195898 0.9240732 1.051477 1.00035 0.9660843 0.9827749 0.9824243 0.9272302 0.9738656 0.9358946 0.9856169 0.9175694 0.9268138 1.002543 0.9998867 1.019141 1.015867 0.9747357 0.9187242 0.9307769 0.9397629 0.9436028 0.9471636 0.9526356 0.9381227 0.9157829 0.9514986 0.9751325 0.9717121 1.015588 1.055817 1.046609 1.012031 0.9875124 0.958524 0.9308623 0.9434999 0.9681546 0.960601 1.001063 0.976089 0.9828686 0.9514962 0.9193197 0.9052632 0.9041469 0.903145 0.9016408 0.9113603 0.9092768 0.9006641 0.8999521 0.8990176 0.9040484 0.9016325 0.8963122 0.8955125 0.909255 1.017327 1.197061 1.1814 1.041475 0.9739821 0.9274471 0.8989956 0.8936398 0.9047883 0.9186714 0.9288344 0.9391633 0.9349664 0.904108 0.8948508 0.8952942 0.8956748 0.8958136 0.8960941 0.8966182 0.8966699 0.8969029 0.8972099 0.8977479 0.8981668 0.8986487 0.8993201 0.8998172 0.9004087 0.9007877 0.9015024 0.9030412 0.901516 0.9004154 0.9005023 0.900947 0.908991 0.9151117 0.9193121 0.9164007 0.9154364 0.9034834 0.9098154 0.9329164 0.9240633 0.9205208 0.9376048 0.9473281 0.9368417 0.9222296 0.9206401 0.9207046 0.8990555 0.8992407 0.9044573 0.9202327 0.9169097 0.9000112 0.8995989 0.899655 0.8997062 0.8996983 0.9141383 0.9268662 0.9254171 0.9176973 0.9116465 0.913357 0.9252642 0.9352603 0.9317641 0.922249 0.9125756 0.9111178 0.9130868 0.920832 0.9338489 0.9374453 0.9306765 0.9600845 0.9954951 1.012423 1.086315 1.233993 1.327067 1.204462 1.154237 1.108462 1.077831 1.051697 1.024825 1.003097 0.958737 0.9103486 0.8973333 0.8994636 0.8973491 0.897873 0.898477 0.8990718 0.8997618 0.9006212 0.9012536 0.9017699 0.9024666 0.9032565 0.9041367 0.9049747 0.9057042 0.9066613 0.9081624 0.9091676 0.9104635 0.9117441 0.9131864 -9999 -9999 
-9999 -9999 0.9077299 0.9267249 0.9083999 0.9097317 0.910684 0.911522 0.9126727 0.9136822 0.9143912 0.9155442 0.9167926 0.9174128 0.9162636 0.9151324 0.9155235 0.9156585 0.9155117 0.9154253 0.9153488 0.9158445 0.9352326 0.9673561 0.9452543 0.9783706 0.9509167 0.9190028 0.9180812 0.9176282 0.9561916 0.9734004 1.026797 0.9644063 0.9354463 0.9231582 0.9852931 0.9318625 0.9828854 0.9790249 0.9904978 0.9233923 0.9212524 1.017234 1.022303 1.021468 0.9987941 0.9884083 0.9637483 0.9757383 0.9601446 0.9428733 0.9295508 0.9343877 0.9467655 0.9321142 0.9264478 0.9561812 0.9853072 1.047439 1.052139 1.025183 1.00343 0.9836111 0.9644156 0.9495187 0.9505025 0.9653201 0.9570113 0.9977626 0.9917544 0.9767696 0.9483768 0.9167894 0.904468 0.9032672 0.9018055 0.9007418 0.9337189 0.9248768 0.9051946 0.8988304 0.898056 0.8973418 0.8964136 0.8954923 0.9103958 1.02673 1.218776 1.334494 1.370128 1.196691 1.105473 1.063872 1.030542 1.015182 1.008152 0.9817539 0.9274763 0.8948834 0.8954191 0.8960108 0.8966587 0.8970333 0.8972927 0.8974299 0.8975062 0.8978651 0.8982744 0.8982888 0.8985417 0.8992199 0.8995923 0.8999384 0.9022493 0.9047017 0.9013469 0.9021047 0.9029791 0.922902 0.902393 0.9241478 0.9349412 0.9388252 0.9305086 0.9082444 0.9038885 0.9047097 0.9059114 0.9049414 0.9041688 0.9035781 0.9138762 0.918668 0.9337155 0.9492233 0.9597597 0.9538532 0.9386991 0.9006956 0.900372 0.9011413 0.9006675 0.9007339 0.9008025 0.9011248 0.9017138 0.9020259 0.9015849 0.9013081 0.9010566 0.9136186 0.9117756 0.9104564 0.9102093 0.9074749 0.9115056 0.9139935 0.9103397 0.9067618 0.9011003 0.8979788 0.9008706 0.9117233 0.9094565 0.9236549 0.9163786 0.9406652 0.9658153 0.9863692 1.11922 1.277223 1.169941 1.140431 1.095878 1.071905 1.064556 1.037611 1.002162 0.9749249 0.9266272 0.8952017 0.8963202 0.8973759 0.8983347 0.8990636 0.8998156 0.9004815 0.9012384 0.902024 0.9027276 0.9032633 0.9039426 0.9044668 0.9053769 0.9064927 0.907187 0.9080341 0.9089521 0.9099524 0.9110603 0.91262 0.9138473 -9999 -9999 
-9999 -9999 0.9063676 0.9240586 0.9076284 0.9087423 0.9097868 0.9107231 0.9118946 0.9124482 0.913354 0.9144104 0.9151081 0.9152819 0.9147028 0.9136406 0.9140262 0.9139925 0.9138103 0.9185696 0.9496168 0.9520137 0.9572735 0.9570726 0.9512901 0.965721 0.9188744 0.9176533 0.9294969 0.9751682 1.006819 1.008392 1.018396 0.9638438 0.9208156 0.9170198 0.9582641 0.9438175 0.961077 0.9970295 0.9643955 0.9572891 0.9219955 1.010933 1.012293 0.9948835 0.9646538 0.9622753 0.9973329 1.009904 0.9976627 0.9710537 0.9360535 0.9280047 0.9259813 0.9253902 0.9493238 0.969071 1.002677 1.077483 1.047364 1.003931 0.9869104 0.9783451 0.9725949 0.970296 0.961235 0.941763 0.9346646 0.9694103 0.9779744 0.9547793 0.9232526 0.9046652 0.9037575 0.9024528 0.9010202 0.9186816 0.9503711 0.9351109 0.9126022 0.8994394 0.8969988 0.8961983 0.8952193 0.9113348 1.004713 1.117689 1.151342 1.183459 1.16969 1.117291 1.041655 0.9622656 0.9175472 0.9004428 0.8951817 0.895284 0.8956742 0.8964418 0.8968512 0.8974872 0.8980247 0.8984972 0.8987438 0.8988146 0.8988851 0.8991237 0.8995259 0.8997325 0.8999172 0.9006748 0.9011286 0.9012106 0.9017161 0.902047 0.9027188 0.9034919 0.9044452 0.9051189 0.9034724 0.9141467 0.9459279 0.925057 0.9033831 0.9041601 0.9051447 0.906205 0.9077239 0.9064509 0.9056145 0.9048769 0.9039927 0.9220959 0.942547 0.9598196 0.9816998 0.9772199 0.9420282 0.901441 0.9023585 0.9030402 0.9028137 0.9027815 0.9024135 0.9032519 0.9040452 0.904557 0.9038674 0.9028326 0.9024014 0.9021429 0.9021059 0.9017123 0.9013854 0.9008723 0.9003841 0.9000121 0.899753 0.8995195 0.8995313 0.8994467 0.9225942 0.9260162 0.9070039 0.9156554 0.9075981 0.9352548 0.9524751 0.9872577 1.127674 1.165442 1.114057 1.098196 1.063072 1.044109 1.040029 0.9937451 0.9476048 0.9237095 0.8950526 0.8961683 0.8972664 0.8983418 0.8993766 0.9002545 0.9010019 0.9017658 0.9025754 0.9034384 0.9041727 0.9049015 0.9055175 0.9058535 0.9068511 0.9084448 0.9091038 0.9092396 0.9104106 0.9114206 0.9122998 0.9136502 0.9149957 -9999 -9999 
-9999 -9999 0.9050085 0.9055752 0.9066368 0.9076785 0.9086934 0.9099496 0.9106638 0.9111456 0.9122242 0.9133086 0.9135059 0.913482 0.9133269 0.9206248 0.912571 0.9123046 0.9274868 0.9498923 0.9633805 0.953398 0.9438609 0.9479892 0.9623991 0.9437195 0.9170435 0.9163917 0.9381188 0.9702107 1.002844 1.009277 0.9996743 0.970464 0.9393896 0.9157416 0.9444283 0.9487614 0.9488311 0.9948576 0.9594779 0.9925447 0.9308223 0.9888278 1.008249 0.9876251 0.9547272 0.9298339 0.9283405 0.9696004 0.9579431 0.9586812 0.9550852 0.9456173 0.9387925 0.9282337 0.9490573 0.9883078 0.986705 1.021758 1.035158 1.029753 1.028312 1.015061 0.9936786 0.98286 0.9689863 0.9434474 0.9334531 0.9487607 0.9558089 0.9369932 0.9042349 0.9033644 0.9027817 0.9018976 0.9004964 0.9114129 0.9344407 0.9266014 0.9124473 0.8967296 0.8959302 0.8949917 0.9196681 1.011311 1.09339 1.18251 1.338659 1.208467 1.038487 0.9752895 0.9411633 0.9031957 0.899234 0.9152331 0.9269044 0.9269789 0.9204168 0.9043933 0.8980431 0.8991572 0.8999616 0.9000861 0.9001033 0.9002113 0.9002725 0.9004416 0.9009695 0.901221 0.9014918 0.9021531 0.9026778 0.9026927 0.9030555 0.9034575 0.9037789 0.9049184 0.9066117 0.9062532 0.9048812 0.9039389 0.903544 0.9041809 0.9047824 0.9056224 0.9065092 0.907447 0.9359187 0.9075105 0.9068336 0.9059379 0.9049197 0.9183619 0.9455475 0.972029 1.015915 0.9857708 0.9130629 0.90307 0.9041083 0.9049202 0.9051077 0.9045188 0.9039706 0.9055827 0.9060487 0.9067043 0.9059612 0.905254 0.9040192 0.9034824 0.903371 0.9038108 0.9058349 0.9045886 0.907857 0.905545 0.9011182 0.9011725 0.90128 0.9191929 0.9185723 0.8984917 0.906042 0.9194731 0.9135478 0.9412598 0.9540426 0.9969949 1.122046 1.144231 1.074955 1.049496 1.020764 0.9992464 0.9886392 0.9364771 0.8947019 0.8953079 0.8961253 0.8972642 0.8982508 0.8992908 0.9004155 0.9014849 0.9023613 0.9032481 0.904154 0.9050407 0.9057669 0.9064468 0.9069769 0.9073836 0.9084225 0.9100915 0.911075 0.9112188 0.9117553 0.9126121 0.9134303 0.9146785 0.9158758 -9999 -9999 
-9999 -9999 0.9038019 0.9042866 0.9052748 0.9064429 0.9075962 0.9087425 0.9094386 0.910161 0.9111999 0.9119719 0.9118152 0.91193 0.9201161 0.9266134 0.9213468 0.924677 0.9374646 0.9404327 0.9448134 0.9423692 0.9388928 0.9529067 0.960586 0.9324074 0.9157722 0.9150128 0.9513493 0.9682734 1.001116 0.9923952 0.9632393 0.9552018 0.9758753 0.9451478 0.9556447 0.9580365 0.9421619 0.9740304 0.9597336 0.9737905 0.9623162 0.962122 1.026102 1.01761 0.9722962 0.9329715 0.9228863 0.9305365 0.9310095 0.9213684 0.9423751 0.9494557 0.937924 0.9398395 0.9472964 0.9675878 0.9760833 0.9868717 1.026961 1.043203 1.045864 1.027952 0.9981799 0.9795073 0.967843 0.9542375 0.952983 0.9652484 0.9629695 0.9328467 0.9029092 0.9021096 0.9015481 0.9009287 0.8998244 0.9020799 0.9276385 0.9268999 0.9037338 0.8956749 0.8946104 0.9297223 0.9918697 1.046353 1.139908 1.172412 1.042227 0.9765288 0.921446 0.9130634 0.9225947 0.9188539 0.9490545 0.973801 0.9703251 0.9471419 0.9172004 0.8984012 0.8992642 0.9003295 0.9015918 0.9019549 0.9016827 0.9017171 0.901769 0.9018648 0.9023906 0.9026397 0.9028751 0.9035117 0.9042659 0.9047481 0.9051749 0.9056929 0.9060709 0.9067826 0.9083629 0.9072683 0.9063851 0.9054367 0.921205 0.9078599 0.912677 0.9065819 0.9074946 0.9085369 0.9459419 0.9085681 0.9076445 0.9066341 0.9067902 0.9136516 0.9373478 0.9705891 1.024593 0.9554288 0.9033799 0.9043756 0.9052 0.9068085 0.9074208 0.9061641 0.9055858 0.906476 0.9081116 0.9086646 0.9079755 0.9072849 0.9059803 0.9049452 0.9090081 0.9041236 0.9037122 0.9032883 0.9026501 0.9023886 0.9026392 0.9029563 0.9309391 0.903558 0.8999037 0.89844 0.9061244 0.931513 0.9352203 0.9494982 0.9717105 0.9907755 1.075053 1.110554 1.050313 1.028283 1.005405 0.9736807 0.9476526 0.894865 0.8956564 0.8965545 0.8975253 0.898628 0.8995828 0.9003615 0.9015046 0.9026698 0.9036868 0.9050491 0.9056859 0.9064656 0.9073702 0.9079307 0.9084443 0.9089346 0.9102235 0.9117298 0.9126981 0.9133843 0.9135072 0.9137082 0.9185334 0.9154751 0.9218849 -9999 -9999 
-9999 -9999 0.9058636 0.9030126 0.9040837 0.9052855 0.9064974 0.9073592 0.9083467 0.9101365 0.9108599 0.9104814 0.9100974 0.9104587 0.9165475 0.9201144 0.9265732 0.9290247 0.9175593 0.9216556 0.9232806 0.9288006 0.9440666 0.9485772 0.9195244 0.9148936 0.9144939 0.9421492 0.9987761 0.9809066 1.000705 0.9776374 0.9395664 0.9587268 0.9825599 0.9678649 0.9402217 0.9435489 0.9202001 0.9408274 0.943994 0.9391451 0.9919851 0.9733894 1.042021 1.04299 0.9997855 0.9387075 0.9619424 0.9417191 0.948866 0.9099362 0.9252641 0.9534459 0.9620618 0.9435933 0.9628276 0.9615775 0.9753981 0.9870175 1.008019 1.009483 0.998051 0.9919607 0.9855245 0.9737679 0.9622168 0.9514508 0.9610797 0.9755436 0.9576418 0.9188167 0.9018495 0.9009012 0.9000524 0.8996727 0.8987432 0.9073041 0.9252456 0.9151024 0.8953868 0.8959763 0.9398046 0.9560694 0.9726407 1.050379 1.112877 1.031506 0.9820984 0.9397641 0.9021839 0.9038094 0.9110239 0.9198553 0.9598612 0.9739348 0.9525411 0.9203038 0.9059663 0.9055579 0.9062268 0.9010177 0.9026363 0.9032822 0.903082 0.9031847 0.9032971 0.9035118 0.9038098 0.9042361 0.9044102 0.9050677 0.9059063 0.90641 0.9066421 0.9071777 0.9074872 0.9081362 0.9100611 0.9085829 0.9073284 0.9062436 0.9299751 0.9074025 0.9070387 0.9076639 0.9085156 0.9093729 0.9506935 0.910182 0.9089885 0.9076791 0.9066355 0.905731 0.9197018 0.9433513 0.9525001 0.9038549 0.9048151 0.9059346 0.9069971 0.9083086 0.9094245 0.9079764 0.9077569 0.9083421 0.9099364 0.9107832 0.9101827 0.9093663 0.9080904 0.905819 0.9058746 0.9055802 0.9051273 0.9048547 0.9043304 0.9042873 0.9043882 0.951511 0.9027582 0.9011278 0.8995576 0.89837 0.9149739 0.9502093 0.9558709 0.9520062 0.9952617 1.003674 1.022 1.046406 1.054981 1.052285 1.01777 0.979238 0.9405109 0.8984619 0.8967709 0.8977042 0.8987079 0.8998364 0.9007982 0.9017063 0.9027931 0.9039162 0.9048768 0.9062253 0.9072936 0.907969 0.9088012 0.9095646 0.9099854 0.9105915 0.9117711 0.9130811 0.9141883 0.9153333 0.9157428 0.9157714 0.9256203 0.91635 0.9364806 -9999 -9999 
-9999 -9999 0.9013583 0.9018962 0.9029554 0.9042404 0.9050665 0.9058347 0.9073627 0.9084098 0.9169791 0.9090773 0.9085149 0.9092393 0.9135187 0.9169706 0.9266521 0.940494 0.9133335 0.9102742 0.9111957 0.9124047 0.9294258 0.9136879 0.9134149 0.9134176 0.9131957 0.9885999 1.003551 0.9871122 0.9882379 0.9640442 0.9168368 0.9496691 0.9410611 0.948951 0.9197666 0.9213959 0.9136059 0.9373881 0.9550493 0.9492975 0.9549348 0.9863734 1.008993 1.02337 0.9919296 0.9442801 0.9737438 0.9756693 0.9560979 0.9235343 0.9450451 0.9781222 1.000703 0.9394231 0.9507952 0.9745892 0.9677218 0.9763667 0.9759546 0.9746379 0.9653985 0.9720482 0.9753568 0.9693676 0.9631207 0.9486544 0.9553549 0.9577809 0.9345276 0.9012422 0.9006434 0.8997415 0.89877 0.8980899 0.8974855 0.9140134 0.9132951 0.8954156 0.9026723 0.9595444 0.9435994 0.926195 1.003669 1.066999 1.023332 0.9766884 0.940738 0.9281667 0.904705 0.8970207 0.8976513 0.9066596 0.9237921 0.9235645 0.9156557 0.9076522 0.9185539 0.933225 0.9276159 0.9019975 0.9037589 0.904825 0.9042435 0.9044954 0.9048805 0.9049283 0.905275 0.9057481 0.9060462 0.9064811 0.9073433 0.9077091 0.907935 0.9083629 0.9085374 0.909516 0.9113089 0.9100357 0.9087545 0.9075763 0.9073329 0.9078996 0.908483 0.911221 0.9276006 0.921114 0.9642289 0.9258584 0.9101789 0.908865 0.9076966 0.9065834 0.9152964 0.9353834 0.9065794 0.9051237 0.9065648 0.9078776 0.9087853 0.9100103 0.9112476 0.9100232 0.9091082 0.9098595 0.9114097 0.9127418 0.9119604 0.9110026 0.9098047 0.9082955 0.9077794 0.907328 0.9067816 0.9066324 0.9063671 0.9236677 0.9677885 0.9132327 0.9026513 0.9011253 0.8996463 0.9005025 0.9331092 0.964294 0.965262 0.9558995 1.011064 1.041096 1.050931 1.105876 1.157674 1.082163 1.001836 0.9750617 0.9328687 0.9095927 0.897464 0.8986603 0.8997741 0.9009421 0.9020051 0.9029901 0.9040549 0.9052376 0.9062901 0.9073086 0.9082645 0.9092705 0.9104186 0.9111947 0.911751 0.9126171 0.9137583 0.9144029 0.9157567 0.9171014 0.918029 0.917883 0.9162878 0.9322309 0.9403886 -9999 -9999 
-9999 -9999 0.9000869 0.9008136 0.9017819 0.9029353 0.9039444 0.9051071 0.9063504 0.9085464 0.9122618 0.9076949 0.9073992 0.9079487 0.9081905 0.9082122 0.9077112 0.9200571 0.9083864 0.9093408 0.9104222 0.9113846 0.9206802 0.9120241 0.911732 0.9116118 0.9184615 0.9700034 0.9848823 0.9806387 0.9821024 0.9632758 0.9149583 0.9478038 0.921041 0.9259821 0.9117861 0.9121452 0.9258717 0.9366396 0.9542754 0.9573213 0.9422574 0.9396584 0.9816625 0.9910172 0.9992104 0.9737862 0.9641502 1.010822 0.9848364 0.9659984 0.9587924 1.007427 0.9861456 0.9452833 0.9279736 0.9668599 0.9841883 0.9679795 0.9565861 0.9455998 0.9503407 0.9582207 0.9596793 0.9511866 0.9495873 0.9473457 0.9498554 0.9360464 0.9108942 0.9001324 0.8992001 0.898305 0.8971947 0.896511 0.9152822 0.9222782 0.9019073 0.8994828 0.94783 0.9409139 0.9139188 1.026875 1.129148 1.012977 0.9759482 0.9490855 0.929171 0.9329405 0.9021167 0.9034494 0.9098046 0.8993267 0.8999187 0.9000476 0.9002445 0.9016983 0.9247209 0.9378864 0.9255288 0.902719 0.9040602 0.90614 0.9058282 0.9057602 0.9062677 0.9065612 0.9068229 0.9072346 0.9073947 0.9077479 0.9085184 0.9092451 0.9094712 0.9097091 0.9097583 0.9108295 0.9129223 0.9112359 0.909795 0.9086798 0.9126775 0.9095242 0.9266561 0.9438646 0.9524745 0.9509611 0.9508235 0.9610465 0.9110374 0.9096006 0.9085504 0.9073995 0.9211423 0.9373587 0.905953 0.9068184 0.9084548 0.909844 0.9106669 0.9120366 0.9126556 0.9119355 0.9114189 0.9114975 0.9126692 0.9143359 0.9135498 0.9125174 0.9113153 0.9100567 0.9094599 0.9090814 0.9087068 0.9083787 0.9440004 0.9166187 0.9048308 0.9036336 0.9024526 0.9011779 0.8996812 0.9105336 0.9413624 0.9651985 0.9659995 0.958881 1.0151 1.040672 1.054397 1.173259 1.202079 1.036699 0.9746425 0.9684881 0.9222459 0.8968475 0.8980715 0.8995212 0.9008671 0.9020742 0.9032027 0.904193 0.9051879 0.9062366 0.9073843 0.9086818 0.9095961 0.9106702 0.9117879 0.91298 0.9134332 0.9145798 0.9155794 0.9167469 0.917849 0.9187979 0.9200716 0.9196116 0.918084 0.9179134 0.9330099 -9999 -9999 
-9999 -9999 0.913196 0.8995845 0.9006054 0.9016325 0.9030354 0.9041582 0.9053056 0.9063173 0.9064484 0.906046 0.9062206 0.9065135 0.906872 0.9067147 0.9061868 0.9122142 0.9073144 0.908424 0.9093161 0.9105517 0.9110296 0.9105015 0.9100803 0.9101105 0.9104957 0.9407066 0.9604362 0.9577479 0.9642399 0.9507069 0.9169443 0.9383528 0.9201361 0.9112245 0.9103503 0.9121174 0.9325817 0.9306783 0.9522034 0.9450046 0.9397485 0.9326122 0.9482446 0.9703214 0.9794656 0.9658951 0.9494891 0.9842017 1.001143 0.9975669 0.9740323 0.9969791 0.9929157 0.9626722 0.9313087 0.9524804 0.9877896 0.9611443 0.9365463 0.9334481 0.9546922 0.9495204 0.9370679 0.9231679 0.9229617 0.9367812 0.9363235 0.9190556 0.9007685 0.898897 0.8981149 0.8970252 0.9014354 0.9325497 0.9213642 0.9060615 0.9135302 0.9493558 0.9651994 0.9480922 1.054143 1.188302 1.050567 0.990739 0.9622588 0.9466942 0.9354104 0.9392934 0.9028837 0.898401 0.9184844 0.9038692 0.9012882 0.9016933 0.9017729 0.9018831 0.9128184 0.9178774 0.9045595 0.9037564 0.9048865 0.9066778 0.9461002 0.907231 0.9074274 0.9077144 0.9080878 0.9085342 0.9088665 0.9090859 0.9099722 0.9107791 0.9113337 0.9122361 0.91179 0.9126653 0.9279498 0.9125354 0.9109762 0.9211897 0.9257903 0.9224975 0.92143 0.9194486 0.9193723 0.9321086 0.9163908 0.9487181 0.9120102 0.9104327 0.9091558 0.9081511 0.9175085 0.9075636 0.9075224 0.9087094 0.9100592 0.9112722 0.9122321 0.9132723 0.9148218 0.9140854 0.9136707 0.9126341 0.9137475 0.9158678 0.9153863 0.9140084 0.9129786 0.9119376 0.9112607 0.9111179 0.9107947 0.9090838 0.9073495 0.9058174 0.9043845 0.9075994 0.9256481 0.9323158 0.9256732 0.9258302 0.9371876 0.9441746 0.9572771 0.9596101 1.026173 1.054262 0.9975047 1.010151 1.056871 1.010869 0.9740962 0.9682294 0.9202099 0.8972617 0.8986388 0.9001092 0.9015406 0.9029139 0.9046747 0.9054944 0.9063687 0.9073913 0.9083154 0.9097565 0.9108736 0.9118591 0.9132287 0.9139876 0.9153206 0.9160728 0.9173633 0.9187047 0.9198844 0.9207357 0.9218938 0.9216928 0.9208636 0.9205008 0.9197152 -9999 -9999 
-9999 -9999 0.9462634 0.9144127 0.8991789 0.9005539 0.9021428 0.903241 0.9039611 0.9051147 0.9050216 0.9045347 0.9047132 0.9049829 0.9053098 0.9051461 0.912744 0.9101279 0.9065033 0.9073822 0.9083442 0.909462 0.9096047 0.9087082 0.9082478 0.9080973 0.90934 0.9233637 0.9385902 0.9332488 0.9433981 0.9411528 0.9179754 0.9134218 0.9204637 0.9188039 0.9381948 0.9274421 0.9307119 0.9430175 0.9757719 0.9646844 0.9496464 0.9359379 0.9346017 0.948562 0.9272462 0.9243582 0.9286793 0.9540655 0.9859819 1.005044 0.9909141 0.9755814 0.9916251 0.9722505 0.9442037 0.9468709 0.9744478 0.9464855 0.9274309 0.9360603 0.9470406 0.9415281 0.9290742 0.9285607 0.9304402 0.9263852 0.918326 0.9162673 0.9103848 0.9068804 0.9028966 0.8964964 0.9089507 0.9333261 0.935973 0.9545939 0.9765155 0.967343 0.990113 1.126706 1.064486 1.000733 0.9974381 0.9807171 0.9527248 0.9375289 0.929904 0.9246017 0.9095343 0.8983846 0.8997057 0.9012266 0.907302 0.9078198 0.9040679 0.9112812 0.9259537 0.9303378 0.9133362 0.9111214 0.9192418 0.9284081 0.952435 0.9226571 0.9089236 0.9090788 0.9094142 0.9097894 0.9101447 0.9104489 0.9112166 0.9123391 0.9132313 0.9145879 0.9138665 0.9139208 0.9294997 0.9133533 0.9117565 0.9543557 0.9447463 0.933284 0.9201121 0.9172176 0.91816 0.918402 0.9134787 0.9350841 0.9133651 0.9115313 0.9101894 0.9091852 0.9149629 0.9082365 0.9092429 0.9106346 0.9119069 0.912991 0.9138419 0.9146798 0.916615 0.9164306 0.9155952 0.9142066 0.914992 0.9171076 0.9173275 0.9158631 0.9149019 0.9137544 0.9131805 0.9127288 0.9106492 0.908852 0.9071704 0.905549 0.9040999 0.913094 0.9370852 0.9695647 0.9544002 0.9331068 0.9341366 0.9290403 0.9478353 0.9601837 1.032254 1.131339 1.048499 0.9774216 0.9766517 1.012674 0.9730967 0.9581165 0.9211924 0.8976786 0.8990718 0.900521 0.9019644 0.903486 0.9051002 0.9066527 0.9077 0.9088084 0.9097225 0.9104258 0.911487 0.9131377 0.9144377 0.9151986 0.9165679 0.9173079 0.9189972 0.9203408 0.9213852 0.9225373 0.923515 0.9237759 0.9232434 0.9228176 0.922137 -9999 -9999 
-9999 -9999 0.9022955 0.9174368 0.9178307 0.8991839 0.9007662 0.9018867 0.90248 0.9033703 0.9036578 0.9027922 0.903105 0.9034085 0.9037364 0.9036922 0.9110891 0.9044999 0.9054237 0.9061002 0.9072236 0.9082428 0.9082723 0.9074297 0.9231765 0.9133968 0.9082797 0.9248082 0.9330389 0.9296892 0.9441684 0.9549998 0.9495825 0.919457 0.9592721 0.9407665 0.9515383 0.9363204 0.9347715 0.9583623 0.9817269 0.9762821 0.9663659 0.9526558 0.9376564 0.9460875 0.9335777 0.9348211 0.9359155 0.9474043 0.9698201 0.9805135 0.9790411 0.9634711 0.9670396 0.9557987 0.9422736 0.9413183 0.9592711 0.9454663 0.9503766 0.954838 0.9501178 0.9526203 0.9441638 0.9468198 0.9373931 0.9204892 0.9100282 0.9065065 0.8981586 0.8967261 0.8960245 0.8954085 0.8963372 0.9685966 1.009754 0.9835883 0.9405318 0.945835 1.095658 1.136526 1.019483 0.9833269 0.9694133 0.9538587 0.9344953 0.9234933 0.9100613 0.9033039 0.9102778 0.8996713 0.9000911 0.9015746 0.9030851 0.9060321 0.9071957 0.9066729 0.9138079 0.9207513 0.9123408 0.9229887 0.9427687 0.9472818 0.9238041 0.9310538 0.9598494 0.9113238 0.9113072 0.9114334 0.9115691 0.9118738 0.9122978 0.9135366 0.9151919 0.916459 0.9154344 0.9159308 0.9163752 0.913712 0.9188285 0.9251503 0.9219764 0.9142162 0.9174277 0.9353144 0.9330913 0.9143328 0.9148886 0.9201121 0.9147355 0.9127982 0.911377 0.9101728 0.9218067 0.9097241 0.9113467 0.9125746 0.9137663 0.9150201 0.9155124 0.9160105 0.9177706 0.9181782 0.9172544 0.9159034 0.9160103 0.9181625 0.9191797 0.9177732 0.9167882 0.9158836 0.9147482 0.9127074 0.9109181 0.9091644 0.9075344 0.9060743 0.9046404 0.9034317 0.9166033 0.958864 0.9592702 0.9410858 0.9392787 0.9235856 0.9263464 0.9344635 0.992678 1.136322 1.144814 1.038302 0.9668381 0.9666557 0.9578987 0.949034 0.9153 0.8981453 0.8995857 0.9011689 0.9025276 0.9040817 0.9056635 0.907388 0.9090453 0.910228 0.9110686 0.9117879 0.9124189 0.9214493 0.9177659 0.9159952 0.9176024 0.9189911 0.9208344 0.9219822 0.9227201 0.924017 0.9249718 0.9253706 0.925588 0.9251057 0.9243226 -9999 -9999 
-9999 -9999 1.068544 0.9484427 0.9603498 0.9326288 0.899179 0.9002749 0.900823 0.9016617 0.9020271 0.9013233 0.9013882 0.9017281 0.9019542 0.9021188 0.9055741 0.9036062 0.9071168 0.9050114 0.9060597 0.9070392 0.910973 0.9061299 0.9703106 0.9262317 0.9074677 0.9329916 0.9373158 0.9388607 0.954611 0.9565505 0.9667856 0.9163441 0.9671509 0.9443869 0.9444715 0.9368618 0.9314345 0.9433712 0.9499685 0.9529555 0.9625667 0.9655716 0.965317 0.9687195 0.9918681 0.9731883 0.9556503 0.936182 0.9437425 0.9547072 0.9575855 0.9427044 0.9380495 0.940133 0.9379596 0.9329151 0.9407874 0.9334109 0.9398642 0.9517176 0.9493661 0.9521681 0.9414917 0.9271926 0.9067727 0.9006689 0.8981692 0.8963459 0.8960102 0.8953843 0.8946627 0.91285 0.9602144 0.9729534 0.928123 0.8923325 0.8915958 0.9588614 1.022088 1.009155 1.026186 1.020428 0.9825408 0.9518207 0.9323611 0.9191933 0.8969556 0.8975405 0.9082514 0.8994079 0.9005942 0.9019742 0.9038053 0.9220456 0.9350888 0.9113065 0.9115691 0.921291 0.9300321 0.9439476 0.9371486 0.9143634 0.9197477 0.9515073 0.9544831 0.9580145 0.9872679 0.9466504 0.9133504 0.9135366 0.9139004 0.9151787 0.9168738 0.9180332 0.9172637 0.9209034 0.9163274 0.91447 0.9137859 0.9137067 0.9134472 0.9138879 0.9142897 0.9163808 0.9148521 0.9155959 0.9164916 0.9425526 0.9154413 0.9137644 0.9124342 0.9113358 0.9104775 0.9113708 0.9128492 0.9140657 0.9151735 0.9164628 0.9171953 0.9175454 0.9186899 0.9199379 0.9186805 0.9176208 0.9176162 0.9190122 0.9207227 0.9188992 0.9185142 0.9168795 0.9147899 0.9128781 0.9111411 0.9095218 0.9081926 0.9070569 0.9055263 0.9039984 0.9052114 0.9441339 0.9467103 0.9426749 0.9447005 0.911816 0.8976464 0.8967168 0.9207661 1.024906 1.105234 1.031209 1.008428 0.9790688 0.9784222 0.9577075 0.9046876 0.8988732 0.9002272 0.9017243 0.9031205 0.9046 0.9062144 0.9079738 0.9095718 0.9111225 0.9119831 0.9131202 0.9137102 0.9158368 0.9151087 0.9164117 0.9179885 0.92006 0.9221305 0.9235274 0.924336 0.9253923 0.9262769 0.9269056 0.9273575 0.9270912 0.9266117 -9999 -9999 
-9999 -9999 0.9440659 0.9515475 1.02743 1.151235 1.007499 0.9048682 0.8990241 0.8994743 0.9001437 0.8996656 0.9000356 0.9002573 0.9005088 0.9009041 0.9017817 0.9026154 0.9032416 0.9039161 0.9048045 0.9058229 0.908738 0.9226956 0.9680377 0.9222599 0.9251319 0.9465821 0.9542978 0.955143 0.960927 0.9564893 0.9516196 0.9157096 0.9629418 0.9712477 0.9582132 0.9518203 0.9397576 0.9402289 0.9411134 0.9343118 0.934303 0.9454386 0.9634384 0.9601144 0.9792587 0.953374 0.9265181 0.9271985 0.9405361 0.9436423 0.9409589 0.9281271 0.9186797 0.9220026 0.922361 0.9108373 0.9076235 0.9068571 0.9122198 0.9231287 0.9151409 0.9093014 0.8990818 0.8964449 0.8959948 0.8956786 0.8957375 0.894972 0.8944535 0.9157371 0.9391296 0.9496489 0.9213538 0.8923531 0.8913731 0.8909199 0.929902 0.9766773 0.9549503 0.939434 0.9666237 1.001748 1.001536 0.9713531 0.9313986 0.9046627 0.8970908 0.8983467 0.9004992 0.9002378 0.901351 0.9025234 0.9039186 0.9224274 0.9635099 1.003686 1.004126 1.03419 1.02132 0.962009 0.9147713 0.9090649 0.9099075 0.9104778 0.9112076 0.9393485 0.999882 0.9991302 0.9835928 0.9362654 0.9161501 0.91734 0.9183611 0.9197754 0.919256 0.9186507 0.9169844 0.9161322 0.9155259 0.9154096 0.9149374 0.9151463 0.9156267 0.9159126 0.9162871 0.9170063 0.9181409 0.9175863 0.9159393 0.9146413 0.9136679 0.9126003 0.9121315 0.9132781 0.9144583 0.9158053 0.9168731 0.9178527 0.918801 0.9189273 0.9198285 0.9238453 0.9201294 0.9192129 0.9193293 0.9206324 0.9221944 0.9204345 0.9192802 0.9173667 0.9155032 0.9133741 0.91175 0.9102423 0.9091709 0.9078759 0.9062922 0.904917 0.9034762 0.9026642 0.9105281 0.9249078 0.9281644 0.8997044 0.8988874 0.8978586 0.8967156 0.9287279 1.036574 1.005097 1.011939 1.000186 0.9988512 0.9718768 0.8980002 0.8993917 0.9007823 0.9021235 0.9036704 0.9050187 0.9067289 0.9084302 0.9100583 0.9114963 0.9130759 0.9235752 0.9212825 0.9219652 0.9160202 0.9172179 0.918723 0.9204939 0.922409 0.924093 0.9255538 0.9269004 0.9276586 0.9283093 0.9288108 0.9289324 0.9284943 -9999 -9999 
-9999 -9999 0.8977033 0.8982335 0.898393 0.9415953 1.030712 1.278165 1.093979 0.9602628 0.9112635 0.8978714 0.8981355 0.898609 0.8990325 0.8999159 0.9007376 0.9013249 0.902067 0.9028748 0.9036018 0.9045835 0.904517 0.9343179 0.9662111 0.9302428 0.9536037 0.9674814 0.9695559 0.977485 0.973823 0.9604252 0.9441478 0.9290611 0.966928 0.9974542 0.9952096 1.003436 0.9824116 0.9578086 0.9537693 0.9360507 0.9184247 0.9191706 0.9302586 0.9313198 0.9332808 0.9276382 0.9102718 0.9398838 0.9698941 0.9513472 0.9358082 0.9300405 0.9151281 0.9061843 0.9000192 0.8992466 0.8982935 0.8978253 0.8971507 0.8964995 0.8959796 0.8954287 0.8950955 0.8947319 0.8956103 0.9134597 0.932265 0.9534526 0.953575 0.9234493 0.899299 0.8922673 0.8914415 0.8908656 0.8984028 0.9330047 0.9849471 0.9808333 0.9408925 0.917515 0.9245386 0.935017 0.9515908 0.9587052 0.919494 0.8971917 0.8981962 0.8992658 0.9002303 0.9010702 0.9020411 0.9031733 0.922951 0.9393158 0.9108124 1.010253 1.018206 1.055812 1.050427 0.9380481 0.9094475 0.9103161 0.9112185 0.911797 0.912366 0.9131055 0.9256687 0.9434332 0.9701352 0.9622633 0.9166436 0.9181353 0.9204397 0.921353 0.9206181 0.919289 0.9184158 0.9175374 0.9166554 0.9168691 0.9166694 0.9166619 0.9169456 0.917394 0.9176801 0.9183899 0.9200842 0.9185048 0.916786 0.9156457 0.9146798 0.9191377 0.9138463 0.9150629 0.9162319 0.9173428 0.9182091 0.9195799 0.9203133 0.9204528 0.9210545 0.929713 0.9217512 0.9208868 0.9209455 0.9223717 0.9304844 0.9215797 0.9199417 0.9179444 0.9162906 0.9145983 0.9127935 0.9110476 0.9102445 0.9090716 0.9079949 0.9070002 0.9048703 0.9036697 0.9025657 0.9016067 0.9011879 0.9010528 0.9000517 0.8989797 0.8979281 0.8969684 0.9645944 0.9721925 0.9747289 0.9885805 0.9875147 0.9711389 0.8985693 0.9000306 0.9014568 0.9028586 0.9043041 0.9058016 0.9073895 0.9090922 0.9105104 0.9118896 0.9132161 0.922612 0.9386528 0.9500034 0.9253374 0.917941 0.9192925 0.9208665 0.9229889 0.9245731 0.9354835 0.9267962 0.9288042 0.9295661 0.9302735 0.9306403 0.930394 -9999 -9999 
-9999 -9999 0.8994017 0.8999404 0.9001112 0.8998637 0.8992233 0.8987416 0.9459193 1.060085 1.119994 0.9995856 0.9422054 0.9297307 0.8972946 0.8985502 0.8993846 0.9002025 0.9009863 0.9017634 0.902351 0.9028804 0.912035 0.9590912 0.957455 0.9382781 0.9602535 0.964588 0.9670435 0.980939 0.9714431 0.9471197 0.9421779 0.9477821 0.9667333 0.9947867 1.003141 1.02216 1.006706 0.9710553 0.9486312 0.9400887 0.9325039 0.9238083 0.9237234 0.928888 0.9339871 0.9361691 0.91891 0.9471722 0.9773299 0.9678054 0.9598271 0.9517074 0.9239371 0.9034401 0.8987191 0.8979837 0.8972679 0.8964968 0.8958926 0.8948852 0.8991042 0.9403096 0.9814296 0.9911665 0.9776659 0.9653459 0.9538388 0.9274719 0.8928478 0.8919262 0.8912244 0.8907708 0.8902953 0.8952822 0.9265632 0.9829392 1.041506 1.003702 0.9474361 0.9276614 0.9213381 0.9093651 0.9125111 0.9187633 0.9046159 0.9026531 0.9274923 0.9436947 0.948894 0.9353496 0.9166534 0.9117631 0.9250537 0.9350104 0.9065438 0.9358004 0.9464985 0.9253525 0.9784471 0.9239336 0.9102773 0.9117615 0.9121826 0.9130673 0.9135836 0.9142559 0.9148665 0.9152687 0.915913 0.9165276 0.9170252 0.9189221 0.9213293 0.9230644 0.9216436 0.9209813 0.9201563 0.9191188 0.9181512 0.9186174 0.9186214 0.9180047 0.9184307 0.9188572 0.9190309 0.9198642 0.92919 0.9194838 0.9181869 0.9170905 0.9156561 0.9270212 0.9154286 0.9167295 0.9178713 0.918809 0.9201128 0.9211688 0.9216322 0.9252238 0.9221154 0.9236509 0.9230858 0.9225081 0.9225727 0.9246415 0.9238409 0.9225917 0.9203169 0.9184908 0.9171548 0.915563 0.9139099 0.9123738 0.911707 0.9111222 0.9099596 0.9085084 0.9064192 0.9048054 0.9037038 0.9032142 0.9028528 0.9023938 0.9013366 0.9002528 0.899335 0.8980715 0.9153576 0.9337907 0.9457169 0.9840609 1.012036 0.9973579 0.8991182 0.9006278 0.9021433 0.9035954 0.9051082 0.9065452 0.9077763 0.9092776 0.9106318 0.911876 0.9132352 0.9146366 0.9328289 0.9370516 0.9182501 0.9190627 0.9198635 0.9213777 0.9234804 0.9250014 0.9264021 0.9273826 0.9287861 0.9303028 0.9318953 0.932067 0.9321328 -9999 -9999 
-9999 -9999 0.9008442 0.9016201 0.9017977 0.9016087 0.9010965 0.9004196 0.8995352 0.8985162 0.9295446 0.9742196 1.049634 0.9807782 0.9531581 0.9065192 0.8979031 0.8988941 0.8998056 0.9006193 0.9024499 0.9115999 0.9436169 0.9707986 0.9438686 0.9348994 0.9489273 0.9507846 0.9522134 0.9528906 0.9374489 0.9267753 0.9424924 0.9656221 0.9801985 1.003816 0.9950477 0.9908558 0.9747667 0.9561165 0.9327583 0.9279933 0.9323372 0.9322987 0.9345618 0.9378461 0.9403475 0.9385237 0.9198711 0.9366214 0.962871 0.9696889 0.9684688 0.9530205 0.9211454 0.8993723 0.8977657 0.896925 0.8959516 0.8949182 0.9109548 0.966913 0.9903578 0.9891657 0.9598648 0.9218782 0.8984663 0.8923809 0.8921208 0.8916952 0.8910985 0.8907314 0.8901743 0.8895432 0.8985936 0.9529474 1.03142 1.102996 1.111839 1.028581 0.9556753 0.9430087 0.9304177 0.9135482 0.91062 0.8982358 0.89642 0.8977476 0.9073213 0.9154642 0.9106369 0.9069549 0.9124625 0.9137381 0.9147627 0.9064865 0.9075078 0.9084108 0.9216232 0.9096933 0.9273227 0.9588619 0.9106215 0.9120161 0.917842 0.9143286 0.9149778 0.9156291 0.9161993 0.9167283 0.9170977 0.9179478 0.9185747 0.9198338 0.9216807 0.9243043 0.9243323 0.9232355 0.9219361 0.9207149 0.9200043 0.9206269 0.9208745 0.9197856 0.9201554 0.9205565 0.9207174 0.9214164 0.9236416 0.9206131 0.9193155 0.918304 0.9169245 0.9306672 0.9169158 0.9179847 0.9193028 0.9203109 0.9215381 0.9226106 0.9229327 0.922912 0.9236507 0.9248596 0.9246665 0.9241349 0.9242846 0.9260405 0.9250259 0.9230101 0.9205768 0.9187515 0.9175076 0.9164602 0.9153721 0.9147092 0.9139523 0.9128485 0.9114508 0.909673 0.9078678 0.9060947 0.9053407 0.9049482 0.904614 0.9037648 0.9025832 0.9016137 0.900403 0.8993106 0.9046564 0.9216411 0.9435416 0.9955512 1.034597 0.9853193 0.8997878 0.901351 0.9028239 0.9041809 0.9058031 0.907157 0.9084044 0.9097993 0.9159278 0.9121227 0.9134581 0.9147691 0.9161089 0.917371 0.9189184 0.9210553 0.9256114 0.9216415 0.9232388 0.9252266 0.9270189 0.92834 0.9294089 0.9307388 0.9322663 0.9549407 0.9336378 -9999 -9999 
-9999 -9999 0.9024474 0.9032949 0.9036252 0.9036595 0.9027492 0.9020776 0.9009452 0.9000351 0.8986442 0.8969566 0.9448016 1.139232 1.06746 0.9612131 0.9168344 0.8976772 0.8986261 0.8995342 0.904538 0.9121716 0.9365538 0.9539334 0.9372959 0.9318706 0.9331766 0.9313576 0.9353039 0.933569 0.9258022 0.931796 0.9477167 0.961381 0.9696751 0.9833999 0.9742268 0.9650034 0.95249 0.9486519 0.9350892 0.9228246 0.9168296 0.9245485 0.9363154 0.9383118 0.9358623 0.9340354 0.9170097 0.9208068 0.9410436 0.9486485 0.9461123 0.933268 0.9070933 0.8979011 0.8968483 0.8956447 0.8945052 0.9638196 0.9613124 0.9052716 0.8929669 0.8924881 0.8920111 0.8914737 0.8912358 0.8908424 0.8906112 0.8902993 0.9007302 0.9005838 0.9069946 0.9512712 1.027279 1.126365 1.221362 1.202095 1.10247 1.016411 0.9648243 0.9463028 0.9292753 0.9243217 0.9301011 0.9166347 0.9162139 0.9210005 0.9183639 0.9212465 0.9062822 0.9012857 0.9026611 0.9041456 0.9056246 0.9074999 0.9411178 0.9257625 0.9313086 0.9372001 0.9102581 0.9665614 0.9509376 0.911927 0.9135361 0.9372078 0.9623725 0.9346269 0.9177078 0.9183517 0.9187672 0.9198097 0.9208592 0.9216886 0.9227136 0.9249484 0.9276317 0.9249739 0.9236903 0.9223778 0.9221121 0.9225952 0.9229322 0.9217638 0.9218073 0.9222597 0.9224724 0.9230834 0.9238985 0.9216912 0.9201546 0.9190201 0.9235316 0.9327075 0.9183749 0.9195456 0.9208228 0.9218069 0.9226217 0.924112 0.9247204 0.9244088 0.9249809 0.9259569 0.9268312 0.9259205 0.9258497 0.927663 0.9259232 0.9236164 0.9212539 0.9198996 0.9190211 0.9181761 0.9175805 0.9166793 0.9153806 0.9143404 0.9127344 0.9107996 0.9092804 0.9078478 0.9070265 0.9065963 0.9060523 0.9049247 0.9037239 0.9024718 0.9013283 0.9001536 0.8994755 0.9422937 0.9734966 1.012035 1.020772 0.9248351 0.9008372 0.9022279 0.9036251 0.9049581 0.9064239 0.9078053 0.9240437 0.9433424 0.9359109 0.9163341 0.9142368 0.9148753 0.9163026 0.9177324 0.9192218 0.9208312 0.9219741 0.9228177 0.9237958 0.9254602 0.9274902 0.9293175 0.9389806 0.9498287 0.9356779 0.933988 0.9575394 -9999 -9999 
-9999 -9999 0.9036568 0.904953 0.9055506 0.9054576 0.9043976 0.9035271 0.9024501 0.9009629 0.8993607 0.8982767 0.898026 0.896904 0.9148533 1.325513 0.9878755 0.9371864 0.8972978 0.8982362 0.8989481 0.9100686 0.9310831 0.9453247 0.9314096 0.9259487 0.9194959 0.9095327 0.9172866 0.9235746 0.9215667 0.9347345 0.9398786 0.9305694 0.9347328 0.9529275 0.9559969 0.9532825 0.952633 0.9613137 0.9458768 0.9382989 0.9262834 0.9224574 0.9245216 0.924101 0.9264884 0.92529 0.9069501 0.9017779 0.9149718 0.9230468 0.9292989 0.9246816 0.8994053 0.896672 0.895592 0.912439 0.9827383 0.9331511 0.8931035 0.8911448 0.8911043 0.8912393 0.9080153 0.9322863 0.9553311 0.9680482 0.9806319 0.9968041 1.001714 1.004843 1.05069 1.183545 1.428138 1.261322 1.243873 1.15897 1.059958 1.023956 0.9929979 0.9334183 0.9168874 0.9303551 0.9384303 0.9387349 0.9420164 0.9465507 0.9421563 0.9416288 0.9254435 0.9042261 0.9021851 0.9035546 0.9051495 0.9072534 0.9158093 0.9094703 0.9109688 0.9816023 0.9121386 0.9111575 0.9275235 0.9293254 0.9274507 0.9344465 0.944235 0.929347 0.9186863 0.931762 0.9205782 0.9216876 0.922583 0.9237045 0.9241669 0.925806 0.9271773 0.9266186 0.9252357 0.9242648 0.9241544 0.9245595 0.9248497 0.9238021 0.923216 0.9240503 0.9242871 0.9254898 0.9242853 0.9222338 0.9206558 0.9311407 0.9532079 0.9436358 0.9195926 0.9208019 0.9221743 0.9230813 0.9237212 0.9251066 0.9264411 0.9262486 0.9260629 0.9269957 0.9282992 0.9279625 0.9281085 0.9291098 0.9275935 0.9244537 0.9227105 0.9217822 0.9211901 0.9204412 0.9194723 0.918274 0.9167495 0.9153854 0.9137493 0.9120921 0.9103174 0.9090812 0.9085543 0.9080426 0.9069456 0.905846 0.9046525 0.9035645 0.9026771 0.9019727 0.9007859 0.9228741 0.9792908 1.016705 1.026811 0.9005885 0.9019144 0.9031623 0.904395 0.9054536 0.9068934 0.9108333 0.9425116 0.9552964 0.9385629 0.9189078 0.9183342 0.9176698 0.9162439 0.9175153 0.9190222 0.9205789 0.9225813 0.9245222 0.9253823 0.9265077 0.9277498 0.9294583 0.9595582 0.9829394 0.9474338 0.9340231 0.9360236 -9999 -9999 
-9999 -9999 0.9047679 0.9061463 0.907158 0.9069851 0.9061378 0.9048822 0.9033355 0.901643 0.90018 0.9001742 0.8999592 0.8990066 0.8978992 0.8959679 1.216544 0.9883842 0.9490293 0.9028071 0.8976899 0.899888 0.9282716 0.9454258 0.933587 0.926835 0.9241766 0.9085382 0.9024157 0.9075432 0.9174649 0.933989 0.9380226 0.9255768 0.9171196 0.9272376 0.9425008 0.9388524 0.9286488 0.9415534 0.9444352 0.9460496 0.9389701 0.9283499 0.9240466 0.9193497 0.9226356 0.918117 0.9034417 0.8983927 0.9072655 0.9113156 0.9197551 0.9091222 0.8966854 0.8957621 0.9130737 0.9784647 0.9190012 0.8923966 0.8908516 0.8901166 0.9377123 0.9543011 1.000846 1.067101 1.121604 1.138674 1.18538 1.188463 1.144616 1.119677 1.149752 1.269768 1.324051 1.174324 1.078375 1.029978 1.001377 1.02416 1.024868 0.9356434 0.9083509 0.9276816 0.9365001 0.9421626 0.9424102 0.9343109 0.9332196 0.9280058 0.9138204 0.9063017 0.90236 0.9036151 0.9050961 0.9062554 0.9172897 0.9105306 0.9101614 0.9120114 0.9473469 0.9133312 0.9127741 0.9389615 0.9648086 0.9490146 0.940555 0.9175667 0.9184952 0.9388145 0.9566554 0.9462221 0.9280804 0.925086 0.9264097 0.9275891 0.9291206 0.9284571 0.9274316 0.9261085 0.9262431 0.9266453 0.9265817 0.9250364 0.9249487 0.925905 0.9268153 0.9270065 0.9243941 0.9224606 0.9213392 0.9287148 0.949481 0.9392422 0.9205586 0.9219514 0.923226 0.9242251 0.9248774 0.9261408 0.9276155 0.927753 0.9278942 0.9278342 0.9292977 0.9302953 0.9301933 0.9304463 0.9280908 0.9256871 0.9243389 0.9238021 0.923021 0.9220479 0.920734 0.9188246 0.9177402 0.9166576 0.9150331 0.9130526 0.9112314 0.9103186 0.9136598 0.910531 0.9078972 0.9066189 0.9057965 0.9049489 0.9042675 0.9038302 0.9023629 0.901515 0.9323264 0.9681383 0.9709764 0.9017031 0.9030272 0.9041238 0.9052089 0.9061462 0.9072678 0.908583 0.927061 0.9266087 0.9158243 0.9164172 0.9320798 0.9297823 0.9162487 0.9176246 0.9189839 0.9206728 0.922766 0.9246594 0.9372016 0.9319001 0.9282849 0.9299347 0.9665907 0.9783071 0.9330255 0.9345016 0.9361715 -9999 -9999 
-9999 -9999 0.9063137 0.9074134 0.9086347 0.9086021 0.9073884 0.9056162 0.9036975 0.9022439 0.9018393 0.9021848 0.9018164 0.9010389 0.8995689 0.8972299 0.9207093 1.348128 1.055557 1.00904 0.9395304 0.8998444 0.9165444 0.9349468 0.9288335 0.9249662 0.9239924 0.9054905 0.9005445 0.9006478 0.902136 0.920025 0.9333192 0.92818 0.9128661 0.9054254 0.9135355 0.9213585 0.9099439 0.9120695 0.9251266 0.9347826 0.9461686 0.9414064 0.9336697 0.9211394 0.9184145 0.9197971 0.9158598 0.8986989 0.8966196 0.89636 0.8964045 0.8960753 0.895285 0.913437 0.9417301 0.9007908 0.8922894 0.8910323 0.9032756 1.007972 1.143068 1.187325 1.254114 1.2127 1.139966 1.116569 1.13385 1.138101 1.103925 1.057701 1.066283 1.148095 1.174886 1.056271 0.9810637 0.9682927 0.9666908 0.9813654 1.000197 0.9699998 0.9147211 0.9128441 0.9246023 0.9364275 0.9389695 0.9246151 0.914938 0.9101924 0.9031848 0.9016114 0.9027576 0.9040539 0.9054587 0.9068589 0.9081029 0.909218 0.9103696 0.9118291 0.9137267 0.9154118 0.9145122 0.9143951 0.9145585 0.9152682 0.9232754 0.9368839 0.943099 0.9551635 0.9401955 0.9317451 0.9229878 0.9245991 0.9261468 0.9281003 0.9301885 0.9304146 0.9289408 0.9281496 0.9282349 0.9286544 0.9285298 0.9269662 0.9268336 0.9279645 0.9531732 0.9264144 0.9247317 0.9232271 0.9222137 0.9262757 0.9236686 0.9206963 0.9216864 0.9229241 0.9241783 0.9252749 0.9261367 0.9276112 0.9287168 0.9296213 0.9294994 0.929575 0.9303942 0.9322858 0.9321393 0.9310057 0.9285172 0.9267835 0.9263291 0.9255946 0.9244479 0.9231738 0.9210755 0.9197226 0.9189255 0.9180151 0.9162708 0.9141825 0.9124838 0.9116613 0.9107367 0.9095573 0.9084739 0.9078103 0.9071376 0.9068086 0.9063093 0.9053989 0.9043604 0.9032742 0.9154236 0.9759411 0.9306676 0.9025829 0.9039963 0.9052284 0.9062961 0.9071515 0.9081373 0.9094521 0.9205174 0.9324113 0.9440399 0.949986 0.9447882 0.9163038 0.9167563 0.9182819 0.9197294 0.9212021 0.9230869 0.9246599 0.9261336 0.9311016 0.9319652 0.9385355 0.9540005 0.9674546 0.9334027 0.9353735 0.9367983 -9999 -9999 
-9999 -9999 0.9084899 0.9091719 0.9101468 0.9098055 0.9080598 0.9060921 0.9046022 0.9040099 0.9038801 0.9040585 0.9036384 0.9026339 0.9004983 0.8985715 0.8969589 0.897709 1.130716 1.201989 1.061927 0.9509746 0.9166361 0.9125816 0.9140239 0.9181173 0.9172334 0.8989477 0.8990289 0.8993042 0.8992926 0.8994328 0.9064696 0.9056012 0.9049106 0.9102838 0.9087507 0.9201959 0.9175925 0.9127149 0.9142665 0.9292516 0.9467884 0.948843 0.9422756 0.9286847 0.9183133 0.9137001 0.8997884 0.8964092 0.8969002 0.9194025 0.9212512 0.9286548 0.9382864 0.931207 0.8996044 0.8920521 0.902875 0.9528138 1.011005 1.164229 1.099719 1.038849 1.002953 0.9898028 0.9743559 0.9686517 0.980356 1.006538 1.017036 0.9918769 0.9756869 1.019299 1.070781 1.00806 0.9584527 0.9682084 0.9562998 0.9553167 0.9804485 0.9833553 0.9293899 0.9073347 0.9134201 0.9355045 0.9376579 0.9204524 0.8984701 0.899841 0.9008726 0.9023244 0.9035413 0.9050423 0.906559 0.9079309 0.9093169 0.9105477 0.9117612 0.9129399 0.9143097 0.9166139 0.9166051 0.9164789 0.9162636 0.9167943 0.9176573 0.9181476 0.9566464 0.9704691 0.9501837 0.9350373 0.9230021 0.9245827 0.9265997 0.9283673 0.9308283 0.9327481 0.9313187 0.9300677 0.9302713 0.9312256 0.930304 0.9290493 0.9285053 0.9302116 0.9285925 0.92687 0.9253011 0.9241416 0.9254255 0.9365326 0.9249815 0.92211 0.9229864 0.9239593 0.9249027 0.9261314 0.9272938 0.9291131 0.9300968 0.9315212 0.9314045 0.9314104 0.9314646 0.9337274 0.9338928 0.9316185 0.9296252 0.928273 0.9278781 0.9271724 0.9258475 0.9237407 0.9220034 0.9212264 0.9203488 0.9189848 0.9172893 0.9150208 0.9137035 0.9128551 0.9116682 0.9104921 0.9097698 0.9094284 0.9093798 0.9090735 0.9081243 0.9070812 0.9059662 0.9044708 0.909695 0.9993873 0.9199476 0.9037156 0.9049382 0.9062525 0.9087172 0.9222952 0.9148687 0.9256579 0.9587486 0.979057 0.9916813 0.9559131 0.9161602 0.9161167 0.9175922 0.9189449 0.9203124 0.9219864 0.9234504 0.9250242 0.9264863 0.9278516 0.9324706 0.9474689 0.9402168 0.9594588 0.9520177 0.9351432 0.9368988 -9999 -9999 
-9999 -9999 0.9102086 0.9110078 0.9117968 0.9103895 0.9085436 0.9067448 0.9061335 0.9058117 0.9058511 0.905841 0.9051592 0.9039173 0.9020254 0.9002423 0.8989171 0.8973216 0.8961911 1.026119 1.219091 1.145456 1.024297 0.9706427 0.9403277 0.923366 0.9041763 0.8974289 0.8973635 0.89766 0.8979519 0.8981286 0.8982773 0.8981811 0.9042243 0.9137906 0.9069675 0.9101828 0.9155378 0.9080155 0.9031458 0.9071521 0.9081737 0.9134349 0.9190529 0.9124923 0.8965515 0.8959476 0.8957098 0.9077247 0.9884596 1.062169 1.057241 1.006138 0.9504825 0.9203424 0.9324347 0.9843398 1.021556 1.049583 1.016513 0.9835967 0.9662685 0.9445489 0.9293658 0.9219285 0.9125351 0.9142947 0.9225966 0.9441974 0.9669968 0.9604851 0.9401308 0.9590509 1.028089 1.010058 0.9634241 0.9667905 0.949652 0.9436166 0.9495664 0.9541673 0.9479243 0.9189008 0.9100465 0.9348665 0.935095 0.9063808 0.8988549 0.9005107 0.9020584 0.9038162 0.9050993 0.9065484 0.9079694 0.9093422 0.9106508 0.912088 0.9133646 0.9145768 0.9157457 0.9173135 0.9191487 0.9194124 0.9181988 0.9185217 0.9193986 0.9196438 0.919789 0.9204109 0.9213367 0.9223487 0.9235897 0.9251959 0.9269201 0.9291442 0.9317981 0.9342428 0.9333577 0.9321372 0.9320049 0.9333339 0.932309 0.9309899 0.9303826 0.9315985 0.9292676 0.9276605 0.9261385 0.9250641 0.9241596 0.9312973 0.924484 0.9236064 0.9242149 0.9250691 0.9257792 0.9269455 0.9283901 0.9297669 0.9314979 0.9328167 0.9330727 0.932989 0.9337542 0.9398158 0.9341394 0.931932 0.9304228 0.9300218 0.9293087 0.9280132 0.9264367 0.9242624 0.9252604 0.9226575 0.9215655 0.9197444 0.9179415 0.9160489 0.914965 0.9141104 0.9133422 0.9124686 0.9119457 0.9116995 0.9112849 0.9106355 0.9096132 0.9080763 0.9065128 0.9047142 0.9177266 0.9909981 0.9357838 0.9044411 0.9058043 0.9070305 0.9185938 0.9379922 0.9473693 0.9726002 0.9963237 1.003184 1.003435 0.9366084 0.9151816 0.9165931 0.9181106 0.9194711 0.9210165 0.9224939 0.9234797 0.9253036 0.9265087 0.9280608 0.9297906 0.9308326 0.9318036 0.9332049 0.9509231 0.9485855 0.9363761 -9999 -9999 
-9999 -9999 0.9122661 0.9127589 0.9132719 0.9115299 0.9094944 0.9085112 0.9080973 0.9075409 0.9078346 0.9075438 0.9065496 0.9051032 0.9034643 0.9017476 0.9005021 0.8990543 0.8976756 0.8969131 0.9385898 1.043744 1.252494 1.220854 1.080568 1.01406 0.9799892 0.9778965 0.9761539 0.940991 0.9110314 0.8966898 0.8969429 0.8968768 0.8966726 0.8964677 0.8964534 0.8964948 0.8966874 0.8959519 0.9000311 0.9004873 0.9093678 0.9283296 0.9434188 0.9501641 0.9499928 0.9484556 0.9717363 1.062303 1.206879 1.256866 1.133879 1.050128 1.00833 1.011669 1.064742 1.131711 1.036376 0.9415778 0.9091343 0.9045497 0.9099595 0.9106606 0.8966042 0.8940608 0.8946556 0.9023019 0.9162993 0.9379945 0.9410152 0.9330218 0.9246896 0.9363769 1.001958 1.045039 0.9823387 0.958243 0.9432142 0.938377 0.9264128 0.9277391 0.9499576 0.9261441 0.9037775 0.917371 0.9252261 0.9003621 0.8996376 0.9014725 0.9027625 0.9042912 0.9056761 0.9074886 0.9090636 0.9106653 0.9119928 0.9136369 0.9151352 0.9166897 0.9178375 0.9185926 0.9195957 0.9220572 0.9207473 0.9205738 0.9211273 0.9213552 0.9212912 0.921952 0.9225776 0.9232954 0.9242661 0.9257753 0.9275832 0.930132 0.9328648 0.9354554 0.9355017 0.9341621 0.9340506 0.9351993 0.9337939 0.932489 0.9325548 0.9322169 0.9304374 0.9290202 0.9273603 0.9263779 0.9255065 0.9247719 0.924715 0.9252694 0.9257908 0.9266994 0.9271815 0.9278893 0.9294429 0.930858 0.9324311 0.9340299 0.9346906 0.9344929 0.9352512 0.9696055 0.9346897 0.9327688 0.9320263 0.9312719 0.9301874 0.9284793 0.9265414 0.9265471 0.9655563 0.9310457 0.9222033 0.9205112 0.9188861 0.917674 0.916522 0.9161973 0.9156305 0.9146309 0.9141896 0.9137385 0.9128937 0.9120215 0.9107953 0.908711 0.9072312 0.9054279 0.9041135 0.9854887 0.9589937 0.905025 0.9063393 0.9077575 0.9280095 0.9555339 0.9824062 1.022975 1.017359 1.003633 0.9862938 0.9262636 0.9153613 0.9166884 0.9181166 0.9198067 0.9215133 0.922942 0.9243476 0.9257115 0.9269904 0.9287971 0.9306049 0.9330775 0.9329488 0.9373014 0.9754393 0.9788577 0.9416507 -9999 -9999 
-9999 -9999 0.9141887 0.9147269 0.9144019 0.9127022 0.9117379 0.9116763 0.9102901 0.9093279 0.9096023 0.9092161 0.9077446 0.9063113 0.9047304 0.9032561 0.9018378 0.9002753 0.8989107 0.901443 0.9245003 0.9618724 1.06708 1.241119 1.38937 1.195136 1.117229 1.06904 1.043378 1.009176 0.9706497 0.9438289 0.9267071 0.9067127 0.8994217 0.9073139 0.9198031 0.9267115 0.9340669 0.948393 0.9564383 0.9481727 0.9477701 0.9471506 0.9434863 0.9528412 0.9767901 1.011118 1.079662 1.167666 1.312726 1.313027 1.136822 1.033949 0.9720364 0.95841 0.9868642 0.9782303 0.9169502 0.8922382 0.8922097 0.8920438 0.8920391 0.8921531 0.8928773 0.8936543 0.8936472 0.8933479 0.8958015 0.9195828 0.9158315 0.9036904 0.8922594 0.9107383 0.9737273 1.073924 0.9712663 0.9382836 0.9247764 0.9106135 0.9224764 0.9190758 0.9290115 0.9255752 0.906621 0.9077966 0.9225214 0.9198588 0.9006804 0.9008102 0.9059129 0.9032158 0.9050165 0.9070202 0.9083516 0.9098262 0.911054 0.9122583 0.9135186 0.9154831 0.9178183 0.9208235 0.9221928 0.924182 0.9232994 0.922813 0.9230705 0.9232311 0.9231135 0.9236824 0.924323 0.9247572 0.9256219 0.9266925 0.9282511 0.9303755 0.9326562 0.9352246 0.9574202 0.9362899 0.9361345 0.9369221 0.9356924 0.933964 0.9347728 0.9334546 0.9320443 0.9301335 0.9286567 0.9275938 0.9267487 0.9360595 0.9264047 0.9266559 0.9275098 0.9284024 0.9289563 0.9292709 0.9304356 0.9318735 0.9336619 0.9352212 0.9430612 0.9362177 0.9368229 0.9546629 0.9349393 0.9342849 0.9333776 0.9321877 0.9300262 0.9280552 0.9267322 0.9582089 0.9740112 0.9241247 0.9224885 0.9212611 0.920182 0.9192358 0.9185618 0.9180502 0.9171558 0.9164886 0.9159667 0.9152475 0.9143647 0.9134961 0.9119709 0.9099959 0.9083351 0.9066588 0.9053276 0.9224539 0.962918 0.9183891 0.9066334 0.9083518 0.9329283 0.9608644 1.009159 1.043166 1.015663 0.9939939 0.9628103 0.9307854 0.9275417 0.9168983 0.9183599 0.9200803 0.9217473 0.9231682 0.9243788 0.925925 0.9275653 0.9291394 0.930532 0.9322655 0.9556351 0.973939 0.9998989 1.009978 0.9679292 -9999 -9999 
-9999 -9999 0.9161081 0.9166216 0.915659 0.9142658 0.9138556 0.9139476 0.9129137 0.9115114 0.9118112 0.9102178 0.9092104 0.9078128 0.906263 0.9050004 0.9032561 0.9015247 0.9000905 0.8999838 0.943452 0.961499 1.037159 1.174442 1.176446 1.14408 1.065818 1.004824 0.993461 0.9885397 0.9847052 0.9828851 0.9739673 0.9467923 0.9380049 0.9391525 0.9438952 0.9484287 0.9499952 0.9411389 0.9331573 0.9296688 0.9299113 0.9454567 0.9757933 1.012725 1.053674 1.11607 1.149979 1.137256 1.137069 1.076865 1.008888 0.9617537 0.9181978 0.8976983 0.9131203 0.9169142 0.8933588 0.8935167 0.8936491 0.8934977 0.8933571 0.8935035 0.8940935 0.8949311 0.895116 0.8946002 0.8938053 0.8947623 0.8931347 0.8935251 0.8927521 0.8916874 0.9354782 1.048227 0.9519174 0.9368449 0.9241323 0.9018139 0.9349113 0.933172 0.9040123 0.9161273 0.9366189 0.9430813 0.9530747 0.9522996 0.9357897 0.92581 0.9371271 0.9132511 0.9045148 0.9057245 0.9073206 0.9087874 0.9102604 0.9116468 0.9131483 0.9151883 0.9175052 0.9198995 0.9217913 0.9247074 0.9262744 0.9255288 0.9256672 0.925725 0.9253038 0.9257302 0.9262147 0.9265946 0.9272472 0.9280455 0.9292108 0.930612 0.9322323 0.9350332 0.93799 0.9384201 0.9377401 0.9387063 0.9370351 0.9365785 0.9361423 0.9349647 0.9334903 0.9314003 0.9302495 0.9291508 0.9279052 0.9483413 0.9273246 0.9280281 0.9287407 0.9298585 0.9307348 0.9312778 0.9324188 0.9337551 0.9352187 0.9363663 0.9753942 0.9593142 0.9669834 0.9380227 0.9363014 0.9355986 0.9342856 0.9324083 0.9305114 0.9286227 0.9274222 0.9618863 0.948987 0.9245121 0.9234405 0.9226176 0.9218646 0.9210417 0.9201394 0.919467 0.9186718 0.9179117 0.9173796 0.9164591 0.9154791 0.9146307 0.9129751 0.9110584 0.9095144 0.90812 0.9069399 0.9058551 0.9924182 0.9461488 0.9095841 0.9085047 0.9253983 0.9629718 1.022479 1.029502 1.001846 0.9973436 0.9697522 0.9563849 0.9620414 0.9216816 0.9182599 0.920001 0.9217496 0.9268319 0.9244137 0.925971 0.9275397 0.9288881 0.9302288 0.9315303 0.932636 0.9337526 0.9412838 0.9497203 0.9364579 -9999 -9999 
-9999 -9999 0.9180305 0.9183343 0.917176 0.9162324 0.9164751 0.9158943 0.9149969 0.9141531 0.9136183 0.9121836 0.9109235 0.9094961 0.9078574 0.90601 0.904421 0.9029207 0.9013059 0.9001188 0.8987665 0.9255549 1.0252 1.111129 1.090724 1.107139 1.051458 1.02908 1.073731 1.077188 1.041991 1.014456 0.9845712 0.9704896 0.9875394 0.9809869 0.9533553 0.9233275 0.9052201 0.9021322 0.9095221 0.9258806 0.9672352 1.048795 1.139644 1.175586 1.148993 1.080346 1.036872 1.030255 0.979584 0.9518626 0.9352655 0.9179939 0.8961682 0.8944888 0.8992277 0.9121631 0.8942688 0.8949164 0.8951958 0.8950359 0.8947471 0.8948225 0.8951809 0.8962313 0.8965006 0.8956791 0.8948814 0.8945333 0.8944896 0.8947869 0.8938681 0.8926435 0.9006829 1.02884 0.9709628 0.9495665 0.9314796 0.9156708 0.9286825 0.9555039 0.9237748 0.9096481 0.946956 0.9802667 0.9802346 0.9600056 0.945631 0.9560071 0.9639896 0.9301947 0.9039006 0.9053949 0.9071541 0.9090838 0.9105899 0.9122297 0.9137821 0.9156474 0.9176502 0.9197667 0.9217543 0.9242427 0.926909 0.9281784 0.9284722 0.9289569 0.9279836 0.9279096 0.9281906 0.9283634 0.9287441 0.9292011 0.930118 0.9312924 0.9327838 0.9346623 0.9370551 0.9404745 0.9401717 0.940167 0.939123 0.9382766 0.9376861 0.9366328 0.9346191 0.9329981 0.931838 0.930309 0.9289721 0.9455794 0.9287143 0.9293243 0.9300767 0.9311861 0.9323459 0.9336414 0.9343557 0.9349436 0.9365204 0.9378984 0.9669362 0.9442913 1.005087 0.9415478 0.9414121 0.9362903 0.934656 0.9329474 0.9310372 0.9293699 0.9281033 0.9404983 0.9266921 0.9256234 0.924964 0.9240522 0.9230438 0.9248781 0.9348892 0.9483299 0.9481866 0.9499846 0.9486262 0.9304794 0.9166436 0.915548 0.9139013 0.9122442 0.9108738 0.9096988 0.9083291 0.9068287 1.042713 0.9841967 0.9351504 0.9255952 0.9238888 0.9488947 1.000916 1.003233 0.9971635 1.018651 1.014137 0.9937959 0.9806897 0.9220927 0.9181282 0.9198366 0.9216433 0.9418087 0.9378727 0.9254293 0.9265057 0.9274863 0.9289904 0.9303501 0.9316732 0.9325855 0.9336138 0.9345389 0.9355216 -9999 -9999 
-9999 -9999 0.9206291 0.9203073 0.9190887 0.9189866 0.9185895 0.9179012 0.9170089 0.9163656 0.9149341 0.9137096 0.9122249 0.9103842 0.9086697 0.9070673 0.90544 0.9041388 0.9023792 0.9011171 0.8996016 0.898204 0.9639643 1.047142 1.027956 1.040285 1.033616 1.057837 1.117417 1.130052 1.094628 1.076041 1.05642 1.053269 1.074444 1.070411 1.045908 1.017681 1.005318 1.018046 1.055861 1.116932 1.156814 1.109769 1.094476 1.099092 1.065055 1.016259 0.9851682 0.9586395 0.9261124 0.9303985 0.93282 0.91266 0.8982407 0.8958206 0.8998511 0.9181721 0.8994704 0.8961306 0.8965449 0.8966252 0.8962557 0.8961642 0.8964944 0.8974406 0.8979318 0.8969479 0.8961306 0.8958251 0.8960763 0.8960334 0.8949275 0.8936244 0.8923295 0.9983438 0.9764914 0.9328626 0.9268746 0.9315404 0.9242368 0.9230745 0.93063 0.91808 0.9149644 0.9452416 0.965102 0.9558352 0.9442484 0.9573311 0.9676305 0.9304145 0.9038728 0.9056033 0.9074225 0.9090998 0.9108223 0.9123411 0.9140333 0.9158322 0.9177176 0.9195875 0.9212115 0.9240798 0.9264261 0.9283705 0.9302505 0.931059 0.9304571 0.9300742 0.9301187 0.9302711 0.9303853 0.9307936 0.9313832 0.9324859 0.9334785 0.9345925 0.9369288 0.9393558 0.9562597 0.941803 0.9403739 0.9400093 0.9392027 0.9374092 0.9354655 0.9342057 0.9326749 0.9311017 0.9298619 0.9299057 0.9301292 0.9308457 0.9314551 0.9325534 0.9339283 0.935375 0.9361571 0.9364043 0.937685 0.9432654 0.9723694 0.9495913 1.00365 0.9389707 0.9381045 0.9363362 0.9349314 0.9333618 0.9316201 0.9303165 0.9291873 0.9358849 0.933529 0.9272006 0.9260454 0.9261523 0.9420752 0.9502704 0.9534441 0.9635867 0.9826185 0.9780413 0.97677 0.9488859 0.9173658 0.9161505 0.9148353 0.9134281 0.9120952 0.9109074 0.9092776 0.9074658 1.083238 1.033445 0.9770683 0.9460471 0.9287997 0.9233757 0.9543073 0.9970571 1.003881 1.021656 1.047853 1.041676 0.9882023 0.9166843 0.9184121 0.9201028 0.9216867 0.9699573 0.9830809 0.9530378 0.9250128 0.926141 0.9276878 0.9291394 0.9301401 0.9310563 0.9322767 0.9331738 0.9340612 -9999 -9999 
-9999 -9999 0.9231989 0.9229982 0.9212964 0.921023 0.9206719 0.9199012 0.9191011 0.9178119 0.9161874 0.9144743 0.9125446 0.9105743 0.9089839 0.9077508 0.9059482 0.9043233 0.9031234 0.9018219 0.9005864 0.8991991 0.8990881 0.9782073 0.9707001 0.9689073 1.02995 1.071528 1.104625 1.121593 1.101545 1.112109 1.097802 1.069747 1.06552 1.062014 1.062333 1.091337 1.166127 1.245816 1.363866 1.228906 1.143462 1.117703 1.079495 1.032346 0.9904792 0.968113 0.9508547 0.9385862 0.9325043 0.9335145 0.9256594 0.9142685 0.9092727 0.8968862 0.9071313 0.9293121 0.9103225 0.8972678 0.8980281 0.8980779 0.897799 0.8975986 0.8978282 0.8987378 0.8990917 0.8983197 0.8975133 0.8973434 0.8976588 0.8972978 0.8959182 0.8946763 0.8932521 0.9597721 0.9548283 0.9021029 0.8941567 0.8988458 0.8957505 0.8969228 0.898045 0.8993575 0.8994244 0.8992154 0.9045061 0.9128187 0.9182542 0.9064847 0.9026423 0.9035607 0.9047078 0.9059516 0.9071391 0.9085865 0.9100585 0.9119155 0.9133825 0.9149275 0.9172027 0.9188514 0.9206106 0.9240361 0.9260651 0.927864 0.9301217 0.942548 0.9330113 0.9325286 0.9324731 0.9321543 0.9323624 0.9326693 0.9329191 0.9336228 0.9342308 0.9352711 0.9367043 0.9389306 0.9417446 1.009046 0.9423161 0.9416414 0.940806 0.9382465 0.9365587 0.9350115 0.9334712 0.9321686 0.9312108 0.9311056 0.9315075 0.9325455 0.9331224 0.9338426 0.9353575 0.9366316 0.9375092 0.9386221 0.9392416 0.9571208 1.004658 0.98182 1.002533 0.9402061 0.9384627 0.9364307 0.9351037 0.9336342 0.932611 0.9315011 0.9304964 0.9451566 0.9705287 0.9519445 0.9269175 0.9341203 0.955749 0.9646316 0.9574868 0.9603499 0.9784957 0.9801409 0.9899349 0.9555545 0.9181867 0.9167813 0.9154329 0.9140648 0.9129596 0.9114653 0.909674 0.9078363 1.065792 1.10633 1.037982 0.9642955 0.9343625 0.9128872 0.9121696 0.9505777 1.009746 1.040208 1.064614 1.070176 1.00961 0.9167886 0.9184874 0.9202317 0.9424441 0.9766566 0.9702043 0.9648018 0.9378152 0.925149 0.9265319 0.927753 0.9287668 0.9301076 0.9312516 0.9399284 0.9381242 -9999 -9999 
-9999 -9999 0.9260098 0.9256319 0.9241019 0.9231468 0.9224655 0.921394 0.9203322 0.9186699 0.9169531 0.9148799 0.9128225 0.9110312 0.9096088 0.9082974 0.9066969 0.9048931 0.9033816 0.9233027 0.9146162 0.90016 0.8988456 0.9229243 0.9309745 0.9016494 0.9353427 0.9841732 1.000426 1.029596 1.060699 1.1063 1.089638 1.050465 1.050439 1.047435 1.061249 1.130387 1.230816 1.251727 1.180138 1.115585 1.063577 1.04589 1.006143 0.9506767 0.9277257 0.9210269 0.9120136 0.9081703 0.907566 0.9095516 0.907672 0.9143306 0.9023764 0.898093 0.8973655 0.9190502 0.9229355 0.8996717 0.902499 0.8995714 0.8993391 0.8988642 0.9167879 0.8996014 0.9005164 0.8999215 0.8991059 0.8989601 0.8991625 0.8981325 0.8969215 0.8956059 0.8941516 0.9501225 0.9526457 0.893958 0.895179 0.8963002 0.8970424 0.8980884 0.8991164 0.9004922 0.9010966 0.9008279 0.9009054 0.9014096 0.9015795 0.9026314 0.9036372 0.9051268 0.9062376 0.9074546 0.9079565 0.9087949 0.9102359 0.9116925 0.9130183 0.9148218 0.9173883 0.9189599 0.9209799 0.9236428 0.9252518 0.927021 0.9290925 0.9312217 0.9331136 0.9779319 0.935239 0.9347546 0.9346139 0.9346961 0.934898 0.9350764 0.9356402 0.9365278 0.9374437 0.9388797 0.9408565 0.945715 0.9884973 0.9431416 0.9417831 0.9396154 0.938189 0.9363056 0.9344614 0.9333797 0.9327708 0.9326181 0.9330229 0.9342734 0.9350224 0.9355024 0.9361128 0.9376884 0.9387316 0.9401045 0.9408044 0.9552692 1.009283 0.9801593 1.012677 0.9406033 0.9388994 0.9370623 0.9356273 0.9345579 0.9334633 0.9327049 0.9316301 0.9301572 0.9559646 0.950223 0.9382266 0.9482273 0.961053 0.961619 0.955207 0.966601 0.966714 0.9580781 0.9648689 0.94117 0.9187736 0.9173428 0.9161881 0.9147339 0.9134948 0.9119918 0.9101214 0.908407 1.011657 1.153376 1.112907 0.985911 0.9407924 0.9187567 0.9117984 0.9134486 0.9775542 1.0681 1.072214 1.069942 1.037588 0.9314029 0.9184534 0.9199528 0.9684641 0.977087 0.9596691 0.9652504 0.9458684 0.9243985 0.9257855 0.9362378 0.9326028 0.9291793 0.9304013 0.9412553 0.9556709 -9999 -9999 
-9999 -9999 0.9280821 0.9273485 0.9260573 0.9250652 0.9239075 0.9225487 0.9209273 0.9192003 0.9174923 0.9157303 0.9139862 0.9119538 0.9102935 0.9085969 0.9070765 0.905201 0.9034911 0.930611 0.9519871 0.9414579 0.9030373 0.9024959 0.9299298 0.9095395 0.8963356 0.9218682 0.9330483 0.9297957 0.9621097 1.027482 1.067054 1.10079 1.163749 1.169728 1.186481 1.078303 1.003088 0.9730161 0.9572566 0.9564909 0.9414888 0.9260058 0.9173563 0.9039057 0.8951205 0.8958977 0.8967649 0.8976707 0.8982781 0.8987693 0.8993303 0.900121 0.9000233 0.8993086 0.8987832 0.9021156 0.9239483 0.9067929 0.9000243 0.9121252 0.9007596 0.9001601 0.9102999 0.9005373 0.9127162 0.9014958 0.9006068 0.9007865 0.9004278 0.8991925 0.8977442 0.8962339 0.894835 0.9644207 0.9451806 0.8946891 0.8960334 0.8974119 0.8985531 0.8996767 0.9007051 0.9018039 0.9028838 0.9026722 0.902654 0.903088 0.903469 0.9042978 0.9054673 0.9067029 0.9081278 0.9093848 0.9100709 0.9107701 0.9117622 0.912928 0.914187 0.9160726 0.9176441 0.9192127 0.9209171 0.9226713 0.9245104 0.9264073 0.9280867 0.929993 0.932129 0.9337783 0.9355686 0.9784526 0.937175 0.9368806 0.9369873 0.9373035 0.9377946 0.9383622 0.9389608 0.9398415 0.9412373 0.9436489 1.019018 0.9441362 0.9430104 0.9414247 0.9394531 0.9377701 0.9360117 0.9349533 0.9342732 0.9342211 0.9346867 0.9357139 0.9366602 0.937016 0.9381238 0.93949 0.9403821 0.9409413 0.9426968 0.9434122 0.974428 0.9670879 0.9901311 0.9414211 0.9394311 0.9374639 0.953836 0.9413751 0.9347669 0.9338948 0.9326983 0.9313189 0.9327964 0.9356171 0.940859 0.9542583 0.952367 0.9426832 0.9413207 0.9474676 0.935623 0.9322782 0.9428259 0.9209068 0.919485 0.9183678 0.9171501 0.9155882 0.9140364 0.9123595 0.9105437 0.9092394 0.9612606 1.058328 1.175433 1.017498 0.9439565 0.9190816 0.9117053 0.9131072 0.9378082 1.038715 1.111616 1.092008 1.036955 0.9751883 0.9367415 0.9405599 0.9748235 0.9994643 0.9968747 0.9797603 0.9545845 0.9236611 0.925154 0.9537514 0.9574738 0.9283814 0.9300458 0.9360922 0.9522771 -9999 -9999 
-9999 -9999 0.9299695 0.928773 0.9276912 0.9262896 0.9249783 0.9231568 0.9211744 0.9192979 0.9177867 0.9162071 0.914426 0.9126754 0.9105859 0.9090229 0.9075534 0.905955 0.9041528 0.9028084 0.9285833 0.9604831 0.9518197 0.9178387 0.9414818 0.982853 0.929705 0.9308978 0.9498752 0.9148266 0.9050996 0.9418682 0.9828677 0.9713039 0.931862 0.9026183 0.8974471 0.892034 0.8927375 0.893244 0.8934469 0.8933849 0.893685 0.8943609 0.8947662 0.8951588 0.8959997 0.8970019 0.8980139 0.8989741 0.8997753 0.9001468 0.9008332 0.9014082 0.9012718 0.9007705 0.9002142 0.8995526 0.9019404 0.9019157 0.9007977 0.9058419 0.902039 0.901491 0.9012963 0.9057382 0.9100386 0.9029032 0.9025028 0.9094775 0.9011105 0.8996884 0.8982475 0.8966214 0.8999711 0.9759057 0.9162822 0.895335 0.8967991 0.8981811 0.8995951 0.9007896 0.9020323 0.9030238 0.9043677 0.9045702 0.9045601 0.9048957 0.9052046 0.9061159 0.9074571 0.908565 0.9097313 0.9110849 0.9121786 0.9126703 0.913375 0.9142293 0.9155327 0.9167874 0.9181103 0.9193683 0.9209769 0.9225551 0.9243615 0.9257159 0.9273828 0.9291103 0.9305844 0.9320548 0.9338665 0.9359826 0.9384477 0.9657606 0.9394091 0.9396521 0.9404671 0.9409114 0.9412034 0.9420104 0.9429504 0.9440082 0.9463364 0.9458076 0.9446324 0.9429358 0.9409353 0.93952 0.9375686 0.936414 0.9356029 0.9356055 0.9361834 0.9369639 0.9378802 0.938593 0.9396834 0.9411123 0.9421512 0.9428884 0.9444156 0.943654 0.9428091 0.970759 0.9431624 0.9415 0.939741 0.9446205 0.9606847 0.9479954 0.9375721 0.9349293 0.9335122 0.931958 0.9306589 0.9293488 0.9346426 0.94677 0.9493108 0.9379571 0.9291959 0.9271134 0.9306039 0.9373676 0.9364406 0.9215577 0.9202649 0.9189957 0.9176731 0.9161197 0.9143165 0.9125601 0.9112515 0.9101414 0.9302939 0.9982451 1.107537 1.0463 0.9457948 0.9169071 0.9117913 0.916399 0.9300051 0.990219 1.112724 1.11107 1.056078 1.049805 1.021895 0.9869102 0.9885733 1.009912 1.011301 0.9743347 0.9495445 0.9233256 0.9248307 0.9683945 0.9751556 0.9288865 0.9293848 0.9306058 0.9319015 -9999 -9999 
-9999 -9999 0.931284 0.930194 0.9287896 0.9270638 0.9254655 0.9233986 0.9217049 0.9199692 0.9185771 0.917378 0.9157501 0.9131307 0.9118022 0.9111017 0.909565 0.906829 0.9052039 0.9039875 0.9026793 0.910039 0.9418542 0.9222408 0.92409 1.028285 0.9896757 0.9419555 0.9708877 0.932572 0.895098 0.9034339 0.9203492 0.8933899 0.8935491 0.8936412 0.8935024 0.8933563 0.8941579 0.8947824 0.8949217 0.8946785 0.8951585 0.895853 0.8963628 0.896576 0.8970217 0.8980379 0.8991169 0.9003067 0.9011212 0.9017074 0.9023481 0.9028489 0.9028302 0.9023102 0.9016768 0.9011104 0.900776 0.9011402 0.9017093 0.9029928 0.9035418 0.9030061 0.9026322 0.9028081 0.9033991 0.9187881 0.9129953 0.9033822 0.9012641 0.8997012 0.8982492 0.8968606 0.9111944 0.9535391 0.8969564 0.8964768 0.8972996 0.898478 0.8998192 0.9012906 0.9027683 0.9040495 0.9054871 0.906436 0.9064699 0.9066966 0.9070591 0.9076411 0.9090531 0.9101512 0.9112595 0.9126045 0.9137266 0.9145235 0.9150305 0.9156191 0.9165689 0.9178549 0.919078 0.9201916 0.9215816 0.9228662 0.9242844 0.9255303 0.9269577 0.9283845 0.9295589 0.9309198 0.93248 0.9342385 0.9367293 0.9391425 0.9718451 0.9982249 0.9980943 1.012218 1.000133 0.9822429 0.9497883 0.9466786 0.9764083 0.9473017 0.9461284 0.9442993 0.9425766 0.9411013 0.9390774 0.9381059 0.9375523 0.9374803 0.937719 0.9385348 0.9394273 0.9401578 0.9413539 0.9427953 0.9438303 0.944699 0.9461138 0.9449833 0.9450627 0.9903797 0.9435149 0.9416717 0.9396074 0.984816 0.9889593 0.9878354 0.9668552 0.9354775 0.9338474 0.9322776 0.9440465 0.9446606 0.9468946 0.9539978 0.9504023 0.9425449 0.9286433 0.9256355 0.9308902 0.9443799 0.9237464 0.9222884 0.9211077 0.919776 0.9181366 0.9163378 0.9145975 0.9132085 0.9122464 0.9111384 0.9167221 0.9809008 1.078252 1.059551 0.954735 0.9251144 0.9206333 0.9382772 0.9405205 0.9679834 1.060636 1.077895 1.071181 1.124296 1.112978 1.058203 1.047692 1.067824 1.054245 0.987537 0.940304 0.9229419 0.9245558 0.9648697 0.9776083 0.9574456 0.9514019 0.9297976 0.9313082 -9999 -9999 
-9999 -9999 0.9324044 0.9308767 0.9291917 0.9276032 0.925965 0.924408 0.9228039 0.9212294 0.9201259 0.9190632 0.9171546 0.9147026 0.9141401 0.9133032 0.9104296 0.9076698 0.9063239 0.905255 0.9039687 0.9027566 0.901759 0.9009221 0.8996512 0.9828657 1.020267 0.9414864 0.9516698 0.9423223 0.8960792 0.9070117 0.9431304 0.9020917 0.8950827 0.895677 0.8958761 0.895402 0.8958239 0.8964648 0.8965371 0.896153 0.8963438 0.8971746 0.8979611 0.8980256 0.898181 0.8989846 0.9002889 0.9016571 0.9023018 0.9032559 0.9038712 0.904585 0.9043347 0.9040492 0.9035535 0.9027802 0.9023829 0.9025909 0.902939 0.9039871 0.9050556 0.9043677 0.9040241 0.9042094 0.9047092 0.9223369 0.904251 0.9027531 0.9013939 0.9001979 0.8988794 0.8976725 0.9021053 0.9362687 0.8968038 0.8976511 0.8984965 0.8993183 0.9003164 0.9015 0.9029369 0.9045905 0.9064006 0.9220683 0.9081255 0.9085335 0.9088455 0.9092549 0.9102059 0.9113519 0.9126002 0.9139124 0.9150732 0.916199 0.9166901 0.916908 0.9172971 0.9190128 0.9201881 0.9212409 0.9223878 0.9235535 0.9247442 0.9258976 0.9320784 0.9664875 0.9757249 0.9322702 0.9319168 0.9335663 0.935386 0.9370477 0.9381067 0.9386842 0.9401623 0.9418959 0.9429339 0.9437013 0.9444984 0.9461359 0.9474466 1.037382 0.9477072 0.945432 0.9438013 0.9420097 0.94046 0.9395418 0.9389685 0.9388878 0.9390808 0.9399343 0.940932 0.9414935 0.9426569 0.9440234 0.9452781 0.9462715 0.9479105 0.9716852 1.041575 0.9451866 0.9433241 0.9415227 0.9755408 1.001619 1.001571 0.9914864 0.9726501 0.9462708 0.9342958 0.9329475 0.948695 0.947479 0.9319329 0.9299728 0.9287632 0.9277445 0.9278438 0.9268241 0.9259853 0.9333612 0.9245579 0.9234263 0.9221763 0.9204446 0.9184741 0.9165806 0.9152399 0.9142461 0.9132351 0.9120038 0.9129323 0.9683909 1.061178 1.088561 0.9741229 0.9402091 0.9360173 0.9509103 0.9486654 0.9652072 1.026207 1.049718 1.079816 1.171582 1.166591 1.085174 1.066163 1.089198 1.092313 1.03065 0.9568986 0.9226175 0.9240785 0.9461183 0.9762695 0.978069 0.9776447 0.9333289 0.9311145 -9999 -9999 
-9999 -9999 0.9329927 0.9312702 0.9296641 0.9280624 0.926798 0.9254395 0.9240729 0.9227024 0.9217324 0.9206172 0.9192308 0.9176862 0.9161714 0.9143293 0.9112144 0.9083132 0.9068886 0.9128587 0.9052823 0.9041935 0.9031722 0.9021168 0.9007221 0.9197575 1.028356 0.9752002 0.9411362 0.9530753 0.8992241 0.9085627 0.9424366 0.9103976 0.8965076 0.8973314 0.8978923 0.8975398 0.897342 0.8980134 0.8982731 0.897684 0.8974753 0.8983827 0.8995273 0.899784 0.8996142 0.9002191 0.9014419 0.9028212 0.9040115 0.9049575 0.905478 0.9060829 0.9060482 0.9058751 0.9050944 0.9045161 0.9040788 0.9042708 0.9044873 0.9053358 0.9063782 0.9058887 0.9056396 0.9058674 0.9066445 0.9068853 0.9050836 0.9034268 0.9022862 0.9010763 0.8998434 0.8987069 0.9014267 0.9355372 0.8979472 0.8986264 0.8998022 0.9007831 0.9015087 0.9023886 0.903559 0.9046218 0.9059451 0.907473 0.9123604 0.910305 0.9106331 0.9108602 0.9115792 0.9126247 0.9137456 0.9151338 0.9164117 0.9178348 0.9184369 0.9183146 0.9189016 0.9199358 0.921107 0.9222884 0.9233592 0.9244646 0.9255247 0.9267616 0.9278815 0.929141 0.9298118 0.9308463 0.9360546 0.9351311 0.9343219 0.9438565 0.9864622 0.9821197 0.9631967 0.9747508 0.9974129 1.015581 0.9649389 0.9441615 0.9466054 0.9860807 0.9488994 0.9467004 0.9451308 0.9434595 0.9423444 0.9411746 0.9405685 0.9403442 0.9404675 0.9412087 0.9421788 0.9428108 0.9436915 0.9453027 0.9469705 0.9501393 1.091567 0.9643209 0.9454247 0.9439542 0.9500239 0.9969383 1.026914 1.000337 0.9716231 0.9655166 0.9713199 0.9646336 0.9364603 0.9336247 0.9392291 0.9319455 0.9312589 0.9304496 0.929657 0.9291937 0.9286882 0.9277388 0.9452301 0.9576068 0.9373019 0.9241463 0.9227075 0.9207892 0.9188347 0.9173157 0.9163243 0.9150442 0.9151235 0.9124967 0.9192012 0.9675043 1.03871 1.085664 0.9799145 0.9497364 0.9506848 0.9559482 0.9492606 0.9652413 1.009724 1.037205 1.087718 1.175367 1.155708 1.075902 1.054835 1.078662 1.076756 1.033733 0.9775991 0.9381089 0.9238393 0.9330478 0.9591869 0.970706 0.969453 0.9349995 0.931086 -9999 -9999 
-9999 -9999 0.9332841 0.9318962 0.9303066 0.9288349 0.927836 0.9262491 0.9251966 0.9246453 0.9234272 0.9217985 0.9207531 0.9191995 0.9175804 0.9148603 0.9118146 0.9094702 0.9079709 0.9066932 0.9192622 0.9053438 0.9040466 0.9030293 0.9016367 0.9002639 0.9820063 1.017076 0.9492561 0.9249218 0.8979056 0.8965794 0.8966644 0.8968589 0.8975194 0.8987436 0.8997279 0.8994414 0.8988293 0.8994361 0.9000165 0.899442 0.8988187 0.8995059 0.9008376 0.9014637 0.9011214 0.9013573 0.9023841 0.9040004 0.9053989 0.9067332 0.9073454 0.9077935 0.9078694 0.9076002 0.9068523 0.9061787 0.9057264 0.9059829 0.9062612 0.9065197 0.9074994 0.9076089 0.9074161 0.9076276 0.9087145 0.9079414 0.9061653 0.9045082 0.9033836 0.9021506 0.9009317 0.8996923 0.8983797 0.9277465 0.8990108 0.9000214 0.9010676 0.9022602 0.9029244 0.9036389 0.9047793 0.9058103 0.906759 0.9078478 0.9090323 0.9107422 0.9303934 0.9126313 0.9130515 0.9138798 0.9149764 0.9162866 0.9176469 0.9190257 0.9203914 0.9208737 0.9210678 0.9215438 0.9225099 0.9236187 0.9247446 0.9257624 0.9265971 0.9278087 0.9288609 0.9299996 0.9311369 0.9321489 0.932929 0.9339678 0.9352499 0.9364773 0.9378898 0.9390281 0.9399977 0.9410987 0.9420974 0.9429542 0.943701 0.9446037 0.9472564 0.949806 0.9632207 0.9485232 0.9468279 0.9447967 0.943545 0.9426169 0.9420262 0.941794 0.9420097 0.9427141 0.9436338 0.9444555 0.9457753 0.9475693 0.9491186 1.068957 0.9599094 0.9684767 0.9741389 0.9557177 0.9762364 1.047703 1.042975 0.9820992 0.9498671 0.9465215 0.9601732 0.9671729 0.9440938 0.9345407 0.9336886 0.9335157 0.9328068 0.9323376 0.9318421 0.931182 0.930175 0.9318521 0.9672999 1.000275 0.9694041 0.9305084 0.9231312 0.9213476 0.9194843 0.9180444 0.916758 0.9153062 0.9141077 0.9129276 0.9239358 0.9593281 1.016777 1.067734 0.9884558 0.9632576 0.9706501 0.9676323 0.9536208 0.9610181 1.000036 1.026829 1.069268 1.121825 1.117749 1.077548 1.04844 1.064102 1.058859 1.026134 0.9954828 0.9699036 0.9490091 0.9441693 0.9424355 0.9424827 0.9466286 0.9300957 0.9310976 -9999 -9999 
-9999 -9999 0.9337655 0.9321517 0.9306605 0.9293502 0.9284112 0.9270371 0.9268955 0.9263067 0.9248721 0.9236681 0.9222292 0.9207953 0.9183781 0.9154059 0.9126005 0.9103045 0.9091256 0.90801 0.9069194 0.9062335 0.9050327 0.9037198 0.9027429 0.9013084 0.9104321 0.9730616 0.9732469 0.9356682 0.8991111 0.8978285 0.898043 0.8984552 0.8989251 0.8999816 0.9012663 0.9011512 0.9005978 0.9007292 0.9018217 0.9012734 0.9004599 0.900332 0.9017206 0.9030967 0.9029447 0.9028714 0.9035769 0.9050573 0.9067498 0.9082953 0.9095752 0.9097048 0.9099601 0.9096931 0.908634 0.9079033 0.9073382 0.9075643 0.9079438 0.9077777 0.9084183 0.9093758 0.9093368 0.9095135 0.9104282 0.9090285 0.9072427 0.9055267 0.904541 0.9033809 0.9021448 0.9008853 0.8996131 0.9166347 0.9000307 0.9011368 0.9026091 0.903899 0.9047714 0.9052577 0.9063214 0.9074103 0.9084849 0.9094403 0.9102111 0.9111032 0.9270235 0.944867 0.9367619 0.9248914 0.9177724 0.9264082 0.9218468 0.9197835 0.9210981 0.9230326 0.9235405 0.9239183 0.9245093 0.9250121 0.92579 0.9269123 0.9277596 0.928737 0.9298918 0.9311975 0.9325942 0.933891 0.9346415 0.9357001 0.9369461 0.9381974 0.9395567 0.9406984 0.9416643 0.9427325 0.9436322 0.9444783 0.9452578 0.9458911 0.9475594 0.9504306 1.048959 0.9499163 0.9482109 0.9467579 0.9449625 0.9439381 0.9434112 0.9433168 0.9436161 0.9442324 0.9452764 0.9460059 0.9474261 0.9494141 1.092566 0.953485 0.9738877 1.025877 0.9931278 0.9569957 0.9837507 1.026655 1.021783 0.9759607 0.9499041 0.9404024 0.9546386 0.9679042 0.9418781 0.9357597 0.9352062 0.9356305 0.9350203 0.9342645 0.9336787 0.9323273 0.9304948 0.9289299 0.9550724 0.9945121 1.012877 0.9737442 0.9239076 0.9221293 0.9201189 0.9187124 0.9174754 0.9162119 0.9146917 0.9194329 0.9376944 0.9419791 0.9723207 1.082111 1.047929 0.9953088 0.9911151 0.9722717 0.952471 0.9517128 0.9823147 1.006642 1.039792 1.087576 1.105756 1.094463 1.053723 1.053553 1.052408 1.030059 1.01293 0.9968684 0.9775099 0.9790123 0.9694068 0.9367564 0.9280451 0.9294104 0.9308702 -9999 -9999 
-9999 -9999 0.9347426 0.9333589 0.9320751 0.9309208 0.9298683 0.9296737 0.9288985 0.9278558 0.9264116 0.9248531 0.9236736 0.9214264 0.9189786 0.9165075 0.9139317 0.9114494 0.9100088 0.909292 0.9084065 0.9075972 0.9062356 0.904498 0.9036546 0.90249 0.9013817 0.9305229 0.9682559 1.001137 0.9596888 0.9104147 0.899937 0.900273 0.9003486 0.9011696 0.9023904 0.9028897 0.902557 0.9028232 0.9034395 0.903192 0.90249 0.9018725 0.9023989 0.904148 0.9048899 0.9046191 0.9050109 0.9058692 0.9073687 0.9090034 0.9107062 0.9113656 0.9118139 0.9119621 0.9103613 0.909705 0.9091252 0.9090351 0.9096572 0.9093599 0.9130049 0.9105134 0.9111893 0.9116244 0.9121755 0.9103906 0.908512 0.9070327 0.9059032 0.904766 0.9034288 0.9018511 0.900736 0.9401932 0.9011641 0.9025497 0.9041008 0.9056148 0.9066867 0.9074139 0.9082454 0.9093904 0.910333 0.9111411 0.911887 0.9124753 0.9132451 0.9140689 0.930005 0.9378937 0.9489492 0.9549788 0.9271228 0.9198858 0.9210972 0.9230737 0.9252035 0.9264037 0.9267794 0.9268008 0.927201 0.9283602 0.929493 0.930328 0.9314895 0.9326705 0.9340644 0.9354995 0.9364588 0.937375 0.9385027 0.9396064 0.9408922 0.9421917 0.9432619 0.9443542 0.9452699 0.9460263 0.9469455 0.9477844 0.9482709 0.9500051 1.067845 0.9509915 0.9496823 0.948099 0.9463015 0.9453992 0.9447328 0.9447513 0.9450533 0.9455845 0.9465651 0.9478143 0.9498388 1.011758 0.9735487 0.9625564 1.050787 1.024398 0.976841 0.9649538 0.9895436 1.009794 1.009618 0.9765146 0.9679476 0.9638442 0.9491144 0.938173 0.9377817 0.9374781 0.9375991 0.9371262 0.9368033 0.9360954 0.9349017 0.9327997 0.9305477 0.9287663 0.9573842 0.9410847 0.941545 0.9562211 0.924886 0.9228623 0.9210807 0.9197199 0.9184258 0.9168661 0.9151179 0.9223083 0.9415464 0.9419943 0.9497406 1.044051 1.148141 1.022025 0.9900582 0.963483 0.9498804 0.9480125 0.9633917 0.9921635 1.040866 1.09742 1.10859 1.07888 1.054603 1.054222 1.054071 1.039453 1.02036 0.9984851 0.985572 1.006141 1.01396 0.9588417 0.9277307 0.9292548 0.9306511 -9999 -9999 
-9999 -9999 0.9359512 0.9351671 0.9342335 0.9328343 0.9317947 0.9316303 0.9305193 0.9290938 0.9276052 0.9262947 0.9243296 0.9221911 0.9202067 0.9182354 0.9147781 0.9127066 0.9112617 0.91031 0.9099441 0.9087516 0.907083 0.9053634 0.9043631 0.9036528 0.902458 0.9244376 0.9380419 0.9649551 1.036003 1.067209 0.998116 0.909417 0.9019705 0.9027985 0.9039016 0.9046696 0.904489 0.9047015 0.9055943 0.9053066 0.9047408 0.9040458 0.9042211 0.9052342 0.9062092 0.9064677 0.9067087 0.9072205 0.9079554 0.9094632 0.9112025 0.9128909 0.9136554 0.9131319 0.9123072 0.9115803 0.9109485 0.9105993 0.9111989 0.9110109 0.9105527 0.9112137 0.9123586 0.9136279 0.9135736 0.9118218 0.9097806 0.9083691 0.9070929 0.9058949 0.9045224 0.9030218 0.9173176 0.98836 0.902129 0.9035738 0.9050652 0.9068292 0.9083109 0.9094061 0.910213 0.9112983 0.9122117 0.9131927 0.913884 0.9144606 0.9150795 0.9157949 0.9163386 0.9169818 0.9176812 0.9184138 0.9195416 0.9205506 0.9216716 0.9232579 0.9254847 0.9276266 0.9289219 0.9289227 0.9291077 0.9301555 0.9312938 0.9321074 0.9332324 0.93436 0.9357346 0.9370492 0.9380504 0.939053 0.940184 0.9411302 0.9424003 0.9436236 0.9446084 0.9458692 0.9468933 0.9476918 0.9486706 0.9491636 0.949533 0.9507496 1.02904 0.9801963 0.9512785 0.9489593 0.9473884 0.9468026 0.9462535 0.9461464 0.9463627 0.9469486 0.9479022 0.9498075 0.9580718 1.040502 0.9496226 1.03891 1.096084 1.044528 1.005289 1.002721 0.9813 0.9771283 0.9787689 0.9583136 0.9674383 0.984826 0.9403389 0.9399567 0.9397761 0.9390758 0.9390418 0.9388319 0.9382963 0.9367818 0.9348477 0.9324117 0.9306309 0.9294636 0.9288437 0.9285489 0.9276171 0.9356539 0.924874 0.9232503 0.9218905 0.9201791 0.9186889 0.9171701 0.9156904 0.9148003 0.9279372 0.9453882 0.9492462 1.000574 1.169562 1.060836 0.9925148 0.966193 0.9592582 0.9459141 0.9432649 0.9663945 1.022481 1.076297 1.080839 1.056753 1.057993 1.071421 1.055607 1.03168 1.012356 0.991968 0.9889222 1.021578 1.03388 0.9801979 0.9471609 0.9404486 0.9312471 -9999 -9999 
-9999 -9999 0.9378443 0.9370089 0.936004 0.9348381 0.9339558 0.9331165 0.9319876 0.9302313 0.9284782 0.9265847 0.9248406 0.9231915 0.9213307 0.9185719 0.9163102 0.9145942 0.9128344 0.9116108 0.910453 0.9095692 0.9081529 0.9068237 0.9053885 0.9045317 0.9059806 0.9374734 0.952476 0.9304486 0.9631205 1.037498 0.9601563 0.9022706 0.9034328 0.9044802 0.9054794 0.9063317 0.9064858 0.9066731 0.907107 0.9076282 0.9070989 0.9065155 0.906021 0.9064115 0.9073331 0.908153 0.9085913 0.9092066 0.9095981 0.9103268 0.9115553 0.9133478 0.9151024 0.9147944 0.9142107 0.9132709 0.9129105 0.9123269 0.9129123 0.912847 0.9122481 0.9127389 0.9139402 0.9148589 0.914991 0.9131233 0.9112642 0.9095266 0.9081751 0.9067895 0.9052367 0.9036891 0.9314567 1.006028 0.9029831 0.9045359 0.906033 0.9077729 0.9095099 0.9109528 0.9120269 0.9130142 0.9141372 0.9149927 0.9159455 0.9164685 0.9170209 0.9177535 0.9184661 0.9192557 0.9196633 0.920013 0.9207826 0.9216124 0.9225236 0.9242848 0.9259599 0.9280254 0.9301279 0.9309 0.9310314 0.932081 0.9330909 0.9340066 0.9350493 0.9360874 0.9372593 0.9384771 0.9397662 0.9407774 0.941909 0.9428077 0.9440371 0.9452392 0.9638158 0.9920461 1.034572 1.036307 1.033741 1.040817 1.003483 0.9561716 0.9893808 1.013472 0.9524508 0.9497555 0.9486926 0.9481103 0.9477953 0.9475176 0.9478726 0.9484338 0.9493231 0.951161 1.148066 0.9514987 0.9932835 1.085243 1.060958 1.040536 1.087529 1.062577 0.9850053 0.9539911 0.9464166 0.9433625 0.9421366 0.9432173 0.9419709 0.9419035 0.941299 0.9474542 0.9685265 0.9707195 0.9390929 0.9370967 0.9349051 0.9331697 0.9318182 0.930854 0.9301686 0.9293355 0.9278764 0.9265863 0.9250729 0.9234857 0.9219173 0.9203275 0.918909 0.9178252 0.916798 0.9158331 0.9243077 0.9393079 0.9410151 0.9675694 1.071089 1.123141 1.008684 0.9830672 0.9847165 0.9514488 0.9338878 0.9458119 0.9793733 1.017244 1.039132 1.045181 1.058664 1.070242 1.05427 1.028561 1.007608 0.9917952 0.9965623 1.026327 1.022622 0.9938831 1.006401 0.9966086 0.9431978 -9999 -9999 
-9999 -9999 0.9395328 0.9385896 0.9376277 0.9365382 0.9353328 0.9337016 0.9322186 0.9305027 0.9291917 0.9275312 0.9252295 0.9233337 0.9214054 0.9191818 0.9173082 0.91618 0.9148603 0.9133109 0.9116207 0.9105318 0.9096099 0.9082308 0.9067912 0.9053899 0.9155751 0.9490517 0.9783706 0.9615589 0.9528738 1.014793 0.9661331 0.9031165 0.9043463 0.9056025 0.9067946 0.9078368 0.9083859 0.9089071 0.9091045 0.9096578 0.9099574 0.9090581 0.908787 0.9085625 0.9082186 0.9094861 0.910201 0.9110962 0.9114907 0.9119759 0.9124394 0.9139773 0.9157878 0.9166878 0.9159676 0.9155724 0.9152197 0.9140176 0.9144689 0.9143152 0.9137853 0.9143541 0.9152314 0.9166003 0.9161299 0.9143404 0.9125753 0.9107224 0.9090909 0.9075681 0.905846 0.9042196 0.9254177 1.025167 0.9035932 0.9051335 0.9068207 0.9085016 0.9102691 0.9119167 0.9135657 0.9146506 0.9156533 0.9168821 0.9179892 0.9186737 0.9192398 0.9200172 0.9206653 0.9212667 0.9218301 0.9218414 0.9222782 0.9228697 0.9237028 0.9248161 0.9261665 0.9278907 0.9297852 0.9375697 0.9521905 0.9383069 0.9348344 0.9357735 0.9368585 0.9378193 0.9388152 0.9497035 0.971994 0.9968853 1.023652 1.017829 1.016228 1.042642 1.02307 0.9745389 0.947174 0.9478787 0.9489663 0.9578432 1.003672 0.9798763 0.9630089 1.030768 0.9527619 0.9511423 0.9501969 0.9497077 0.9493588 0.9491084 0.9494167 0.949985 0.951643 0.9929391 0.9900523 0.9722148 1.074336 1.050059 0.9963352 1.012418 1.035431 1.000328 0.9918115 0.9575322 0.9454569 0.9445964 0.943646 0.9493091 0.994745 1.016307 1.001895 0.9980949 1.023124 0.9915451 0.93967 0.9376405 0.9358757 0.93436 0.9332294 0.9324228 0.9314656 0.9300213 0.9286955 0.9271048 0.9253808 0.9238902 0.9225241 0.921222 0.920081 0.9189942 0.917896 0.9214725 0.9316049 0.9483281 0.9600797 0.9779884 1.04348 1.164696 1.038756 1.005649 1.01744 0.9746316 0.9378415 0.9408186 0.9528052 0.9613119 0.9963268 1.046531 1.081837 1.079758 1.067783 1.040816 1.016405 1.017449 1.024432 1.037422 1.02698 1.020379 1.059246 1.071912 0.9849407 -9999 -9999 
-9999 -9999 0.9495952 0.940412 0.9426423 0.9372941 0.9359541 0.9342507 0.9330083 0.9310769 0.9292249 0.9274428 0.9254937 0.9233005 0.9213754 0.9199982 0.9190686 0.9179807 0.9167175 0.9152377 0.9131108 0.9115853 0.9104344 0.909 0.9077469 0.9065214 0.9051613 0.9256139 0.9642839 0.9788153 0.9851017 1.058171 0.9988891 0.9043218 0.9047245 0.9062371 0.9076408 0.9089707 0.9099604 0.9108772 0.9113005 0.9120622 0.912142 0.9115544 0.9115101 0.9113903 0.9105295 0.9098805 0.9115368 0.9129583 0.9135123 0.9139156 0.914124 0.9147989 0.9165965 0.9183694 0.9176671 0.9175301 0.9170102 0.915923 0.9160936 0.9162961 0.9154248 0.9160037 0.9166909 0.9180082 0.9168538 0.9151168 0.9132598 0.911583 0.9098586 0.9080938 0.9065128 0.9049602 0.903581 1.037336 0.9039176 0.9053485 0.906987 0.9088122 0.9107314 0.912643 0.9145339 0.916193 0.9173479 0.9187539 0.9200432 0.9206855 0.9212576 0.9220711 0.9227691 0.9233758 0.9237884 0.9240961 0.92395 0.9244761 0.9252133 0.9262463 0.9274037 0.928545 0.9299816 0.9321079 0.9587029 0.9896319 0.9819334 0.9873428 1.004019 1.004104 1.009938 0.9928696 0.9907032 0.9948065 0.9966871 0.9799222 0.9613271 0.9511941 0.9461489 0.9450559 0.945447 0.9464152 0.9478154 0.9490621 0.9510244 0.9524601 0.9540136 1.068486 0.9538627 0.9524406 0.9514693 0.9513099 0.9509706 0.9508185 0.9512811 0.9523443 0.9533303 1.065093 0.9517515 1.02557 1.078094 1.018471 0.9598292 0.9485278 0.9522061 0.9919447 1.023986 0.99528 0.9851474 0.9677185 0.9691612 1.004674 1.043434 1.061717 1.042103 1.011599 1.023595 0.9934096 0.9402793 0.9384566 0.936952 0.9357592 0.9346838 0.9334994 0.932078 0.9308308 0.9294834 0.9277148 0.9260578 0.9247386 0.9234391 0.922204 0.9209605 0.9228353 0.9277515 0.9395365 0.9485435 0.9597417 0.9805831 1.012191 1.08149 1.148495 1.071525 1.032369 1.041095 1.008525 0.9548271 0.9507079 0.9558412 0.949444 0.9646887 1.004047 1.044873 1.054783 1.05899 1.04597 1.032924 1.052613 1.052788 1.040365 1.02818 1.02059 1.062697 1.156791 1.084337 -9999 -9999 
-9999 -9999 0.9769335 0.9454595 0.939122 0.9377066 0.9360453 0.9342253 0.9326492 0.9309675 0.9290232 0.9271276 0.9257711 0.9237451 0.9216853 0.921308 0.9207482 0.9196802 0.9181695 0.9167116 0.9146276 0.9126711 0.9112992 0.9097036 0.9083988 0.907826 0.906506 0.9055077 0.927447 0.951222 0.9857706 1.055646 0.9714877 0.9038661 0.9052577 0.9067972 0.9081348 0.9094428 0.9109225 0.9121779 0.913106 0.9141725 0.9146007 0.9144152 0.9141524 0.9138878 0.9130498 0.9119889 0.9123025 0.9140978 0.9152939 0.9158652 0.9158945 0.9159641 0.9170843 0.9190888 0.91981 0.9195236 0.9185843 0.9177764 0.9178405 0.9178415 0.9171836 0.9176956 0.9187858 0.9197078 0.917705 0.9156722 0.9138578 0.9120138 0.9105721 0.9091237 0.9076995 0.9061723 0.9045854 1.068161 0.9134959 0.9059 0.9076843 0.909323 0.9111892 0.9131573 0.9152442 0.9171085 0.9186629 0.9196975 0.9213011 0.9223943 0.9230493 0.9240903 0.9246838 0.9253373 0.9259117 0.9261466 0.9261994 0.9267414 0.9271519 0.9280876 0.9291329 0.9301663 0.9312603 0.9322966 0.9330885 0.9350649 0.9473014 0.9719469 0.9969269 1.015663 1.019007 0.9907035 0.9808118 0.9844331 1.00885 1.062987 1.121138 1.127243 1.198135 1.176491 1.069588 0.9794338 0.9472326 0.9488031 0.950828 0.9530438 0.9546938 1.075768 0.9549373 0.9535582 0.9562829 0.9630238 0.9524664 0.9526446 0.9536777 0.9541456 1.102683 0.9994634 0.9998965 1.042228 1.029733 0.9898778 0.959734 0.9505693 0.9695474 1.02427 1.023018 0.9845958 0.955491 0.9464182 0.9458495 0.9671865 1.000499 1.033576 1.039356 1.022855 1.011117 0.9637622 0.9404153 0.9393416 0.9420224 0.9446198 0.9353979 0.9336596 0.9322346 0.9310021 0.9295654 0.9279191 0.9263351 0.9271042 0.9339647 0.9242703 0.9208837 0.9194447 0.9303109 0.9563459 0.9709349 0.9671664 0.9723185 1.013424 1.138697 1.106338 1.049452 1.029314 1.042885 1.024458 0.9630651 0.955715 0.9647417 0.9628185 0.9587402 0.9690229 0.9935101 1.017555 1.038812 1.033875 1.031013 1.053741 1.052188 1.029651 1.021682 1.002021 1.047773 1.162099 1.083353 -9999 -9999 
-9999 -9999 0.9639601 0.9410866 0.9393981 0.9378316 0.9359527 0.9340281 0.9323599 0.9305245 0.9286884 0.9270551 0.9256233 0.9239178 0.9236223 0.922834 0.9222387 0.9209825 0.9194862 0.9178629 0.9161788 0.9139977 0.9120044 0.9108323 0.9093708 0.9225599 0.9078583 0.9067169 0.9054983 0.9230946 0.9742938 1.065262 0.9893851 0.9102942 0.9059552 0.9072855 0.9085487 0.9098513 0.9115594 0.9133289 0.9147532 0.9154163 0.9164687 0.9165649 0.9164171 0.9159893 0.9150692 0.9137058 0.9132968 0.9146094 0.9162958 0.9173467 0.9176443 0.9178338 0.9183171 0.9194735 0.9213598 0.9215395 0.9203995 0.9197805 0.9193189 0.9195486 0.9190686 0.9195983 0.9204032 0.920436 0.9183554 0.916214 0.9146556 0.9132705 0.9117886 0.9101635 0.9085963 0.9068412 0.9049913 1.118939 0.9412569 0.9060763 0.9076154 0.9093547 0.9111065 0.9129537 0.9149225 0.9167613 0.9185205 0.9200258 0.9215924 0.9235217 0.9359703 0.9418579 0.9261261 0.9269902 0.9276323 0.928162 0.9285339 0.9288816 0.9292528 0.9299197 0.9310197 0.9318808 0.9327929 0.93383 0.934898 0.9357539 0.9367436 0.9375002 0.9382315 0.9390407 0.9394383 0.9405574 0.9415963 0.9427193 0.9434698 0.9440384 0.9440881 0.9445117 0.9450021 0.9452923 0.9457548 0.9554791 0.9473 0.9491172 0.9512023 0.9536706 0.9558207 1.09151 0.9732742 0.9684458 0.9732887 0.9879739 0.9539179 0.954725 0.9893529 1.118546 1.019611 1.03417 1.092234 1.045197 1.007694 0.9908778 0.9745216 0.9777631 0.978605 0.9710759 0.9542443 0.9492692 0.9588038 0.9843159 0.9981295 0.9942719 0.9861299 1.032138 1.101803 1.08181 1.009977 0.9478506 0.9400851 0.938667 0.9371762 0.9356886 0.9343595 0.9330347 0.9315524 0.9301448 0.9287978 0.9271419 0.92559 0.9241531 0.9377818 0.9269441 0.9207273 0.9193375 0.9383194 0.9678251 0.9897809 0.9832087 0.9659204 1.025237 1.127585 1.038992 1.007075 1.002406 1.033717 1.034267 0.9767622 0.9689292 0.9818931 0.9753066 0.9588684 0.9560353 0.9663308 0.9938766 1.045802 1.041946 1.044384 1.078853 1.079971 1.052206 1.035536 0.9986245 1.05005 1.097021 1.015796 -9999 -9999 
-9999 -9999 0.9448621 0.9409779 0.9395587 0.938002 0.9360815 0.934338 0.9324556 0.9301444 0.9283925 0.9268386 0.9553494 0.9634392 0.9245005 0.9246227 0.9236941 0.9223913 0.9207551 0.9189997 0.9171751 0.9152465 0.9128439 0.9117082 0.9104198 0.9311343 0.9410142 0.9115285 0.9078923 0.9099513 0.971665 1.072218 1.005816 0.9203751 0.9062269 0.9076412 0.9089617 0.9100097 0.9117706 0.9135195 0.9151031 0.9166282 0.9180869 0.9185417 0.918222 0.9181778 0.9168972 0.9158466 0.9152297 0.9154404 0.9169955 0.9186535 0.9192136 0.9195514 0.9197983 0.9204051 0.9217368 0.9233441 0.9226081 0.9217207 0.9210469 0.9214831 0.9212551 0.9219995 0.9226271 0.920988 0.9187855 0.9172165 0.9156016 0.9139608 0.912276 0.9105616 0.9087573 0.9069074 0.9051807 1.043591 0.9657122 0.9060422 0.9075546 0.9092577 0.9110374 0.9130626 0.9147654 0.9164621 0.918136 0.9195487 0.9211326 0.9225934 0.9240451 0.9256557 0.9392715 0.9351433 0.9290588 0.9298621 0.930357 0.9309801 0.9314541 0.9320939 0.9329995 0.9338674 0.9344943 0.9355541 0.9365925 0.9375208 0.9384144 0.9390512 0.9397963 0.9407256 0.9412197 0.9417584 0.9429102 0.9441967 0.9449642 0.9455923 0.9459825 0.9463326 0.9465714 0.9469567 0.9472452 0.9476504 0.9482893 0.9493641 0.9507297 0.953042 0.9552628 1.099534 1.000846 1.022193 1.004079 1.020921 0.9957973 1.033089 1.142345 1.018548 1.025851 1.126717 1.088657 1.042264 1.032778 1.031397 1.004806 0.9836656 0.9793063 0.9999575 1.050211 1.046695 0.9800133 0.9478791 0.9736055 1.034094 1.011059 0.9547215 0.9441486 0.9433392 0.9424196 0.9864876 0.9502497 0.9386367 0.9367519 0.9350298 0.9331092 0.9315763 0.9302909 0.9289831 0.9275661 0.9258221 0.9246787 0.9561523 0.9753707 0.953602 0.9436676 0.932399 0.9416838 0.9606374 0.9886984 1.001484 0.9824899 1.038852 1.017224 0.9703218 0.9641493 0.9858906 1.011796 1.005067 0.9746795 0.9828922 1.009165 0.9868683 0.9596941 0.9610355 0.9678472 0.9676596 1.002719 1.056964 1.095145 1.118715 1.112007 1.066829 1.012279 0.9815538 1.031012 1.059165 1.011614 -9999 -9999 
-9999 -9999 0.9428797 0.9410074 0.939893 0.9382716 0.9364284 0.9347898 0.932747 0.9302623 0.9280244 0.9778869 0.9980718 0.9346536 0.9260435 0.926017 0.9250079 0.9236413 0.9219156 0.9200036 0.917812 0.9160266 0.9139001 0.9123452 0.9112757 0.9214966 0.9477398 0.9327142 0.9237288 0.9130046 0.9634001 1.046237 0.9769841 0.9092006 0.9066247 0.9081578 0.90943 0.9107031 0.9120445 0.913675 0.9149852 0.9167912 0.9186528 0.920229 0.9202591 0.9196364 0.918805 0.9183291 0.9173138 0.9170272 0.9174989 0.9190768 0.9209428 0.9211637 0.9216285 0.9220718 0.9225715 0.9240314 0.9246283 0.9237982 0.9227819 0.9225633 0.9233941 0.9244218 0.9238046 0.9212488 0.9193408 0.9176803 0.9157833 0.913958 0.9121695 0.9104682 0.9087713 0.9072399 0.905987 0.973938 0.9726939 0.9064856 0.9079472 0.909636 0.9113224 0.9131789 0.9147371 0.9161898 0.9175016 0.9187096 0.9200484 0.9214485 0.9231457 0.9248672 0.9266775 0.9283891 0.9301021 0.9312692 0.9319581 0.9327828 0.9334521 0.9340381 0.9350059 0.9358812 0.9364951 0.9372537 0.93804 0.9390374 0.9400465 0.9406421 0.9415183 0.9423504 0.9428926 0.9434603 0.9444135 0.9455595 0.9465714 0.9473785 0.9476579 0.9478883 0.948413 0.9486141 0.9489799 0.9491557 0.9496127 0.951449 0.951103 0.9530994 0.9555954 1.057771 1.016978 1.07855 1.04054 1.0306 1.024598 1.129632 1.03681 1.02245 1.072257 1.110175 1.063622 1.025576 1.017353 1.025703 1.026145 1.035937 1.052191 1.038685 1.012592 0.9706637 0.9482694 0.9468684 0.972578 0.9564385 0.9445235 0.9429657 0.9419328 0.941127 0.9405026 0.940521 0.9747475 0.9697833 0.937929 0.9360742 0.9336607 0.9315656 0.92992 0.9280408 0.9324312 0.9318032 0.9353502 0.9500031 0.9518661 0.9352399 0.9337556 0.9209734 0.9259787 0.9382831 0.9638119 0.9922049 1.008982 1.004099 0.9602229 0.9458308 0.9530042 0.9663455 0.9557415 0.9376996 0.9363846 0.9597133 1.001023 1.000112 0.9733003 0.976822 0.9817467 0.9635388 0.9764391 1.037651 1.112865 1.136252 1.096576 1.021353 0.9649227 0.9667913 1.002531 1.006118 0.9661432 -9999 -9999 
-9999 -9999 0.94306 0.9415223 0.9402668 0.9385785 0.9369251 0.9350169 0.9325421 0.9299235 0.9280973 0.9268428 0.9270949 0.9271865 0.9274575 0.9274343 0.9261468 0.9244419 0.922598 0.9207802 0.9186577 0.9166226 0.9144624 0.9130486 0.9116713 0.9146118 0.9345878 0.934352 0.9340224 0.9227457 0.9709339 1.058957 0.9737785 0.9072556 0.9074938 0.9088436 0.9100038 0.9112576 0.9132141 0.9147452 0.9159329 0.9174262 0.9191274 0.9212822 0.9226034 0.9214075 0.9210097 0.9206969 0.9198067 0.9194403 0.9183385 0.9196519 0.9215336 0.9229185 0.9236525 0.9239535 0.9241924 0.9245408 0.9299276 0.9258891 0.9243268 0.924099 0.925725 0.9302632 0.924085 0.9219739 0.9199454 0.9178894 0.9159595 0.9140844 0.91223 0.9106246 0.9093381 0.9081391 0.9070533 0.9459161 0.9898856 0.91717 0.9084588 0.9100267 0.9115678 0.9131171 0.9145073 0.9157843 0.9217257 0.9256522 0.9276417 0.9206277 0.9224501 0.924305 0.9260607 0.928101 0.9298705 0.9316525 0.9335231 0.9341266 0.935032 0.9358367 0.9366442 0.9374695 0.9382411 0.9390128 0.9397578 0.9405729 0.9415221 0.9422791 0.9430953 0.9440604 0.9446021 0.9451072 0.9459724 0.9469541 0.9479492 0.9489168 0.9492707 0.9495641 0.9498805 0.9503082 0.9504645 0.9508134 0.9511899 0.9516951 0.9522052 0.9533038 0.9566211 1.058212 1.010229 1.07913 1.092875 1.077728 1.059258 1.119452 0.9993417 1.04087 1.078873 1.080454 1.012099 1.006905 1.074287 1.14661 1.11238 1.038126 0.9813473 0.9735483 0.9927106 0.9972271 0.9774287 0.9668412 0.973277 0.9909437 0.9699063 0.9420145 0.9400041 0.939096 0.9383673 0.9383801 0.938654 0.9384055 0.9697173 0.9367802 0.9349344 0.9328573 0.9309189 0.9291902 0.9279178 0.9267757 0.9258509 0.9246814 0.9253242 0.9226969 0.9247902 0.9203687 0.9190516 0.9342371 0.9495904 0.970947 1.003278 0.9837079 0.9816271 0.9863983 0.9842672 0.9657841 0.9363791 0.9280209 0.9398064 0.9569598 0.9778718 0.9911256 0.9947408 0.9984721 0.9965512 0.9813982 0.9837943 1.014929 1.06402 1.086784 1.040557 0.9762363 0.961969 0.9775377 0.966731 0.946954 0.9309174 -9999 -9999 
-9999 -9999 0.9438682 0.9423295 0.9404767 0.9385133 0.9363238 0.9342278 0.932391 0.9314336 0.9302358 0.9291556 0.929284 0.9289885 0.9288812 0.9287315 0.9272839 0.9251947 0.9230965 0.921138 0.9193248 0.9175005 0.9157481 0.9139417 0.9123567 0.9109975 0.9215972 0.9300154 0.9265594 0.9160669 0.9809785 1.076915 0.9974765 0.9192041 0.908043 0.9094372 0.9108683 0.9122564 0.913972 0.9157218 0.917366 0.9186254 0.9201413 0.9220888 0.9238654 0.9234086 0.9232889 0.9230881 0.92252 0.9216 0.9202505 0.9305282 0.9218733 0.9254606 0.9558156 0.9509056 0.9257365 0.9258143 0.9387141 0.9272609 0.925743 0.9258074 0.9324321 0.93106 0.9249606 0.9226764 0.9202628 0.9180491 0.9161256 0.9146212 0.9131943 0.9117635 0.910294 0.909179 0.908131 0.9196793 0.9808303 0.9466147 0.9088244 0.9102464 0.9117237 0.9131179 0.9245042 0.9325243 0.9257697 0.9234093 0.9441494 0.9201607 0.9218726 0.9237382 0.9256262 0.9275571 0.9295446 0.9311054 0.9332971 0.9353963 0.9364942 0.9371988 0.9381464 0.9390137 0.9396768 0.9404684 0.9413733 0.9419752 0.943094 0.9437732 0.944737 0.9458372 0.9466466 0.9471357 0.9479376 0.9483593 0.9492914 0.9502537 0.9508055 0.9511203 0.951635 0.9518505 0.9521922 0.9525988 0.9529514 0.953241 0.9535426 0.9546241 0.9570069 1.043807 1.011755 1.048129 1.103047 1.152574 1.062374 1.031032 0.9707133 1.013367 1.042562 1.023447 0.9982703 1.118004 0.9769403 0.9539374 0.95316 0.9527262 0.9515574 0.9504656 0.9494728 0.9497553 0.9785253 0.9625839 0.960082 0.9870235 0.9719531 0.9421582 0.9399689 0.938008 0.9367846 0.9362857 0.9362495 0.936545 0.9365743 0.9359067 0.9347438 0.9333118 0.9316555 0.9299459 0.9410978 0.9630964 0.9597445 0.9645236 0.9480844 0.9311336 0.9401964 0.9354114 0.9384443 0.9561781 0.9746637 0.9737641 0.94924 0.9523306 0.9903131 1.013849 0.9871446 0.9565702 0.9344238 0.9291931 0.9315826 0.9371581 0.958185 0.989957 1.021631 1.031385 1.022212 1.010963 1.003903 1.010788 1.025922 1.031821 1.012009 0.9909004 1.014018 1.00853 0.9744922 0.9967443 1.011215 -9999 -9999 
-9999 -9999 0.944308 0.9426546 0.9402785 0.9379103 0.9361852 0.9349307 0.9337853 0.9331472 0.9327283 0.9321227 0.9317095 0.9312339 0.9307415 0.9297789 0.927888 0.9259167 0.9234979 0.9216194 0.9198982 0.9183379 0.9165778 0.914695 0.9131011 0.9117458 0.9103776 0.9283746 0.9187145 0.907379 0.9695668 1.0989 1.049688 0.9314893 0.908465 0.9097117 0.9112735 0.9127274 0.9145656 0.9162496 0.9181033 0.9198883 0.921061 0.9226505 0.9246472 0.9255746 0.9255069 0.9252613 0.9246731 0.9233447 0.9223136 0.9215798 0.9613491 0.961717 0.9375123 0.9381889 0.9719159 0.9436499 0.93269 0.9417742 0.9274377 0.9274716 0.9481072 0.9269485 0.924724 0.9226571 0.9204352 0.9184818 0.91704 0.9158653 0.9145755 0.9130958 0.9115625 0.9104669 0.9093655 0.9085355 0.9393036 0.9764287 0.9193603 0.9104468 0.9118655 0.9287907 0.939229 0.942378 0.923539 0.9176542 0.928386 0.9201696 0.9215556 0.9234207 0.9253702 0.9272605 0.9292418 0.9312147 0.9333659 0.935327 0.9371749 0.961621 0.9822264 1.003764 0.9639548 0.9425076 0.943276 0.9437146 0.9446869 0.945278 0.9462246 0.9477434 0.9488289 0.9496743 0.9503489 0.9506906 0.9510891 0.9514238 0.9683797 0.9651359 0.9533386 0.9533345 0.9537951 0.9542795 0.9544206 0.95478 0.9553354 0.9638773 0.9568381 0.992219 1.035678 1.034516 1.057708 1.154798 1.030627 1.024144 0.9573364 1.013693 1.039871 0.9880572 1.066632 0.9562941 0.9539753 0.9521105 0.9512861 0.9507135 0.949985 0.949271 0.9477393 0.9470252 0.9465124 0.9458212 0.9445006 0.9436138 0.958375 0.9421391 0.9400305 0.9378764 0.9366114 0.9660646 0.9345708 0.9344501 0.934294 0.933996 0.9333221 0.932399 0.9309038 0.9300144 0.9352632 0.9586481 0.9718847 0.9652826 0.938275 0.9276559 0.9367748 0.9593714 0.9724175 0.9724327 0.9983868 0.9572298 0.9244923 0.9265233 0.9426888 0.9625219 0.9403952 0.9197137 0.9191087 0.9197441 0.9201422 0.9205648 0.9362008 0.9674056 1.016788 1.063392 1.05929 1.03272 1.021349 1.018582 1.009485 1.018823 1.013112 1.002668 1.018449 1.011608 0.9815927 0.9851933 0.9979541 -9999 -9999 
-9999 -9999 0.9446741 0.9427168 0.9400239 0.9385646 0.9384493 0.9369105 0.9357931 0.9353856 0.935232 0.9342908 0.9339661 0.9333507 0.9325269 0.9311811 0.9289865 0.9263518 0.9243141 0.922192 0.9202194 0.9186903 0.9172752 0.9154949 0.9139656 0.9125722 0.9112662 0.9371858 0.9297879 0.9079465 0.9364061 1.056242 1.070387 0.9375402 0.9085158 0.9098086 0.9112306 0.9126438 0.9145529 0.9165736 0.9186517 0.9208499 0.9219583 0.9232536 0.9248087 0.9269128 0.9275333 0.9273628 0.9266239 0.9252782 0.9242374 0.9236854 0.9232056 0.9235852 0.9764132 0.9254521 0.927079 0.9730706 0.9414493 0.9401855 0.9290461 0.9291885 0.9431133 0.9272841 0.9251845 0.9230728 0.9210893 0.9196844 0.9185175 0.9173091 0.9157643 0.9141793 0.9127278 0.9116944 0.9107912 0.9100025 0.909258 0.9652082 0.965969 0.9295055 0.9423957 0.953933 0.9490947 0.9424698 0.9166735 0.9174075 0.9188179 0.9202366 0.9218419 0.923502 0.925441 0.927346 0.9292029 0.9311333 0.9329356 0.9351382 0.9363247 0.9372045 0.9384779 0.9397531 0.9411654 0.9430113 0.9611099 0.9947348 1.028792 1.01934 1.010921 1.023014 1.0294 1.008393 1.012333 1.015924 0.9784259 0.9577717 0.9622778 0.9583372 0.9542044 0.9549016 0.9553567 0.9555981 0.9559494 0.9563452 0.9568809 0.9570545 0.9571835 0.9725313 1.085141 1.033402 1.048183 1.104773 0.9938247 1.093657 0.9582325 1.049603 1.036525 1.007007 1.011796 0.9553576 0.9523286 0.9503935 0.9492324 0.9487077 0.9484202 0.9476775 0.9467223 0.9456879 0.9450347 0.9442809 0.9431586 0.9423451 0.9415788 0.9733962 0.9398921 0.9378649 0.9360514 0.9504224 0.9656012 0.9352362 0.9324565 0.9320408 0.9314081 0.9309361 0.929585 0.9286239 0.9276525 0.9315357 0.955729 0.9668767 0.9519539 0.9472001 0.9568786 0.9828387 0.994761 1.002197 0.9888713 0.9503133 0.939917 0.928392 0.9211859 0.9265892 0.9186988 0.9196296 0.9204382 0.9210676 0.9254044 0.9357716 0.9399581 0.9390386 0.9499303 0.979099 1.02292 1.038948 1.043103 1.046191 1.028828 1.030379 1.010444 0.999331 1.004224 1.0122 1.011291 1.002743 1.01352 -9999 -9999 
-9999 -9999 0.9457322 0.9428459 0.9421471 0.9412788 0.9404568 0.9387513 0.9380683 0.9378694 0.9371938 0.9364426 0.9360056 0.9353577 0.9337862 0.932162 0.9300694 0.9273676 0.9250497 0.9227598 0.9207605 0.9192638 0.9180014 0.9162487 0.9144242 0.9128397 0.9328628 0.9671335 0.9517454 0.9131316 0.9078438 0.9471133 0.9869202 0.9261172 0.9088577 0.910289 0.9115892 0.9129596 0.9146796 0.9167218 0.9185142 0.9205292 0.9221728 0.923636 0.9249297 0.9264605 0.9288341 0.9292412 0.9283257 0.9270044 0.9262469 0.9255798 0.9252014 0.925661 0.9256485 0.9798031 0.9322731 0.9285228 0.9575685 0.9700186 0.9335445 0.9462851 0.9302706 0.9279581 0.9257271 0.9237128 0.9222578 0.9211487 0.9201738 0.9186965 0.9168214 0.9152496 0.9138805 0.9130486 0.9121831 0.9115949 0.910973 0.9123424 1.014256 0.9751835 0.9754952 0.9786395 0.9659636 0.9488904 0.9156304 0.9172273 0.9187499 0.9201937 0.9218234 0.9236112 0.9258097 0.9277387 0.9298049 0.9317042 0.9328783 0.9336884 0.9346229 0.9356338 0.9368022 0.9381982 0.9401979 0.9418802 0.943327 0.9446316 0.9454888 0.9465259 0.9470919 0.9475203 0.9481248 0.9495776 0.9507669 0.9926578 1.054986 1.061674 0.9942369 0.963893 0.9718461 0.9834555 0.9742388 0.9576889 0.9579051 0.9580315 0.9587245 0.9589762 0.9586192 0.9810088 1.089805 1.005973 1.032494 1.062121 0.9793712 1.081839 0.9584175 1.084433 1.014749 1.10704 0.9575062 0.9543223 0.9515251 0.9500795 0.9900026 1.02853 0.9910486 0.947207 0.9455149 0.9446305 0.9484017 0.9469702 0.9425629 0.941133 0.947069 0.9807168 0.9398673 0.9383475 0.9362588 0.9346303 0.9381542 0.9470764 0.9310544 0.9301248 0.9297658 0.929391 0.928525 0.9275265 0.9348621 0.9404826 0.9632932 0.9888737 0.9948105 0.9977416 0.9972444 0.9855927 0.9988005 1.018126 0.9885187 0.964954 0.9473999 0.9324601 0.9295726 0.9506731 0.9524027 0.9494446 0.9569634 0.9534809 0.9582597 0.9704586 0.9819484 0.9792494 0.9633593 0.9562599 0.9708022 1.001458 1.034566 1.070421 1.087721 1.062219 1.022529 1.011073 1.012939 1.015839 1.035004 1.030584 1.024543 -9999 -9999 
-9999 -9999 0.945319 0.9449879 0.9446028 0.9433543 0.9418635 0.9406853 0.9402664 0.9399982 0.9392016 0.9385119 0.9377235 0.9362003 0.9342799 0.9321962 0.9302201 0.9279842 0.9256224 0.9235087 0.9216911 0.9201621 0.9186181 0.9169127 0.9149485 0.9128591 0.9378375 0.9710734 0.9334285 0.9098169 0.9089396 0.908249 0.9346846 0.9325373 0.9094999 0.9108498 0.9121789 0.9133896 0.9149693 0.9165404 0.9181341 0.9201902 0.9220781 0.923787 0.9254304 0.9268285 0.9286436 0.9508631 0.9303076 0.9290363 0.9280465 0.9275404 0.9272532 0.9276326 0.927662 0.9269139 0.9940398 0.9279277 0.9297639 0.9574798 0.9749789 0.9501233 0.9307474 0.9281271 0.9262785 0.9249284 0.9235727 0.9224837 0.9213117 0.9195704 0.9177322 0.9162432 0.9152089 0.914838 0.9139835 0.9132531 0.9124466 0.9114989 0.9547035 1.054366 1.016941 0.9850647 0.9634555 0.9492207 0.9179326 0.91703 0.9184297 0.9199211 0.921724 0.9240256 0.9265208 0.9283157 0.9296581 0.9305601 0.9313057 0.932326 0.9331025 0.9340419 0.9352937 0.937305 0.9392061 0.9407819 0.9419824 0.9429826 0.9435329 0.9444344 0.9451694 0.9457009 0.9470175 0.9491612 0.9508929 0.9953689 0.9895319 1.000058 1.040877 1.053813 1.095355 1.051749 1.008215 1.0704 1.167464 1.14802 1.0874 1.037177 1.003215 1.009789 1.068913 0.9888633 0.9980838 1.053567 1.000409 1.012512 0.9586151 1.054472 1.02528 1.035298 0.9568501 0.9542707 0.952431 0.9508909 0.9496313 0.9484674 0.9507995 0.9515082 0.9457735 0.9433365 0.9426505 0.9420152 0.9412767 0.9396834 0.9590406 0.9606702 0.9387545 0.9374245 0.9357592 0.9341812 0.9327337 0.938701 0.9483778 0.991977 0.9945583 0.9529895 0.9460477 0.951142 0.954941 0.9779631 1.011599 1.047536 1.0764 1.08834 1.035415 0.9843134 0.9717407 0.9836226 0.9944075 0.9737342 0.9496513 0.9355838 0.9317467 0.9610733 0.9992518 0.9715595 0.9504582 0.9351263 0.9399635 0.9517182 0.965192 0.9759266 0.9753945 0.9644808 0.9555019 0.96854 0.9897934 1.012443 1.036634 1.025195 1.014249 1.013538 1.0128 1.020722 1.040769 1.031544 1.019383 -9999 -9999 
-9999 -9999 0.9476949 0.9471113 0.9462678 0.9453712 0.9435391 0.942626 0.9423018 0.9419707 0.9410811 0.9398997 0.9382597 0.9363479 0.9344456 0.9326312 0.9306163 0.9284438 0.9262926 0.9244542 0.9226708 0.9208954 0.9192755 0.9172907 0.9153447 0.9136612 0.9124335 0.9118877 0.9117282 0.9111086 0.9102204 0.9094796 0.9177885 0.9434788 0.9099653 0.9114541 0.9127206 0.9139361 0.9153856 0.9169223 0.9184539 0.9202901 0.9219902 0.9238722 0.9256505 0.9271235 0.9287748 0.9311161 0.9447198 0.9311336 0.9300092 0.9293451 0.9290339 0.9293624 0.9293832 0.9284538 0.9279019 0.9287664 0.9298981 0.9315004 0.9944232 0.9328533 0.9307047 0.9288027 0.9273283 0.9261844 0.924831 0.923356 0.9218346 0.9199994 0.9183127 0.9174286 0.9168875 0.9165376 0.9157102 0.9148696 0.9139603 0.912966 0.9120513 1.00548 1.090263 1.004735 0.9655719 0.9435785 0.9190321 0.9168887 0.9184827 0.9199896 0.9217587 0.9236783 0.9256679 0.9267455 0.9280483 0.9289414 0.929944 0.9308479 0.9318181 0.9328274 0.9343545 0.936427 0.9381301 0.9395382 0.9401818 0.9407824 0.9416149 0.9423639 0.9430318 0.9447429 0.9469018 0.9488248 0.9505248 1.012491 0.9992465 0.9527854 0.953566 0.9540607 0.9551464 0.9548977 0.9559696 0.957231 0.9640082 0.9666041 0.9780511 0.999852 1.108778 1.07685 1.093282 1.029362 0.987309 1.073919 1.012198 0.9871354 0.9597583 0.978116 1.075791 0.9840565 0.9574088 0.955821 0.954031 0.9521743 0.950771 0.9492244 0.9475451 0.94588 0.9440309 0.9424274 0.9474645 0.9402191 0.9393112 0.9384331 0.9666222 0.9624457 0.9598371 0.9367199 0.9348223 0.9334161 0.9405674 0.9422727 0.9466965 1.007155 1.02133 0.9898017 0.981801 0.970962 1.007164 1.081573 1.078704 1.103321 1.161883 1.027132 0.9444977 0.9221524 0.9218025 0.9213726 0.9434902 0.9482694 0.9322438 0.9224318 0.9223145 0.9217414 0.9468917 0.9287148 0.9229973 0.9240402 0.9275921 0.9252839 0.9252287 0.9253114 0.9251693 0.9252682 0.9254247 0.9252745 0.92531 0.925716 0.9257771 0.9262799 0.955848 1.008525 1.023515 1.044094 1.046015 1.03173 1.032364 -9999 -9999 
-9999 -9999 0.9497452 0.9487053 0.9479719 0.9466396 0.9449594 0.9446633 0.9443552 0.9435792 0.9418963 0.9400499 0.9382457 0.9362216 0.9341633 0.9323819 0.9303048 0.9282821 0.9262705 0.9246255 0.9227231 0.9208242 0.9192675 0.9174662 0.9160075 0.9150048 0.9140254 0.9135413 0.9133462 0.9128226 0.9119854 0.9109885 0.9104974 0.954154 0.9351092 0.9121609 0.9132997 0.9145365 0.9160073 0.9174612 0.9189357 0.9204936 0.9221745 0.9238827 0.9254628 0.9271826 0.9288446 0.9310013 0.94728 0.9329233 0.9317247 0.9312564 0.9307353 0.9312482 0.9309824 0.9298506 0.9296073 0.9302948 0.9311999 0.932437 0.9754443 0.9334217 0.9310446 0.9296303 0.9282293 0.9268183 0.9252308 0.9236549 0.9219436 0.9204773 0.9195012 0.9190206 0.9186774 0.9182385 0.9175012 0.9165277 0.9154829 0.9145908 0.9134676 0.9238276 1.051579 1.062767 0.9963598 0.9502358 0.9183329 0.9166603 0.9181157 0.9197326 0.9212131 0.922608 0.9240418 0.9253567 0.9264098 0.9274038 0.9283391 0.9294326 0.9306611 0.9320126 0.9334916 0.9351868 0.9364956 0.9374577 0.9384255 0.9388368 0.9399351 0.9412268 0.9423631 0.9442136 0.9463122 0.9485631 0.9697762 1.020176 1.008952 0.9773153 0.9522539 0.9530338 0.9532341 0.9586154 0.9626126 1.006899 0.9811012 0.9570696 0.9577799 0.9592826 0.9608478 1.049052 1.085581 1.048161 0.9877084 1.106993 1.007242 1.033453 0.9618118 1.071308 1.049868 0.9592763 0.9892109 0.9841051 0.9554551 0.9534605 0.9518725 0.9499222 0.9480563 0.9461434 0.9445093 0.9428726 0.9410304 0.9398021 0.9380946 0.967667 0.9892212 0.9866321 0.9743012 0.9403175 0.9343941 0.9329263 0.9462726 0.951466 0.9498323 0.9901581 1.003041 0.9889462 0.9725803 0.9971895 1.130379 1.212833 1.112683 1.079414 0.970026 0.9243127 0.9243314 0.9239947 0.9237269 0.9233883 0.922509 0.9276568 0.9233297 0.9238892 0.9239248 0.9233932 0.9284661 0.9282229 0.9240516 0.9248945 0.941741 0.9631041 0.9435583 0.9270412 0.9270394 0.9270311 0.9271918 0.9271239 0.9275194 0.9281831 0.928382 0.9283496 0.9281221 0.9831286 1.033513 1.045273 1.034183 1.037059 1.048509 -9999 -9999 
-9999 -9999 0.9510799 0.9502051 0.949326 0.9482076 0.9468853 0.955623 0.9504348 0.943693 0.9418573 0.9397169 0.9376967 0.9355132 0.9333112 0.9314958 0.9293818 0.9276542 0.9261109 0.9245777 0.9226165 0.9210342 0.9195915 0.9183359 0.9173415 0.9165121 0.915687 0.9152129 0.9149603 0.9143775 0.9135602 0.912589 0.9116732 0.9803538 1.007837 0.9407306 0.9152901 0.9150076 0.9162861 0.9178447 0.9192478 0.9207686 0.9224454 0.924013 0.9258048 0.9276546 0.9292693 0.9311645 0.9334817 0.9935726 0.9337592 0.9333037 0.9326574 0.9328483 0.9325702 0.9315811 0.9314948 0.9321694 0.9331692 0.9342235 0.9400836 0.9338415 0.9317734 0.9300382 0.9286307 0.9269629 0.9253297 0.9240279 0.9228892 0.9220846 0.9212397 0.9207918 0.9203584 0.9198226 0.9192534 0.9180461 0.9169073 0.9159603 0.9146931 0.9136084 0.9521116 1.103173 1.067831 0.9757347 0.9296663 0.9160324 0.9174443 0.9188896 0.9202577 0.9214898 0.9228199 0.9239528 0.9253327 0.9263415 0.9271885 0.9284093 0.9298006 0.9313876 0.9327406 0.9339111 0.9349975 0.9359783 0.9426224 0.940728 0.9392408 0.9407415 0.9426514 0.9444549 0.9462631 0.9482799 0.9829739 0.9750002 0.9577206 0.9505871 0.9509564 0.9513083 0.9634683 0.9563085 1.002272 1.003686 0.9681182 0.9558429 0.9565309 0.9582091 0.9600188 0.9618322 1.039986 1.054923 0.9675066 1.07939 0.9891894 1.135018 0.9621077 0.9598624 0.9586121 0.9573731 0.956521 0.9559259 0.9967865 0.9858115 0.9531659 0.9510555 0.9494114 0.947606 0.9460019 0.9443596 0.9427179 0.9409007 0.9390142 0.9555072 1.079163 1.011897 0.9715161 0.9603742 0.9395671 0.9325755 0.9469528 0.971873 0.9635187 0.9711298 0.9752137 0.9659473 0.9826721 1.07801 1.27674 1.328768 1.171259 1.017707 0.9412826 0.9686695 0.9895709 0.9681888 0.9441672 0.9249912 0.9241368 0.9237348 0.9246433 0.9553695 0.9579949 0.9249632 0.9393762 0.9539284 0.9276052 0.9398543 0.9763295 0.9741465 0.9543447 0.947913 0.948273 0.9523851 0.9562713 0.9436899 0.9286556 0.9293917 0.9296983 0.9293877 0.9376414 0.957115 0.9803119 1.003067 1.011766 1.051575 1.081429 -9999 -9999 
-9999 -9999 0.9569926 0.9552582 0.9505689 0.949545 0.9482994 0.9467542 0.9449563 0.942984 0.9411911 0.9391218 0.937049 0.9349726 0.9328636 0.9312083 0.9297165 0.9281163 0.9264568 0.9250167 0.9231213 0.9214276 0.920099 0.9685109 0.9429917 0.9181047 0.9173505 0.917021 0.9166946 0.9159088 0.9150898 0.9141998 0.9129161 0.9441944 1.062108 0.972823 0.91999 0.9151345 0.9165024 0.9179509 0.9194091 0.9209448 0.922575 0.9241621 0.9258854 0.9274015 0.9290832 0.9306999 0.9324838 0.93479 0.9623557 0.9359128 0.934993 0.9345785 0.9339565 0.9335248 0.9336542 0.9341415 0.9351549 0.9358901 0.9370763 0.9345459 0.9322779 0.930248 0.9288008 0.9277563 0.9265091 0.925258 0.9244264 0.9237224 0.9230602 0.9226619 0.9220758 0.9215129 0.9207059 0.919499 0.9184119 0.9173185 0.9161707 0.9149901 0.9140238 1.0097 1.199886 1.013494 0.9548798 0.9317728 0.9205984 0.9179614 0.919264 0.9203839 0.9217009 0.9228279 0.9242592 0.9386275 0.9453909 0.9274748 0.9291996 0.9309043 0.932312 0.960831 0.9854451 0.9933084 0.9897007 0.9531179 0.9384715 0.9405745 0.9425277 0.9443804 0.9461689 0.9476892 0.9688628 0.9484944 0.9486722 0.9490383 0.9492499 0.9526029 0.951891 1.000322 0.9899332 0.9539059 0.9539005 0.9540651 0.9553096 0.957169 0.9585301 0.9605203 0.9628863 1.181044 0.9667949 1.052092 1.000638 1.061796 0.9613717 0.9583375 0.9566717 0.9555825 0.9545776 0.9542206 0.953807 0.9689018 0.9954594 0.9562014 0.9503931 0.9487944 0.9474459 0.9454148 0.9434199 0.9411482 0.9386997 0.9432224 1.009258 1.011041 1.001054 0.98848 0.9621935 0.9322636 0.9551074 0.9921837 0.97171 0.957258 0.9607924 0.996051 1.114184 1.226952 1.169862 1.09179 1.025049 0.9726629 0.9689445 1.01913 1.039426 1.024737 0.9882472 0.9442775 0.9257903 0.9268087 0.961812 0.9845779 0.9847094 0.9531443 0.9614153 0.9713687 0.9678288 1.005756 0.9951965 0.9434071 0.9418656 0.9404385 0.929387 0.9294338 0.9294178 0.9294597 0.9302635 0.9308895 0.9315125 0.9311868 0.930625 0.95164 0.9705747 0.9866772 1.001341 1.082503 1.143408 -9999 -9999 
-9999 -9999 0.9967242 1.007077 0.9691873 0.94999 0.9475315 0.9455986 0.9438428 0.942103 0.9403027 0.9382313 0.9363488 0.9344792 0.9326492 0.9311663 0.9296119 0.9281267 0.9267797 0.9252337 0.9235187 0.921771 0.9411909 0.9587181 0.9196463 0.9197277 0.9191045 0.9188551 0.9184315 0.917524 0.9166414 0.9156106 0.9143783 0.9132391 1.019254 1.039788 0.9383214 0.9161404 0.9164224 0.917849 0.9193479 0.9207895 0.9222221 0.9236223 0.9249932 0.9264601 0.9278011 0.9294258 0.931627 0.9338307 0.936092 0.9899936 0.9378167 0.9366054 0.9355636 0.9354111 0.9354314 0.9356809 0.9368114 0.9379494 0.938162 0.9356495 0.9332726 0.9315344 0.9298884 0.9289021 0.9279162 0.9268404 0.9261528 0.9255998 0.9250244 0.924571 0.9240693 0.9236168 0.9222404 0.9210893 0.9199967 0.9186435 0.9173828 0.9161885 0.9149686 0.9317465 1.049371 1.006902 0.950098 0.9351377 0.9367836 0.9496722 0.9565423 0.9564412 0.9407586 0.9223437 0.9237326 0.9530573 0.9738283 0.9271411 0.9287666 0.9304182 0.9319527 0.9583988 0.9882337 1.005788 1.00174 0.962441 0.9375715 0.9396197 0.9416298 0.9436199 0.9454797 0.9466817 0.9471139 0.9472106 0.9469073 0.9472209 0.9481723 0.9501066 0.9520604 0.9636365 0.9524196 0.952256 0.9594004 0.9527454 0.9538974 0.955617 0.9577136 0.9602088 0.9623845 1.033943 1.023382 1.03764 1.038844 0.970519 0.9609771 0.9583716 0.9557292 0.9908541 1.029727 1.045515 1.007511 0.9851328 0.9799223 0.9722316 0.9674676 0.9492572 0.9473816 0.9455705 0.9430578 0.9405535 0.9384831 0.9456152 0.9366446 0.9352288 0.9812012 1.006957 0.9818007 0.962168 0.9835267 0.9956331 0.9630068 0.9582589 0.9831303 1.045363 1.126045 1.080551 1.012621 0.9902984 0.987824 0.9547445 0.9445615 0.9738256 0.9809059 0.9657198 0.9358391 0.9273664 0.9270405 0.9266098 0.940877 0.938108 0.9438023 0.9312193 0.9840395 1.046468 1.078213 1.041641 0.9581586 0.9457687 0.9836251 0.9789546 0.9456086 0.930841 0.9310892 0.9309742 0.9317949 0.9427314 0.9677956 0.9465955 0.9319908 0.939009 0.9742279 1.008962 1.044776 1.075067 1.070386 -9999 -9999 
-9999 -9999 0.9530038 0.9513838 0.9499629 0.9483364 0.9462823 0.9446883 0.9429742 0.9413107 0.939627 0.9375842 0.935301 0.9333918 0.9318591 0.9300355 0.9287974 0.9274139 0.9260522 0.9246398 0.9279864 0.9463241 0.9210555 0.9208692 0.9213271 0.9214759 0.9209588 0.9206984 0.9200827 0.9191701 0.9180179 0.9167935 0.9154323 0.9143248 0.9383193 1.115903 0.9847403 0.9264834 0.9159464 0.9173782 0.9188575 0.9201231 0.9214346 0.9226431 0.9240035 0.9252816 0.9266897 0.9286267 0.9306821 0.9326836 0.934866 0.9370723 1.025429 0.9385552 0.9376457 0.9374847 0.9373696 0.9372126 0.9384616 0.9396479 0.9389368 0.9369383 0.9350619 0.9332784 0.9314113 0.9301899 0.9293234 0.9287195 0.928061 0.9273213 0.9269243 0.9265059 0.9259484 0.9252037 0.923905 0.9225665 0.9212355 0.9200235 0.9185806 0.9172063 0.9160855 0.9149875 0.9540416 0.9424338 0.9164723 0.9162986 0.9175931 0.9185869 0.9195048 0.9206364 0.9213772 0.9253037 0.9236175 0.9540193 0.9892874 0.9589506 0.9282392 0.9300046 0.9314512 0.954232 0.9781074 0.991744 0.9949358 0.9715796 0.9369651 0.9385453 0.9404259 0.9426345 0.9443401 0.9453208 0.9453812 0.9453442 0.9448649 0.9461641 0.9476476 0.9493935 0.9505087 0.9508031 0.9507208 1.005695 1.052372 0.9933652 0.9534199 0.9554918 0.957885 0.9603162 0.9620731 0.9641606 1.10765 1.022883 1.064467 0.9643793 0.961468 0.958828 0.9563773 0.9551172 0.9541381 0.9701756 1.027646 1.023012 0.9668679 0.9500432 0.9492491 0.9486344 0.9470355 0.9449452 0.9427674 0.940606 0.9395894 0.9389736 0.9377557 0.9356766 0.9370191 0.9853643 1.005727 1.007383 1.012935 0.9796221 0.9505594 0.9870303 1.058553 1.080908 1.065708 1.0335 1.039561 1.054177 1.004601 0.926989 0.9283022 0.9289355 0.9280826 0.9281487 0.9286448 0.9289796 0.9289005 0.9284536 0.9282517 0.9453616 0.9648986 0.9281435 0.9549112 1.135175 1.152304 0.9973509 0.9311361 0.9541859 0.9942372 0.9933867 0.9714352 0.9355452 0.9324538 0.9323088 0.933076 0.9334345 0.9342364 0.9507449 0.9335557 0.9328094 0.9324946 0.9518228 0.9901297 1.003819 1.010609 -9999 -9999 
-9999 -9999 0.9514763 0.9499075 0.9485245 0.9468498 0.9454885 0.943936 0.9422275 0.9406084 0.938883 0.9368671 0.9347861 0.9326437 0.9307698 0.9290403 0.9277542 0.926637 0.9340697 0.9952607 0.9858927 0.9230189 0.9229425 0.9229422 0.9232682 0.9234168 0.9230366 0.9224776 0.9216219 0.920562 0.9192021 0.9177989 0.9166782 0.9155905 0.9145097 1.02099 1.081199 0.9526777 0.9170061 0.9170127 0.9183115 0.9195447 0.920709 0.9219609 0.9233407 0.9246114 0.9258787 0.9279324 0.9298342 0.9316812 0.9339071 0.9360523 0.9383211 0.9978021 0.940443 0.9402853 0.9393661 0.9389207 0.9397736 0.9416257 0.9400666 0.9387879 0.9367442 0.9346981 0.9328274 0.9316245 0.9312072 0.9305289 0.9299955 0.9295531 0.9290684 0.9284084 0.9280398 0.9268382 0.9252967 0.9239586 0.922655 0.921263 0.9198738 0.9185736 0.9172726 0.9159061 0.9307125 0.9155861 0.9162218 0.9172731 0.9186471 0.9198362 0.9209934 0.9220178 0.9228611 0.9236059 0.9244756 0.9480866 1.001537 1.004278 0.9576541 0.9294153 0.9310818 0.9598569 0.9914094 0.9992799 0.9885811 0.9703203 0.9438348 0.9384344 0.9399196 0.9415248 0.943299 0.9436507 0.9434968 0.9689243 0.9927663 0.9479036 0.9464425 0.9477642 0.956357 1.015214 1.082022 1.105875 1.08704 1.002187 0.9530429 0.9548568 0.9573587 0.9595791 0.9621273 0.9642099 1.129541 1.065042 1.067442 0.9646637 0.9619528 0.9595918 0.9581406 0.9569145 0.9557691 0.9541788 0.9524125 0.9774694 0.9832185 0.9488115 0.9474185 0.9466773 0.9454673 0.9535983 0.9426668 0.9420519 0.9413745 0.9399953 0.9378778 0.9360254 0.934589 0.9335706 0.9342498 0.9606523 0.9856388 0.947493 0.9381652 1.030469 1.153643 1.147626 1.089656 1.072983 1.088418 1.019002 0.9400285 0.9282918 0.9295655 0.9297216 0.9303232 0.9303014 0.9304743 0.9309015 0.9305985 0.9300446 0.935636 0.9615824 0.9852466 0.9367402 0.9278485 0.9928897 1.027582 0.9366205 0.9307349 0.9694978 0.9999176 0.9797091 0.9589168 0.9557474 0.9426952 0.9336036 0.9344053 0.9350554 0.9354717 0.9348579 0.9386376 0.9343061 0.9341429 0.9337655 0.9335734 0.9350396 0.9741367 -9999 -9999 
-9999 -9999 0.9507132 0.9492298 0.9477164 0.9460537 0.9445891 0.9431027 0.941439 0.9398091 0.9383327 0.9365387 0.9346924 0.9322522 0.930352 0.9283361 0.9265849 0.97114 1.087691 1.016603 0.9247155 0.924845 0.9248089 0.9249114 0.9251785 0.925286 0.9249156 0.9241713 0.9231457 0.9217179 0.9203439 0.9189091 0.9177264 0.9164172 0.9248698 0.9848164 1.114778 1.009437 0.9323977 0.9216421 0.9245846 0.9237478 0.9295755 0.9216562 0.9231442 0.9246072 0.9261922 0.9276903 0.9295437 0.931349 0.933104 0.9351617 0.9374183 0.9396129 0.9634852 1.001743 0.9423114 0.9414222 0.9408504 0.9426182 0.9424325 0.9403564 0.9382121 0.9360395 0.9343167 0.9330774 0.9327115 0.9323291 0.9317774 0.931626 0.9310632 0.9304276 0.9298607 0.9282264 0.9268064 0.9254831 0.9241885 0.9226527 0.9212679 0.9197248 0.9183798 0.9170377 0.9175765 0.916943 0.9174377 0.9185233 0.9197983 0.9210587 0.9222654 0.9235609 0.9244125 0.925182 0.9261554 0.9267453 0.9271133 0.9617072 0.9998862 0.9600978 0.9528745 0.9613462 0.987032 0.9904785 0.9676477 0.97631 0.9717617 0.937768 0.9388393 0.9400529 0.9411492 0.9517074 1.031062 1.041686 1.006657 0.9821277 0.97312 0.9924792 1.020797 1.028241 1.032344 1.080185 1.121723 1.019654 0.9526595 0.9546951 0.9572678 0.9595549 0.9618974 0.9644331 1.035128 1.093071 1.058 0.9650118 0.96294 0.9614544 0.9600872 0.9588287 0.9572433 0.9553012 0.9532983 0.951519 0.9496291 0.9481042 0.9749531 1.113802 1.018902 0.9451328 0.9446316 0.9431618 0.9414652 0.9395502 0.9378898 0.9364871 0.9355862 0.9347135 0.9335062 0.9320363 0.9452862 0.9296637 0.9279032 1.065598 1.243953 1.25545 1.159454 1.113674 1.030042 0.9404709 0.9286063 0.9295343 0.9309828 0.9316382 0.9321991 0.9321648 0.9322747 0.9330167 0.9325113 0.934588 0.9612386 0.9644028 0.9863447 0.9544938 0.9291508 0.9311664 0.9565762 0.9286994 0.9296761 0.9538329 0.9812512 0.9631885 0.9375691 0.9523405 0.9659755 0.9474338 0.9356716 0.9366178 0.9373313 0.9367127 0.9356691 0.9505549 0.9450749 0.9352438 0.9350889 0.935119 0.934814 -9999 -9999 
-9999 -9999 0.9506223 0.9490935 0.9474199 0.9459369 0.9442374 0.9427168 0.9411379 0.9394313 0.9379045 0.9361011 0.9341732 0.9321381 0.9300996 0.928219 0.9261162 1.104983 1.001831 0.9257399 0.9264209 0.9267425 0.9268082 0.9269271 0.9270479 0.9271973 0.9267755 0.9257222 0.9242346 0.9225301 0.9214047 0.9199485 0.9184656 0.9169359 0.9385168 0.9914339 1.048912 1.049323 0.9599252 0.9336944 0.9254317 0.9226086 0.9326747 0.9251742 0.9230528 0.9244598 0.9258136 0.9272953 0.9289312 0.9304292 0.9319259 0.9340069 0.9361358 0.9382619 0.9400204 0.9417326 0.993989 0.9444919 0.9435351 0.944528 0.9449926 0.941971 0.9394512 0.9373564 0.9359896 0.9348151 0.9345285 0.934122 0.9337723 0.9336464 0.9332485 0.9323919 0.9311203 0.929589 0.9281862 0.9272307 0.9257078 0.9238096 0.9223915 0.9209346 0.9192958 0.9181373 0.9179634 0.9183979 0.9187528 0.9193295 0.9207132 0.9221857 0.923466 0.9247854 0.9259498 0.9271212 0.9280251 0.928562 0.9290601 0.929158 0.9291217 0.9840704 1.057047 1.012267 0.972582 0.9817703 0.9657495 0.9792823 0.9973251 0.9742405 0.9678737 0.9772009 0.9979329 1.007487 0.9947919 0.9740279 0.9492868 0.9454463 0.9465834 0.9477382 0.9488264 0.9498678 0.9509369 0.9695315 1.002221 0.9651024 0.9532851 0.955176 0.9573392 0.9596231 0.961887 0.964875 0.9920608 1.12172 1.042382 0.9653765 0.9636603 0.9619402 0.960465 1.01123 0.9732464 0.9562861 0.9540691 0.9521005 0.9499992 0.9480809 0.9707781 0.9466534 0.9471996 0.9473238 0.9455169 0.9430938 0.9414254 0.9396134 0.946805 0.9376715 0.9364688 0.9414762 0.9341757 0.9326596 0.9312386 0.9297385 0.9279906 1.077291 1.28393 1.280764 1.092984 1.047421 0.9807058 0.933848 0.9373275 0.9307666 0.9319635 0.9328088 0.9336337 0.9342419 0.9341187 0.9342868 0.9333143 0.9741187 0.9885638 0.964767 0.9644553 0.951369 0.9301243 0.9454243 0.9433292 0.9297143 0.9309407 0.9317756 0.9322531 0.9423625 0.9359779 0.9404566 0.9710441 0.9658582 0.9401606 0.9376541 0.9388875 0.9388707 0.9370919 0.9378455 0.9547396 0.9619476 0.957822 0.9589755 0.9471871 -9999 -9999 
-9999 -9999 0.9506021 0.9491237 0.9476335 0.9460231 0.944337 0.9426256 0.9409648 0.9392341 0.9375074 0.9357766 0.9337986 0.9318398 0.9297608 0.9281653 0.9356399 0.9669264 0.9265254 0.9273609 0.9283009 0.9286531 0.9287497 0.9289244 0.9289177 0.9288335 0.9282828 0.9269061 0.9253332 0.9236574 0.922208 0.920567 0.9188871 0.9174153 0.9357877 0.9642186 1.004906 1.054452 1.000206 0.9486156 0.9311665 0.9302127 0.9428844 0.9380938 0.9254768 0.9238399 0.9249632 0.9264722 0.927739 0.9289991 0.9306293 0.9325609 0.9348805 0.9367717 0.938715 0.9405962 0.9423328 0.94469 0.9908692 0.9690521 0.9462544 0.9439038 0.9418712 0.9395725 0.9377936 0.9366565 0.9362446 0.9360225 0.935769 0.9355605 0.9351265 0.9336585 0.932474 0.9311494 0.9298074 0.9286901 0.9266527 0.9249734 0.9234911 0.9220414 0.9204364 0.9192725 0.9194695 0.9202079 0.9204378 0.9206307 0.9215753 0.9230416 0.9244574 0.9258671 0.9273434 0.9287694 0.9299207 0.9305987 0.9311266 0.9311424 0.9308397 0.944213 1.036136 1.064417 0.9851273 0.98844 0.9853281 0.9848288 0.9822952 0.9733043 0.9612722 0.9445887 0.9450982 0.9417511 0.9430383 0.9440143 0.9453248 0.9465653 0.9477832 0.9489431 0.9500664 0.9511881 0.9523132 0.9530957 0.952841 0.9529525 0.9546602 0.9563534 0.9582379 0.9603041 0.9626226 0.9653724 0.9918414 1.165116 0.9865301 0.9650526 0.9624772 0.9602495 0.9587631 0.9578772 1.014692 0.9831336 0.9549087 0.9529169 0.9509339 0.9490191 0.9482114 0.948607 0.9766787 0.9477459 0.9454436 0.9428404 0.9492697 0.956166 0.9487815 0.9397992 0.937165 0.9375299 0.9345054 0.9329318 0.9313217 0.9297417 0.9304677 1.063948 1.227263 1.129628 1.033052 1.033362 0.991147 0.9758311 0.9819674 0.9508461 0.9381152 0.9336408 0.9350846 0.935715 0.9362363 0.9357803 0.9339765 1.008359 1.030071 0.9783813 0.9427675 0.9321579 0.9310744 0.9434971 0.9335781 0.9312222 0.9324531 0.9334794 0.9340236 0.934139 0.9346179 0.9356658 0.9368998 0.941196 0.9377403 0.9390805 0.9405321 0.9399465 0.9385667 0.9383999 0.9379092 0.9375696 0.9406355 0.9726709 0.9799427 -9999 -9999 
-9999 -9999 0.9501939 0.9484531 0.9471915 0.9458478 0.9442652 0.942604 0.9408811 0.9390302 0.9374515 0.9355442 0.9335291 0.9316751 0.9296833 0.9284383 0.9276164 0.9273428 0.9278928 0.9288978 0.9301048 0.9307073 0.930863 0.9309967 0.9308031 0.9304427 0.9295927 0.9281439 0.9265059 0.9246224 0.9226024 0.9208823 0.9194787 0.9179462 0.920926 0.9356685 0.9848559 1.079458 1.074057 0.974912 0.9414631 0.9388226 0.9529334 0.9539196 0.9538638 0.9472549 0.9334046 0.9262579 0.9270058 0.9283999 0.929891 0.9319332 0.9338615 0.9356517 0.9376554 0.9395605 0.9412442 0.9433535 0.9451299 0.983387 1.009282 0.9463713 0.9441841 0.9424016 0.9398939 0.9385852 0.9382108 0.937965 0.9376578 0.9374441 0.9365594 0.9351048 0.9339126 0.932727 0.9311086 0.929608 0.9283134 0.9264072 0.9244963 0.9228272 0.9214842 0.9259174 0.9210709 0.9219745 0.9225446 0.9227021 0.9228616 0.9239081 0.9251001 0.9264489 0.9282154 0.9299985 0.9319505 0.9327073 0.9333161 0.9329858 0.9326535 0.9321432 0.9638366 1.073597 1.033099 1.023811 1.007253 0.9805301 0.9595675 0.9505504 0.9382672 0.9398831 0.9414186 0.9426709 0.9441212 0.9454282 0.9466114 0.9479688 0.9492239 0.9503476 0.9515343 0.9525451 0.9536235 0.9547555 0.954707 0.9546654 0.9557015 0.9574605 0.9594344 0.9614152 0.9635186 0.9662006 1.011941 1.110315 0.9668744 0.9643677 0.9615946 0.9587905 0.9572424 0.9562104 0.9617644 1.002918 0.991946 0.9543478 0.9522673 0.9508337 0.9504446 0.9803997 0.9495531 0.9469058 0.9448189 0.9428837 0.9419073 0.9472829 0.9403826 0.9389153 0.9373618 0.9357947 0.9343516 0.9329011 0.9312596 0.9299413 0.934888 1.013742 1.07314 1.041424 1.026806 1.051681 1.003381 0.9994633 0.9823207 0.943085 0.9329981 0.9345434 0.9361553 0.9370598 0.9481037 0.9367372 0.9347024 0.9897798 0.9916298 0.9579936 0.9339114 0.9335633 0.9323175 0.9397588 0.9312471 0.9324068 0.9336668 0.9348595 0.9355493 0.9357981 0.936227 0.9370211 0.9379281 0.9391514 0.9395316 0.9406735 0.9423016 0.9422764 0.9410626 0.940195 0.9396251 0.9394737 0.9394003 0.938761 0.9628392 -9999 -9999 
-9999 -9999 0.9495541 0.9477329 0.9462556 0.9449941 0.9438415 0.9424618 0.9409344 0.9391994 0.9373832 0.9356016 0.9335638 0.931631 0.9301416 0.9304052 0.9301205 0.9294807 0.9297074 0.9302569 0.9315046 0.9324711 0.9328499 0.9328313 0.9327592 0.9318081 0.9305459 0.9288677 0.9271989 0.9255834 0.9243304 0.9224701 0.9206915 0.9191998 0.9183638 0.9213948 0.9608034 1.054766 1.181601 0.9980255 0.9389827 0.935972 0.9444128 0.9369657 0.9380301 0.9338326 0.9265682 0.9275148 0.9270474 0.9283605 0.9298955 0.9313698 0.9330979 0.9346746 0.9363095 0.9384515 0.9400843 0.9418116 0.9439559 0.9463016 1.053696 0.9477354 0.945839 0.9442665 0.9413865 0.9406528 0.9403821 0.9402097 0.9397416 0.9391212 0.9380133 0.9365233 0.935275 0.9339084 0.9325787 0.9308849 0.9286856 0.9268762 0.9254647 0.9241012 0.9224623 0.9228036 0.9225841 0.9234915 0.9246384 0.9250784 0.9250001 0.9252493 0.9255956 0.9268819 0.9286634 0.9304507 0.93255 0.9344121 0.9352863 0.9349755 0.9347268 0.9340103 0.9328318 0.9320604 0.9497443 1.046725 1.061263 0.9558114 0.9373835 0.9373116 0.9386771 0.9402303 0.9418573 0.9435279 0.9448819 0.9463432 0.9477192 0.9491498 0.9503598 0.951615 0.9528497 0.9539594 0.9549942 0.956013 0.9566709 0.9567625 0.9577113 0.9591114 0.9608397 0.9627948 0.9647893 0.967056 1.078451 1.018417 0.9664261 0.9643058 0.9610725 0.95815 0.956147 0.9861494 0.9627033 0.9546079 0.9544561 0.9702274 1.030115 1.043973 1.072714 0.9986863 0.9491689 0.9475194 0.9459609 0.9443244 0.9434367 0.942221 0.9407942 0.9389777 0.9373887 0.9361881 0.9347761 0.9333118 0.9317104 0.9303039 0.9341214 0.9884645 1.025338 1.038171 1.054425 1.031728 0.980862 0.9815387 0.9514816 0.9323983 0.9337585 0.9353998 0.9373633 0.9384866 0.9409341 0.9372225 0.9356223 0.9371473 0.934574 0.9353677 0.9353939 0.935007 0.9334471 0.9524755 0.9392629 0.9337022 0.9349781 0.9363765 0.9370273 0.9374291 0.9379191 0.9387403 0.939533 0.9404603 0.941503 0.9424294 0.9433315 0.9443852 0.9431442 0.9417657 0.9414635 0.9411963 0.9409337 0.9400346 0.9398397 -9999 -9999 
-9999 -9999 0.9492311 0.9474635 0.9456573 0.943902 0.9427259 0.94172 0.9404785 0.9388087 0.9372094 0.9355273 0.9339731 0.9322001 0.932542 0.93309 0.9332048 0.9330534 0.9323221 0.9320554 0.9327286 0.9338951 0.9344911 0.934514 0.9344587 0.9328609 0.9310256 0.9294434 0.9279748 0.9271486 0.9260213 0.9245745 0.9224709 0.9206079 0.9195821 0.9269503 0.9535859 1.004576 1.168126 1.000937 0.9306021 0.9255266 0.9254913 0.921618 0.922971 0.9242647 0.9254485 0.9267015 0.9278268 0.9291151 0.9304811 0.931892 0.9334745 0.9348085 0.9362962 0.9379022 0.9397477 0.9417564 0.94361 0.9454713 0.9481114 0.9760584 0.9472152 0.9453562 0.9432455 0.943372 0.9425102 0.9419972 0.9779603 0.9689394 0.9470943 0.9379413 0.9365419 0.934787 0.9331974 0.9311693 0.9290832 0.9279069 0.9266623 0.9252446 0.9238146 0.923158 0.9240379 0.9253478 0.9265849 0.9273518 0.9274483 0.927713 0.9274072 0.9274203 0.9287692 0.9303226 0.9322267 0.9341875 0.936083 0.9373084 0.9368387 0.9359502 0.9349601 0.9347441 0.9344221 0.9343296 0.9748104 0.947032 0.94001 0.9373913 0.9388788 0.9403901 0.9419654 0.9435197 0.9451607 0.9466043 0.9482223 0.9496282 0.9511009 0.9525086 0.9539732 0.9598727 0.9562503 0.9576203 0.9582776 0.9587327 0.9596119 0.96073 0.9621784 0.9640905 0.9659693 0.9678429 1.141436 0.9682713 0.9658014 0.9633778 0.9611043 0.9584904 0.9559949 0.9840125 1.005698 0.9685023 0.9524438 0.9522061 0.9519444 0.951574 0.950669 0.949404 0.9773512 1.005641 0.9648399 0.9457663 0.9440435 0.9424834 0.9410797 0.9395285 0.9382399 0.9367017 0.9354569 0.9340175 0.9325941 0.9311579 0.9322589 0.9958079 1.066245 1.097378 1.097065 1.003155 0.9703228 0.9837342 0.9452723 0.933335 0.9346336 0.9359801 0.9375957 0.9476024 0.9604034 0.9381332 0.9369193 0.9355454 0.9362215 0.9373694 0.9371563 0.9358394 0.9344642 0.9590804 0.9577668 0.9347426 0.9361756 0.9374273 0.9618396 0.9586504 0.9502032 0.9484743 0.9408562 0.9419776 0.94293 0.9435737 0.9448689 0.9461603 0.94484 0.9435655 0.9428477 0.9427088 0.9421654 0.9466122 0.954333 -9999 -9999 
-9999 -9999 0.9482245 0.9467831 0.9450861 0.943229 0.9416403 0.9406888 0.9396427 0.9381753 0.942702 0.9713777 0.9501104 0.9340014 0.9347685 0.9355614 0.9358731 0.9356827 0.9352929 0.9346499 0.9346591 0.9353523 0.9360263 0.9404759 0.9350337 0.933169 0.9314982 0.9307175 0.9298657 0.9289281 0.9273114 0.9255617 0.9230698 0.9216839 0.9203815 0.9381021 0.9635261 0.9679195 1.081773 1.00555 0.930838 0.9193204 0.920624 0.9220723 0.9234001 0.9247666 0.9262624 0.927726 0.9290473 0.9300447 0.9318086 0.9330317 0.9343241 0.935855 0.9373739 0.9386275 0.9400532 0.9415469 0.9433759 0.945687 0.9489844 0.9735535 0.9484136 0.9462665 0.945999 0.9457303 0.9446967 0.9426167 0.9658951 0.9427037 0.9389471 0.9376119 0.9361435 0.9348126 0.9329538 0.9316538 0.9299902 0.9289376 0.9277891 0.9265469 0.9251646 0.9341239 0.925484 0.9266893 0.9282254 0.9294233 0.9297616 0.9301491 0.9299833 0.9291882 0.9296971 0.9307632 0.9324845 0.9343282 0.9363513 0.9387668 0.9389617 0.9379606 0.9372994 0.9369272 0.9366212 0.935955 0.9353367 0.9356323 0.936614 0.9402917 0.9394046 0.9405603 0.9420854 0.9435508 0.9450632 0.9464014 0.9477441 0.9492699 0.9507083 0.9524032 0.9539434 0.9638489 0.9629757 0.9842297 1.017708 0.9969183 0.9609807 0.9623958 0.9635674 0.9655339 0.9675526 0.9688938 1.139573 0.9682618 0.9658777 0.9637036 0.9612224 0.9586158 0.9563332 0.9545461 1.018755 1.046915 1.061521 1.050604 0.9872093 0.9497421 0.9488326 0.981084 1.016935 1.003745 0.9735049 0.963616 0.9725849 0.9611658 0.942371 0.9405437 0.9390776 0.9376664 0.9360923 0.9346127 0.9332608 0.9318655 0.9327697 0.9922758 1.096727 1.157342 1.107628 0.9851994 0.9853109 1.016393 0.9375599 0.9338858 0.9356301 0.9371969 0.9382193 0.9400333 0.9688251 0.9397482 0.937974 0.9368779 0.9379436 0.9388759 0.9385595 0.9371099 0.9356748 0.9442992 0.9584128 0.9357082 0.9370932 0.9430685 0.9740708 0.9739582 0.9831338 0.9853591 0.9571928 0.9505229 0.949442 0.9452009 0.9461265 0.9805734 0.946735 0.9455456 0.9444249 0.9440657 0.9429518 0.9421819 0.9623002 -9999 -9999 
-9999 -9999 0.9474443 0.94598 0.9444573 0.9428166 0.9412074 0.9397159 0.9554135 0.997815 1.026634 0.9908328 0.9357324 0.9362233 0.9370244 0.9375759 0.9378247 0.9380366 0.9377705 0.9371474 0.936599 0.9369608 0.9375983 0.9372738 0.9356976 0.9338798 0.9328752 0.9327897 0.9316964 0.9302626 0.9282911 0.9259495 0.9236008 0.9222224 0.9208245 0.9323756 0.9524475 0.9473342 1.013523 1.015895 0.9321368 0.9196087 0.9210567 0.9223446 0.9238883 0.9253156 0.926834 0.9283612 0.9301946 0.9317053 0.9332267 0.9404952 0.9356223 0.9369617 0.9383646 0.9394196 0.9407142 0.942297 0.9436172 0.9464476 0.9497951 1.00149 0.9497621 0.9489095 0.9481916 0.9449815 0.9425291 0.9411313 0.9573682 0.9392335 0.9374725 0.9362999 0.9353035 0.9396009 0.980409 0.9727008 0.9310198 0.9300723 0.9288618 0.9274845 0.9460888 0.9925791 0.9268077 0.9282652 0.9296204 0.9310216 0.9316215 0.9318222 0.932096 0.9318076 0.9316073 0.9323407 0.9332643 0.9352133 0.9371389 0.9392989 0.9410464 0.9402536 0.9394593 0.939118 0.9386753 0.9375912 0.937213 0.9374695 0.937864 0.9387509 0.9607275 0.9531696 0.9419175 0.9436467 0.9452932 0.946982 0.9483714 0.9497191 0.9637355 0.9723617 0.9650149 0.958961 0.9576255 0.9574943 0.9629963 0.9928228 0.9921118 0.9635035 0.9647024 0.9662191 0.9679789 0.9992909 1.170281 0.9685749 0.9663504 0.9641309 0.9616896 0.9587227 0.9564278 0.9549372 0.9538403 0.9531205 0.9522727 0.9610256 0.9931164 1.021827 1.075262 1.101541 1.0825 1.057868 1.003475 0.9853846 0.9904749 0.9785406 0.9681886 0.9543718 0.940505 0.9381934 0.9366917 0.9352449 0.9339206 0.9326273 0.931833 0.9839333 1.071077 1.101023 1.043023 0.9823848 1.010731 0.9986933 0.9329125 0.9349911 0.9368975 0.9385754 0.9388173 0.9407993 0.9615788 0.9413416 0.9396405 0.9382775 0.939501 0.9403645 0.9402081 0.9387379 0.9369755 0.9356712 0.9691669 0.9365977 0.9378098 0.939081 0.955045 0.965185 0.9898874 0.9984577 0.9802082 0.972249 0.9649004 0.9704627 0.9885138 0.9878771 0.9576521 0.9465494 0.9460769 0.9451483 0.944295 0.9436425 0.9497631 -9999 -9999 
-9999 -9999 0.9475781 0.945971 0.9442374 0.9425128 0.9409853 0.9430814 1.010959 1.087794 1.015025 0.9447345 0.9376853 0.9381058 0.9390771 0.9396197 0.9399281 0.9399875 0.9401308 0.9397931 0.9389366 0.9387841 0.9389259 0.9385182 0.9368494 0.9351135 0.9351099 0.9347569 0.9329229 0.9311205 0.9288645 0.9265303 0.9238858 0.9224213 0.9255897 0.9251859 0.9305571 0.9304479 0.9735812 1.044369 0.9512227 0.9200261 0.9214519 0.9228032 0.92435 0.925752 0.9273112 0.9295642 0.9311686 0.9731179 0.9527887 0.9340953 0.9353175 0.9369631 0.9387439 0.9402482 0.9420503 0.9435093 0.9451562 0.9476742 0.9499075 1.032457 0.9517561 0.9503183 0.9468207 0.9443954 0.9422936 0.9525738 0.9761522 0.9478176 0.9373548 0.9660954 0.9902027 0.9807271 0.9739169 0.9558775 0.932391 0.931424 0.929853 0.9280853 0.9516336 1.016464 0.927682 0.9293569 0.9308278 0.9323742 0.9334258 0.9337267 0.9340143 0.9338656 0.933849 0.9344189 0.9349794 0.9362125 0.9380068 0.9398887 0.9423763 0.9424596 0.9414951 0.9411145 0.9404659 0.9391009 0.9392016 0.9396253 0.939664 0.9400859 0.966302 0.9468596 0.9425121 0.943983 0.9457857 0.9476197 0.9492841 0.9505727 0.9651544 0.9942175 1.010215 1.004588 0.9866475 0.9567761 0.9584569 0.9681512 0.9915629 0.9619138 0.9636418 0.9656805 0.9674288 0.9736886 1.167044 0.9687448 0.966769 0.9640295 0.9603546 0.9586743 0.9572909 0.9563724 0.9556544 0.9547475 0.9535797 0.9523624 0.9511395 0.949967 0.9491711 0.9489231 0.9484566 0.9478828 0.9471164 0.94595 0.9447066 0.9431345 0.9446859 0.9451658 0.9393535 0.9380364 0.9485988 0.9515299 0.9499298 0.9454478 0.9546544 1.010097 1.066987 1.024565 0.984889 0.9737341 0.9892464 0.943345 0.9337335 0.9358535 0.9377875 0.9397047 0.9406653 0.9412357 0.9447851 0.9432555 0.9411647 0.940356 0.9404836 0.941999 0.9418914 0.9399784 0.938198 0.9369527 0.9804811 0.9531774 0.9385177 0.939917 0.9410871 0.9639717 0.9944766 1.001354 0.9918594 0.9793369 0.9728099 0.9838935 0.9758587 0.9480341 0.966848 0.9480956 0.9471503 0.9464824 0.9456532 0.9449563 0.9591175 -9999 -9999 
-9999 -9999 0.9477038 0.9459196 0.9442235 0.9425867 0.9409618 0.9590326 1.065335 1.04642 0.9751316 0.9385216 0.9393419 0.9401113 0.9405419 0.9412152 0.941823 0.9419108 0.9421153 0.9420667 0.9410145 0.9403872 0.9404277 0.9395061 0.9383295 0.9373829 0.937306 0.9360448 0.9336351 0.9321234 0.9298315 0.9273658 0.9246526 0.9233717 0.9223723 0.9214733 0.9211524 0.9198464 0.9401744 1.061677 0.9915962 0.9253621 0.9215178 0.9229557 0.9243606 0.9257774 0.927645 0.9292042 0.9302402 0.9311703 0.9315517 0.9324306 0.9345943 0.9367529 0.9386964 0.9404495 0.9418895 0.943806 0.9458835 0.9479547 0.9499702 0.9741849 0.9521508 0.9491575 0.9465675 0.9443971 0.9430278 0.9418257 0.9405994 0.9392408 0.9376023 0.9558386 0.95155 0.9429363 0.9447395 0.9479111 0.9350273 0.9321755 0.930549 0.9288706 0.9272363 1.01139 0.9283595 0.9301199 0.9319127 0.9336124 0.9348244 0.9353918 0.9358681 0.9359223 0.9360997 0.9365608 0.9370038 0.9375715 0.9389347 0.9407558 0.9429675 0.9445481 0.9435153 0.9429883 0.9422095 0.9409934 0.9412469 0.9417417 0.9417584 0.9414242 0.9546881 0.9422244 0.9435417 0.9449 0.9463232 0.9481037 0.9496605 0.9519135 0.9685212 1.016647 1.073627 1.084695 1.030887 0.9624259 0.9579064 0.9680337 1.008309 0.966397 0.9629368 0.9649744 0.9673849 0.9697562 1.1417 0.9688076 0.9659855 0.9637538 0.9614819 0.9600551 0.9591967 0.9584481 0.9574662 0.9563096 0.9548782 0.9535555 0.9522913 0.9515493 0.9510072 0.9505572 0.9501084 0.9493284 0.9488521 0.9474503 0.9457526 0.9441803 0.9425319 0.9408087 0.939243 0.9375843 0.9362063 0.952 0.949613 0.9528486 0.9896697 1.097338 1.088295 0.9993647 0.9658026 0.9548681 0.9604135 0.933288 0.9347463 0.9367359 0.9384651 0.9402243 0.9416151 0.9425842 0.9438064 0.9449563 0.9434096 0.9428217 0.941655 0.9432179 0.9436207 0.9419164 0.9399236 0.938388 0.9566446 0.9651102 0.9392158 0.9407797 0.9421578 0.9856507 0.980526 0.9627535 0.9702355 0.9558586 0.9580673 0.9660063 0.9475918 0.9491255 0.9511696 0.9498879 0.9483056 0.9478754 0.9468996 0.9458765 0.9645 -9999 -9999 
-9999 -9999 0.9475332 0.9457616 0.9439865 0.9426147 0.9408939 1.013645 1.109898 1.007319 0.9664372 0.9457858 0.9408008 0.9417579 0.9419311 0.9431797 0.9433947 0.9436081 0.943806 0.9438106 0.9429155 0.9419518 0.9420654 0.9404234 0.9408728 0.9397269 0.9387304 0.9369103 0.9349704 0.9326249 0.9304168 0.9280359 0.926305 0.9250377 0.92363 0.9226292 0.9217194 0.9210029 0.9214911 1.004904 1.02717 0.9432621 0.9232191 0.9228383 0.9242437 0.9256695 0.9271386 0.928261 0.9419428 0.9792045 0.9703822 0.9318083 0.9338919 0.936581 0.9389826 0.9409547 0.942743 0.9445065 0.9464271 0.9485692 0.9506752 0.9535831 0.9532017 0.9502546 0.9475132 0.945672 0.9444233 0.9430338 0.9413401 0.9396322 0.9416676 0.9563259 0.9368835 0.9362114 0.9356117 0.9352209 0.9343647 0.9331068 0.9314605 0.929771 0.9284447 1.03995 0.9286829 0.9304827 0.932445 0.9342387 0.9358927 0.9369409 0.9375368 0.9378852 0.9381299 0.9385995 0.9390765 0.9394472 0.9406646 0.9416951 0.9434057 0.9458685 0.9459376 0.9448665 0.9439856 0.943222 0.9431642 0.9436948 0.9434797 0.9430387 0.9631895 0.9723286 0.9443469 0.9457296 0.9469646 0.948405 0.9580641 0.9556254 0.9680649 1.050141 1.154347 1.148083 1.065722 0.9780902 0.9575428 0.9730909 0.9951053 0.9611757 0.9629793 0.9656011 0.9680411 0.9697376 1.105729 0.9686956 0.9664322 0.9647745 0.9634164 0.9622864 0.9610104 0.9600624 0.958789 0.9574522 0.9559835 0.9545557 0.9537115 0.9534008 0.9530497 0.9529477 0.9524581 0.9512132 0.9495183 0.9480024 0.9464641 0.945121 0.9433659 0.9412569 0.9390042 0.9372035 0.9356011 0.9574996 0.9530393 0.9767975 1.064799 1.179655 1.039428 0.9909845 0.9718736 0.9736949 0.9985676 0.950296 0.9357457 0.9375539 0.9391622 0.9406818 0.9421268 0.9441329 0.9449191 0.9675145 0.9455001 0.9445274 0.9432203 0.9443713 0.9450821 0.9439925 0.9423904 0.9401259 0.942056 0.9773434 0.9399275 0.9414634 0.9443694 0.9804782 0.9668188 0.9461328 0.9451864 0.9454532 0.9470465 0.9472665 0.9487619 0.950511 0.9523014 0.9520347 0.95031 0.9493716 0.9483066 0.9471282 0.9761315 -9999 -9999 
-9999 -9999 0.9473619 0.9456891 0.9437685 0.9420115 0.9558498 1.109207 1.027427 0.9741034 0.9628964 0.9567713 0.9416505 0.9430551 0.9443442 0.9445857 0.9556041 0.9510406 0.94534 0.9456492 0.9447265 0.9438372 0.9430624 0.942904 0.9427605 0.9403607 0.9386714 0.9364492 0.9346958 0.9325075 0.9304287 0.9292178 0.9280438 0.9268119 0.9250655 0.9238299 0.922737 0.928679 0.9260902 0.9702021 1.040059 0.9682394 0.9448168 0.9436014 0.9356508 0.9326823 0.9377528 0.9475439 0.9586602 0.9579655 0.930887 0.9329352 0.9352417 0.9374486 0.9394785 0.9412311 0.9430473 0.9452094 0.9472643 0.9496167 0.9518683 0.9542972 0.954324 0.9513559 0.9491923 0.9471952 0.945447 0.9437129 0.9419306 0.9402896 0.9390042 0.9523072 0.9380683 0.937553 0.9372132 0.9365328 0.9355108 0.9342023 0.9324902 0.9308811 0.9295542 1.027803 0.930414 0.9307641 0.9327601 0.9346949 0.9365763 0.9380411 0.9389378 0.9396015 0.9400017 0.9404825 0.9408858 0.9412058 0.94216 0.9430824 0.9442876 0.9464508 0.9482998 0.9468287 0.9460937 0.9451548 0.9450921 0.9454057 0.9450198 0.9495723 0.9943429 1.018353 0.9608781 0.9462987 0.9478778 0.9490029 0.9647412 0.9953803 1.007094 1.046532 1.088036 1.097753 1.052673 0.9862271 0.9571277 0.9669473 0.9730046 0.96102 0.9632613 0.9657786 0.9679588 0.9699157 1.066018 0.9706733 0.9680943 0.9663471 0.965214 0.963814 0.9625984 0.9612461 0.9597619 0.9581899 0.95684 0.9557015 0.9554871 0.9554806 0.955476 0.9758086 0.953064 0.9511554 0.9491398 0.947487 0.9459149 0.9446165 0.9430498 0.9412872 0.93896 0.9371754 0.9356845 0.9473268 0.9622948 1.022612 1.165307 1.076843 1.007455 0.9852917 0.9912338 1.038353 1.075835 1.004055 0.9360375 0.9377047 0.939097 0.9406592 0.9421824 0.9436385 0.945396 0.980235 0.9470468 0.9460046 0.945332 0.9457468 0.9705131 0.945216 0.9429638 0.9412957 0.9405052 0.9710162 0.9491841 0.9419134 0.943585 0.9458479 0.945438 0.9459155 0.9467459 0.9475632 0.9488262 0.9494077 0.9498754 0.9513779 0.9534153 0.953988 0.952237 0.9507537 0.9496037 0.9481378 0.9729038 -9999 -9999 
-9999 -9999 0.9473424 0.9455226 0.9435874 0.9417101 0.9936638 0.9801371 0.9430705 0.9421574 0.9477493 0.944049 0.9429711 0.9440067 0.9457167 0.9461076 0.9462335 0.9459807 0.946806 0.9475344 0.9465598 0.9461977 0.9457815 0.9446695 0.9419225 0.9396691 0.9378079 0.9357712 0.933705 0.9323812 0.9313673 0.9304913 0.9292531 0.9280536 0.9264438 0.9249237 0.9236899 0.9227152 0.9287295 0.976145 1.071844 0.9956213 0.9684705 0.9717442 0.9657211 0.9589077 0.9440553 0.9321203 0.9286312 0.9302905 0.9317965 0.9339706 0.9362155 0.9382869 0.9398804 0.941272 0.9432191 0.9457546 0.9481502 0.9502066 0.9526871 0.954968 0.9553853 0.9527311 0.9503347 0.9483504 0.9461321 0.9444515 0.9428544 0.9414032 0.9402129 0.9456393 0.9401906 0.9389689 0.9384896 0.9377658 0.9364657 0.9352424 0.9334769 0.9318252 0.9304118 0.9982449 0.9816532 0.930876 0.9328213 0.9347993 0.9368459 0.9385855 0.9400002 0.9410598 0.9418241 0.9423873 0.9427866 0.9430897 0.9436032 0.9447901 0.9456626 0.9472656 0.9498948 0.9488369 0.9478435 0.9472015 0.9469459 0.9470338 0.9463612 0.9546265 1.030297 1.090693 0.9938405 0.9468181 0.9485304 0.950104 1.010365 1.096537 1.078623 1.077804 1.082627 1.075866 1.040796 0.9974733 0.9582316 0.9581332 0.9595413 0.961279 0.9634336 0.965633 0.9677501 0.9695517 0.9814417 0.9727497 0.969864 0.9685896 0.9666718 0.9652783 0.9639136 0.9621211 0.9605002 0.9587061 0.9664283 0.9574291 0.9574516 0.9902204 0.9573257 0.9538994 0.9519967 0.9504144 0.9489418 0.9474082 0.9460592 0.9444777 0.9429095 0.9412966 0.9393816 0.9376277 0.9359925 0.9346927 0.9494857 1.027117 1.120602 1.038001 1.00872 0.984226 1.003723 1.069947 1.117187 1.05558 0.9514544 0.9372373 0.9387348 0.9404644 0.9421389 0.9439242 0.9457879 0.9608029 1.019309 0.9480104 0.9475378 0.9469551 0.9472704 0.9465451 0.9444424 0.9425858 0.9414786 0.9511478 0.9483979 0.9428527 0.9444171 0.9456576 0.9468977 0.9478213 0.9486198 0.9490395 0.9503658 0.9508278 0.9516417 0.9525005 0.9539391 0.9782779 0.9544671 0.9519036 0.9502718 0.9776755 0.949437 -9999 -9999 
-9999 -9999 0.9473369 0.9457276 0.9437823 0.9422769 0.9416993 0.9417856 0.9422257 0.9426316 0.9430093 0.9436578 0.9442516 0.9453915 0.946832 0.9476773 0.9471945 0.9473953 0.9486651 0.9494349 0.9486955 0.9488136 0.9473109 0.9444202 0.9417435 0.9396926 0.9379079 0.9360909 0.9346983 0.9337379 0.9328013 0.9316328 0.9301538 0.929003 0.9276961 0.926329 0.9250648 0.923752 0.9276357 0.988167 1.064851 0.9973077 0.990873 1.009924 1.000943 0.960635 0.9259782 0.9275382 0.9290631 0.930649 0.9321486 0.9345636 0.9367098 0.9386997 0.9402277 0.9417198 0.9436431 0.9459067 0.9483345 0.9505585 0.9530103 0.9554138 0.9845832 0.9535673 0.95149 0.9492002 0.9472066 0.9453762 0.94412 0.9426267 0.9415714 0.9410636 0.9406468 0.9426535 0.9419587 0.9387274 0.937405 0.9359841 0.9344381 0.9327124 0.9312121 0.9695068 1.017159 0.9308977 0.9328133 0.9347603 0.9367887 0.9387407 0.940512 0.9421725 0.9432788 0.9440304 0.9446509 0.9449682 0.9451454 0.9461756 0.9473239 0.9485265 0.9504029 0.9514154 0.9498647 0.9493217 0.9488744 0.9482616 0.9476848 0.9465775 1.01245 1.165283 1.033484 0.9468538 0.9487744 0.9505764 1.084382 1.217327 1.158964 1.131308 1.130564 1.081248 1.035076 0.99101 0.9565091 0.9582943 0.9598845 0.9617462 0.9634866 0.9653838 0.9674929 0.9694998 0.9721146 1.138488 0.9720117 0.9700586 0.9680444 0.966296 0.9642957 0.9626185 0.9605753 0.9815537 0.9591129 0.9597886 0.9763091 0.9570291 0.9553459 0.9537697 0.9523506 0.950904 0.9494621 0.9480198 0.9463582 0.9447994 0.9431338 0.9414605 0.9394743 0.937955 0.9364324 0.9364312 0.9523235 1.034949 1.087928 1.034642 1.013436 0.9832377 1.006212 1.042321 1.070165 1.043808 0.9547186 0.9375805 0.9393135 0.9413328 0.9429 0.9444477 0.9459774 0.9471731 0.9869916 1.052676 0.9501143 0.9493051 0.9488082 0.9478587 0.945497 0.9437263 0.9564987 0.9562074 0.9574304 0.9438056 0.9453372 0.9464861 0.9478866 0.9492675 0.9504997 0.950144 0.9517363 0.9527875 0.953525 0.9541827 0.9553073 1.004772 0.9548802 0.9524089 0.9507942 1.011795 0.9530406 -9999 -9999 
-9999 -9999 0.9478264 0.9459343 0.9444019 0.9434544 0.9434689 0.9437386 0.9440189 0.9443093 0.9444759 0.9451956 0.9456746 0.9465411 0.948051 0.9493955 0.9489143 0.9491952 0.9500395 0.9513596 0.9508331 0.9495836 0.9470167 0.9441 0.941885 0.9402276 0.9384957 0.9372112 0.9363114 0.9354188 0.9343404 0.9329177 0.9316313 0.9303734 0.9289594 0.9274021 0.9257954 0.9243584 0.9229699 0.9883534 1.017912 0.9583692 0.9646923 0.9912987 0.9855369 0.9298658 0.926286 0.9279557 0.9295075 0.9309652 0.9325873 0.9345042 0.9367375 0.9390706 0.9408814 0.9426009 0.9443142 0.9463437 0.9487206 0.9511592 0.95331 0.9557734 1.003598 0.954065 0.9513694 0.9495192 0.948096 0.9467579 0.9452346 0.9438826 0.9430867 0.9427614 0.9421431 0.9414811 0.9407569 0.9396337 0.9382418 0.9368006 0.9351859 0.9335598 0.93207 0.9434803 0.9572203 0.9314197 0.9328504 0.934749 0.9367493 0.9386973 0.9405763 0.9425895 0.9442022 0.9455205 0.9463798 0.9468992 0.9469003 0.9472966 0.9486261 0.9500362 0.9516965 0.9535849 0.9516781 0.9513705 0.9511784 0.950493 0.9487101 0.9476172 0.9734161 1.109901 1.079595 0.9671654 0.9484325 0.9504464 1.071967 1.230245 1.203236 1.126814 1.10913 1.061352 1.006891 0.9555801 0.9571918 0.9589694 0.9604261 0.9622818 0.9640691 0.9655524 0.9673857 0.9698324 0.9719558 1.155196 0.972749 0.9711164 0.9688699 0.9666864 0.9646881 0.9630564 0.9626588 0.9607912 0.9612229 0.9698284 0.9587654 0.9575368 0.9561675 0.9545113 0.9529212 0.9512852 0.9498325 0.9481986 0.9467257 0.945118 0.9434878 0.9417791 0.9398794 0.9381306 0.936561 0.9400197 0.9633358 1.053905 1.077826 1.032468 1.005598 0.9705369 0.9867133 1.005915 0.9981179 0.99722 0.9512676 0.9380279 0.9396493 0.9412148 0.9456584 0.9568915 0.9506393 0.9462806 0.9475018 0.9491222 0.9939818 0.9692305 0.9502822 0.9487167 0.9460361 0.944636 0.9598449 0.9577881 0.9622704 0.9448034 0.9481414 0.9580362 0.9483383 0.9502217 0.9520386 0.952058 0.9532381 0.9549459 0.9559187 0.9563377 0.957512 0.9575918 0.9550409 0.9528353 0.965607 0.9598693 0.9512814 -9999 -9999 
-9999 -9999 0.9478121 0.9463362 0.9455369 0.9452135 0.9451729 0.9452051 0.945552 0.9458371 0.9459385 0.9465181 0.9469599 0.9478376 0.9495816 0.9509675 0.9511589 0.9516367 0.9522531 0.9539104 0.9512804 0.9492894 0.9464281 0.9443253 0.9424429 0.9410051 0.9398268 0.9391772 0.9382392 0.9369892 0.9355661 0.9342515 0.9327834 0.9312564 0.9297 0.9279642 0.9263701 0.9249197 0.9236525 0.9825397 0.9920707 0.924826 0.9239602 0.9243034 0.9250053 0.9258155 0.9272745 0.9287535 0.9303001 0.9319257 0.9336294 0.9355842 0.9374866 0.9398252 0.942095 0.944247 0.9456485 0.9479659 0.9499938 0.9517751 0.9541804 0.9565981 0.9978651 0.9549094 0.9520813 0.9503871 0.9494292 0.9479292 0.9464505 0.9454471 0.9450029 0.9448617 0.9446254 0.9434522 0.9420118 0.940865 0.9392579 0.9374617 0.9359449 0.9344005 0.9330715 0.9421058 0.9322078 0.9327718 0.9335343 0.9349543 0.9367213 0.9384807 0.9404836 0.942385 0.944282 0.9461837 0.9479343 0.9485769 0.9487318 0.9490902 0.9495856 0.9511633 0.9533324 0.9551341 0.9537326 0.9537253 0.9536054 0.952239 0.9496887 0.9484169 0.9653509 1.03619 1.120354 1.0206 0.9483759 0.950144 1.011048 1.071064 1.091979 1.064521 1.060002 1.025072 0.9716019 0.9561448 0.9577966 0.9596462 0.961158 0.9627344 0.9643785 0.9660671 0.9678725 0.9702403 0.9722753 1.074827 0.9889375 0.9715223 0.9694197 0.9670421 0.9654006 0.9635051 0.9848883 0.9628058 0.962877 0.9608032 0.9588017 0.9575703 0.9560085 0.9544167 0.9526653 0.9509721 0.9494343 0.9479857 0.9467123 0.945235 0.9437319 0.9421355 0.9404573 0.9385985 0.9369901 0.9489531 0.9743369 1.044364 1.061089 1.037907 1.009916 0.9641607 0.963533 0.9802917 0.9647573 0.9742396 0.9593481 0.9386129 0.9402777 0.9487267 0.9607162 0.9835985 0.9846282 0.9780764 0.9518933 0.9482456 0.9502315 1.004182 0.9517302 0.9490518 0.947172 0.9458464 0.9453999 0.9454815 0.9585156 0.9603838 0.964645 0.9678358 0.9489479 0.950688 0.9527522 0.9545103 0.9548699 0.9562415 0.9578128 0.9586304 0.9840143 0.9574868 0.9549766 0.9531107 0.9522344 0.9527097 0.9531572 -9999 -9999 
-9999 -9999 0.9539064 0.9475827 0.9468725 0.9469338 0.9467257 0.9467381 0.9471262 0.9473803 0.9476113 0.94796 0.9481422 0.9491369 0.9507708 0.952243 0.9529781 0.9533268 0.9543203 0.9540856 0.9515277 0.9491064 0.9467849 0.9448133 0.943297 0.9422333 0.9416558 0.9414216 0.9396553 0.9383792 0.9368648 0.9351452 0.9331842 0.9314088 0.9299546 0.9286605 0.9274139 0.9260635 0.9245319 1.002093 0.9754671 0.9242937 0.9253909 0.925944 0.9267852 0.9275192 0.9284444 0.9295359 0.9311098 0.9328392 0.9347058 0.9363736 0.9384558 0.9407644 0.94294 0.9449795 0.9470704 0.9490998 0.9510478 0.9531257 0.9553321 0.9577869 0.9693302 0.9561628 0.9539527 0.9521012 0.9505773 0.9491937 0.9479772 0.9477162 0.9472993 0.9471313 0.9459032 0.9446245 0.9433199 0.9418678 0.939674 0.93799 0.9366822 0.93545 0.9342188 0.9506905 0.9337115 0.9342512 0.9348645 0.9357339 0.9371245 0.9386912 0.9405833 0.9425206 0.9443549 0.9464473 0.9482197 0.9499227 0.9506947 0.9504248 0.9508904 0.9521188 0.9540663 0.9567204 0.95601 0.9562508 0.9549739 0.9514708 0.9502737 0.9488406 0.9498563 0.9766164 1.03013 1.100026 1.001925 0.9574347 0.9765546 1.022711 1.040102 1.015298 1.007832 0.9799417 0.955478 0.9569653 0.9587902 0.9603612 0.9615464 0.9629069 0.9644635 0.9662777 0.9684399 0.9704847 0.9723933 1.038399 1.005429 0.9722103 0.9696778 0.9672461 0.9650467 1.012381 0.9743673 0.9764768 0.963281 0.9613346 0.9595143 0.9580439 0.9565616 0.954852 0.952806 0.9510387 0.9490325 0.947677 0.9462058 0.9447625 0.9434023 0.9419616 0.9403535 0.9388595 0.93708 0.9793079 1.007033 1.048693 1.051688 1.045885 1.00849 0.9527482 0.9387371 0.9584006 0.9388137 0.9468461 0.9565226 0.9393947 0.940852 0.9590787 0.9731196 0.9512565 0.9457773 0.9468249 0.9478266 0.9492581 0.9511338 0.9730195 0.9525077 0.950242 0.9490964 0.9477351 0.9471667 0.9469686 0.9528447 0.9699317 0.9723622 0.9884466 0.9640774 0.9508603 0.9525031 0.9552586 0.9571811 0.958065 0.9587376 0.960701 0.9598312 0.9576249 0.9558867 0.9546709 0.9540296 0.9547715 0.9555475 -9999 -9999 
-9999 -9999 0.9595819 0.9489694 0.9484863 0.948548 0.948288 0.9483506 0.9488271 0.9490996 0.9492524 0.9493319 0.9495658 0.9506105 0.9522274 0.9535866 0.9546605 0.9554297 0.969143 0.9537764 0.9514145 0.9493052 0.9472599 0.9460226 0.9451129 0.9442576 0.9438217 0.9423375 0.9409529 0.9400284 0.9379277 0.9358544 0.9337335 0.9322348 0.9311576 0.9298923 0.9284289 0.9266968 0.9251637 1.053509 0.9388747 0.9255132 0.9267108 0.9276724 0.9284714 0.9291596 0.9298682 0.9305667 0.9319808 0.9334369 0.9352822 0.9372058 0.9395291 0.9417212 0.94374 0.9456165 0.9478426 0.9500332 0.9519219 0.9541262 0.956306 0.9582765 1.000211 0.9581623 0.9562547 0.9539835 0.9519669 0.9505194 0.949656 0.9498686 0.9491621 0.9603243 0.9469664 0.9452259 0.9436984 0.9418702 0.9400523 0.9388061 0.9378281 0.9367271 0.9353328 0.9522715 0.9349674 0.9358237 0.9365892 0.9370907 0.938182 0.9396447 0.9410862 0.9428317 0.9445643 0.94628 0.9482037 0.9500005 0.9517747 0.9523606 0.9521294 0.9531745 0.9549202 0.9575085 0.9587808 0.9579447 0.9554034 0.9537072 0.9516904 0.9502737 0.9492478 0.9485965 0.952902 1.001089 1.115864 1.091265 1.025662 1.034877 1.01728 0.9905348 0.9742646 0.9543727 0.9559951 0.957871 0.9592447 0.9607469 0.9621199 0.9634022 0.9649142 0.9664329 0.9684741 0.9705408 0.9725447 1.035502 1.017447 0.972353 0.9698474 0.9676715 0.9658394 0.9645624 0.9651483 0.9902894 0.9642332 0.9622383 0.9606397 0.9589509 0.9570885 0.9551792 0.9533622 0.9513882 0.9493293 0.9474912 0.9459187 0.9442175 0.9428766 0.9415489 0.9400934 0.9387141 0.9419641 1.011377 1.043831 1.053186 1.040262 1.021504 0.9803275 0.9406525 0.9380492 0.940672 0.9398487 0.9396434 0.939553 0.9403358 0.9415357 0.9647804 0.9755955 0.9444407 0.94627 0.9483326 0.9496468 0.9507096 0.9524183 0.9550815 0.9535922 0.9519884 0.9508418 0.9492153 0.9488475 0.9483831 0.9481354 0.9745825 0.9974689 1.028195 1.005191 0.9511646 0.9526103 0.9545079 0.9570211 0.959213 0.9612162 0.9988297 0.9610887 0.9592089 0.9579359 0.9569457 0.9566737 0.9571688 0.9575455 -9999 -9999 
-9999 -9999 0.9549911 0.950553 0.9503567 0.9503583 0.9500804 0.9499481 0.9503314 0.9507642 0.9509618 0.9509062 0.9509884 0.952031 0.9537606 0.9553539 0.9564655 0.9578667 0.9562896 0.9535844 0.9512442 0.9493775 0.9483379 0.9481509 0.9473497 0.9463978 0.9451311 0.943422 0.9419703 0.9403622 0.938049 0.9361015 0.934864 0.9336998 0.9322961 0.9305843 0.9287179 0.9266126 0.9250246 1.066883 0.925024 0.9265195 0.9278886 0.9292074 0.9299411 0.9306223 0.9313994 0.9319789 0.9328783 0.934497 0.9361825 0.938239 0.9406072 0.9424454 0.9442433 0.9461683 0.9482788 0.9505456 0.9526451 0.9549598 0.9569538 0.9584358 1.040851 0.9597149 0.9573175 0.9550651 0.9535139 0.9519509 0.9514538 0.9513151 0.9496764 0.9551402 0.947051 0.9455324 0.9438792 0.9421531 0.9411387 0.9402297 0.9391415 0.9378249 0.9365423 0.9458792 0.936173 0.937231 0.938154 0.9390189 0.9396154 0.9407749 0.9421039 0.9437001 0.9453232 0.9470989 0.9487869 0.9504077 0.9525001 0.954034 0.9538623 0.9544624 0.9561419 0.9583875 0.9693784 0.9590092 0.9570903 0.9561908 0.9537352 0.9515057 0.9508796 0.9500747 0.9496838 0.9492013 0.9926507 1.106626 1.10392 1.015344 0.9803257 0.9734738 0.9561462 0.9548652 0.956561 0.9582754 0.9596577 0.9612563 0.9628791 0.9643562 0.9659659 0.9674368 0.9689898 0.9712114 0.9734002 1.062126 1.04171 0.9732828 0.9710338 0.9694139 0.9677727 0.9666024 0.9670307 0.9669493 0.964844 0.9631254 0.9612582 0.9593254 0.9573005 0.9554481 0.9536681 0.9517185 0.9500318 0.9480059 0.9460436 0.9443594 0.9429124 0.9415346 0.9399766 0.9434301 0.9575472 0.9990625 1.034078 1.030408 1.013257 0.9835437 0.9495879 0.9375647 0.9386676 0.9401398 0.9515547 0.9413698 0.9411291 0.9414276 0.943626 0.9474365 0.9441853 0.9452898 0.9468153 0.9486955 0.9505998 0.952973 0.9543328 0.9561839 0.9554972 0.954096 0.9526125 0.9511035 0.9503182 0.9501202 0.9495324 0.9970171 1.070334 1.080673 1.04054 0.9567004 0.9528795 0.9547525 0.956527 0.9591215 0.9611363 0.9838582 0.9628001 0.9618487 0.960408 0.959246 0.9592809 0.9593588 0.9593487 -9999 -9999 
-9999 -9999 0.9521027 0.9523498 0.9523367 0.9521338 0.9518888 0.9517688 0.9520972 0.9524949 0.9527086 0.9525175 0.9527884 0.953687 0.9550549 0.9568605 0.9583651 0.9831966 0.9567728 0.9542949 0.9522786 0.9510773 0.9505637 0.9502124 0.9489464 0.9469799 0.9442617 0.9423548 0.9408162 0.9600919 0.9411612 0.9372965 0.9360712 0.9346569 0.9328488 0.9310547 0.9291239 0.9272183 0.9255776 0.9836603 0.9258835 0.9274169 0.9290048 0.9303021 0.9312924 0.932178 0.933009 0.9334981 0.933989 0.9355632 0.9374506 0.939582 0.9417785 0.9434183 0.9455219 0.9475394 0.949303 0.9513022 0.9532145 0.9552277 0.9572706 0.9594079 1.032213 0.9606102 0.9585891 0.9565989 0.9551196 0.9536413 0.9537801 0.9519573 0.9502761 0.9488005 0.947351 0.9458582 0.9444398 0.9431753 0.9424365 0.9414037 0.9402221 0.9389412 0.937842 0.9373395 0.9374132 0.9385198 0.9397276 0.9405484 0.9413843 0.9422344 0.9433528 0.9445589 0.9462581 0.9479789 0.9498776 0.9515386 0.9535233 0.9550856 0.9560098 0.9562253 0.9574291 0.9594967 0.9778751 0.9604939 0.9590908 0.9577872 0.955711 0.9537111 0.9522307 0.9515953 0.9512541 0.9506742 0.9500581 0.9896009 1.075155 1.020962 0.9628491 0.9618126 0.9537057 0.9552546 0.9568754 0.9584512 0.9600418 0.9617088 0.9632593 0.9649055 0.9666795 0.9687484 0.9707215 0.9724624 0.9741852 1.093133 1.087017 0.9744459 0.972374 0.9709038 0.9694021 0.9689108 0.973147 0.9672955 0.9651784 0.9631779 0.9613303 0.9594539 0.9574363 0.9556439 0.9539865 0.9522142 0.9505069 0.9485148 0.9464605 0.944721 0.943163 0.9419433 0.9404811 0.9395319 0.959067 0.9888144 1.024081 1.011748 0.9931402 0.9603221 0.9378906 0.9387592 0.9397215 0.9407573 0.9419968 0.9430591 0.9427971 0.9429586 0.9494196 0.9442375 0.9457043 0.9472249 0.9485852 0.9495738 0.9510899 0.9531369 0.9550846 0.9568965 0.957402 0.9555305 0.954264 0.9528791 0.9520259 0.9514477 0.9602994 0.9990783 1.09462 1.073637 1.042327 0.9630513 0.953102 0.9549147 0.9572235 0.9592227 0.9613196 0.9634821 0.9650771 0.9638485 0.9625195 0.961592 0.9614258 0.9614606 0.9610866 -9999 -9999 
-9999 -9999 0.9537424 0.9539585 0.9540418 0.9539146 0.9535767 0.9534504 0.953691 0.9543331 0.9544548 0.9540405 0.9547899 0.9556413 0.9567931 0.9578248 0.9592398 0.9794486 0.9577755 0.9554017 0.9543132 0.9535469 0.9521593 0.9499524 0.9478415 0.9459374 0.9436853 0.9417287 0.9963943 0.9712945 0.9396938 0.9394151 0.9378074 0.9354859 0.9335802 0.9318882 0.9300851 0.9284475 0.9270815 0.9260878 0.9267412 0.9282739 0.9298806 0.931297 0.9325084 0.9336087 0.9345134 0.9351979 0.9354145 0.9367275 0.939142 0.9413725 0.943079 0.9447598 0.9472471 0.9493527 0.9510557 0.9526044 0.9542367 0.9560963 0.9579315 0.9598331 0.9939167 1.00572 0.9603541 0.9580358 0.9561511 0.9557227 0.9548371 0.952828 0.9510697 0.9496201 0.947957 0.9465659 0.9454627 0.9446903 0.9438938 0.9427304 0.9414235 0.9402238 0.939294 0.9384465 0.9387469 0.9395957 0.9409148 0.9419376 0.9430224 0.9440198 0.944667 0.9455914 0.9469281 0.9484988 0.9501847 0.9524938 0.9546273 0.9561121 0.9576594 0.9580553 0.9587751 0.960207 0.9627987 0.9618702 0.9607834 0.9588739 0.9573506 0.9554738 0.9539235 0.9532154 0.9529282 0.9522779 0.9513812 0.9662885 1.031242 1.048082 0.9597268 0.9547874 0.9540765 0.9556298 0.9573904 0.95909 0.9606628 0.9620963 0.9637576 0.9653078 0.9669402 0.9687557 0.9712811 0.9733964 0.9865078 1.11283 1.133557 0.9816986 0.9734762 0.9721776 0.9711214 0.9830658 0.9694956 0.9670802 0.9650858 0.9629825 0.9611689 0.9593974 0.9576068 0.9556814 0.9538988 0.9522685 0.9504486 0.9487913 0.9469155 0.9451565 0.9434586 0.952455 0.9412368 0.9433087 0.9725856 1.011958 1.029013 1.006602 0.9897279 0.9500619 0.9391716 0.939993 0.9406691 0.9418199 0.9430513 0.9442716 0.9446477 0.9443417 0.9445475 0.9452348 0.9466428 0.9485894 0.9501873 0.9513293 0.9526426 0.954311 0.956342 0.9582996 0.9587142 0.9569647 0.9562283 0.95433 0.9531913 0.9526573 0.9558758 0.970185 1.047945 1.05493 1.027789 0.9520503 0.953761 0.9556272 0.9577407 0.9597859 0.9618683 0.9640597 0.9931079 0.9658545 0.9645918 0.9637197 0.963477 0.9631075 0.9627869 -9999 -9999 
-9999 -9999 0.9553103 0.9555225 0.9557162 0.9555205 0.9551885 0.9551021 0.9553466 0.9559306 0.9561533 0.9555983 0.9566722 0.9581642 0.9586046 0.9595668 0.9652163 0.9796138 0.9590328 0.957763 0.9559116 0.953763 0.9513339 0.949306 0.9474602 0.9456317 0.9437774 0.9422079 0.9414387 0.9416829 0.9416273 0.9407194 0.9385182 0.9363306 0.9344565 0.9327674 0.9312133 0.9297264 0.9286283 0.9278432 0.9569971 0.9288661 0.9303378 0.9319851 0.9334236 0.9347481 0.9360069 0.9370076 0.9370973 0.9379283 0.9408585 0.9432346 0.9451392 0.9470045 0.9487361 0.9505653 0.9526386 0.9541335 0.9556499 0.9574842 0.9587497 0.9601178 0.96156 1.062076 0.9614846 0.9592515 0.9576997 0.9573418 0.9553109 0.953474 0.9520474 0.9506007 0.9491187 0.9482867 0.9473059 0.9462795 0.9451481 0.9438745 0.9425117 0.9416969 0.9407064 0.939844 0.9400476 0.9410527 0.9421834 0.9433095 0.9442636 0.9455729 0.9462976 0.9470139 0.9484465 0.9496945 0.9513376 0.9535445 0.9556121 0.9572483 0.9592567 0.9608073 0.9608083 0.9621867 0.9641822 0.9635477 0.9621584 0.9608961 0.9589456 0.9570866 0.9553838 0.9547932 0.9546434 0.9535738 0.9525472 0.9535291 0.9970073 1.078901 0.9776555 0.953029 0.9543989 0.9560775 0.9577452 0.9593419 0.9611028 0.9628533 0.9644864 0.9658756 0.9674702 0.9691895 0.9714228 0.9737175 0.9952312 1.117474 1.167448 1.028799 0.974562 0.977484 0.9837989 0.9708264 0.968709 0.9666234 0.9645383 0.9631191 0.9615619 0.9596798 0.9578205 0.9560462 0.9542302 0.952356 0.9507387 0.9489861 0.9472716 0.9458747 0.944204 0.9513161 0.9604815 0.9555438 0.9841112 1.036347 1.038669 1.026328 1.002854 0.9565582 0.9402251 0.9410907 0.9419638 0.9430776 0.9444635 0.9459984 0.9467254 0.9465148 0.9461901 0.9466356 0.9478641 0.949528 0.9513544 0.9528932 0.9547055 0.9561009 0.9574404 0.9593972 0.9610269 0.9595601 0.958387 0.9563155 0.9548107 0.9541094 0.9559671 0.955356 0.9985607 1.03933 1.015773 0.9527889 0.9545871 0.9561638 0.9580218 0.9602609 0.962086 0.9642868 0.9664353 1.002624 0.966055 0.9655712 0.9688193 0.9684703 0.9656969 -9999 -9999 
-9999 -9999 0.9569647 0.9573109 0.9575036 0.9573596 0.9570896 0.9569148 0.9572237 0.9577345 0.9577917 0.9572639 0.9583067 0.9600613 0.9608653 0.9616883 0.9732001 0.961212 0.9592511 0.956995 0.9546399 0.9524753 0.950493 0.9486457 0.9469188 0.9685246 0.9445575 0.9437929 0.943531 0.9437991 0.94241 0.940311 0.9385393 0.9368594 0.9353049 0.9339708 0.9325303 0.9311036 0.9302347 0.9291925 0.9995762 0.929462 0.9309116 0.9325402 0.9339997 0.9356165 0.9371796 0.9385005 0.9389039 0.9397806 0.941587 0.9434065 0.945824 0.9481632 0.9501688 0.9520966 0.9538925 0.9553297 0.9569854 0.9583696 0.962852 0.9653363 0.9621497 1.034307 0.9628357 0.9610361 0.960242 0.95831 0.956282 0.9544191 0.9531227 0.9516862 0.9502897 0.9498625 0.9488619 0.9475099 0.9463692 0.9449897 0.9440774 0.9432297 0.942158 0.9413201 0.9606715 0.9420848 0.9432932 0.9446008 0.9460021 0.9474543 0.94835 0.9488018 0.9500368 0.9514961 0.9528019 0.9545745 0.9563497 0.9580712 0.9599555 0.9621011 0.9633735 0.9641214 0.9655739 0.9648021 0.9635816 0.9625133 0.9606106 0.9585162 0.9573134 0.9567248 0.956071 0.9550866 0.9540364 0.9529899 0.9880905 1.119095 1.005063 0.9532971 0.9548377 0.9563823 0.9580811 0.9597523 0.9616447 0.9633169 0.9650185 0.9664 0.9681798 0.9696958 0.9717419 0.9738853 0.987747 1.12522 1.21499 1.106104 1.000329 0.9742308 0.9721875 0.9702279 0.9683384 0.9666689 0.964994 0.9634281 0.9617196 0.9599338 0.9582133 0.9564686 0.9544715 0.9526408 0.9510381 0.9492296 0.9477854 0.9464399 0.9447974 0.943092 0.9653925 0.9666992 0.9870439 1.034936 1.033838 1.039044 1.007996 0.9608089 0.9410565 0.9422967 0.9435468 0.9446664 0.9458253 0.9474278 0.9484705 0.9486411 0.947986 0.9479998 0.9489715 0.9500294 0.952067 0.9540679 0.9560044 0.9578547 0.9591821 0.9606642 0.9622352 0.9616753 0.9600943 0.9578652 0.956144 0.9550108 0.9541613 0.9532809 0.9612367 1.012995 1.007552 0.9535514 0.9551436 0.9563655 0.9587504 0.9607447 0.9624801 0.9649851 0.9668614 1.028407 0.9675608 0.966664 0.9814324 0.9657461 0.9657022 -9999 -9999 
-9999 -9999 0.9586442 0.9590042 0.9592828 0.959231 0.9588716 0.958863 0.9590203 0.9596767 0.9593344 0.9589672 0.9597315 0.9619347 0.9627384 0.9637553 0.9710701 0.9618158 0.9588665 0.956641 0.9545098 0.9524194 0.9503791 0.948267 0.9724535 0.946615 0.9462816 0.9458489 0.9458113 0.9449368 0.9426345 0.9406358 0.9390655 0.9379461 0.9363711 0.9348323 0.9336471 0.9326581 0.9315308 0.9301421 1.029761 0.9411229 0.9313124 0.9327924 0.9341585 0.9358317 0.9374851 0.9392736 0.9407089 0.9414184 0.9428015 0.9440608 0.945413 0.9478259 0.9501068 0.9523922 0.9545444 0.956218 0.9576442 0.9662949 1.001247 0.9890028 0.9626477 1.011911 0.9673861 0.9631388 0.9615145 0.9593376 0.9577016 0.9557495 0.9546057 0.9531695 0.9521876 0.9513265 0.9501207 0.9487209 0.9475732 0.9463481 0.9455789 0.9446526 0.9437479 0.9428222 0.9970025 0.9431411 0.9443952 0.9459403 0.9474421 0.9493091 0.9504715 0.9506758 0.9508682 0.9525545 0.9540303 0.9556665 0.9571862 0.958887 0.9605684 0.9627492 0.9647776 0.9659725 0.9988746 0.9662457 0.9651639 0.9640043 0.9619517 0.9600613 0.9592608 0.9586037 0.957884 0.9565722 0.9552914 0.953948 0.9889451 1.124258 1.02695 0.9535608 0.955155 0.95687 0.9585413 0.9601561 0.9619828 0.9636817 0.9652493 0.9669714 0.9686575 0.9701762 0.9725036 0.9747527 1.007943 1.165195 1.23066 1.164018 1.04384 0.9749111 0.9726791 0.9701643 0.9681779 0.9664168 0.9648429 0.9630324 0.9611964 0.9594164 0.9578654 0.9562365 0.9545451 0.9526473 0.9513417 0.9499153 0.9484248 0.9469712 0.9453132 0.9437773 0.9459279 0.9684878 0.9835008 1.014304 1.024372 1.028919 0.9882266 0.9441881 0.9422576 0.9436607 0.9449592 0.9463602 0.9476066 0.9490097 0.9501175 0.9506085 0.950162 0.9497528 0.9503837 0.9509381 0.9532775 0.9552792 0.9572191 0.958925 0.9605701 0.9621239 0.9795833 0.9631426 0.9615268 0.9596416 0.9576507 0.9565393 0.9561451 0.955135 0.9589788 1.019783 1.022248 0.9543879 0.9559351 0.9574664 0.9594246 0.9612389 0.9634838 0.9654567 0.9672713 1.009109 0.9730997 0.9680075 0.9673826 0.9678357 0.9678357 -9999 -9999 
-9999 -9999 0.9603029 0.9607859 0.9609768 0.9610499 0.9606946 0.9606295 0.9608607 0.9610653 0.9610317 0.9605329 0.961706 0.9634598 0.9646209 1.068748 0.9637345 0.9614616 0.959115 0.9567319 0.9544191 0.9525468 0.9504311 0.948853 0.9487294 0.9487582 0.9485455 0.948344 0.9470651 0.944872 0.9428506 0.9412502 0.9402174 0.9389629 0.9374589 0.9361408 0.9348803 0.9335073 0.9322646 0.9309747 1.038749 0.9622869 0.9321917 0.9335405 0.9349387 0.93652 0.9380418 0.939991 0.9418185 0.9430313 0.9442169 0.9454539 0.9463243 0.9476742 0.9493532 0.9517846 0.954091 0.9560313 0.9578583 0.9691774 1.001195 0.996295 0.9626339 0.9642404 1.080555 0.964323 0.9625818 0.9611521 0.959243 0.9575285 0.9562274 0.9548492 0.9539007 0.9529639 0.9516313 0.9502278 0.9489703 0.947909 0.9469329 0.9461498 0.9452107 0.9438829 1.034288 0.9641095 0.9452149 0.946759 0.9483974 0.9500905 0.9514374 0.952833 0.9526365 0.952944 0.9647123 0.9557562 0.9573863 0.958958 0.9609934 0.9626051 0.9642658 0.966057 1.005283 0.967395 0.9666015 0.9651939 0.9631375 0.9618231 0.9611723 0.9606288 0.9591318 0.9574262 0.9558102 0.954528 0.9794568 1.086761 1.052613 0.9592084 0.9553069 0.9570756 0.9588647 0.9606425 0.9623188 0.9641358 0.9657575 0.9674168 0.9691158 0.9707822 0.9730949 0.9753384 1.03336 1.166305 1.193553 1.154799 1.030604 0.9748357 0.9721761 0.9701204 0.9680369 0.9659061 0.9640076 0.9620767 0.9606876 0.9589927 0.9574438 0.9558241 0.9545366 0.9532158 0.9520398 0.9507457 0.9490777 0.94748 0.9461791 0.944746 0.9432828 0.9590443 0.9972618 1.033029 1.045298 1.031659 0.9740251 0.9421571 0.943347 0.9447361 0.9461278 0.9475079 0.9490369 0.9504033 0.9517606 0.9525644 0.9520202 0.9511611 0.9518746 0.9529219 0.9548059 0.9564298 0.9584755 0.9602495 0.9615914 0.9629088 0.9682048 0.9647219 0.9630258 0.9611785 0.9595851 0.958473 0.957421 0.9560037 0.9710326 1.023058 1.065169 0.9553033 0.9567621 0.9584454 0.9600143 0.9619445 0.9636356 0.9653841 0.9672804 0.9694729 1.027304 0.9698887 0.9693977 0.9697198 0.9698191 -9999 -9999 
-9999 -9999 0.9619755 0.9623772 0.9626551 0.9627737 0.9624746 0.9625645 0.9627492 0.9628009 0.9625221 0.9623324 0.9639494 0.9654379 1.044932 0.9648145 0.9628127 0.9606534 0.9584743 0.9565729 0.9544792 0.9526084 0.9508581 0.9504952 0.9510835 0.9511104 0.9508471 0.9492425 0.9469113 0.944887 0.9436633 0.9427376 0.9414268 0.9401342 0.9388164 0.9372974 0.9358143 0.9342574 0.9330951 0.9318455 1.024354 0.9929068 0.9387592 0.933962 0.9355429 0.9372126 0.9388456 0.9404204 0.9420395 0.9436427 0.9452125 0.9466828 0.947604 0.9487652 0.9501742 0.9516563 0.9535957 0.9554617 0.9577795 0.9595582 0.9608724 0.9735185 0.9701509 0.9644447 1.089246 0.9653602 0.9643945 0.9625197 0.9606506 0.9591945 0.9578794 0.9566595 0.9557155 0.954324 0.9531413 0.9515898 0.9504735 0.9496561 0.9485809 0.9476256 0.9463492 0.9600958 1.087095 0.9681125 0.9457268 0.9474204 0.9491855 0.9509381 0.9526112 0.9548168 0.9551587 0.9550328 0.9551672 0.9783385 0.9792669 0.9582737 0.9598764 0.9615569 0.9635435 0.9658163 0.9687403 0.982161 0.9680855 0.9660258 0.9643279 0.9634771 0.9628595 0.9612587 0.9596104 0.958132 0.9565056 0.9551213 0.9662811 1.036761 1.066387 0.9683311 0.9556192 0.9574922 0.9593912 0.961147 0.9628502 0.9644665 0.9662988 0.9679632 0.9694797 0.971337 0.9732165 0.9754176 1.034147 1.177229 1.203405 1.159008 1.00232 0.9749849 0.9721543 0.9702292 0.968117 0.9661852 0.9644811 0.9624638 0.9610028 0.9594706 0.9579642 0.9563472 0.9549612 0.9624256 0.9710915 0.9512117 0.9498419 0.9483528 0.9469285 0.9457585 0.9443387 0.9539158 1.01339 1.066704 1.079856 1.041591 0.9787173 0.9432075 0.9443819 0.9457667 0.9471743 0.9486768 0.9502781 0.951493 0.9524968 0.9757152 0.9532139 0.9586711 0.9532499 0.954056 0.9560909 0.9579816 0.9595222 0.9610744 0.9627446 0.9641126 0.9652274 0.973913 0.9646549 0.9626355 0.9616457 0.9600735 0.9582919 0.956744 0.9787699 0.9981552 1.050967 0.9648061 0.9570745 0.9587425 0.9602028 0.9622571 0.963836 0.9658235 0.967476 0.9694453 1.021183 1.057354 0.9712005 0.9716905 0.9719027 -9999 -9999 
-9999 -9999 0.9633704 0.9639716 0.9643721 0.9643613 0.9641159 0.9642432 0.9642785 0.9645169 0.9646618 0.9648086 0.9660615 1.050312 0.9667252 0.9641288 0.9619985 0.9599677 0.9582942 0.9564275 0.9545866 0.9665262 0.9527806 0.9528937 0.9533956 0.953319 0.9508454 0.9489254 0.947243 0.94602 0.9453418 0.9444128 0.9425712 0.941298 0.9395171 0.9380074 0.936627 0.9351999 0.9340503 0.938248 1.031013 0.9810014 0.9441381 0.9339637 0.9355127 0.9374052 0.9392171 0.9408692 0.9422281 0.9436287 0.9453385 0.9470382 0.9487027 0.9501864 0.9516945 0.953082 0.9546232 0.9560505 0.9574003 0.9597399 0.9618208 0.9629906 0.9641604 0.9649243 1.024001 1.007715 0.9656209 0.9634811 0.9617646 0.9606965 0.9592627 0.9583244 0.9570347 0.9557307 0.9546351 0.9535136 0.9523041 0.9512338 0.9499249 0.9483042 0.946556 0.9939768 1.186266 0.9605742 0.9466412 0.9481791 0.9498841 0.951492 0.9535501 0.9557106 0.9573606 0.9575199 0.9573685 0.9572913 0.9576638 0.958854 0.9603766 0.961821 0.963407 0.9654943 0.9688002 1.055812 0.9696999 0.967683 0.966208 0.9650949 0.9636096 0.9620869 0.9606707 0.9591639 0.9574311 0.9560801 0.964453 1.028191 1.077229 0.9720993 0.956008 0.9579008 0.9598057 0.9614179 0.9631161 0.9648075 0.9664779 0.9681103 0.9698817 0.9719106 0.9739163 0.9759514 1.045855 1.176837 1.220429 1.126467 0.9769542 0.9746756 0.9726068 0.9707484 0.9686835 0.9666055 0.9645873 0.9631481 0.9618785 0.9605339 0.9588754 0.9572061 0.9556941 0.9538569 0.9610411 0.9655074 0.9515156 0.9492086 0.9476993 0.9464363 0.9449974 0.9525859 1.014122 1.077825 1.104376 1.060301 0.9973778 0.9439815 0.945302 0.9467538 0.9482065 0.9497644 0.9510961 0.9524668 0.9537489 0.9549822 0.9547679 0.9539996 0.9543 0.9557633 0.9571707 0.9592288 0.9609225 0.9623839 0.9641269 0.9651824 0.9661205 0.9782262 0.966103 0.9647739 0.9630182 0.9609089 0.9590209 0.9576891 0.9830987 0.9805303 0.9933438 0.9636147 0.976319 0.9841906 0.9600222 0.9616777 0.9633979 0.9652193 0.9665571 0.9683028 0.9701776 1.018898 1.024708 0.9993891 1.003393 -9999 -9999 
-9999 -9999 0.965031 0.9656091 0.9661233 0.9661443 0.965964 0.9667799 0.9671136 0.9671052 0.9672959 0.9673689 1.015237 0.9745527 0.9650404 0.9627918 0.9609725 0.9591007 0.9575186 0.9729425 0.9874889 0.9544134 0.9549342 0.9554038 0.9555575 0.9532844 0.9508278 0.9496342 0.9488062 0.9476513 0.9465069 0.9448744 0.9430202 0.9414538 0.9400492 0.9387989 0.9372571 0.9357671 0.9359713 0.9702439 1.057046 0.9529502 0.9339985 0.9348235 0.936412 0.9381515 0.9397857 0.9412231 0.9424536 0.9439242 0.945612 0.9474517 0.9492905 0.9508439 0.9523525 0.9539374 0.9554369 0.9570573 0.958773 0.9602796 0.962149 0.9640502 0.9669513 0.9693218 0.9975334 1.03421 0.9663205 0.9641481 0.9631768 0.9620877 0.9607849 0.9600861 0.9587978 0.9573463 0.9561714 0.9547417 0.9533377 0.9516796 0.9498969 0.9481088 0.9462191 1.031618 1.110782 0.9492736 0.9472398 0.9488218 0.9506705 0.9521911 0.9538627 0.9558378 0.9579947 0.9596514 0.9599095 0.9594929 0.9594462 0.9600019 0.9612879 0.9626993 0.9642542 0.9656258 0.9683481 0.9706644 0.9970521 0.9700744 0.9680851 0.9660318 0.9646754 0.9631109 0.9615867 0.9601498 0.9585971 0.9570194 0.9718543 1.053261 1.070411 0.9671298 0.9565738 0.9582986 0.9602819 0.9617985 0.9634274 0.9652604 0.9669728 0.9685565 0.9703733 0.972267 0.9745098 0.9765245 1.065682 1.170773 1.226024 1.113452 0.977443 0.9753922 0.9733844 0.9712347 0.9689194 0.9668007 0.9652508 0.9640255 0.9626234 0.9614803 0.9601005 0.9584475 0.9567164 0.9550923 0.953434 0.9521787 0.9509892 0.9497314 0.9482602 0.9467965 0.9489782 0.9555268 1.008412 1.088369 1.140895 1.090901 1.011418 0.9446522 0.94611 0.9475853 0.9490187 0.9503032 0.9517841 0.9534515 0.9549493 0.9624032 0.9564701 0.9556119 0.9554645 0.9573309 0.9593486 0.961202 0.9625946 0.9638837 0.9656363 0.966723 0.9676721 0.9783024 0.9679239 0.9656529 0.9638655 0.9621814 0.9601774 0.9586471 0.9580187 0.9573942 0.9607555 0.9624035 0.9701378 0.9807884 0.9758164 0.9649462 0.9627839 0.9643691 0.9658782 0.9675591 0.9695996 0.971694 1.02313 1.136113 1.165826 -9999 -9999 
-9999 -9999 0.9668213 0.9671279 0.9674618 0.9676915 0.9680988 0.969418 0.9698409 0.9697714 0.9699389 1.035261 0.9687943 0.9658516 0.9638485 0.9621863 0.9602193 0.9585535 1.012531 0.9892913 0.9562294 0.9565985 0.9579937 0.9579124 0.955671 0.9535423 0.9521056 0.9513158 0.950331 0.9484186 0.9465261 0.9448118 0.9434242 0.9422916 0.9411112 0.9394348 0.9376983 0.9360734 0.9395929 1.011028 1.082159 0.9542823 0.9350052 0.9359196 0.9372298 0.9389018 0.9404383 0.9418226 0.943517 0.9451026 0.946856 0.9487187 0.9503182 0.9523461 0.9538866 0.9552424 0.9565349 0.9582522 0.9600481 0.9618174 0.9633107 0.9650733 1.000422 1.008567 0.9999738 1.036516 0.9674695 0.9656801 0.9645406 0.9633247 0.9623005 0.9612346 0.9600415 0.9584999 0.956963 0.9552647 0.9534529 0.9515281 0.9498267 0.9479057 0.9462837 0.9983947 1.047923 0.9462738 0.9475886 0.9493036 0.9512144 0.9529747 0.9546224 0.9565339 0.9582036 0.9604731 0.9622671 0.961709 0.9614829 0.9613245 0.9621264 0.9635373 0.9648889 0.9662912 0.9679409 0.9708425 1.029534 0.9719984 0.9693506 0.9673237 0.9660201 0.9642938 0.9627658 0.9609543 0.9592286 0.9575455 0.9740446 1.045948 1.014018 0.9560953 0.9573433 0.9590247 0.9608737 0.9624381 0.9639837 0.9657001 0.9673349 0.9690201 0.9706397 0.9725121 0.9746907 0.9769261 1.070238 1.161107 1.194658 1.164485 0.9782984 0.9760296 0.9740856 0.9718885 0.9696142 0.9678427 0.9666733 0.9654174 0.9640888 0.9630355 0.9615681 0.9597474 0.9580426 0.9565162 0.9547408 0.9531259 0.9516236 0.9502975 0.9490191 0.9475017 0.9460739 0.9667227 0.9989487 1.056436 1.104387 1.073276 0.9901997 0.9451194 0.9466085 0.9480729 0.9493295 0.9509488 0.9526467 0.9541905 0.9555812 0.9798558 1.007135 0.9570339 0.9568529 0.9582387 0.960666 0.9623536 0.9641026 0.9654852 0.9669685 0.9682263 0.9692483 0.9879938 0.9689696 0.9668978 0.9656917 0.9642428 0.9625573 0.9610472 0.9598524 0.9589145 0.9587888 0.9588195 0.9596189 0.9605122 0.9610974 0.9621403 0.9635427 0.9643732 0.9660192 0.9678771 0.9701098 0.972155 1.028322 1.244335 1.237673 -9999 -9999 
-9999 -9999 0.9687461 0.9688714 0.9692178 0.9695795 0.9709201 0.9722286 1.055282 1.07659 0.9861553 0.9693425 0.9672242 0.9646724 0.9631779 0.9615157 0.9768293 0.9934454 0.9579492 0.9581889 0.958649 0.959189 0.9602939 0.9581867 0.9561293 0.9552141 0.9541364 0.9532145 0.9513252 0.9493773 0.9472969 0.945805 0.9445718 0.9432975 0.9416028 0.9398711 0.9380034 0.9361985 0.9458516 1.08236 1.069202 0.9539446 0.9393837 0.9369134 0.9380258 0.9394217 0.9411356 0.9428235 0.9446239 0.9462133 0.947902 0.9498131 0.9514366 0.9536415 0.955115 0.9567082 0.9578577 0.9594063 0.9609116 0.9627599 0.9644312 0.9827572 1.044887 1.028454 0.9862685 1.053793 0.9687124 0.967146 0.965818 0.964783 0.9635833 0.9622415 0.9605291 0.9587373 0.9570866 0.9551829 0.9532701 0.9517187 0.950099 0.9486884 0.9476069 0.9496974 1.064051 0.9468201 0.9483901 0.9498574 0.9515249 0.9533168 0.9550199 0.9568019 0.958545 0.9604874 0.9629523 0.9640153 0.9635341 0.9633933 0.9630916 0.9642197 0.9656646 0.9670421 0.9683289 0.9707136 0.9954155 0.9728392 0.9703326 0.9684826 0.9670791 0.9654578 0.9636259 0.9617062 0.9596434 0.9579077 0.968752 1.028118 0.9910556 0.9574083 0.9587348 0.959947 0.961651 0.9630929 0.9643384 0.9660066 0.9677668 0.9692973 0.9708936 0.9724863 0.9748082 0.9771405 1.045713 1.120396 1.154753 1.186679 0.9993315 0.9767532 0.9747996 0.9726255 0.9709033 0.9697857 0.9687432 0.9674271 0.9659451 0.964563 0.9628315 0.961138 0.959641 0.9578656 0.9561448 0.954501 0.9528434 0.9514126 0.9498949 0.9485061 0.9466936 0.9800509 1.013135 1.042357 1.070592 1.032554 0.9578306 0.9460191 0.9472526 0.9483668 0.9498377 0.9514763 0.9532936 0.9548473 0.9667447 0.9789065 1.033903 0.982712 0.959748 0.9592481 0.9616985 0.9636414 0.9651718 0.9670252 0.968581 0.9702 0.9708844 0.9872776 0.9704015 0.9689295 0.9674383 0.9659591 0.9644488 0.9632082 0.9616328 0.9602873 0.9723251 0.9646955 0.9610458 0.9619645 0.9626621 0.9634312 0.9643355 0.9656436 0.967308 0.9685049 0.9702184 0.9729352 1.057311 1.094939 1.018187 -9999 -9999 
-9999 -9999 0.9706923 0.9709327 0.9712295 0.9721119 0.9855356 1.054631 0.9712033 0.96956 0.96785 0.9668788 0.9652385 0.9632266 1.007965 1.043578 0.9653483 0.9600994 0.959939 0.9607379 0.9612612 0.961673 0.9614797 0.9595325 0.9582445 0.9570892 0.9553967 0.9537383 0.9522039 0.950742 0.9488637 0.9469472 0.9451293 0.9436116 0.9422507 0.9403746 0.9385947 0.9362856 0.9434897 1.185956 1.01585 0.9493253 0.9387571 0.9374574 0.9387736 0.9402714 0.9418192 0.9436667 0.9455078 0.947126 0.9487426 0.9501029 0.9514209 0.952714 0.9539936 0.9559557 0.9580224 0.959662 0.9614151 0.9625993 0.9631112 0.9645234 0.9657409 0.9670874 0.9687375 1.032996 0.9702442 0.9693719 0.9677581 0.966381 0.9646606 0.962639 0.9604768 0.9582348 0.9563695 0.9546726 0.9650348 1.010527 0.9509583 0.9501121 0.9489065 0.9472519 1.072766 0.9545475 0.9488308 0.9503723 0.9520765 0.9537252 0.955508 0.9572369 0.9589573 0.9607325 0.9627756 0.965165 0.9662271 0.9656839 0.9649125 0.9653011 0.9665316 0.9677966 0.9690109 0.9711141 0.9739892 0.974264 0.9722549 0.9696418 0.9677987 0.965887 0.9640341 0.962182 0.9604441 0.9590307 0.9576607 1.023157 0.9966048 0.9583501 0.9597283 0.9610522 0.9623805 0.963616 0.9653074 0.9668157 0.9683053 0.9698262 0.9714391 0.9730806 0.9746525 0.977215 1.026833 1.144082 1.173512 1.165852 1.032279 0.9775265 0.9756486 0.9736981 0.9726673 0.9716014 0.9705235 0.9691018 0.9674885 0.9659387 0.9642671 0.9626645 0.9608781 0.9591118 0.9573511 0.9555378 0.9539111 0.952284 0.9506302 0.9490507 0.9472535 0.981819 1.041401 1.078605 1.107304 1.03766 0.975527 0.9508362 0.9478151 0.9492108 0.950624 0.9519945 0.9534523 0.9579629 0.9865687 0.978994 0.9799903 0.9995623 0.9600475 0.9600013 0.9623588 0.9644071 0.966558 0.9680929 0.9699997 0.9716176 1.00343 1.011243 0.9715775 0.9700252 0.9685602 0.9670631 0.9657096 0.964867 0.9633884 0.9619387 0.9753043 0.9805297 0.9622796 0.963508 0.9642226 0.9647616 0.9658841 0.9668412 0.9684321 0.9702223 0.9715552 0.9739491 1.068577 1.001811 0.9767835 -9999 -9999 
-9999 -9999 0.9731041 0.973493 0.9749747 0.9853024 0.9737461 0.9716918 0.9691631 0.9670373 0.9656681 0.9647201 1.005267 1.052802 0.9888908 0.9623717 0.9623902 0.9623343 0.9625816 0.9634191 0.9643185 1.001616 0.9738581 0.9604885 0.9586388 0.9573543 0.9554805 0.9536026 0.9516605 0.953912 0.9568643 0.9479073 0.9461813 0.9446695 0.9431639 0.9412642 0.9393381 0.9367381 0.9346399 1.145571 0.9885696 0.9498419 0.9373758 0.938239 0.9394314 0.9407452 0.9421685 0.943692 0.9453818 0.946903 0.9526362 0.9673972 0.9842868 0.9799267 0.9530907 0.9550954 0.9568879 0.9584066 0.959782 0.9609908 0.9623947 0.9634951 0.9646323 0.965951 0.9678304 0.9703277 1.065702 0.9708536 0.969103 0.9671572 0.9649604 0.9627609 0.9599161 0.9579182 0.9558209 0.9536497 1.017392 0.9685245 0.9524981 0.9513178 0.9500813 0.948375 1.01034 0.9823581 0.9492066 0.9508026 0.9525418 0.9542376 0.9561507 0.9578656 0.9595999 0.9612762 0.9628589 0.9649853 0.9672854 0.968156 0.9668321 0.9670354 0.9674382 0.9685328 0.9698814 0.972145 0.9751374 0.974802 0.9720381 0.9702144 0.9682748 0.9666986 0.9648116 0.9633022 0.9618508 0.9603247 0.9588266 1.015905 0.9959113 0.9592278 0.9606333 0.9619679 0.9632585 0.964632 0.9661749 0.9675351 0.9690264 0.970598 0.9720495 0.9735754 0.9754995 0.9776673 1.026916 1.150195 1.206703 1.162223 1.054224 0.9782547 0.9765015 0.9753782 0.9744492 0.9731939 0.9716918 0.9704709 0.9688626 0.9673668 0.9657094 0.9637324 0.9616155 0.959504 0.9576571 0.9557615 0.9543509 0.9527132 0.9507452 0.949468 0.9478947 0.9632734 1.02253 1.102059 1.125116 1.064461 1.013252 0.9499425 0.948504 0.9500279 0.9516195 0.9529501 0.9541607 0.9556482 0.9921232 0.965503 0.9590463 0.9606497 0.9618361 0.9677872 0.9626251 0.96553 0.967482 0.9693986 0.971103 0.9800481 1.009472 1.020996 0.9728422 0.9710666 0.9692422 0.9675462 0.977214 0.9663802 0.9650466 0.963547 0.9775801 0.9876828 0.9634872 0.964632 0.9660878 0.9670274 0.9676457 0.96801 0.9689018 0.9706511 0.972935 1.026836 1.066014 0.9761975 0.9879807 -9999 -9999 
-9999 -9999 0.9753351 0.9770231 1.023705 0.9747165 0.9716599 0.9696822 0.9676855 0.9658592 1.101863 1.104222 0.9944132 0.964029 0.9643279 0.9645764 0.9645666 0.9644769 0.9651679 0.9874193 0.9663889 0.9624823 0.9612156 0.9781857 0.973125 0.9574238 0.9559994 0.954241 0.9526253 0.950461 0.9870216 0.9486831 0.9467975 0.9451753 0.9433584 0.9414576 0.9394873 0.9374731 0.9351215 1.154929 0.9939228 0.960915 0.9489698 0.9456332 0.940053 0.9413448 0.9427735 0.9442962 0.9459268 0.9478903 0.9491695 0.9501771 0.9516577 0.9527075 0.9538246 0.9552651 0.9900631 1.009877 0.9785336 0.9600773 0.9631456 0.9779053 0.9689458 0.9652808 0.9670711 0.9695145 1.007019 0.972162 0.9700404 0.9679065 0.965496 0.9631825 0.9609532 0.959069 0.9572501 0.9551451 0.9542224 0.9544917 0.9542436 0.9527415 0.950938 0.9493718 0.9604818 1.040007 0.9494706 0.9510948 0.952818 0.9543894 0.9561821 0.9579092 0.9594456 0.9610676 0.9628313 0.9646358 0.966657 0.9802502 0.9695983 0.9690006 0.9691799 0.97783 0.9705169 0.9730462 1.014685 0.9747297 0.9723883 0.9711141 0.9693806 0.9678263 0.9662885 0.9645694 0.962967 0.9611858 0.959693 1.053669 0.9989578 0.9600951 0.9614601 0.9627947 0.9642036 0.9654954 0.9668577 0.9682649 0.9697948 0.9712097 0.9726865 0.9744666 0.9765502 0.9785368 1.040846 1.155728 1.242639 1.179254 1.067214 0.9848745 0.986542 0.9839576 0.9750565 0.9735887 0.9718338 0.970325 0.9746982 0.9678068 0.9658516 0.9640081 0.9619675 0.9599129 0.9580618 0.955906 0.9542893 0.9525906 0.9510658 0.9521748 0.9485536 0.9609252 0.9913008 1.09634 1.10457 1.082978 1.007064 0.9475937 0.9491093 0.9507492 0.9522742 0.9542317 0.9552966 0.9567578 0.9574355 0.9583179 0.9599803 0.96141 0.9629112 0.9990936 1.011539 0.9648243 0.9676312 0.9702139 0.97214 0.9849144 0.998396 1.017399 0.9740786 0.9722231 0.9701543 0.9689604 0.9815999 0.9942248 0.9664 0.9648454 0.9790487 0.9866638 0.9646792 0.9659853 0.9673054 0.9685996 0.9693525 0.9696702 0.9703025 0.9719452 0.9740519 1.128273 1.038424 0.976729 0.9780819 -9999 -9999 
-9999 -9999 0.9776301 1.082109 0.975961 0.9734476 0.9709317 0.969319 0.9674664 1.014954 0.9892702 0.9658438 0.9660614 0.9659603 0.9662001 0.9666893 0.9670528 0.9675425 0.9951411 0.9663559 0.96359 0.9617786 0.9599751 0.9657862 0.9832233 0.9796958 0.9562736 0.9546598 0.9530668 0.9513224 0.9524961 0.9484155 0.9469432 0.9448543 0.9428747 0.9410293 0.9393917 0.9375964 0.9357706 1.211352 1.007492 0.9670415 0.9527158 0.9457311 0.940482 0.9418618 0.9432662 0.9447799 0.9465508 0.948553 0.9502149 0.951596 0.9527291 0.9540513 0.9553098 0.9566047 0.957462 0.9602808 0.9754401 0.9802678 0.9899024 0.9916961 0.9638294 0.9656917 0.9681059 0.9707094 0.9728069 0.9985532 0.9712597 0.968659 0.9660473 0.9639117 0.9622022 0.9603665 0.9584585 0.9571996 0.956456 0.956447 0.9557585 0.9539107 0.9520378 0.9508021 0.9497944 1.062079 0.9655716 0.9511962 0.9530329 0.9545774 0.9564276 0.957792 0.9591451 0.9609147 0.9623422 0.9641307 0.9660598 0.9684728 0.9774551 1.003375 0.9710195 0.9708794 0.9713024 0.9735007 1.032389 0.9752125 0.9734874 0.9724191 0.970524 0.9689655 0.9672207 0.9654527 0.9636221 0.9618515 0.9601663 1.057434 0.9906964 0.9609709 0.9621358 0.9635818 0.9650059 0.966266 0.9677711 0.9691235 0.9704899 0.9720371 0.9735841 0.9754094 0.9775125 0.9794318 1.03521 1.117758 1.180506 1.187514 1.063115 0.9791179 0.977711 0.9759369 0.9738549 0.9722663 0.9705868 0.9690965 0.9679561 0.9666826 0.9651601 0.9638023 0.9620605 0.960392 0.9584069 0.9568336 0.9550419 0.9532536 0.9515927 0.950167 0.9565615 0.9695888 0.9882653 1.06529 1.112441 1.102228 0.9917222 0.9481905 0.9495518 0.9512152 0.9528427 0.9546693 0.9562462 0.9575008 0.9589052 0.9600158 0.9613155 0.9625072 0.9638907 1.009257 1.050212 0.9651449 0.9676196 0.9699522 0.9721392 0.9744214 0.9864195 1.019209 0.9752891 0.9732248 0.9714796 0.9702175 0.9689939 0.9905726 0.9670761 0.9658136 0.9753258 0.9914055 0.9656526 0.9673041 0.9685742 0.9698655 0.9706013 0.9710903 0.9716822 0.9731916 1.032127 1.106647 0.9753025 0.9772816 0.9795372 -9999 -9999 
-9999 -9999 1.103704 0.9781717 0.975582 0.9734167 0.9714805 0.969317 0.9785581 0.9674085 0.9673838 0.9677607 0.968031 0.967959 0.9684905 0.9692401 1.002998 1.04828 0.9675316 0.9652032 0.962724 0.9608775 0.9594396 0.9580944 0.9570804 0.9565028 0.9558483 0.9546741 0.9558529 0.9518629 0.9502681 0.9489543 0.9474025 0.9456372 0.9434074 0.9415748 0.9394493 0.9376879 0.9359387 1.22652 1.022248 0.971879 0.9542047 0.9434508 0.9405127 0.9420407 0.9432975 0.9447967 0.9465494 0.9482229 0.9500015 0.9517143 0.9533648 0.9550082 0.9564644 0.9579844 0.9591569 0.9597381 0.9604214 0.9610458 0.9641654 0.9707188 0.9641098 0.9660757 0.9683591 0.9713174 0.973701 0.9829928 0.9708575 0.9685397 0.9665822 0.9650038 0.9635857 0.9617401 0.96004 0.9588839 0.9587104 0.9583595 0.9573095 0.9555517 0.9537708 0.9523746 0.9509389 1.020344 0.9920188 0.9515258 0.9532423 0.9550722 0.9569865 0.958643 0.959978 0.961144 0.9686314 0.9637207 0.9653718 0.9675438 0.9696029 0.9716328 1.021397 0.972435 0.9775305 0.9741107 1.008033 0.9761407 0.9747016 0.9735929 0.9716324 0.9699234 0.9680333 0.9660521 0.9643797 0.9626979 0.9610388 1.036682 0.9896566 0.9618544 0.963159 0.9644085 0.9657835 0.9670236 0.9684979 0.9697481 0.9712027 0.9727829 0.9742736 0.9762786 0.9782825 0.9802523 1.036697 1.113012 1.14827 1.1757 1.022699 0.9789092 0.9768431 0.9745741 0.9730337 0.9715154 0.9698129 0.9707067 0.9669328 0.9655019 0.9639947 0.9625397 0.9612862 0.9596589 0.9581363 0.9568754 0.9555246 0.9539087 0.9523589 0.9508525 0.9582322 0.9803694 1.011121 1.052666 1.120228 1.074653 0.9810086 0.9616871 0.9498901 0.951521 0.9534039 0.9550311 0.95648 0.9581019 0.9599519 0.9612917 0.9624884 0.9637368 0.9648638 1.007036 1.013282 0.9820507 0.9673895 0.9700068 0.9723524 0.9748818 0.9787411 1.043865 0.9760551 0.9742786 0.9730479 0.9715996 0.970041 0.9691466 0.9683552 0.9672354 1.001527 1.05455 0.9817472 0.9684327 0.9701868 0.9711878 0.9774239 0.9758279 0.9731463 0.9987139 1.140777 1.058154 0.9770741 0.9784886 0.9802783 -9999 -9999 
-9999 -9999 1.108636 0.9781021 0.9758617 0.9735736 0.9715583 0.9698166 0.969322 0.9697185 0.9696614 0.9698155 0.9701029 0.9701166 0.9703543 1.007345 0.9694358 0.9675381 0.9659067 0.9639007 0.9620386 0.9601364 0.9581397 0.9566097 0.9555434 0.954722 0.9538963 0.9531424 0.952222 0.9654415 0.9744859 0.9676772 0.9480113 0.946191 0.9444311 0.9424291 0.9400715 0.9381211 0.9362434 1.179229 1.033353 0.9823962 0.9586147 0.9407676 0.9404811 0.9419093 0.943462 0.9448662 0.9464818 0.9480947 0.9498411 0.9515013 0.9530709 0.9547795 0.9564362 0.9580299 0.9596846 0.9631621 0.9620875 0.9626898 0.9631976 0.9640518 0.9651367 0.9665868 0.9692711 0.9717344 0.9744467 0.9748275 0.971612 0.9696004 0.9679928 0.9662525 0.9648015 0.963064 0.9615115 0.9609898 0.9607727 0.9599636 0.9585121 0.9568034 0.9551178 0.953495 0.9519313 0.9743639 1.020377 0.9518479 0.953436 0.9553484 0.957186 0.9592425 0.9612587 0.9624507 0.9633335 0.9644483 0.9657198 0.9671118 0.9687736 0.9712287 0.9737534 1.030085 1.011713 0.9745003 0.9774861 1.045132 0.9761161 0.9745034 0.9726693 0.970963 0.9690281 0.9672486 0.9653171 0.9635173 0.9620143 1.045952 0.9982611 0.9625843 0.9642481 0.9654269 0.9666679 0.9680022 0.9692352 0.9703851 0.9720637 0.9734339 0.9750303 0.9769631 0.9789248 0.9809683 1.073043 1.188328 1.151977 1.118011 0.9919098 0.9788247 0.9767641 0.974739 0.9732571 0.9717654 0.970459 0.96896 0.9674416 0.9656984 0.9641256 0.9622753 0.9606952 0.9590872 0.9573982 0.9623774 0.9549113 0.9535868 0.9523752 0.9532918 0.9778608 1.02355 1.071193 1.078858 1.121097 1.036819 0.9923833 0.9822276 0.9501575 0.9515992 0.9534954 0.9549985 0.9566492 0.9583956 0.959939 0.9617375 0.9633391 0.9648249 0.9799484 1.020029 0.9895802 0.9834561 0.9679468 0.9702672 0.9725459 0.9748557 0.9771542 1.159056 0.9962442 0.9766443 0.9745941 0.9727274 0.9716341 0.9708003 0.969769 0.9681687 1.057179 1.127726 1.016632 0.9684719 0.9707745 0.9764296 1.005483 0.9982466 1.017298 1.14279 1.27501 1.043774 0.9772787 0.9791579 0.9807566 -9999 -9999 
-9999 -9999 1.034109 0.9781926 0.9759159 0.9737232 0.9722333 0.9716763 0.9715717 0.9719062 0.9719709 0.9723316 0.9730133 0.9725996 0.9727771 0.9716924 0.9688038 0.966584 0.9646908 0.962977 0.9616764 0.9600876 0.9580078 0.9560421 0.9542687 0.952929 0.9519707 0.9512548 0.950479 0.950258 0.9494739 0.9498954 0.947373 0.9461328 0.9447609 0.9426594 0.9407815 0.938864 0.9366484 1.132433 1.03812 0.9930517 0.9652075 0.9434137 0.940284 0.9416071 0.9431531 0.9444931 0.9460109 0.9476686 0.9492664 0.950887 0.9523963 0.9541142 0.9559273 0.9576031 0.9594147 0.9613103 0.9718257 0.9891011 0.9649139 0.9658594 0.9668083 0.9682641 0.9701935 0.972433 0.9748086 1.000171 0.9728847 0.9709115 0.9696694 0.9678626 0.9659442 0.9644028 0.9633731 0.9629955 0.9625986 0.9613333 0.9598126 0.9578832 0.9560814 0.9544486 0.9531474 0.9519823 1.015731 0.9631644 0.9538389 0.9556866 0.957696 0.9596902 0.9620573 0.9635926 0.9646094 0.9657377 0.9666784 0.9726795 0.9688241 0.9707934 0.9729616 1.01344 1.049639 1.053151 0.9760985 1.090228 0.9778628 0.9753296 0.9736691 0.9718491 0.9700855 0.9680816 0.9664252 0.9646474 0.9631032 1.058486 1.002931 0.963512 0.9648139 0.9662489 0.9675189 0.9687046 0.9701277 0.9714519 0.9728609 0.9742847 0.9757199 0.9773678 0.9794958 0.9812478 1.087801 1.225383 1.161504 1.090506 0.9952138 0.9789154 0.9772462 0.976051 0.9743388 0.9728616 0.9716462 0.9700813 0.9684105 0.966787 0.9650122 0.9631772 0.9615087 0.9596397 0.9577788 0.9562378 0.9547191 0.9532312 0.9519415 0.9602515 1.001629 1.10214 1.135513 1.091694 1.136553 1.040529 1.016197 0.9784745 0.9506508 0.9520898 0.9535254 0.955179 0.9566669 0.958383 0.9599334 0.9615285 0.9634098 0.9650245 0.9962583 1.046069 1.050663 1.016969 0.9685699 0.9708742 0.9728186 0.9746398 0.9769762 1.174112 1.173849 1.008919 0.976173 0.9747469 0.9733264 0.9721333 0.9704169 0.9684623 1.060429 1.087443 1.003093 0.9689768 0.9708448 0.9727194 1.00922 1.053298 1.16415 1.394129 1.324472 1.052723 0.9768745 0.9785812 0.9809178 -9999 -9999 
-9999 -9999 1.012011 0.9783834 0.9763784 0.9745369 0.9738848 0.9737441 0.9738323 0.9740388 0.9743113 0.9751502 0.9759997 0.9756265 0.97393 0.9712557 0.9686998 0.9664893 0.9642606 0.962409 0.9607885 0.9591631 0.9577332 0.9556633 0.9539958 0.9525179 0.9509387 0.9523518 0.9488571 0.948384 0.9480653 0.9475917 0.9464919 0.9454938 0.9441826 0.9423479 0.9403688 0.9383814 0.9363573 1.12646 1.05547 1.002083 0.9731753 0.9514334 0.942277 0.9411103 0.9427295 0.9441003 0.9456757 0.9473834 0.9490479 0.9507416 0.952432 0.9541714 0.9558895 0.9575343 0.9592773 0.9610379 0.9626271 0.9640511 0.9704444 0.9776152 0.9791644 0.969187 0.971136 0.9733253 0.9753984 1.059764 0.9742611 0.9724162 0.9708873 0.9693157 0.9673554 0.9663092 0.9652681 0.9648401 0.9639966 0.9619836 0.9605716 0.9588596 0.9569917 0.9556743 0.9545585 0.9535295 0.9845241 0.9854335 0.954483 0.9563834 0.9583782 0.9602024 0.9621881 0.9638818 0.9654709 0.9668537 0.967871 0.9687974 0.9697282 0.9707286 0.9722422 0.9744955 1.064326 1.054255 0.9768565 1.034879 0.9787996 0.9763035 0.974325 0.9727545 0.9708812 0.9692287 0.9672213 0.9654688 0.963821 1.0719 1.008199 0.9641055 0.9654645 0.9670433 0.9682301 0.9697792 0.9710631 0.9724002 0.9737567 0.9750257 0.9763257 0.9780436 0.9799458 0.9850181 1.102047 1.275586 1.101586 1.10152 1.067189 0.9837828 0.9787036 0.9774278 0.9757904 0.9743225 0.9727688 0.9712527 0.9695404 0.9677757 0.9658223 0.9638322 0.9618595 0.9599369 0.9579895 0.9563946 0.955045 0.9532291 0.9515857 0.974452 1.022904 1.160188 1.148266 1.080059 1.106906 1.046436 1.008339 0.9698403 0.9568333 0.9624982 0.9538816 0.9553021 0.9569279 0.9583068 0.9596656 0.9615409 0.9633364 0.9648327 0.9764953 0.995581 1.04923 1.030097 0.9866332 0.9709867 0.9730951 0.974958 0.9770616 1.148573 1.281651 1.134778 1.00499 0.9767959 0.974866 0.9731146 0.9710116 0.9692008 0.976099 1.04579 1.00804 0.9715196 0.9712977 0.9729545 1.003893 1.150341 1.281837 1.236052 1.099037 1.018699 0.9960343 0.9784434 0.9801498 -9999 -9999 
-9999 -9999 1.006183 0.9785734 0.9768116 0.9847589 0.9758652 0.9758331 0.9756424 0.9759274 0.9768536 0.9778667 1.031036 0.9758763 0.9734698 0.9707893 0.968192 0.9656785 0.9636603 0.9618831 0.960237 0.9586055 0.9568898 0.9553797 0.9535745 0.9521821 0.9528706 0.967014 0.9832653 0.9839553 0.9590749 0.9459528 0.9451447 0.9443301 0.9430198 0.94121 0.9394374 0.9375613 0.9423399 1.067222 1.131369 1.018662 0.9851465 0.9635574 0.9477735 0.9408939 0.9424285 0.944181 0.9456488 0.947335 0.9490545 0.950771 0.9523512 0.9538144 0.9553567 0.9569749 0.9588356 0.9601195 0.9616125 0.9632069 0.9648357 0.9665864 0.9683033 0.9697093 0.9716665 0.9732482 0.9752367 1.122079 0.9759756 0.9740395 0.9723673 0.970622 0.9688419 0.9676534 0.9671658 0.9663407 0.9647314 0.9629608 0.9611862 0.9593083 0.9577805 0.9568661 0.9562337 0.9550832 0.956749 1.011212 0.9549684 0.9568347 0.958789 0.9607674 0.9626273 0.9644221 0.9662493 0.9678566 0.9694632 0.9705632 0.9712309 0.9723823 0.9730976 0.9742576 0.978233 1.095181 1.020305 1.032197 1.004871 0.9769833 0.9752918 0.9733452 0.9715627 0.9695519 0.9674141 0.9657066 0.9642457 1.080336 1.027145 0.9704158 0.9660836 0.9676102 0.9689357 0.9703254 0.9718826 0.9731088 0.9744002 0.9758335 0.9772626 0.9790152 0.9807415 1.00022 1.137107 1.166163 1.071076 1.16951 1.116325 1.044602 1.004625 0.9787863 0.9769087 0.9752313 0.9733993 0.9717107 0.9697246 0.9678322 0.9659752 0.9639602 0.9618542 0.959955 0.9581601 0.9563829 0.9552782 0.9537042 0.9519997 0.9542641 0.9780452 1.016846 1.03155 1.018026 1.0265 1.020176 1.001475 0.9984002 0.9682448 0.9761233 0.9834443 0.9582067 0.9623517 0.9579704 0.9596815 0.9612572 0.9630912 0.9646826 0.9661802 0.9682108 0.9879827 1.032699 1.001639 0.9714303 0.9733552 0.9755863 0.9777077 1.089993 1.068218 1.048903 1.052632 1.016187 0.9767209 0.974331 0.9725908 0.970979 0.9699967 1.012511 1.047514 1.006006 0.9716572 0.9736097 1.023609 1.149317 1.097474 1.039671 1.001373 0.995356 1.026737 1.026098 0.9800627 -9999 -9999 
-9999 -9999 1.016288 0.9795993 0.9778498 0.9770591 0.9775403 0.9777266 0.977649 0.9786016 0.9988763 1.002604 0.9764015 0.9740612 0.9723071 0.9702244 0.9678863 0.9652339 0.9631379 0.9614667 0.9598116 0.958234 0.9568081 0.955134 0.9535842 0.9537906 0.9631324 0.9593622 0.9570543 0.9849263 1.02414 1.020849 0.9852158 0.9595971 0.9496523 0.9581326 0.94703 0.9381304 0.9371398 0.9820103 1.208659 1.047306 0.9985095 0.9749759 0.955919 0.9404804 0.9421464 0.9436828 0.9453694 0.9471949 0.9487582 0.9501582 0.9512987 0.9528084 0.954353 0.9560877 0.9575118 0.9592564 0.9608085 0.9623311 0.9640068 0.9656769 0.9670861 0.9687771 0.970569 0.9724089 0.9743763 0.9767622 1.033733 0.976104 0.9741409 0.9720909 0.9704468 0.9695346 0.9687352 0.9671313 0.9649938 0.9631902 0.9614047 0.9600491 0.9592392 0.9586999 0.957803 0.9565309 0.9549429 1.056002 0.9556979 0.9575582 0.9591755 0.9611588 0.962747 0.96457 0.9663326 0.968245 0.9698716 0.9718443 0.9729294 0.9738681 0.9874513 1.030486 0.9808344 1.023844 1.019374 1.043594 1.019555 0.9776369 0.9757038 0.9738561 0.9715777 0.9697846 0.9678387 0.9662842 0.9648012 1.07852 1.035712 0.9757153 0.9662811 0.9678923 0.9695594 0.9709465 0.9724374 0.973852 0.9753811 0.9767616 0.978512 0.9801816 0.9820758 1.048842 1.189799 1.135708 1.059319 1.119564 1.137325 1.046723 1.001217 0.978209 0.9765435 0.9749536 0.9733473 0.9714068 0.9694985 0.9676703 0.9659047 0.964171 0.9622677 0.9604155 0.9585381 0.9570138 0.9558099 0.9544786 0.9529629 0.9517474 0.9508972 0.9505513 0.9514692 0.9510812 0.9610518 0.9971262 1.024794 1.008068 0.9517452 0.9949485 1.043358 0.9691308 0.9572729 0.9579905 0.9598436 0.961576 0.9632606 0.96469 0.966393 0.967799 0.9693946 1.004536 0.998612 0.9723133 0.974229 0.9762971 1.007563 1.031297 0.9955702 0.9919103 0.9791484 1.061304 1.033551 0.9764544 0.9746318 0.9730583 0.9716112 0.9818469 1.112178 1.034253 0.9718376 0.9736525 1.03467 1.076571 1.011554 1.008275 1.020787 1.020024 1.060391 1.10381 1.023135 -9999 -9999 
-9999 -9999 1.064597 0.9811328 0.9795515 0.9790272 0.9793494 0.9793808 0.9798222 1.061702 1.013718 0.9778258 0.9754021 0.9727632 0.9710253 0.9692048 0.9675669 0.9652326 0.9633213 0.9615138 0.9597268 0.9581084 0.9567487 0.955151 0.9537658 0.9524459 0.9511524 0.9500526 0.9485418 0.947342 0.9469548 0.9545462 0.9518684 0.9430555 0.9420139 0.9411031 0.9404286 0.9393666 0.9380611 0.9548412 1.135829 1.09093 1.010547 0.9918611 0.9796122 0.9409742 0.9414425 0.943108 0.9449645 0.9466841 0.9478613 0.9490964 0.9504822 0.9519053 0.9536163 0.955363 0.9566684 0.9583462 0.9597878 0.9614354 0.9628421 0.9646279 0.9660754 0.9680675 0.9698283 0.9717506 0.9741186 0.9763094 1.071173 0.9779618 0.9755457 0.973419 0.9721379 0.9712209 0.9696882 0.9676921 0.9657559 0.9636686 0.9624404 0.9617228 0.9609119 0.9602159 0.9591309 0.9574955 0.9559198 1.107668 0.956892 0.9577517 0.9594141 0.9610192 0.9628892 0.9644047 0.9662685 0.9681705 0.9701162 0.9721231 0.9876602 1.004537 1.01634 1.013753 1.025588 0.9878148 0.9853236 1.071334 1.001178 0.9780694 0.9759431 0.9739859 0.9723008 0.9703829 0.9684438 0.9669049 0.9654348 1.075156 1.018345 0.9657546 0.9669672 0.9684298 0.9700598 0.9715679 0.9732648 0.9746165 0.9762333 0.9778622 0.9796612 0.9812207 0.987978 1.103005 1.20464 1.161866 1.104988 1.121918 1.08431 1.04026 1.004788 0.9779979 0.9762823 0.9749233 0.9735249 0.9719836 0.9699865 0.9684898 0.9665526 0.964878 0.9629241 0.9609765 0.9592786 0.9577068 0.9564642 0.955342 0.9540707 0.952934 0.9594042 0.9554667 0.9516485 0.9515415 0.9576784 0.974921 0.9644449 0.9514924 0.9529895 1.067401 1.071877 0.9649082 0.9567316 0.9583205 0.9600761 0.961791 0.9633519 0.9649729 0.9665585 0.9681517 0.9695456 0.9712505 0.9831319 0.9736024 0.975284 0.9780073 1.060248 0.9933649 0.9881979 1.042468 0.9801798 1.000731 1.091416 1.018763 0.9760214 0.9745224 0.972952 0.978726 1.140693 1.059743 0.9721504 0.9742731 1.042436 1.041075 0.9981948 1.031901 1.002891 0.9930704 1.039955 1.099161 1.099233 -9999 -9999 
-9999 -9999 1.147557 0.9983369 0.9810168 0.9809124 0.9865965 0.9924172 1.045575 1.030368 0.9789683 0.9765803 0.9745497 0.9725479 0.9704843 0.9684795 0.9665988 0.9646523 0.9629328 0.9613778 0.9597908 0.9620777 0.9572003 0.9557649 0.9545743 0.9534236 0.9521941 0.9510835 0.9501499 0.9486041 0.9476021 0.9464513 0.9455531 0.9446708 0.943687 0.9427163 0.9415497 0.9399633 0.9385424 0.9538214 1.06485 1.072822 0.9890892 0.9794436 0.981341 0.9542617 0.9412578 0.9428889 0.9445313 0.9525761 0.9469102 0.9482726 0.9498028 0.951273 0.9529002 0.9543879 0.9557717 0.9570504 0.9586717 0.9601479 0.9619 0.9636331 0.9658094 0.9678498 0.9701083 0.9720046 0.9740581 0.9763052 0.9893226 1.029652 0.9773598 0.9752709 0.9739718 0.9723287 0.9704876 0.968296 0.9661759 0.9651035 0.9642483 0.963427 0.9626766 0.9616553 0.960207 0.9584523 0.9568266 1.056901 1.035628 0.9574169 0.9588538 0.9604546 0.962164 0.9640219 0.9659246 0.9677333 0.9694032 0.9709843 0.9727594 0.9744224 0.9830791 1.047583 1.033449 1.011143 0.9793464 1.070939 0.9940059 0.9786415 0.9763864 0.9745301 0.9727497 0.9708963 0.9691891 0.9675359 0.9659313 1.040793 0.9870942 0.9666211 0.9679564 0.9692429 0.9707747 0.972105 0.973678 0.9751506 0.9770757 0.9789078 0.9806278 0.9822713 1.029134 1.152053 1.246868 1.178943 1.10588 1.105979 1.052705 1.002631 0.9806864 0.9796125 0.9779354 0.976105 0.9746435 0.9730045 0.9711505 0.9693869 0.9674427 0.9654831 0.9636764 0.9618717 0.9603249 0.9587123 0.9573676 0.9564025 0.9807202 0.9934611 0.9904858 0.9841101 0.9815384 0.973899 0.9524451 0.952118 0.9527687 0.9535241 1.048229 1.155078 1.032321 0.9557538 0.9571524 0.9587086 0.9602857 0.9618797 0.9635477 0.965183 0.9666556 0.9685145 0.9698089 0.9718912 0.994946 0.9744436 0.9763827 0.9928271 1.043039 0.9798639 0.990295 1.104942 0.9806836 0.9796967 0.9901218 1.028498 0.9984108 0.9756106 0.973438 0.9719027 1.128512 1.092229 0.9722445 0.9746638 1.067907 1.024226 0.9779351 1.025153 0.9807151 0.9807234 0.9995177 1.017828 1.029363 -9999 -9999 
-9999 -9999 1.192244 1.092839 1.040164 1.041164 1.06216 1.073688 1.072218 0.9809753 0.9788061 0.9760922 0.9739494 0.9724172 0.9702822 0.9682876 0.9662405 0.964373 0.9628084 0.9712548 0.9646193 0.9594113 0.9583948 0.957174 0.9559286 0.9546679 0.9536558 0.952844 0.9515365 0.9502061 0.9490688 0.9481907 0.9471533 0.9464006 0.9454117 0.9439173 0.9421859 0.9403236 0.9388346 0.9456614 1.045232 1.019949 0.9537383 0.9463335 0.9397524 0.94077 0.9419752 0.9431655 0.963516 1.010431 0.9969073 0.9586515 0.9490336 0.9505202 0.9515873 0.9532955 0.9549509 0.9565489 0.9582908 0.9600865 0.9618909 0.9638525 0.9658666 0.9679548 0.9700983 0.9720512 0.974026 0.9763004 0.9785674 1.146082 0.9787398 0.9767438 0.9749809 0.9731051 0.9710039 0.9687024 0.9673699 0.9667818 0.9660583 0.9650822 0.9643617 0.9628341 0.9613063 0.9594575 0.9579515 0.9936206 1.123012 0.9802682 0.9585323 0.9601498 0.9615884 0.9634868 0.9651557 0.96671 0.968387 0.9702921 0.9720942 0.9739387 0.9756131 0.9847375 1.0566 1.03763 0.9947591 1.034011 1.013771 0.9791353 0.9769875 0.9750816 0.9731889 0.9716045 0.9697434 0.968159 0.9775293 0.9925386 0.9664737 0.967825 0.9691823 0.970477 0.9719863 0.9730937 0.974707 0.9762985 0.9780063 0.979957 0.9814562 0.990985 1.079542 1.215483 1.287931 1.181176 1.108927 1.127034 1.114492 1.058744 1.030582 1.015037 0.9868754 0.9772793 0.9755946 0.9738772 0.9721824 0.9704966 0.9686391 0.9668313 0.965188 0.9630216 0.9612425 0.9596374 0.9579812 0.960066 1.023787 1.067996 1.061046 1.047202 1.031042 1.01102 0.9701024 0.9543361 0.954298 0.9843732 1.048064 1.05595 0.9900414 0.9639343 0.9616674 0.9590113 0.9605859 0.9619935 0.9635027 0.9650779 0.9668536 0.9684308 0.9697198 0.9718601 0.9920636 0.9742857 0.976983 1.011169 1.00756 0.9811289 0.9996869 1.077657 0.9813911 0.9807056 0.9801781 0.9786692 1.011312 0.9769892 0.9747601 0.9725266 1.059331 1.097291 0.9724579 0.9748476 1.10401 1.018897 0.9782639 0.9923164 1.017368 1.023428 1.016771 0.9949927 0.9821715 -9999 -9999 
-9999 -9999 1.143159 1.122283 1.141394 1.123695 1.08579 1.121809 0.9827082 0.9801888 0.9779278 0.9757715 0.973667 0.9719749 0.9701983 0.9682869 0.9665235 0.9647553 0.9633026 0.96243 0.9615573 0.9605825 0.9595652 0.9585188 0.9573619 0.9565957 0.9556885 0.9545186 0.9534403 0.9523003 0.9510404 0.9499645 0.9489591 0.9479719 0.9465109 0.9446422 0.9430902 0.9414661 0.9399617 0.9384639 1.04095 1.017618 0.950148 0.9395937 0.9407731 0.941999 0.9430158 0.9440979 0.9453288 0.956953 1.000486 1.036389 0.9822601 0.9499283 0.951369 0.9529775 0.9547442 0.9566022 0.9584918 0.9604494 0.9621797 0.9640445 0.9657236 0.9678727 0.9698622 0.9718066 0.9740092 0.9762205 0.9787255 1.077817 0.9800664 0.9776917 0.9756175 0.9733583 0.9712178 0.9699309 0.9693544 0.9687489 0.9676064 0.9667668 0.9657765 0.9640343 0.9619868 0.9603546 0.9586729 0.9728723 1.075118 1.016295 0.9583948 0.960174 0.9613853 0.963192 0.9647452 0.9664904 0.9683065 0.9699779 0.9716583 0.9734364 0.9754318 0.9773124 1.004414 1.057725 1.015751 1.051579 1.029616 0.9796134 0.9777873 0.9758422 0.9740502 0.9723195 0.9704628 0.9688576 0.9851563 0.9675938 0.9681261 0.9692747 0.9707218 0.9716591 0.9731839 0.974336 0.9757933 0.9771647 0.9786583 0.9804864 0.9822583 1.017828 1.136984 1.209978 1.216363 1.168552 1.134599 1.103668 1.007454 0.9816151 0.9804597 0.9791436 0.978002 0.9770766 0.9840494 0.9878051 0.97318 0.9715827 0.9698329 0.9679645 0.9661477 0.9638803 0.9618851 0.960256 0.9582533 0.9568169 1.012444 1.108708 1.177839 1.129171 1.069399 1.020519 0.9857776 0.9615409 0.9560288 0.9559484 0.9569687 0.9705025 0.990637 0.9981473 0.9769235 0.9592603 0.9607733 0.9675398 0.9636366 0.9651276 0.9665586 0.9681942 0.9695038 0.9711418 0.9729539 0.9741295 0.9768258 1.01498 1.000976 0.9813156 0.9943151 1.144446 0.9852022 0.9824601 0.9819557 0.9800621 0.9780641 1.000752 0.976428 0.9738644 1.00108 1.079631 0.973217 0.9804745 1.160466 1.019076 0.9781443 0.9801216 1.025988 1.034208 1.071357 1.02241 1.009352 -9999 -9999 
-9999 -9999 1.084901 1.086253 1.187537 1.162762 1.091941 1.081222 0.9820619 0.9801056 0.9778794 0.9758737 0.9740933 0.9722556 0.9703158 0.9683522 0.9670701 0.9657341 0.964798 0.9640617 0.9631379 0.9621217 0.9611291 0.9601408 0.9593019 0.958587 0.9576541 0.9564285 0.9553654 0.9541491 0.9530134 0.9518032 0.9504461 0.9488555 0.9472478 0.9457281 0.9441701 0.9426005 0.940823 0.9391947 1.049495 1.005829 0.939244 0.9404933 0.9417635 0.943247 0.9444324 0.9455235 0.9467536 0.9476635 0.9479611 1.000549 1.051529 0.9581338 0.9512979 0.9531072 0.9548574 0.9567522 0.9585657 0.9605076 0.9623772 0.96433 0.9660195 0.9677742 0.9698684 0.9718392 0.9738234 0.9758157 0.9782602 0.9804966 1.039657 0.9787693 0.9763663 0.9742131 0.972715 0.9717697 0.9711509 0.9704065 0.969242 0.9682971 0.9666841 0.9646587 0.9627025 0.9610751 0.9594163 0.9879622 1.077834 1.019575 0.9589614 0.9602031 0.9618308 0.9634278 0.9653338 0.9668323 0.9687304 0.9702269 0.9719552 0.9737097 0.9754632 0.9774315 0.9794692 1.05031 1.037692 1.085433 1.034064 0.980413 0.9785529 0.9765157 0.9747586 0.972891 0.9712049 0.9697487 0.9849272 0.9692307 0.9695917 0.9707561 0.971981 0.9730982 0.9743848 0.9756739 0.976826 0.9782565 0.9795471 0.9812788 0.9829458 1.045575 1.146021 1.160417 1.240863 1.147514 1.054504 0.983023 0.9815361 0.9800582 0.9787146 0.9775076 0.9764484 0.9754249 0.9744166 0.9735299 0.9724608 0.9711196 0.9698026 0.9681132 0.9664425 0.9645834 0.9626651 0.96086 0.9591639 0.969322 1.00812 1.11255 1.21076 1.108513 1.04959 0.9915141 0.9565943 0.956951 0.9597482 0.957314 0.9570464 0.9683372 1.00376 0.9984627 0.958402 0.9595699 0.9750977 0.9881915 0.9728677 0.9649651 0.9665662 0.9725852 0.981516 0.9707407 0.9723503 0.9740087 0.9764673 1.03014 1.058531 0.9798958 0.9815879 1.013367 1.116963 1.015358 0.9832285 0.9817737 0.9796712 0.9776472 0.9768515 0.9751797 0.9733402 1.087144 0.9928156 1.009036 1.202057 1.013444 0.9782908 0.9803392 1.044097 1.008618 1.038593 1.072371 1.029253 -9999 -9999 
-9999 -9999 1.056309 1.048934 1.166708 1.126492 1.108831 0.9926476 0.9820767 0.9799241 0.9780686 0.9762172 0.9742752 0.9723268 0.9705141 0.9689273 0.9693877 0.9669445 0.9661956 0.965561 0.9648251 0.9638409 0.9629882 0.9619949 0.9613122 0.9605782 0.9594553 0.9583303 0.9572336 0.9559565 0.9546698 0.953269 0.9516925 0.9499819 0.9484749 0.9468693 0.9451731 0.9432682 0.9411389 0.9394826 1.108239 0.9945206 0.9399185 0.9413688 0.9427063 0.9442576 0.9457084 0.9469809 0.9480897 0.9491334 0.9496619 0.949581 1.017795 0.9948145 0.9512621 0.9529092 0.9546012 0.9566235 0.9583806 0.9603289 0.9622394 0.9641343 0.9660115 0.9679384 0.9696937 0.9716285 0.9733614 0.9754384 0.9774768 0.9801922 1.184601 0.9801457 0.9772413 0.9755905 0.9740615 0.9735672 0.9729201 0.9718846 0.9706556 0.968863 0.9669725 0.9649904 0.9632339 0.9612485 0.9599704 0.9996894 1.116549 1.015128 0.9596391 0.9610488 0.9624823 0.9639785 0.9658096 0.967686 0.9692605 0.9711993 0.9727393 0.974313 0.9759126 0.9776252 0.9795611 1.01593 1.052496 1.096029 1.04411 0.9812711 0.9791729 0.9771332 0.9751983 0.9735676 0.972188 0.9739402 0.9726803 0.9709753 0.9713919 0.9720637 0.9731748 0.9745288 0.9759513 0.9770182 0.9782156 0.9793566 0.9807272 0.9824241 0.9839161 1.075807 1.121893 1.151906 1.187779 1.079084 0.9874611 0.9821199 0.9803727 0.9785513 0.9769412 0.9755467 0.9745408 0.9735083 0.9727494 0.971689 0.9708347 0.9697133 0.9686559 0.9672018 0.9657794 0.9642557 0.9624041 0.9606339 0.9588407 0.9718894 1.009775 1.195016 1.10421 1.041221 1.01734 0.9762017 0.9621139 0.9646266 0.9630561 0.9587687 0.9585529 0.9582797 0.9639785 0.9584261 0.9618263 0.9909359 0.9989743 0.9855205 0.9637281 0.9651711 0.9666883 0.9680307 0.9691991 0.9706318 0.972267 0.973682 0.9764574 1.075897 1.175679 0.9971917 0.981042 0.9834269 1.115409 1.079934 1.000539 0.9825655 0.980701 0.9789031 0.9891374 0.9938943 0.9749523 1.070913 1.017016 1.041955 1.189359 0.9989744 0.9785547 0.9803109 1.032653 1.028661 1.009742 1.055532 1.064623 -9999 -9999 
-9999 -9999 1.007542 1.015001 1.119882 1.073266 1.082435 0.9850245 0.983013 0.9809119 0.9789181 0.976832 0.9748054 0.9729373 0.9714695 0.9700156 0.9689194 0.9684795 0.9676299 0.9670128 0.9664337 0.9655479 0.964765 0.9640409 0.9632697 0.9624472 0.9613068 0.9601367 0.9589408 0.9576167 0.9560816 0.954394 0.9527681 0.9509023 0.9491027 0.9470906 0.9452792 0.9431812 0.9413888 0.9516911 1.158442 0.9775895 0.9404843 0.9421469 0.9435677 0.9451598 0.94661 0.947975 0.9494143 0.9506742 0.9513426 0.9511358 0.9693287 0.9877848 0.9517381 0.9531172 0.9546849 0.9564492 0.9583265 0.9602361 0.9621207 0.9639454 0.9659591 0.9674151 0.9692883 0.9709195 0.9726757 0.9748518 0.9771819 0.9798627 1.074189 0.9812679 0.9793419 0.9774235 0.9761373 0.9754595 0.974441 0.9730547 0.9712564 0.9690463 0.9669958 0.9651775 0.9636796 0.9623919 0.9607592 0.9714758 1.101338 1.020336 0.9626511 0.9617893 0.9631283 0.9644904 0.9662923 0.9680478 0.9698097 0.9716974 0.9734449 0.9753015 0.9766986 0.9782504 0.979889 0.9911959 1.03866 1.055598 1.034003 0.9821003 0.9799174 0.9778616 0.9762039 0.9745233 0.9731557 0.9931321 0.9720158 0.9727144 0.9731091 0.9737675 0.9745394 0.9759791 0.9773356 0.9783694 0.9795268 0.9807989 0.9821991 0.983624 1.015737 1.131615 1.142815 1.190864 1.104251 0.9923951 0.9833184 0.9815398 0.9798574 0.9779267 0.9761431 0.9743593 0.9727966 0.9715357 0.9707766 0.9696811 0.9689416 0.9680753 0.9671218 0.9659518 0.9646974 0.9631265 0.9613383 0.9596419 0.9583806 0.96935 1.057409 1.268368 1.024072 1.009551 0.9878266 0.9580227 0.9589775 0.9594815 0.9599715 0.9603255 0.9601364 0.9598081 0.97378 0.9962676 1.039217 1.00976 0.9619935 0.963368 0.9645416 0.9660962 0.9683418 0.9698047 0.9714136 0.9727386 0.9737231 0.9752823 0.9776272 1.15856 1.20852 1.037667 0.9804366 0.9824085 0.9844492 1.146808 0.9845777 0.9832506 0.9815754 0.9796104 0.9771127 1.067642 1.029592 1.017902 1.026711 1.124925 1.147048 0.9770484 0.978818 0.9807128 0.9922305 1.011567 1.024134 1.04257 1.044686 -9999 -9999 
-9999 -9999 0.9873225 0.9860697 1.01842 1.043041 1.056191 0.9887273 0.9844672 0.9824197 0.9802067 0.9781291 0.9764107 0.9744264 0.9728636 0.9715275 0.9708481 0.970368 0.9698678 0.9690034 0.9682849 0.9674402 0.9667892 0.9660627 0.9651074 0.9641371 0.9629152 0.9616276 0.9600669 0.9584816 0.9565813 0.95472 0.9531511 0.9511266 0.9490008 0.9469223 0.945101 0.9428918 0.9410464 1.01047 1.056285 0.9462687 0.9412839 0.942602 0.9441224 0.9460343 0.9476635 0.9490753 0.9506218 0.9519873 0.9528613 0.9526284 0.9516237 0.9518298 0.9525138 0.9538183 0.9552565 0.9567831 0.9584774 0.9599769 0.9618417 0.9635929 0.9651422 0.966827 0.9685965 0.970292 0.972259 0.9745404 0.9769604 0.9793621 0.9823164 1.031107 0.9813653 0.9794878 0.9781209 0.976939 0.9755369 0.9736446 0.9713776 0.9694268 0.9675179 0.9661778 0.9649456 0.9635922 0.9618282 0.9602674 1.055962 1.026529 0.9656718 0.9623585 0.9638091 0.9652445 0.9667201 0.9684541 0.9702632 0.9721448 0.9739569 0.9759808 0.977516 0.9791487 0.9807077 0.9819754 1.004369 1.012449 1.02457 0.9828635 0.9808728 0.9787523 0.976966 0.9753197 0.9890742 0.9906961 0.9735929 0.9745326 0.974869 0.9753382 0.9759476 0.977149 0.9785052 0.9797584 0.9809124 0.9822312 0.9838009 0.985053 1.053467 1.148974 1.16233 1.23222 1.041101 0.9842215 0.9821208 0.9809213 0.9793926 0.9776408 0.9757223 0.9739377 0.9719853 0.970328 0.9687849 0.967653 0.9669058 0.9661559 0.9652702 0.9642354 0.963167 0.9618444 0.9604815 0.9590921 0.9633265 0.9873344 1.215126 1.071199 0.9720815 0.9718658 0.9628155 0.9594809 0.960295 0.9608604 0.9616378 0.9621405 0.9616819 0.9609659 0.9768218 1.000286 0.9804688 0.9618112 0.9632381 0.9647213 0.9659185 0.9675329 0.9695046 0.9712785 0.9728649 0.9746184 0.9759534 0.9774939 1.088945 1.218796 1.092119 0.9912562 0.9805484 0.9824663 0.9847 1.147194 0.9867163 0.9840162 0.9820589 0.9798829 0.9778904 1.059159 1.14821 1.119167 1.175395 1.333703 1.083617 0.9776888 0.9796097 0.9812951 0.9942118 1.014853 1.029755 1.056686 1.013804 -9999 -9999 
-9999 -9999 1.104622 0.9877294 0.9862759 1.06095 1.074627 1.080346 0.9860992 0.9837669 0.9814808 0.979739 0.9777769 0.9759674 0.9744311 0.9731632 0.972595 0.9723482 0.9718137 0.9710636 0.97049 0.9694901 0.968604 0.9679028 0.9668068 0.9653741 0.9638623 0.961964 0.9602916 0.9583514 0.9562766 0.9544873 0.9526462 0.9507985 0.9488289 0.9469633 0.9448012 0.9427637 0.9409614 1.070553 0.9675211 0.9412506 0.942172 0.9435572 0.9449252 0.9466531 0.9484601 0.9501073 0.9516276 0.9533528 0.9544693 0.954267 0.9534642 0.9531431 0.9536821 0.954895 0.9558663 0.9573774 0.958979 0.9604975 0.9620364 0.9634902 0.9650426 0.9666041 0.9683595 0.9702041 0.9721221 0.9746766 0.9768673 0.9792334 0.9819244 1.136354 0.9827749 0.9809656 0.9794579 0.9779027 0.9761312 0.9741345 0.9723536 0.9705573 0.9691507 0.9678397 0.9662079 0.9645757 0.9628697 0.9613048 0.981737 1.00225 0.9655465 0.9627595 0.964351 0.9658438 0.9673382 0.9690063 0.9708186 0.9725879 0.9744272 0.9761668 0.9778681 0.9798794 0.9815625 0.9831751 1.009709 1.031204 1.036206 0.9833397 0.9814404 0.9793133 0.977529 0.9756789 1.003739 0.9747264 0.9753456 0.9760169 0.9765989 0.9770209 0.977586 0.9783178 0.9797331 0.9810603 0.9824252 0.9840186 0.9852895 1.007701 1.083401 1.107694 1.136978 1.291438 0.9905202 0.9842315 0.9820483 0.979839 0.9783826 0.9767999 0.9751867 0.9732497 0.9714043 0.9696786 0.9678333 0.9660395 0.9648387 0.964121 0.9632216 0.9624491 0.9614837 0.9605137 0.9593449 0.9585454 0.964385 1.039299 1.232069 0.9911269 0.9576926 0.9591007 0.9603668 0.9606912 0.9619656 0.9628195 0.9635941 0.9640881 0.9634565 0.96269 0.9624006 0.9623345 0.9626419 0.9636902 0.9647059 0.9734322 0.9667205 0.9687612 0.9705914 0.9724594 0.9739416 0.9755519 0.9773099 1.094066 1.177816 1.085047 0.9888816 0.9807077 0.9825552 0.9838415 0.9855383 1.124768 0.9857943 0.984059 0.9828185 0.9809795 0.9786334 1.024317 1.189153 1.179155 1.196594 1.284201 1.016304 0.9782314 0.979848 0.9921817 1.00888 0.9963946 1.024655 1.044242 0.9945241 -9999 -9999 
-9999 -9999 1.067178 1.038992 0.9877076 1.055923 1.109774 1.187076 0.9869196 0.98454 0.9826061 0.9809357 0.9791132 0.9775706 0.9760317 0.974675 0.9742559 0.9741448 0.9736923 0.9730812 0.9723067 0.9713165 0.9703584 0.9692734 0.9676369 0.9658037 0.9639223 0.9618139 0.9601723 0.9583572 0.9565595 0.9546444 0.952676 0.9506898 0.9487292 0.946618 0.9445993 0.9427199 0.9623983 1.094805 0.9490372 0.9425542 0.9435914 0.9448842 0.945879 0.9472991 0.9488803 0.9506297 0.9524344 0.954345 0.9560545 0.9560432 0.9552902 0.9546971 0.9550289 0.9562913 0.9570857 0.9580117 0.959586 0.9611459 0.9627038 0.9642146 0.9656543 0.9671586 0.9689133 0.9709248 0.9730223 0.975149 0.9772709 0.9794539 0.9817954 1.036333 1.006493 0.9822123 0.9805216 0.9791655 0.9773327 0.9754339 0.9736552 0.9720585 0.970347 0.9688044 0.9668733 0.9650507 0.9638593 0.96292 0.961759 0.9698838 0.9623135 0.9635449 0.9650016 0.9663123 0.9678566 0.9695601 0.9714492 0.9732503 0.9750335 0.9768408 0.9783053 0.980423 0.9823061 0.9988099 1.072698 1.043239 1.058793 0.9839596 0.9819622 0.980059 0.9783385 0.9766543 1.013545 0.9763259 0.977065 0.9779848 0.9784221 0.9790453 0.979299 0.9799035 0.9813161 0.9828082 0.9840663 0.9854455 0.9867046 1.079748 1.147068 1.152979 1.209924 1.089948 0.9854758 0.9835817 0.981531 0.9794958 0.9774961 0.9757649 0.9742454 0.9724527 0.9707238 0.9689726 0.9670779 0.9651428 0.9635534 0.9623026 0.9612646 0.9604558 0.9597734 0.9589494 0.9583743 0.9654213 1.003621 1.24541 1.052415 0.9580302 0.95859 0.9598637 0.9610559 0.9618723 0.9633421 0.9645645 0.9655964 0.9657837 0.9651881 0.9645137 0.964035 0.9638095 0.9645548 0.9654417 0.9870247 0.9861282 0.9673723 0.9693224 0.9717119 0.9732756 0.9750748 0.9766263 1.021545 1.057714 0.9949997 0.9797868 0.9805253 0.9821455 0.9837194 0.9852231 0.9866695 1.094436 0.9861413 0.9847317 0.9832084 0.9810145 0.9788624 0.9921774 1.05985 1.123882 1.153516 1.103255 0.9770761 0.9786577 0.980466 0.9917288 0.9989783 0.9841436 0.9975881 1.017891 0.988524 -9999 -9999 
-9999 -9999 0.988735 1.234474 1.004108 0.9926839 1.076431 1.124428 0.9875774 0.9860098 0.9840618 0.9824207 0.9806736 0.9789714 0.9773042 0.97619 0.9759851 0.9757984 0.9754859 0.9747109 0.9739819 0.9727096 0.9714621 0.9698828 0.9679921 0.9660722 0.9639503 0.961556 0.9596205 0.9577942 0.9559705 0.954314 0.9526738 0.950506 0.9484943 0.9465011 0.9445598 0.9428309 1.02097 1.078277 0.9420832 0.9431728 0.9446652 0.9461082 0.9472837 0.9483234 0.9497231 0.9513487 0.9531227 0.9551051 0.9569701 0.9576758 0.9574455 0.9570941 0.9567187 0.9575273 0.9586419 0.9592059 0.9602144 0.9616962 0.9632798 0.9649784 0.9666016 0.9681644 0.9699888 0.971756 0.9735842 0.9755467 0.9775048 0.9794285 0.9818003 0.984044 1.08572 0.983371 0.9817265 0.9800525 0.9782299 0.9764507 0.9746779 0.9728771 0.9709619 0.9695293 0.9679529 0.9665757 0.9657328 0.9648036 0.9635205 0.9629929 0.9635926 0.9645677 0.9658088 0.9671988 0.9687968 0.9706181 0.9722058 0.9738991 0.9757498 0.9776896 0.9790601 0.9810182 0.9827294 1.004221 1.146699 1.028114 1.13218 0.9851844 0.982884 0.9809697 0.979233 0.9855936 0.9959118 0.9777813 0.9785762 0.9795238 0.9801643 0.9806535 0.9809989 0.9816411 0.9827131 0.9840869 0.9855645 0.9865956 1.054005 1.200144 1.261433 1.252631 1.201442 0.9982563 0.9845915 0.9824675 0.9804711 0.9785798 0.9766811 0.9747148 0.9732382 0.9715919 0.9697819 0.9681168 0.9663566 0.9646699 0.9630099 0.961235 0.9597516 0.9587594 0.9580158 0.957435 0.9657922 1.001741 1.157925 1.12147 0.9743803 0.9577469 0.9591355 0.9606532 0.9618616 0.9630409 0.9645461 0.9660539 0.9671264 0.9675332 0.9668311 0.9661258 0.9657052 0.9658229 0.9661207 0.9766807 0.9668399 0.9676055 0.968596 0.9707107 0.9726403 0.9744474 0.9762141 1.015896 1.029242 0.9796953 0.9807665 0.9815339 0.9821686 0.9829816 0.9847624 0.9861308 0.9878786 1.073229 0.9870289 0.9855707 0.9837797 0.9812139 0.9791209 0.9799441 0.9933824 1.148151 1.188033 1.025717 0.9773672 0.9792832 0.9806759 0.9824107 0.9839052 0.9879941 1.032311 1.031776 0.9888079 -9999 -9999 
-9999 -9999 0.9875899 1.00202 1.191618 0.9935493 1.020615 1.080997 1.011496 0.9870594 0.9853427 0.9835028 0.9819433 0.980131 0.9785848 0.9779273 0.9777083 0.9776098 0.9773417 0.9764127 0.9750893 0.973436 0.9717725 0.9697524 0.9678576 0.965898 0.9638278 0.9615411 0.959285 0.9571589 0.9551088 0.9536471 0.9519132 0.9503027 0.9484096 0.9461824 0.944335 0.9425473 1.123927 1.011168 0.9429924 0.94429 0.9456571 0.947191 0.948779 0.9499953 0.9510112 0.9521915 0.9537161 0.9555179 0.9575036 0.9595256 0.9593989 0.9593224 0.9587983 0.9592662 0.9601176 0.9608397 0.961367 0.9738379 0.9634887 0.9651443 0.9667706 0.9684346 0.9703787 0.9721221 0.9738418 0.9757308 0.9776197 0.9796984 0.9820552 0.9847894 1.170749 0.9841998 0.9823631 0.9807201 0.9792258 0.9769902 0.974973 0.9735519 0.9719333 0.9706794 0.9693613 0.9684195 0.9677763 0.9664048 0.9648997 0.9644659 0.965149 0.965928 0.967044 0.9682928 0.9698499 0.9714588 0.9730987 0.9744629 0.9763158 0.9781338 0.9798088 0.9814355 0.9831285 0.9942666 1.143302 1.040467 1.141814 0.9865839 0.984155 0.9816503 0.9797582 0.9957504 0.9786813 0.9794331 0.9802687 0.9812433 0.9818342 0.9822655 0.9828753 0.9834947 0.9844512 0.985775 0.9869103 1.021885 1.177922 1.251659 1.344641 1.306962 1.117779 0.9868524 0.9845414 0.9819851 0.9799106 0.9777247 0.9758464 0.9739406 0.9720957 0.9703357 0.9684881 0.9667466 0.9651982 0.9637722 0.9621711 0.9608338 0.9591027 0.9736072 0.9963757 1.022434 1.06437 1.169654 1.161169 0.9800659 0.9576364 0.9588416 0.9599465 0.9611838 0.9627454 0.9640886 0.9655517 0.9668519 0.9696158 0.9839258 0.9687836 0.9678572 0.9673675 0.9676456 0.9678211 0.9677368 0.9684952 0.9693893 0.9701605 0.9716092 0.9734451 0.9752328 0.9812427 1.066746 0.9866232 0.9806451 0.9821323 0.9830276 0.9837637 0.9847037 0.985615 0.986939 0.9998533 1.072024 0.9874765 0.9854839 0.9835841 0.9813625 0.9791072 0.985274 0.9762957 1.118606 1.169758 1.001701 0.9775177 0.9794449 0.9814265 0.9832138 1.008548 1.060866 1.105314 1.038828 0.9887386 -9999 -9999 
-9999 -9999 0.9865465 0.9884676 1.051398 1.126156 1.025291 1.03101 1.01898 0.9942703 0.9864644 0.9847043 0.983174 0.981479 0.9800667 0.9795768 0.979546 0.979722 0.9793051 0.9772182 0.9749041 0.9729037 0.9712806 0.9693393 0.9674576 0.9657279 0.9633964 0.9615449 0.9592428 0.9570394 0.9548687 0.952787 0.9509763 0.9492302 0.9476725 0.9459909 0.9441348 0.9424357 1.104312 0.9882214 0.9435879 0.9452395 0.9468756 0.9483727 0.9497789 0.9512479 0.952526 0.9534611 0.9547003 0.9562594 0.9579762 0.9597433 0.9609867 0.9613254 0.9610553 0.9607545 0.9614414 0.962468 0.9628793 0.9633052 0.9662081 0.9655911 0.9664752 0.9684554 0.9704271 0.9722591 0.9742404 0.9762454 0.9781004 0.979998 0.9825451 0.9848205 1.233119 0.9847479 0.9830993 0.9813025 0.9796351 0.9776865 0.9758285 0.9745588 0.9733127 0.9720743 0.9710989 0.9703228 0.9692726 0.9677849 0.9666492 0.9658653 0.9664581 0.9673054 0.9684885 0.9693146 0.9705202 0.9719982 0.9735301 0.9752012 0.976884 0.9785191 0.980128 0.9820657 0.983876 0.9914953 1.131214 1.100514 1.105 0.9879112 0.9847291 0.9825414 0.9806402 1.00127 0.9801573 0.9811016 0.9818749 0.9827088 0.9833834 0.9838614 0.9848025 0.9856184 0.9863834 0.987349 1.018137 1.10631 1.206841 1.198741 1.261914 1.268941 1.037562 0.9863943 0.9839693 0.981577 0.9794201 0.9772201 0.975475 0.9735744 0.9715252 0.9696521 0.9675965 0.9656421 0.9640435 0.9628263 0.9613416 0.9599131 0.9586662 0.9732277 1.035264 1.125204 1.273634 1.198602 0.990486 0.9573609 0.9586664 0.9600165 0.9610915 0.9620735 0.9634917 0.9649332 0.9661939 0.9676589 0.9689521 0.9935319 0.9734926 0.9694183 0.968897 0.9689319 0.9689535 0.9692588 0.9701447 0.9707939 0.9710343 0.972417 0.9745353 0.9761849 1.014438 1.008103 0.9794812 0.9811718 0.9828976 0.9847644 0.9856961 0.9861226 0.9871178 0.9884536 1.048995 1.031569 0.9877655 0.9856212 0.9831451 0.9809549 0.9789724 0.9909685 0.9762125 1.108413 1.166008 0.9918098 0.977475 0.979721 0.982127 0.987876 1.071676 1.10374 1.115549 1.027178 0.9888229 -9999 -9999 
-9999 -9999 0.9858314 0.9879089 0.99021 1.139449 1.14767 1.016773 0.9985473 1.020485 0.9877843 0.9862106 0.984517 0.9827399 0.9817562 0.981716 0.9817919 0.9895875 0.9792569 0.9769623 0.9744222 0.9724588 0.9705006 0.9689458 0.9671994 0.9655589 0.9635899 0.9617729 0.9596401 0.9576468 0.9555475 0.9534972 0.9515125 0.9494433 0.9477195 0.9464738 0.9451313 0.9435655 1.076493 1.016436 0.9440132 0.9456742 0.9475743 0.9493966 0.9511452 0.9525622 0.9540262 0.955498 0.9561002 0.9572632 0.9590386 0.9606064 0.9620996 0.9632118 0.9632186 0.9631022 0.9633058 0.9641418 0.9646099 0.9649469 0.9654926 0.9663673 0.9675192 0.9687141 0.9703588 0.9722728 0.9744955 0.9767604 0.9786571 0.9804291 0.9827419 0.984829 1.083894 0.9855262 0.9837523 0.9820588 0.9801292 0.978465 0.976983 0.9760123 0.9746882 0.9737512 0.9731528 0.9720266 0.970895 0.9696416 0.968681 0.9673546 0.9677584 0.968774 0.9698548 0.9707109 0.971505 0.9727281 0.9741846 0.9756482 0.9774395 0.9792334 0.9808958 0.9825763 0.9841746 0.9857561 1.105845 1.152002 1.067736 1.000677 0.985265 0.98303 0.9914525 0.9885997 0.9818929 0.9827077 0.9836889 0.9843319 0.9850483 0.9855977 0.9863093 0.98729 0.9881532 1.022272 1.103638 1.212663 1.217617 1.217376 1.239743 1.124576 0.987348 0.9853311 0.9828973 0.9805783 0.9788978 0.976988 0.9751011 0.9729792 0.9706891 0.9688046 0.9667653 0.9647471 0.9628321 0.9615712 0.9602706 0.9590771 0.9579827 0.9765977 1.081354 1.282686 1.170671 0.9932533 0.9569978 0.9584535 0.9599264 0.9612631 0.9624236 0.9636546 0.9647291 0.9658242 0.9701992 0.970729 0.9740982 1.045858 1.053276 0.9712996 0.9710763 0.9711277 0.9711186 0.9711583 0.9717296 0.9724284 0.9728196 0.973953 0.9757718 1.010062 1.017036 0.9794306 0.9806535 0.9825205 0.9838886 0.9854892 0.9867335 0.9877114 0.9884908 0.9895545 1.17032 0.9898337 0.9872532 0.9849489 0.9827208 0.9806323 0.987793 0.9958647 0.9821125 1.101835 1.189999 0.9865049 0.9776131 0.9799935 0.9820958 1.002761 1.108328 1.115451 1.110311 1.016375 0.9887678 -9999 -9999 
-9999 -9999 0.9852916 0.9871583 0.9891763 1.020717 1.165085 1.096248 0.9906392 1.007699 0.9889022 0.9873614 0.9856727 0.9841253 0.9837453 0.9922791 1.009082 0.9809403 0.9786323 0.9766117 0.9744999 0.9722518 0.970272 0.9684778 0.9670402 0.965671 0.964021 0.9623048 0.9605643 0.9586718 0.956934 0.9548585 0.9529097 0.9510016 0.9493836 0.9477406 0.9461784 0.944196 1.044999 1.021001 0.9438933 0.9457084 0.9477716 0.9497809 0.9518533 0.9537793 0.9556252 0.9574001 0.9579182 0.9588935 0.9603069 0.9616721 0.9630471 0.9644646 0.9650454 0.9650268 0.9651828 0.9656988 0.9662284 0.9668173 0.9672546 0.9681219 0.9690869 0.9702747 0.9713686 0.9729854 0.9749516 0.9770626 0.9790935 0.9813562 0.9835147 0.9855936 1.045812 0.986696 0.9847168 0.9831722 0.9814638 0.9797986 0.978559 0.9775406 0.9765069 0.9757782 0.9749615 0.9737847 0.9724829 0.971328 0.9699627 0.9692267 0.9691949 0.9701189 0.9711372 0.9723476 0.9729211 0.9815456 0.9747508 0.9761664 0.9777237 0.9794583 0.9813285 0.982945 0.9847701 0.9865833 1.091308 1.123667 1.01547 0.9898162 0.9855024 0.9839082 0.9972106 0.9828151 0.9836978 0.9845487 0.9852088 0.9860669 0.9865124 0.987042 0.9879563 0.9890553 1.050519 1.118924 1.180562 1.223734 1.197745 1.163411 1.216664 0.9889573 0.9858655 0.983982 0.9819758 0.9800127 0.9779829 0.9761515 0.9742643 0.9723258 0.9701095 0.9681655 0.9661962 0.9641706 0.9622645 0.9604977 0.959183 0.9580398 0.9585269 1.024995 1.197242 1.257347 1.014634 0.9571244 0.9585424 0.9601223 0.961543 0.9626147 0.9640114 0.9791554 1.01611 1.038655 1.025147 1.006506 1.001195 1.046233 1.131422 1.154892 1.033522 0.9730866 0.9731754 0.9736291 0.9743056 0.9745899 0.9749842 0.9759798 1.041898 1.134299 1.000424 0.9800562 0.9819457 0.9837572 0.9855971 0.9867881 0.9881341 0.9890843 0.9900777 1.068355 1.06901 0.9891635 0.9866478 0.9844778 0.9823653 0.9800768 1.048094 0.9910778 0.9764856 1.034548 1.258058 0.9948492 0.9777198 0.9800667 0.9821088 0.9983197 1.096757 1.100794 1.105252 1.019119 0.9890276 -9999 -9999 
-9999 -9999 0.9846472 0.9869367 0.9888541 0.997952 1.058978 1.232291 1.023072 0.9904145 0.9978289 0.9885519 0.9869744 0.9862687 1.015772 0.9942456 0.9824268 0.9803582 0.978275 0.9760094 0.974186 0.9723083 0.9706487 0.9690515 0.9676971 0.9662507 0.9647506 0.9630515 0.961348 0.959559 0.9577639 0.9558792 0.9540265 0.9521281 0.9503065 0.9483323 0.9462323 0.9443601 1.080133 0.9873376 0.9445449 0.9463955 0.9479662 0.9498966 0.9519454 0.9539555 0.9562417 0.958465 0.9598751 0.9603626 0.9615411 0.9631579 0.9644473 0.9657537 0.9666809 0.9667807 0.9669053 0.9674908 0.9681384 0.9685516 0.9690802 0.969494 0.9705736 0.9718156 0.9730072 0.9742727 0.9758065 0.9777518 0.9800541 0.9821064 0.9843888 0.9862816 1.089437 0.9878288 0.9856482 0.9843303 0.9827093 0.9811653 0.9801739 0.9793869 0.9784216 0.977467 0.9766496 0.9753582 0.9742216 0.9730027 0.9713482 0.9701731 0.9705615 0.9714567 0.9725482 0.9738277 0.9743504 0.9793913 0.980593 0.9767727 0.9782432 0.9799939 0.9817848 0.983538 0.9855433 0.9873534 1.116714 1.13342 1.021263 0.99768 0.9864369 0.9847753 0.99779 0.9845733 0.9852956 0.9863158 0.9870632 0.9876121 0.9882011 0.9884822 1.000257 1.078759 1.182927 1.204211 1.1842 1.164476 1.176852 1.217419 1.058334 0.9871626 0.9846078 0.9827802 0.9809268 0.9792892 0.9774703 0.9758858 0.9742144 0.9722031 0.9702305 0.9683009 0.9663435 0.9644176 0.9624181 0.960635 0.9590452 0.9617255 0.9999774 1.126804 1.421332 1.110647 0.9564911 0.9581513 0.9599633 0.9618297 0.9630241 0.9641807 0.9838717 1.045734 1.102843 1.114684 1.070225 1.031027 1.016529 1.026045 1.032886 1.037379 1.019489 1.009332 0.9939079 0.9829779 1.003447 1.017964 1.037012 1.122932 1.32427 1.168826 0.9779804 0.9801808 0.9824799 0.9843791 0.986382 0.9879227 0.9897508 0.9936442 0.9945478 1.123143 0.9903893 0.9882339 0.9861262 0.9841204 0.981974 1.015061 1.142544 1.008822 0.9775367 0.9764996 0.991246 1.042146 0.9773688 0.9795078 0.9817103 0.9833587 1.044286 1.071944 1.094535 1.033508 0.9886671 -9999 -9999 
-9999 -9999 0.9844274 0.9862986 0.9882645 0.9940719 1.037059 1.118672 1.161076 1.008356 1.001022 0.99232 0.9992312 1.01022 0.9855512 0.9837024 0.9815941 0.979439 0.9777762 0.9762827 0.9747143 0.9732162 0.9716433 0.9701066 0.9685522 0.9670659 0.965293 0.9636431 0.9617822 0.9598109 0.9578295 0.9558684 0.9540725 0.9520526 0.950183 0.9481437 0.9456943 0.9439107 1.209113 0.988647 0.9450459 0.9466193 0.9484215 0.9503017 0.9521587 0.9541326 0.956219 0.9581813 0.9603184 0.9621309 0.9630691 0.9643252 0.9658687 0.9670742 0.9681569 0.9686284 0.9688044 0.9690472 0.969677 0.9702647 0.970665 0.9712057 0.9720842 0.9731877 0.9745088 0.9757733 0.9769635 0.9786586 0.9806635 0.9827847 0.984804 0.986821 1.085048 1.021079 0.9863151 0.9855699 0.9840457 0.9828163 0.9820598 0.9811814 0.9802475 0.979115 0.9781212 0.9770536 0.9758479 0.9742668 0.9727339 0.9717856 0.9722235 0.9728289 0.9740122 0.9752041 0.9759808 0.9762452 0.9877908 0.9777463 0.979054 0.9806928 0.9822734 0.9842756 0.9860268 0.9927901 1.110917 1.148485 1.04378 1.043372 0.9877331 0.9858713 1.0029 0.9862261 0.9870917 0.9879517 0.9887552 0.9895331 0.9902573 1.005245 1.054032 1.127395 1.174052 1.194768 1.210748 1.205755 1.186615 1.048311 0.988921 0.9869186 0.9850382 0.9833745 0.9817304 0.980118 0.9783072 0.9766364 0.9747396 0.9727912 0.970719 0.9687657 0.9668574 0.9648319 0.96297 0.9610476 0.9594043 0.9578252 0.9773654 1.094326 1.312661 1.032863 0.9570535 0.9588242 0.9607842 0.9626492 0.9640002 0.9930707 1.052124 1.107667 1.1372 1.13711 1.118527 1.08767 1.070333 1.074273 1.060279 1.070814 0.9867491 0.9736363 1.025229 1.17358 1.177034 1.096108 1.049587 1.032251 1.067198 1.116526 0.978217 0.9802187 0.9819314 0.9842246 0.9862444 0.9886275 0.9906092 0.9925009 1.029287 1.05221 0.9907357 0.9879447 0.9856578 0.9835143 0.9814623 1.061397 1.106409 1.041371 0.9794018 0.978631 0.9774079 1.019837 1.042203 0.9786152 0.9807957 0.9826551 1.010616 1.046554 1.065278 1.033427 0.9883472 -9999 -9999 
-9999 -9999 0.9831769 0.9855967 0.9879848 0.9900227 1.035645 1.095627 1.260471 1.054769 0.9936557 1.008181 0.9887128 0.9868666 0.9849915 0.9828185 0.9812518 0.9799843 0.9789107 0.9773116 0.9755659 0.9738615 0.9718486 0.9701774 0.9683926 0.9667466 0.9652041 0.9634724 0.9612491 0.9591041 0.957129 0.9550681 0.9533679 0.9515195 0.949531 0.9477395 0.9458213 0.9438424 1.219276 0.9966034 0.9450058 0.9466019 0.948252 0.9501849 0.9521316 0.9539838 0.9559254 0.9577781 0.9596992 0.9616685 0.9636732 0.9650262 0.9666643 0.9688643 0.9809912 0.9714873 0.9706769 0.970792 0.9713222 0.9721932 0.9722869 0.9728219 0.973749 0.9750046 0.9759985 0.9773138 0.9784319 0.9795579 0.981456 0.9836234 0.9856451 0.9877277 1.099241 1.038751 1.012223 1.030631 0.9855542 0.984902 0.9840802 0.9831501 0.9820899 0.9808195 0.979878 0.9789704 0.9773697 0.975677 0.9742559 0.9734327 0.9735813 0.9743794 0.9753165 0.9767139 0.9776073 0.9778595 0.9906082 0.9812623 0.9798325 0.9814267 0.9831321 0.9850186 0.9866623 0.997636 1.089097 1.127154 1.053682 1.074552 0.988301 1.004519 0.9968981 0.9878338 0.9887939 0.9895746 0.9904841 1.024586 1.111305 1.175137 1.172938 1.160713 1.166263 1.221242 1.26623 1.094395 0.9897395 0.9882302 0.9865572 0.9855821 0.9934169 1.013923 0.9884705 0.9812331 0.9792933 0.9773045 0.9751762 0.9732621 0.9711766 0.9694908 0.9674253 0.9655834 0.9637177 0.9618968 0.9601148 0.9585705 0.9572353 1.030667 1.269768 0.9813742 0.9577979 0.9595849 0.9614086 0.9630842 0.9729267 1.027421 1.078919 1.088877 1.076941 1.082701 1.087021 1.083742 1.077978 1.052844 1.027983 1.019771 0.9721864 0.9749337 1.050762 1.135722 1.047351 0.9778027 0.9790092 0.9793866 0.9790009 0.9780295 0.9788651 0.9803894 0.9818174 0.9846773 0.9870446 0.9895902 0.9916441 1.012539 1.113041 0.9977545 0.9906027 0.988255 0.9858301 0.9834536 0.9895772 1.025779 0.9941891 0.9861371 0.9807447 0.9806329 0.9795262 0.977838 1.068363 1.007372 0.9802931 0.9821129 0.9835726 1.007238 1.030069 1.034401 1.012492 -9999 -9999 
-9999 -9999 0.9833239 0.9857036 0.9880072 0.9902325 1.032116 1.114979 1.191952 1.10475 0.9919381 0.9900881 0.988417 0.9865199 0.9847186 0.9834228 0.9822131 0.9809109 0.9791852 0.9772834 0.9751939 0.9731354 0.9711753 0.9692743 0.9675963 0.9657755 0.9640939 0.962478 0.9605624 0.9586207 0.9566537 0.9544981 0.9525704 0.9509428 0.949495 0.9480242 0.9464098 0.9445022 1.094349 1.038953 0.94464 0.9463181 0.9479545 0.9496065 0.9515661 0.9533917 0.9551233 0.9568192 0.9586921 0.9604591 0.962481 0.9639621 0.9656761 0.9673466 0.9691677 0.971123 0.994792 0.9730265 0.9733763 0.9739758 0.9743215 0.9746347 0.9755049 0.976701 0.9778448 0.9791937 0.9799557 0.980801 0.982482 0.9843757 0.9865038 0.9884722 1.157348 1.04807 1.050948 1.110925 1.013277 0.9868479 0.9861644 0.985027 0.9838406 0.9826367 0.9813935 0.9801478 0.9787218 0.9774315 0.976022 0.9751288 0.9752402 0.9757393 0.9765583 0.9779054 0.9793327 0.9901621 0.9977455 0.9878475 0.9809557 0.982486 0.9841049 0.9858814 0.9876265 1.019886 1.092508 1.121768 1.065165 1.079761 0.9891945 1.007121 0.9946117 0.9892299 0.9906669 0.995968 1.049793 1.172958 1.261775 1.295501 1.203632 1.232764 1.257131 1.178155 1.087275 1.000493 0.9878408 0.9862159 0.9846565 0.9836239 0.9828759 0.9823978 0.9813439 0.9800823 0.9791195 0.9775452 0.9755385 0.9735662 0.9717602 0.9700394 0.9682941 0.9664859 0.9646096 0.9628935 0.9610845 0.959347 0.9577035 1.000104 1.277178 0.9596774 0.9582084 0.9601251 0.9617209 0.9635975 0.9742141 1.031741 1.051278 1.056279 1.062038 1.058737 1.061744 1.068878 1.055837 1.021189 1.013874 0.9721888 0.9741409 0.9761477 1.042544 0.98441 0.9781604 0.979235 0.980806 0.9818306 0.9812478 0.9804059 0.9808531 0.9812135 0.9828542 0.9853578 0.987632 0.9898359 0.991695 1.002312 1.135544 0.9934381 0.990954 0.988474 0.9862834 0.9842017 0.9826695 0.9899262 0.9828603 0.9826989 0.9823387 0.9816623 0.9810739 0.9797639 1.013761 1.063672 1.039514 1.007166 0.9823901 0.9838854 0.9912344 1.052775 1.062298 -9999 -9999 
-9999 -9999 0.9850882 0.9866166 0.9888142 0.9907735 1.031337 1.113867 1.13791 1.119313 0.9924082 0.9900495 0.9882212 0.986818 0.9853191 0.9839293 0.9822989 0.9804146 0.97852 0.9765632 0.9743198 0.9721138 0.9702557 0.9684823 0.9669188 0.9650264 0.9633743 0.9618461 0.9601791 0.9587296 0.957215 0.9554795 0.953789 0.9523709 0.9507743 0.949065 0.9469459 0.9449776 1.033875 1.115181 0.9444413 0.9461941 0.9478081 0.9494003 0.9510378 0.9525977 0.9541279 0.9558392 0.9576072 0.9593214 0.9613028 0.9629938 0.9648109 0.9665925 0.968275 0.9704298 0.9722803 0.9801317 0.9852357 0.9758617 0.9763576 0.9770447 0.9778138 0.9787908 0.9797139 0.9807262 0.9815148 0.9823055 0.9835056 0.9849722 0.9870372 1.005424 1.185861 1.059662 1.061434 1.191071 1.172852 1.073453 0.9878057 0.9867552 0.9855594 0.984305 0.9830515 0.9819074 0.9803655 0.9791352 0.9780192 0.976952 0.9768918 0.9774489 0.9782455 0.9791937 0.9802236 0.9957763 1.003955 1.00329 0.9820284 0.9836203 0.9850603 0.9867731 0.9885206 1.034483 1.121866 1.141755 1.063506 1.088861 0.9904782 1.035389 1.024948 0.9905773 1.007957 1.074749 1.158293 1.172817 1.191673 1.158859 1.230711 1.229462 1.113185 1.017679 0.9896486 0.9887136 1.003845 1.012027 0.9901578 0.9922777 1.016572 0.9912899 0.9791903 0.9782793 0.9770353 0.975953 0.974461 0.9734142 0.9718688 0.9702317 0.9684591 0.966619 0.9646942 0.9629587 0.9612966 0.9595854 0.9577882 0.9963929 1.214803 0.9566846 0.958346 0.9602274 0.9622501 0.9640511 0.9775584 1.037985 1.058277 1.089893 1.141652 1.144175 1.126633 1.108199 1.068799 1.041114 1.042662 0.9727694 0.9749866 1.027215 0.9772362 0.9788634 0.9799274 0.9806451 0.9816599 0.9959174 0.9829464 0.9817804 0.9816945 0.9820533 0.9835979 0.9852902 0.9874035 0.9896625 0.991773 0.9936442 1.110853 0.994147 0.9918419 0.9892958 0.9869176 0.9855206 0.9840534 0.9906134 0.9848209 0.9849344 0.9842831 0.9834896 0.9821821 0.9815716 0.9801363 1.043808 1.099388 1.101127 0.9874676 0.9839784 0.9858806 1.06552 1.08786 -9999 -9999 
-9999 -9999 0.9864646 0.987813 0.9895722 0.9914258 1.04191 1.105807 1.124388 1.070664 0.9921983 0.9900108 0.9886393 0.9869363 0.9853157 0.9834265 0.981657 0.9795607 0.9777344 0.9754617 0.973516 0.971534 0.9693839 0.9678674 0.966428 0.9649665 0.96361 0.9623477 0.9610319 0.9595852 0.958144 0.956791 0.9552411 0.9537509 0.9518492 0.9496721 0.9472359 0.9451795 0.9759479 1.231162 0.9580493 0.9458621 0.9473231 0.9488031 0.9504877 0.9517868 0.9534216 0.9549691 0.956695 0.9584902 0.9604291 0.9620785 0.9638994 0.9658803 0.9676083 0.969485 0.9714184 0.9734178 0.975318 1.004226 1.00123 0.9801947 0.9797996 0.9806411 0.9815447 0.9827604 0.9833253 0.9840024 0.9848685 0.9858724 0.9874322 1.007642 1.154968 1.060213 1.054034 1.197732 1.210664 1.17076 1.084974 0.9884326 0.9873941 0.9862313 0.9848675 0.9838003 0.9820745 0.9807537 0.9797594 0.9785757 0.9785863 0.9792248 0.979738 0.9806262 0.9814509 0.9942149 0.9964342 1.006388 0.9840091 0.9841819 0.9858817 0.9879249 0.9897707 1.064797 1.169372 1.156907 1.050045 1.154415 1.006377 1.106292 1.043842 0.9917107 1.0402 1.14123 1.195861 1.164855 1.168035 1.186165 1.20503 1.08032 1.007629 0.9896759 0.9879085 0.9936807 1.033475 1.022585 1.021415 1.029649 0.9843897 0.9809461 0.9790586 0.9774629 0.975785 0.9743804 0.9732368 0.9718269 0.9707676 0.9692695 0.9676782 0.9658976 0.9639863 0.9622009 0.9606158 0.9591258 0.9575079 1.02318 1.098583 0.9569507 0.9588362 0.9606153 0.9625626 0.9644012 0.9832956 1.045419 1.085887 1.130625 1.170083 1.184849 1.191893 1.172529 1.111117 1.086077 1.066856 0.9729823 0.9756907 1.056277 0.9776398 0.9799313 0.9853485 0.9871128 0.9830106 1.008203 0.9842653 0.9837344 0.98414 0.9842408 0.9844896 0.985698 0.9875931 0.9896195 0.9920168 0.9946213 1.10625 0.994759 0.9928892 0.9903988 0.9884161 0.9869446 0.985106 0.9847479 0.9865112 0.9869655 0.9860961 0.9852412 0.9836171 0.9908687 0.9847543 0.9988376 1.064963 1.095893 1.024891 0.9838154 0.9856498 1.03819 1.075953 -9999 -9999 
-9999 -9999 0.9879555 0.9892426 0.9909178 0.9925147 1.081815 1.104775 1.126257 1.014968 0.9921864 0.9901289 0.9883457 0.9863563 0.9845366 0.9826951 0.9806142 0.9785796 0.9766539 0.9746632 0.9730613 0.9714559 0.9702415 0.9689429 0.9674263 0.9661165 0.9649452 0.9636075 0.9622611 0.9609098 0.9593946 0.9578224 0.9562218 0.9543645 0.9525355 0.9503132 0.9479693 0.9461928 0.9446695 1.124892 1.01151 0.9453562 0.9466522 0.9481199 0.9494169 0.9511799 0.9527458 0.9542797 0.9560208 0.9578467 0.9595535 0.9614515 0.9632782 0.9649818 0.9668868 0.9687966 0.9707055 0.9724838 0.9743723 0.9761348 0.9779754 1.004901 1.007594 1.009735 1.052277 1.093526 1.085773 1.054757 1.026072 0.996534 0.988219 1.001123 1.095969 1.039481 1.017765 1.121877 1.158606 1.182027 1.196469 1.096431 0.9900529 0.988025 0.9867042 0.9853621 0.9836974 0.9823763 0.9812636 0.9801249 0.9801288 0.9808551 0.981434 0.9818931 0.9826795 0.9986325 1.003508 1.010086 0.9949947 0.9851648 0.9868608 0.9887106 0.9964458 1.126406 1.178048 1.170573 1.038337 1.232744 1.034264 1.142067 1.016389 1.005356 1.109536 1.19237 1.194901 1.208639 1.252907 1.292673 1.082498 1.033276 0.990013 0.9879687 0.9862581 0.9968743 1.028338 0.9848536 0.9833955 0.992133 1.053356 1.036128 0.9807419 0.9786993 0.9769962 0.9749539 0.9727966 0.970923 0.9693253 0.9679655 0.9666175 0.9652969 0.963465 0.9617714 0.960032 0.9582525 0.9566048 1.114641 1.002164 0.9575588 0.9592014 0.9612246 0.9630133 0.9646437 0.985673 1.045009 1.109761 1.133053 1.161832 1.216687 1.231324 1.211603 1.118112 1.085828 1.049215 0.973108 1.002638 1.09962 0.9771984 0.9793431 0.9813511 0.9974363 1.008084 1.011348 0.986018 0.9859073 0.9865727 0.9867491 0.9860383 0.9924531 0.9879237 0.9902006 0.9924874 0.9948999 1.137075 0.9961524 0.9942952 0.9920802 0.9904456 0.9882889 0.9866078 0.9870847 0.9884083 0.9885516 0.987811 0.9867718 0.9848421 0.9897422 1.040881 1.009897 1.019019 1.07433 1.095011 1.020788 0.9889605 0.9964914 1.017329 -9999 -9999 
-9999 -9999 0.9893904 0.9906186 0.9920738 1.005835 1.096501 1.086598 1.148088 0.9953305 0.9924729 0.9901817 0.9878875 0.985882 0.9838802 0.981952 0.9800574 0.9783031 0.9766677 0.9751252 0.9739817 0.9730018 0.9718746 0.9705694 0.9691947 0.9677677 0.9662592 0.9646747 0.9630882 0.9615757 0.9599767 0.9583306 0.9564968 0.9544377 0.9525757 0.9507184 0.9490448 0.947276 0.9455469 1.085329 1.029542 0.9453061 0.9643004 0.9820551 0.9504195 0.9506998 0.9524194 0.9540308 0.9560993 0.9578931 0.9595667 0.9611971 0.9631953 0.9647394 0.966547 0.9682118 0.9702724 0.9720027 0.973736 0.975621 0.9770797 0.9777159 0.9788507 0.9807822 0.981899 0.9822951 0.9830357 0.9846864 0.9863071 0.987887 0.9929175 1.004278 1.081791 1.054441 0.9912398 1.071224 1.149468 1.186958 1.211761 1.18323 1.088963 0.9895772 0.9881842 0.9869729 0.9852825 0.9840483 0.9826317 0.9955325 0.9817284 0.9824483 0.9830025 0.9832607 0.9841809 0.9985046 1.011138 1.014724 0.9982071 0.9860241 0.9876892 0.9891924 1.003927 1.116724 1.152381 1.187889 1.043953 1.228524 1.044944 1.091633 1.013339 1.087317 1.259831 1.272575 1.218049 1.239017 1.307901 1.201081 1.047053 0.9913011 0.989523 0.9872219 0.9851245 1.006624 1.012153 0.9912822 0.9824223 0.9814255 0.9809081 0.9809929 0.989373 0.9882459 0.9781814 0.9758005 0.9733862 0.9711057 0.9689921 0.967056 0.9654875 0.9641134 0.9625811 0.9607366 0.9591275 0.9574685 0.9583934 1.260688 0.9564728 0.957763 0.9594526 0.9612395 0.9630492 0.9693179 0.9860474 1.024964 1.079491 1.079926 1.120436 1.222878 1.257692 1.254933 1.112936 1.050883 0.9963377 0.9735442 1.074882 1.155032 0.9760271 0.9784676 0.9803329 0.9824373 0.98421 0.9908598 1.005304 0.988183 0.9887317 0.9887516 0.9882793 0.9879663 0.9895284 0.9902222 0.9925757 0.9946324 1.060391 1.070248 0.9953633 0.993179 0.9908628 0.9887782 0.9881946 0.9894921 0.9902396 0.9900033 0.9894136 0.9883063 0.9864714 0.9844365 1.043406 1.050104 1.018833 1.01238 1.064232 1.088838 1.076029 1.036214 0.9867713 -9999 -9999 
-9999 -9999 0.9907226 0.9919888 0.9934108 1.043345 1.131515 1.097588 1.257617 0.9954325 0.9926791 0.9902448 0.9879607 0.9860964 0.9839604 0.9822188 0.9809895 0.9798386 0.9780014 0.9765819 0.9758186 0.9748279 0.9734789 0.971974 0.9702768 0.9686071 0.9669007 0.9649393 0.9632182 0.9614716 0.9598227 0.9584362 0.9563897 0.9540661 0.952259 0.9503022 0.9485883 0.9470384 0.9454618 1.152679 0.983909 0.9462294 0.9782984 0.9852527 0.9718348 0.954416 0.9520338 0.9538751 0.9560747 0.9580284 0.9597592 0.9614861 0.9637311 0.9653604 0.9669679 0.9686791 0.970295 0.971937 0.9732648 0.9746084 0.9753085 0.9760982 0.9779922 0.9797758 0.9795088 0.9801857 0.9814741 0.9828941 0.9842122 0.9857619 0.9876592 0.9898369 1.018153 1.153291 1.006008 1.042512 1.131096 1.177305 1.200525 1.191284 1.17681 1.060357 0.9896964 0.988052 0.9868277 0.9853403 0.9837811 1.000068 0.9830509 0.9840463 0.9845843 0.9850431 0.9855137 1.001052 1.005621 1.005859 0.9924757 0.9871886 0.9883804 0.989919 1.012767 1.105398 1.157981 1.17537 1.056286 1.197274 1.048757 1.045643 1.055871 1.252593 1.386714 1.322712 1.263914 1.278133 1.172179 1.036058 0.9916909 0.9900044 0.9881316 0.9862697 0.9843679 1.002828 0.9863383 1.007367 0.9819157 0.9801936 0.9789646 0.9786256 0.9784284 0.978085 0.9769479 0.9761635 0.973942 0.9714661 0.9692759 0.9672854 0.9651949 0.9634484 0.9616653 0.9600025 0.9582438 0.9565696 1.012703 1.12857 0.9562747 0.9579554 0.9594985 0.9613197 0.9629123 0.9880254 0.9980837 1.008363 1.020318 1.00264 1.028697 1.048896 1.053761 1.065997 1.011672 0.9715812 0.9726837 0.9888472 1.253636 1.242807 1.000369 0.9773484 0.9796692 0.9818242 0.9837412 0.9854658 0.9874245 0.9953832 1.001614 0.9906862 0.9903663 0.9902698 0.9898586 0.9906968 0.9928718 0.9952062 1.010577 1.097376 0.9960747 0.994159 0.9918366 0.9900942 0.9899116 0.9913728 0.9922652 0.9918671 0.9914581 0.9901988 0.9878096 0.9856911 1.024864 1.067952 1.093009 1.081004 1.075992 1.08507 1.133695 1.157643 1.012137 -9999 -9999 
-9999 -9999 0.9924246 0.9935042 0.9957812 1.096477 1.130988 1.108409 1.173435 0.99475 0.9925959 0.9906659 0.9884528 0.9865363 0.9851925 0.9839587 0.9823486 0.9809635 0.979526 0.9784479 0.9773034 0.9760117 0.9744923 0.9725611 0.9706343 0.9687013 0.9665362 0.964712 0.962792 0.961274 0.9595605 0.9579014 0.9560674 0.9540167 0.952013 0.949981 0.9483151 0.946895 0.9450844 1.267838 0.9518477 0.9477707 0.98431 0.9823823 0.9862456 0.974665 0.9519613 0.9539127 0.9559671 0.9577938 0.9595676 0.9615381 0.9634215 0.9650968 0.9667799 0.968147 0.9695195 0.9704979 0.9716012 0.972936 0.9739231 0.9753 0.9770505 0.980158 0.991222 0.9792089 0.9803923 0.9817839 0.9830683 0.984516 0.9865518 0.9889948 0.9915988 1.164143 1.042611 1.013031 1.083259 1.154499 1.179622 1.196812 1.195496 1.147082 1.000734 0.9895792 0.9881508 0.9866689 0.9847775 0.9847469 0.984601 0.9854495 0.986244 0.9864733 0.9867157 1.000724 1.003422 0.9946544 0.9877499 0.9884216 0.9895922 0.9909613 1.034072 1.10355 1.174791 1.161301 1.098449 1.180003 1.097463 1.057917 1.166928 1.300119 1.324659 1.287798 1.205308 1.096753 1.002911 0.9915173 0.9897714 0.9886795 0.9868973 0.9850884 0.9835181 0.9819701 0.9813418 0.9817407 1.00792 0.9799016 0.9778442 0.9768862 0.9762722 0.9758195 0.9748293 0.974205 0.9740161 0.9716272 0.9694985 0.9674219 0.9654166 0.9633294 0.9614744 0.9595006 0.9576599 0.9560477 1.095538 1.061092 0.9562902 0.957754 0.9593286 0.9609709 0.962735 0.9997678 1.010339 1.004095 0.971957 0.9688905 1.020348 1.082473 1.002265 0.9712707 0.9720901 0.9731088 0.9762404 1.103467 1.363938 1.283301 1.01657 0.9771975 0.9787009 0.9807565 0.9827279 0.9847182 0.9866431 0.9881178 0.990631 1.016558 0.9929092 0.9930339 0.9924203 0.9926394 0.9936278 0.9949104 0.9975078 1.144064 0.9973407 0.9949962 0.9930174 0.9918382 0.9913571 0.9931006 0.9937814 0.9935644 0.9928892 0.9908156 0.9885284 0.9867869 0.9860912 1.019129 1.081265 1.151742 1.172618 1.183109 1.228552 1.105629 0.9864708 -9999 -9999 
-9999 -9999 0.9940488 0.9951794 1.063985 1.130863 1.106877 1.15635 1.046887 0.9940421 0.9927437 0.9912735 0.9894171 0.9881094 0.986875 0.9855642 0.9838363 0.9824811 0.9811983 0.9797996 0.9781514 0.9764819 0.9746215 0.972542 0.970608 0.9684961 0.9668647 0.9649146 0.963218 0.961513 0.9599249 0.9581156 0.9564368 0.9546697 0.952803 0.9510511 0.9493878 0.9476423 0.9456474 1.112395 0.9484981 0.9620076 0.9802079 0.988137 0.9929091 0.970211 0.9525478 0.9539551 0.955795 0.9574724 0.9592652 0.9610021 0.9627494 0.9643298 0.9657162 0.9668527 0.9679618 0.9691558 0.970329 0.9717954 0.9731122 0.9748563 0.9760461 0.9766045 0.9770297 0.9780979 0.9795664 0.9811688 0.9828909 0.9845459 0.986858 0.9889441 0.9910523 1.039369 1.1463 1.005633 1.016622 1.100865 1.158305 1.185998 1.197168 1.164734 1.076914 0.9914157 0.9897528 0.9877653 0.9861802 0.9857334 0.9863366 0.9871318 0.9878306 0.9883195 0.988427 0.9888946 0.9933978 0.9889334 0.9893806 0.990013 0.9909434 1.001402 1.0506 1.103381 1.188056 1.191208 1.186613 1.137468 1.174004 1.165301 1.271486 1.267098 1.237361 1.183749 1.077126 0.9924163 0.9911389 0.9897211 0.9880624 0.9876978 0.9858782 0.9838367 0.9823241 0.9809085 0.9798651 0.9799466 0.9811689 1.018395 0.978117 0.9760892 0.9746543 0.9737405 0.9728603 0.9721419 0.971902 0.9712428 0.9690862 0.9670806 0.9649558 0.9629011 0.9609739 0.9590932 0.9573435 0.9554793 1.179093 1.040078 0.9667473 0.9574666 0.9590263 0.960767 0.9696669 1.0162 1.022892 1.010745 0.9666757 0.9684321 0.9695586 0.9803798 0.996907 0.9885416 0.9760279 1.03358 1.133185 1.111998 1.041991 0.9884688 0.976034 0.977482 0.9789068 0.9808421 0.9829885 0.9853297 0.98689 0.9896472 0.9917644 1.019624 1.085901 1.110833 1.012848 0.995349 0.9956348 0.9963007 0.9976073 1.135272 0.9980271 0.9960159 0.9944883 0.9935697 0.9931488 0.9947845 1.00246 0.9951329 0.9938589 0.9918144 0.9905275 0.9888676 0.987828 0.9870249 1.018901 1.078372 1.191384 1.321507 1.270041 1.038752 0.9877919 -9999 -9999 
-9999 -9999 1.010662 1.061039 1.105301 1.113477 1.150643 1.226963 1.002774 0.9945698 1.025513 1.023411 1.029785 1.030241 1.010235 0.9872981 0.9854295 0.9836007 0.9850387 0.9804072 0.9783356 0.9762462 0.9743451 0.9724537 0.9708713 0.9691533 0.9675772 0.9656988 0.9638235 0.9621605 0.9605675 0.9586718 0.9570522 0.9552281 0.9535697 0.9517993 0.9500591 0.9481452 0.9460533 1.071568 0.9557734 0.9796557 0.9866599 0.9839028 0.9783939 0.9548067 0.9530159 0.9543493 0.9557851 0.9574164 0.9588913 0.960708 0.9622226 0.9687679 0.9825516 0.9945487 0.9895502 0.9814255 0.9749587 0.9709707 0.9722107 0.9736373 1.003101 1.029301 1.014779 0.9770539 0.9789737 0.9812301 0.9834943 0.9857708 0.9876265 0.9890946 0.9907132 0.9922882 1.114884 1.099414 1.001443 1.053013 1.161882 1.175845 1.172194 1.159541 1.180444 1.041299 0.9910284 0.9893 0.9878166 0.9874231 0.9880776 0.9888071 0.9895332 0.9901145 0.9903638 0.9905224 0.9903208 0.9903684 0.9907758 0.9913359 0.9920885 1.019396 1.073743 1.128376 1.173134 1.163932 1.20539 1.093902 1.13932 1.22818 1.237652 1.251165 1.168666 1.08675 1.011611 0.991146 0.989702 0.9882225 0.9865542 0.9854072 0.9841563 0.982515 0.9809319 0.9793919 0.978273 0.97825 0.9783172 0.9783442 1.016312 0.9765025 0.9745357 0.9725802 0.9712275 0.9700586 0.9701557 0.9690613 0.9677985 0.9662777 0.9642656 0.9623402 0.9606057 0.9588379 0.9571882 0.959847 1.202505 1.042165 0.9640296 0.9574881 0.9590699 0.9606982 0.9688066 1.018508 1.034431 1.020596 0.9743536 0.9673395 0.9685424 0.9699479 0.9717515 0.9793196 1.126016 1.207896 1.097898 0.97875 0.9775152 0.977727 0.9781447 0.9791363 0.9806919 0.9813972 0.9828305 0.9848723 0.9872503 1.005537 0.9892978 0.991038 0.9923139 0.9935849 1.007099 1.084119 1.108071 1.083734 1.041693 1.132597 0.9992549 0.9972796 0.9962074 0.9953462 0.9948894 0.9959356 1.040702 1.008525 0.994877 0.9935334 0.9924245 0.9906133 0.9895904 0.988372 1.007827 1.032053 1.07801 1.166955 1.15946 1.004197 0.9882303 -9999 -9999 
-9999 -9999 1.051018 1.049842 1.065138 1.129082 1.215832 1.032732 0.9952304 0.9937072 0.9923348 0.9909949 0.9897484 0.988495 0.9876391 0.9862831 0.9845342 0.9826892 0.9813602 0.9800433 0.9784571 0.9765648 0.9746278 0.9727187 0.970958 0.9694013 0.9675049 0.9656585 0.9640619 0.9620771 0.9602853 0.9585076 0.9567164 0.9549485 0.9532102 0.9515836 0.9499177 0.9482327 0.9594385 1.197363 0.9816502 0.9960778 0.995629 0.9808517 0.9606261 0.9521219 0.9536259 0.9550562 0.9565445 0.9578363 0.9593782 0.9608666 0.9770545 0.9933242 1.004403 1.003848 0.9949634 1.007373 1.021601 1.007169 0.9849972 0.999321 1.040457 1.046108 1.024277 0.9990962 0.978376 0.9809868 0.9834833 0.985424 0.9871868 0.9889763 0.9902195 0.9913079 0.993484 1.186874 1.059857 1.030839 1.15773 1.176789 1.168716 1.180146 1.18671 1.114414 0.9922375 0.9908335 0.9889994 1.009418 0.9896821 0.990469 0.9914161 0.9919873 0.9922757 0.9923347 0.9920277 0.9921648 0.9927747 0.9932083 0.9987125 1.052969 1.12317 1.158862 1.155135 1.121757 1.112909 1.057638 1.158256 1.229397 1.19778 1.139925 1.094939 1.037222 0.9919052 0.990371 0.9888369 0.9868622 0.9849238 0.9833326 0.9823302 0.9811316 0.9796684 0.9779058 0.9767376 0.9765463 0.9765223 0.9763185 0.9767339 0.9818968 0.9745183 0.9725082 0.9704134 0.968704 0.9678288 0.96731 0.9663833 0.9650329 0.9635527 0.9617841 0.9599615 0.9583175 0.9566352 0.9832253 1.186216 1.065699 0.957871 0.9571559 0.9585952 0.9600795 0.961625 0.9744238 1.005283 1.006808 0.9876514 1.002847 0.9677994 0.9697878 0.9719613 0.9741278 1.137888 1.151408 1.030777 0.9850318 0.9787244 0.98054 0.9806474 0.9815924 0.9829926 0.9837572 0.9848235 0.9860761 1.063795 0.9961709 0.9876031 0.9894448 0.9903337 0.9917387 0.9937381 0.9947963 0.9959682 0.9972324 0.9986056 1.099732 1.177432 0.9995043 0.9982432 0.9970428 0.9968413 0.9975995 1.023651 1.010647 0.9965395 0.9953206 0.9938744 0.9924009 0.9911937 0.989633 0.9908413 1.001144 1.002843 1.020742 1.038129 1.003196 0.9886251 -9999 -9999 
-9999 -9999 1.040085 1.047527 1.185372 1.142084 1.025755 0.9953806 0.9943687 0.9925393 0.9909254 0.9892212 0.9876067 0.9864676 0.9852194 0.983978 0.9825284 0.9808679 0.9793968 0.9785179 0.9778927 0.9764943 0.9746256 0.9726403 0.9704974 0.9687372 0.9667801 0.965224 0.9633196 0.9614275 0.9596078 0.957871 0.9559395 0.9542947 0.9525468 0.9509127 0.9492933 0.9477547 0.9983236 1.197371 0.9802567 0.9811109 0.9863902 0.9679744 0.9510948 0.9526843 0.9542378 0.9556937 0.9574111 0.9587783 0.9602529 0.9614748 0.969027 0.9782489 0.9850115 0.9817577 0.9865959 1.001485 1.00303 0.9982948 0.9717484 0.9732944 0.9749132 0.9766709 0.9779839 1.001229 0.9786282 0.9805912 0.9827387 0.9845088 0.9859774 0.9868543 0.9881718 0.9898496 0.9916613 1.012059 1.165419 1.021523 1.113178 1.180383 1.177351 1.176228 1.16693 1.174275 1.040065 0.9919593 0.9904756 1.011782 0.9908307 0.992035 0.99323 1.003904 1.013994 1.004068 0.9938788 0.9941689 1.002285 1.028551 1.060557 1.11604 1.177811 1.180987 1.176509 1.11571 1.048747 1.083854 1.301727 1.247673 1.146835 1.083918 1.078579 1.045799 1.01033 0.9896737 0.9880708 0.9859349 0.9840287 0.981953 0.9805353 0.9794191 0.9784042 0.9768486 1.000588 0.9932207 0.9747279 0.9747233 0.9747366 0.9746913 0.9821917 0.9724465 0.9703088 0.9683837 0.9664956 0.9656835 0.9646841 0.9637341 0.9624177 0.960888 0.9592661 0.9578072 0.9560187 1.005944 1.122535 1.068296 0.9583535 0.9563571 0.95773 0.9590085 0.9604906 0.9617599 0.9627924 0.9639399 0.9770156 0.9984431 0.9674263 0.9698628 0.9719535 0.9735974 1.11231 1.142354 1.009698 0.9914951 0.9862396 0.9953852 1.037205 1.041377 1.044872 1.058666 1.052322 1.006996 0.986402 0.9854509 0.9864359 0.9875119 0.9885548 0.9904509 0.9921317 0.993011 0.9939467 0.9953252 0.9974412 0.9986528 1.036417 1.174626 1.000997 0.999622 0.9994906 0.9992021 0.9994656 0.9985961 0.9979177 0.9969538 0.9957301 0.9934916 0.9924165 0.9971383 0.989866 0.9890453 0.9884968 0.9880442 0.9878017 1.006411 0.992184 -9999 -9999 
-9999 -9999 1.034274 1.200133 1.075891 1.027108 1.04976 1.030327 0.9937622 0.9917678 0.9896101 0.987527 0.9855443 0.984094 0.9829381 0.9814714 0.980508 0.9790369 0.9774243 0.9763992 0.9761746 0.9754302 0.9740039 0.9724172 0.9704415 0.9683648 0.9663541 0.9644246 0.9625856 0.9607061 0.9589845 0.9573259 0.9556171 0.953864 0.9521455 0.9501727 0.9485352 0.9468084 1.059519 1.102758 0.9657243 0.9481608 0.9558958 0.9507287 0.9521648 0.953651 0.9551252 0.9567095 0.9583102 0.9596658 0.9612244 0.9623887 0.9635546 0.9646248 0.9658889 0.9668622 0.9680725 0.9731032 0.9704089 0.97154 0.9725001 0.9742888 0.9757968 0.977048 0.9781877 0.9790031 0.9868777 0.9827511 0.9890738 0.9953834 1.031909 1.020657 0.987062 0.9894933 0.9917672 0.9943705 1.22918 1.042127 1.042488 1.154344 1.182429 1.159029 1.158772 1.196245 1.09756 1.019747 0.9919639 1.008774 0.9921601 0.9934827 1.037271 1.076967 1.071395 1.049563 1.04477 1.062554 1.085674 1.107287 1.136693 1.165596 1.202392 1.160578 1.100131 1.050676 1.085874 1.213657 1.214357 1.260679 1.121183 1.038883 1.012128 1.010437 1.031563 1.005905 0.9880112 0.9860956 0.9839834 0.9821106 0.980507 1.002795 1.015939 0.9950209 1.001417 1.050873 1.045241 0.9856687 0.9725607 0.9726188 0.9728933 0.9722917 0.9699825 0.9679082 0.9661365 0.9694821 0.9635876 0.9623688 0.9612457 0.9597989 0.9582996 0.9569404 0.9598801 0.9811218 1.075617 1.07881 0.9892934 0.9555004 0.9564751 0.9579249 0.9593837 0.9603477 0.9615379 0.9633664 0.9644276 0.9656326 0.9670252 0.969355 0.9712778 0.9732277 1.012601 1.137511 1.044696 0.976449 0.9777606 0.9789888 0.9805871 0.981008 0.9820547 0.9830058 0.9836432 0.9840291 0.9836161 0.997341 1.012486 1.010752 0.9875087 0.9895434 0.9899189 0.9911466 0.9925549 0.9946138 0.9962586 0.9968545 0.9985596 1.000273 1.104513 1.036859 1.002749 1.001835 1.00149 1.00019 0.9991605 0.9982188 0.9960014 0.9941659 0.994714 1.004656 0.9914901 0.990727 0.9901229 0.9898216 0.9895679 1.016616 1.044608 -9999 -9999 
-9999 -9999 1.127096 1.122792 1.023278 1.066324 1.132657 1.03555 0.9933347 0.9914579 0.9891739 0.987119 0.9850074 0.9828323 0.9810104 0.9793168 0.978151 0.977221 0.975836 0.9747851 0.9741151 0.973544 0.9728256 0.9716911 0.9703043 0.9685877 0.9666605 0.9646411 0.9627327 0.9606389 0.9586507 0.9567854 0.9551405 0.9532758 0.951557 0.9498165 0.9481048 0.9464046 1.190149 1.037913 0.9499464 0.9485495 0.9499631 0.9515054 0.9531172 0.9546704 0.9562488 0.9577779 0.9593308 0.9606622 0.9622354 0.9635358 0.9647621 0.965956 0.9670966 0.9680644 0.9692881 0.9703484 0.9713062 0.9729913 0.9745613 0.9756603 0.977215 0.9787718 0.9797353 0.9804658 0.9809463 0.9818686 0.9828094 0.9839849 0.9853103 0.9864281 0.9875568 0.9889853 0.9908685 0.9934857 1.084699 1.131514 1.019648 1.097674 1.193873 1.174794 1.176369 1.184157 1.143173 1.07932 1.02029 1.002495 0.9935152 1.019033 1.068208 1.102965 1.107552 1.103442 1.119315 1.136531 1.145025 1.161071 1.185524 1.193959 1.185819 1.078179 1.03682 1.087937 1.169966 1.167505 1.178262 1.178758 1.064369 0.9939196 0.9921864 0.9903196 0.9897917 0.9893794 1.01057 0.9866938 0.984625 0.982574 0.9803287 0.9784845 1.022043 1.001931 1.002204 1.051819 1.061996 1.039403 1.017661 0.9709569 0.9707628 0.9708394 0.9700295 0.9677815 0.9656499 0.9641485 0.9629112 0.9613135 0.9601197 0.9586498 0.9572528 0.9570576 0.9576223 0.9868847 1.220549 1.182995 1.084655 0.968759 0.9558197 0.9576227 0.9919776 0.9974807 0.9833148 0.9905338 0.9632865 0.9651804 0.9672633 0.9688245 0.9706343 0.9715642 0.9732252 0.9946817 1.089913 1.024373 0.9764626 0.9781649 0.9784372 0.9794083 0.9809429 1.000617 1.000269 1.004463 1.00981 1.001748 1.008627 1.010424 0.9866385 0.9876822 0.9954408 0.9900929 0.9915544 0.993221 0.9943987 0.9954221 0.9969354 0.9989398 1.000663 1.002496 1.15386 1.057119 1.002223 1.001635 1.00051 0.9987758 0.9971197 0.9953204 0.9937879 0.9984132 0.9936838 0.9926885 0.9919579 0.991522 1.003076 1.066898 1.187674 -9999 -9999 
-9999 -9999 1.232687 1.039252 1.037533 1.130136 1.124071 0.9955025 0.9932684 0.9907711 0.9886916 0.9870432 0.984935 0.9829274 0.9805478 0.9784024 0.9766627 0.9757906 0.974325 0.973164 0.972418 0.9716743 0.9712014 0.9701979 0.9692352 0.9681651 0.9665729 0.9646893 0.9627457 0.9607068 0.9587461 0.9568198 0.9548068 0.9530038 0.951098 0.9494708 0.9478084 0.9615006 1.436375 0.9985891 0.9472507 0.9487365 0.9504389 0.951928 0.9536796 0.9553619 0.9569856 0.9585372 0.9600994 0.9615594 0.9631201 0.9645575 0.9657659 0.9671326 0.9681817 0.9695383 0.9706599 0.9718193 0.9729016 0.9746913 0.9768492 0.9782178 0.979283 0.9806362 0.981605 0.9827437 0.9834461 0.9839355 0.9848483 0.9859167 0.9867546 0.9879646 0.9891791 0.9905456 0.992326 0.9939295 1.062086 1.192898 1.060634 1.030433 1.159407 1.191927 1.200057 1.177127 1.141465 1.128466 1.075207 1.035161 1.028924 1.056541 1.096031 1.126543 1.147466 1.163933 1.173221 1.166974 1.18357 1.215905 1.21774 1.193329 1.100362 1.01883 1.099875 1.222896 1.186756 1.14297 1.089762 1.027696 0.9944313 0.9931099 0.991206 0.9890547 0.9877607 0.9872301 0.9867564 1.011469 0.9849933 0.9828621 0.9809783 0.9785699 1.011078 1.007224 1.004679 1.035169 1.0408 1.000773 0.9820151 0.9696667 0.9692153 0.9687299 0.9688398 0.9672964 0.9653266 0.9635767 0.9620534 0.9604139 0.9588073 0.9574416 0.9560568 0.9555348 0.9712305 1.122822 1.268087 1.15885 1.135855 0.9950086 0.956021 0.9576861 0.9940689 1.003261 1.0226 1.055057 0.9852026 0.9644375 0.9654816 0.9673489 0.968629 0.9699498 0.9712035 0.9729769 0.9988517 1.096948 1.013788 0.9836332 0.9919196 0.9784719 0.9800137 1.00712 1.029279 1.073877 1.041062 1.048513 1.031025 1.018613 1.004522 1.016738 1.030339 1.008904 0.990576 0.9918832 0.9930013 0.9939529 0.9953474 0.9973825 0.9994302 1.001092 1.003243 1.281582 1.043187 1.00308 1.001696 1.00017 0.9986871 0.9972508 0.9953301 1.006536 0.9953474 0.9944007 0.9935877 0.9930027 1.012565 1.046817 1.18275 -9999 -9999 
-9999 -9999 1.114079 1.021946 1.077517 1.169031 1.030924 0.9944875 0.9917999 0.9896376 0.9871262 0.9855117 0.9836391 0.9819299 0.9800186 0.9778841 0.9756603 0.9741353 0.9729466 0.973443 0.9737625 0.9702415 0.9693801 0.9684957 0.9675732 0.9666407 0.9656606 0.9640839 0.9622875 0.9604056 0.9584469 0.9565056 0.9547198 0.9527206 0.9509625 0.9491395 0.9473149 1.011136 1.17268 0.9756355 0.9479057 0.9491823 0.9507446 0.9523342 0.9541219 0.9557698 0.9574864 0.9588864 0.9605615 0.9621449 0.9636429 0.9653175 0.9667988 0.968098 0.9694628 0.9707005 0.9719853 0.973073 0.9741706 0.9757317 0.9778821 1.020878 1.024599 1.013036 1.016446 0.9978095 1.018282 1.046092 1.035474 1.039608 1.022714 1.021039 1.008841 1.00938 1.03921 1.03854 1.067895 1.148971 1.136386 1.003926 1.063402 1.191167 1.201824 1.202279 1.163574 1.183077 1.1592 1.132629 1.126283 1.135775 1.159315 1.180714 1.190856 1.203499 1.214175 1.213554 1.217426 1.23415 1.203371 1.101073 1.027755 1.08517 1.269127 1.226167 1.254043 1.098605 0.9962041 0.9940762 0.9927045 0.9920691 0.9909917 0.9886069 0.9863374 0.9854705 0.9847311 0.984651 0.9848388 0.9828043 0.9804809 0.9782271 0.9926672 0.9949932 0.9910216 1.009726 1.014855 0.9734488 0.9698595 0.9681943 0.9674839 0.966996 0.9669294 0.966702 0.9649714 0.9628668 0.9611826 0.9594955 0.9579824 0.9580061 0.9557486 0.9635704 1.103477 1.308358 1.114903 1.048773 1.041929 1.031885 0.9558984 0.9577807 1.00733 1.02642 1.022577 1.053024 1.009833 0.9893433 0.9847516 0.9656294 0.9668218 0.9680652 0.9695284 0.9713695 0.9733149 1.063617 1.105642 1.037501 0.9992554 0.9772879 0.9789348 0.9793262 1.003333 1.015221 1.048735 1.098079 1.090736 1.044106 1.003556 1.027207 1.064549 1.042435 1.011173 0.9995125 0.9916157 0.9929598 0.9947315 0.9970808 0.9986452 1.000582 1.002071 1.026837 1.20011 1.030597 1.003602 1.002044 1.000499 0.9983942 0.9964297 0.9965174 0.9970127 0.9961022 0.9952849 1.002237 1.028962 1.033949 1.115353 -9999 -9999 
-9999 -9999 1.032082 1.017619 1.062433 1.037882 0.9958169 0.9928115 0.9903449 0.9881498 0.9857816 0.9838468 0.9820832 0.9803761 0.9787611 0.9770205 0.9748051 0.9731049 0.9869453 1.002784 1.001503 0.9984431 0.9896384 0.9706032 0.966233 0.9650167 0.9640524 0.9627871 0.9615552 0.9597631 0.9579799 0.9559839 0.954135 0.9522647 0.9506079 0.94881 0.9471256 1.078709 1.094804 0.9874528 0.967033 0.9492077 0.9509806 0.9525321 0.9542648 0.955855 0.9576864 0.9592704 0.9609693 0.9625756 0.9639969 0.9657816 0.9673973 0.9689039 0.9704365 0.9903766 1.027432 1.053948 1.085223 1.006478 0.9761855 0.9772524 0.978166 0.9793033 0.9805086 0.9817881 0.983039 0.9843295 0.9855012 0.9871032 1.013469 0.9983063 0.9894225 0.9910302 0.9920697 0.9928434 0.9946454 1.046309 1.134959 1.058384 1.003718 1.129517 1.171011 1.197659 1.181592 1.228839 1.221333 1.213512 1.193526 1.187369 1.213884 1.23923 1.237683 1.252427 1.26717 1.274243 1.247318 1.172989 1.076081 1.038244 1.103048 1.31652 1.255716 1.255058 1.222159 0.9977553 0.9949794 0.9925414 0.9908772 0.990238 0.9900116 0.9885939 0.9860244 0.983883 0.9829152 0.9822998 0.9823994 0.9821339 0.981089 0.9789597 0.9772809 0.975688 0.973982 0.972779 0.973357 0.9704288 0.9690848 0.9674361 0.9660448 0.9655175 0.9651995 0.964486 0.9632364 0.9617954 0.9603048 0.9586726 0.9572136 0.9564181 0.9544923 1.075349 1.330651 1.132751 1.052079 1.027146 1.037423 1.045604 0.9840441 0.9576453 1.013144 1.088867 1.056097 1.052292 1.027124 0.9932683 0.9991629 0.9921772 0.9682111 0.9678695 0.9692278 0.9711195 0.9727339 1.021933 1.15809 1.16837 1.055224 0.997105 0.9910472 0.9971136 0.9816362 0.9801584 1.015966 1.066459 1.062888 1.014537 1.005516 1.071131 1.131301 1.116524 1.058181 1.027812 0.9907742 0.9927785 0.9950339 0.9970108 1.029009 0.9990062 1.001216 1.002955 1.021686 1.226744 1.034638 1.003841 1.001739 0.9997562 0.9980017 0.9975966 0.9987939 0.9980476 0.9967675 1.022971 1.057402 1.074717 1.149949 -9999 -9999 
-9999 -9999 1.019706 1.019296 1.007316 0.9951818 0.9937701 0.9914246 0.9893008 0.9867082 0.9842842 0.9824666 0.980778 0.9790962 0.9774581 0.9760321 0.9739609 0.972394 1.012209 1.025664 1.016375 1.002489 0.9934631 0.9806058 0.9652941 0.963702 0.962339 0.9611565 0.9602135 0.9588838 0.9571053 0.9553208 0.9535021 0.9518581 0.9499645 0.9485142 0.9940094 1.114328 1.102663 1.013074 0.9779756 0.949498 0.9511628 0.9526941 0.9545401 0.9559591 0.9577383 0.9594798 0.9611064 0.962694 0.9642687 0.9657679 0.9671692 0.9687204 0.9701634 0.9718073 0.9842959 0.9910814 0.9775845 0.9738619 0.9744156 0.9754265 0.97665 0.9777629 0.9793145 0.9803955 0.9816044 0.9828491 0.9839196 0.9855671 0.9872521 0.9870231 0.9878771 0.9892026 0.9901916 0.9918043 0.9941318 0.996093 1.045105 1.193254 1.004511 1.070133 1.153769 1.192324 1.176842 1.242555 1.21849 1.224129 1.215294 1.216438 1.247781 1.272906 1.27251 1.280994 1.289726 1.286132 1.233907 1.114305 1.063397 1.160495 1.301839 1.267273 1.225689 1.137971 1.035865 0.9964346 0.993759 0.9915921 0.9895184 0.988304 0.9879673 0.9873604 0.9863175 0.9838061 0.9818345 0.9803302 0.9800382 0.9798405 0.9796851 0.9790283 0.9775948 0.9753611 0.9737495 0.9717481 0.9704052 0.9692445 0.968061 0.9666068 0.9650566 0.9640949 0.9635013 0.9627739 0.9615496 0.9603505 0.9591399 0.9577257 0.9570171 0.9549005 1.019367 1.284784 1.214485 1.113402 1.056958 1.040573 1.039483 1.02023 0.9864709 0.9577326 0.9989527 1.064175 1.076947 1.111859 1.089378 1.036248 1.029214 1.025862 0.9900488 0.9668182 0.9684353 0.9704974 0.9722599 0.9946476 1.106992 1.287697 1.155693 1.079551 1.082806 1.044496 0.9778722 0.9794167 0.9810003 1.002122 1.018458 1.022521 1.045111 1.100604 1.158497 1.235327 1.145011 1.018763 0.9908699 0.9931168 0.9952192 1.030363 1.08426 1.023201 1.000056 1.001746 1.003017 1.014868 1.218704 1.005849 1.003901 1.001631 0.9997828 0.999445 1.025984 0.9989569 0.9969164 1.017781 1.083446 1.126943 1.144283 -9999 -9999 
-9999 -9999 1.037608 1.002047 0.9958628 0.9941935 0.9921648 0.9902348 0.9881 0.9856075 0.9837018 0.9815469 0.9824411 0.9788436 0.9769424 0.9754872 0.9739335 0.9740751 0.9991245 1.019202 1.015734 0.9992793 0.9942617 0.9932942 0.9647418 0.9628782 0.9609402 0.959639 0.9586546 0.9577491 0.9563463 0.9547204 0.9529432 0.9513106 0.9506361 0.9774079 1.015261 1.057605 1.066798 1.03244 0.9990696 0.9566556 0.9512246 0.9527453 0.9544868 0.9559528 0.9575638 0.9592567 0.9608561 0.9624795 0.9640597 0.9656705 0.9867987 0.9924091 0.9851765 0.9701924 0.971269 0.9718364 0.9722456 0.972336 0.9726114 0.9738095 0.9749383 0.9761435 0.9777883 0.9792334 0.9804807 0.9816642 0.9829389 0.9843194 0.9976133 1.024715 1.011505 0.9973397 0.9895529 0.9913023 0.9930081 0.9950321 0.9969704 1.096403 1.07437 1.031229 1.17565 1.238018 1.171032 1.247432 1.216493 1.235999 1.239304 1.238683 1.266377 1.281336 1.28069 1.284169 1.27843 1.246952 1.180557 1.101257 1.172389 1.238644 1.239234 1.246337 1.13472 1.075457 1.025047 0.9949533 0.9929011 0.9908194 0.9888768 0.9868204 0.9858195 0.9851549 0.9843513 0.9837119 0.9814032 0.9788278 0.9779015 0.9774994 0.9771082 0.9769321 0.9758953 0.9748679 0.9731808 0.9710904 0.9694694 0.9678313 0.9667555 0.9653606 0.9640579 0.962666 0.9619892 0.9613318 0.960187 0.9590232 0.9582743 0.9571979 0.955475 0.9837242 1.162162 1.426499 1.193622 1.109385 1.068864 1.043109 1.037745 1.022957 0.9864982 0.9659114 0.990892 1.019581 1.031053 1.029631 1.004192 0.9814481 0.9924536 1.012144 1.017228 1.004464 0.9676746 0.9698032 0.9717856 0.9728591 1.033328 1.205129 1.215522 1.15144 1.159278 1.078462 0.9771588 0.9788153 0.9806382 0.9822555 0.994094 1.030411 1.039589 1.080756 1.168976 1.312157 1.179563 0.9972031 0.9912114 0.9932455 0.9952017 1.054093 1.127541 1.086215 1.002793 1.000453 1.002428 1.004307 1.058815 1.121834 1.005877 1.003103 1.001317 1.013883 1.027386 0.9992884 0.9969459 1.012011 1.101455 1.113001 1.073135 -9999 -9999 
-9999 -9999 1.031541 0.9966013 0.9948649 0.9930211 0.9911862 0.9892228 0.9869394 0.9848211 0.9826712 0.9806443 0.98815 0.9784806 0.9767438 0.9918045 0.9981636 0.9745615 0.9808607 1.002445 1.005031 0.9979125 1.010276 1.020163 0.9822592 0.9627435 0.9604763 0.958631 0.957368 0.9565266 0.9552807 0.9536862 0.9558302 0.9821482 0.991623 0.9873495 0.9936126 1.008149 1.025778 1.044232 1.035051 0.9831368 0.9511371 0.952656 0.9541762 0.9557948 0.9573694 0.9590353 0.9607341 0.962259 0.9638299 0.965587 0.9993802 1.081962 1.099579 1.040481 0.9991207 1.003753 1.017745 1.037491 1.011671 0.9741901 0.9735551 0.9751832 0.9764424 0.978051 0.9796261 0.9809133 0.9823962 0.9912066 1.008793 1.010835 0.9950787 0.9874703 0.98873 0.9902493 0.9921777 0.9942471 0.9963446 1.027557 1.233102 1.023144 1.135193 1.225112 1.146612 1.206169 1.210471 1.222102 1.223197 1.219985 1.237799 1.240257 1.242728 1.264164 1.257643 1.219212 1.164292 1.129263 1.244599 1.194484 1.195663 1.140429 1.046664 1.054043 1.073817 0.9949088 0.9927195 0.990584 0.9884245 0.9864209 0.9845364 0.9832536 0.9822085 0.9818389 0.9806058 0.9779854 0.9761229 0.9755352 0.9750705 0.9746514 0.973713 0.972875 0.9726136 0.9708565 0.9686761 0.9669491 0.9656311 0.9641727 0.9628831 0.9615379 0.9602289 0.9634629 0.9651963 0.958567 0.9571482 0.9555242 0.979035 1.114752 1.286443 1.463638 1.181656 1.097324 1.067091 1.031661 1.017429 1.021751 1.014854 1.000829 1.007417 1.000305 0.9990652 0.993264 0.9701551 0.9729122 1.021623 1.063299 1.062384 1.037323 1.003369 0.9736424 0.9708006 0.9721209 0.9893754 1.110018 1.135849 1.121094 1.170762 1.179578 1.054913 0.9777842 0.9797053 0.9814703 0.9831599 0.9854631 0.9997113 1.052762 1.151576 1.192814 1.118645 0.9891729 0.9907764 0.9930164 0.9949059 1.040002 1.118924 1.116041 1.033481 1.000022 1.001871 1.003604 1.005867 1.152477 1.007061 1.004891 1.00322 1.005562 1.00223 1.000067 0.9978349 0.9958469 1.051751 1.066888 1.057227 -9999 -9999 
-9999 -9999 1.019282 0.9958542 0.9940029 0.9920859 0.9899716 0.9878873 0.9857531 0.9836826 0.9812113 0.9795853 0.988422 0.9774996 0.9759549 1.007414 1.019535 0.9990541 0.9860117 0.9906481 0.9843062 0.9850253 1.016121 1.039996 1.007981 0.9626845 0.9609716 0.9588313 0.9568192 0.9906806 0.9843601 0.9777789 0.9846007 0.9971763 0.9993293 0.9931895 0.9918604 0.9895589 0.9897656 0.9956677 1.003715 1.001462 0.970063 0.9533908 0.9539265 0.9555082 0.9570769 0.95862 0.9600859 0.9619289 0.9638599 0.9657079 0.9680251 0.9779174 1.008382 1.070823 1.121998 1.134292 1.145428 1.106707 1.090433 1.077515 1.017644 0.9740714 0.9757004 0.9770441 0.9785922 0.9799372 0.9812793 0.9823676 0.9833086 0.9964878 0.98816 0.9867044 0.9884093 0.9907854 0.9927581 0.994709 0.9965389 1.012293 1.179197 1.084881 1.073101 1.166164 1.146703 1.197557 1.192586 1.196456 1.196099 1.202144 1.219807 1.220412 1.2307 1.250865 1.220787 1.196289 1.185766 1.166625 1.277354 1.200291 1.135809 1.014722 0.9973283 0.9960839 0.9972605 1.059052 0.9936641 0.9913664 0.9890561 0.9868827 0.9844449 0.9824641 0.9865207 0.97969 0.9782938 0.9766208 0.9747985 0.9738441 0.9732571 0.9726923 0.9719771 0.9709828 0.970468 0.9695856 0.9679183 0.966252 0.9646904 0.9634085 0.9619268 0.9603732 0.9610395 0.9686577 0.9588887 0.9568708 0.9556369 0.9981952 1.102221 1.249036 1.334739 1.412465 1.199658 1.118864 1.078449 1.03122 0.9964882 0.9882319 1.004816 1.022891 1.040664 1.022183 1.031826 1.079721 1.10011 1.15273 1.156089 1.088827 1.03473 0.9990542 0.9883218 0.9789842 0.969942 0.971282 0.9731203 1.028294 1.028146 1.008801 0.9986546 1.019431 1.100073 1.094472 0.9784653 0.9800486 0.9817396 0.9835127 0.985105 1.029996 1.165697 1.272044 1.087427 0.9891496 0.9908955 0.9927709 1.005291 1.025151 1.053337 1.061647 1.020776 0.9988829 1.000303 1.002237 1.00449 1.007283 1.194726 1.007466 1.005135 1.004737 1.002817 1.000438 0.998444 0.9971632 1.022662 1.092409 1.139384 -9999 -9999 
-9999 -9999 1.024716 0.995425 0.9932093 0.9909905 0.9888508 0.9866444 0.9847081 0.9826509 0.9809091 0.984008 0.9976044 0.9766675 0.9854441 1.012133 1.018611 1.013188 1.005067 0.9979383 0.9808698 0.9762875 1.009225 1.065154 1.0504 0.971346 0.9616372 0.9598317 0.9579247 0.9564075 0.9552448 0.9543593 0.953155 0.9750094 0.9919795 0.9945008 0.9967387 0.9836702 0.9633387 0.9502242 0.9505799 0.9579767 0.9531693 0.9540181 0.9809045 0.9606053 0.9564019 0.9584963 0.9599162 0.9620849 0.9641843 0.966531 0.9692222 0.9703768 0.9706506 0.9707563 0.9705889 0.9709355 0.9716008 0.9716195 0.9955274 1.032531 1.040546 1.013386 1.002152 1.004229 0.9980158 0.9890832 1.006727 1.013762 1.008186 1.010343 0.990225 0.986378 0.9882327 0.9904503 0.9922036 0.9941888 0.9959579 0.9980916 1.084594 1.193801 1.057669 1.090564 1.140292 1.219011 1.197072 1.192018 1.197571 1.218061 1.238541 1.249594 1.265119 1.260633 1.205315 1.20736 1.211827 1.165077 1.3369 1.068223 0.9988874 0.9976032 0.9959136 0.9944183 0.9931101 0.9932774 1.024024 1.008801 0.9903383 0.9878675 0.985465 0.9830462 0.9813472 0.9793339 0.9773631 0.9756234 0.9739393 0.9916241 0.9718087 0.9708959 0.9701172 0.9692958 0.9686162 0.9680992 0.9668612 0.9654882 0.9637926 0.9623643 0.9608912 0.9600776 0.9580396 0.9741706 1.009844 1.017387 1.025287 1.081799 1.199788 1.306502 1.347371 1.282295 1.18397 1.146582 1.116741 1.053468 0.9933249 0.9800269 0.9946705 1.01792 1.038749 1.018849 1.030065 1.082908 1.113498 1.109301 1.087866 1.070135 1.035176 0.9926522 0.969188 0.9678923 0.9692917 0.9707772 0.9728495 0.9944579 0.97852 0.9920838 1.030913 0.9976529 1.014133 1.114252 1.129156 0.9853624 0.9802893 0.9821435 0.984239 0.9889944 1.079533 1.145831 1.061027 0.9890974 0.9909686 0.9967135 1.031634 1.033327 1.048761 1.078726 1.065865 1.02405 0.9996469 1.001563 1.003712 1.005787 1.027259 1.132245 1.007385 1.005258 1.003261 1.001221 0.999642 0.9983174 1.001984 1.072029 1.168744 -9999 -9999 
-9999 -9999 1.006694 1.011637 0.9930772 0.9908013 0.9884812 0.9864132 0.9845312 0.982739 0.9809693 0.9796734 0.9778158 0.9763516 0.9858229 1.012956 1.029604 1.036341 1.038183 1.029308 1.004554 0.9706991 0.9836622 1.056679 1.083377 1.011785 0.9624208 0.9610326 0.9591783 0.9578381 0.9564873 0.9554784 0.9542167 0.9531246 0.9679803 0.9771622 0.9805033 0.9644706 0.951473 0.9517623 0.952193 0.9524191 0.9529606 0.9540225 0.9548646 0.955543 0.9575242 0.9592698 0.961116 0.963081 0.9649962 0.9682702 0.9704006 0.9721674 0.9729078 0.9735543 0.9735785 0.9738621 0.9742797 0.9734934 0.9735326 0.9738501 0.9740708 0.9749293 0.9761258 1.011437 1.038495 1.025128 1.046916 1.035564 0.9904841 0.9836171 0.9852359 0.9866933 0.9879633 0.9898094 0.9911282 0.993196 0.9950467 0.9973391 1.030376 1.221283 1.124213 1.047917 1.106063 1.242691 1.221593 1.209662 1.2105 1.224817 1.240013 1.257142 1.271192 1.257776 1.209469 1.227471 1.193231 1.163734 1.163561 0.9994617 0.9979084 0.9962279 0.9948417 0.9929197 0.9913363 0.9908063 0.9911447 0.9916071 0.9912515 0.9887626 0.9864025 0.9841455 0.9820312 0.9798356 0.9777717 0.9757282 0.9740333 0.9725618 0.9709324 0.969651 0.9686068 0.9676245 0.9669661 0.9664075 0.9656349 0.9643685 0.9629755 0.9614558 0.9606034 0.9586243 0.9823776 1.105469 1.137907 1.092742 1.064298 1.118394 1.229066 1.2951 1.287097 1.200161 1.149817 1.123851 1.097224 1.041631 0.9840081 0.9680657 0.978821 0.9991788 1.028319 1.04844 1.066754 1.101936 1.16543 1.202796 1.161504 1.146959 1.155772 1.126845 1.043251 0.9752707 0.9686989 0.9705248 0.9725902 0.9897841 0.9752788 0.9773867 1.036242 1.057368 1.003361 0.9941719 1.029946 1.048643 1.009038 0.9815186 0.983365 0.9847618 1.002643 1.012773 0.991567 0.988927 0.9904748 0.9938594 1.028442 1.044469 1.046413 1.019246 1.002685 1.002553 1.008771 1.025988 1.002622 1.004519 1.007006 1.13025 1.03771 1.006982 1.004818 1.002823 1.001052 0.9998345 0.998927 1.003847 1.114812 -9999 -9999 
-9999 -9999 0.9942174 0.9938995 1.024325 0.9915764 0.9893638 0.9869663 0.985067 0.9833558 0.9818271 0.9805123 0.978856 0.9772119 0.9755616 0.9740488 0.979233 1.02149 1.038035 1.042623 1.038036 0.9797325 0.9666809 0.9752243 1.018322 1.01304 0.9705378 0.9615948 0.9603633 0.9594638 0.9582455 0.9569912 0.9558555 0.9544832 0.9535773 0.9655952 0.9653996 0.9527689 0.9530277 0.9532694 0.9536784 0.9541194 0.9548842 0.9557337 0.9566289 0.9576958 0.9591091 0.9606034 0.9624455 0.9640403 0.9659374 0.9695548 0.9718074 0.9733647 0.9742538 0.9751911 0.975669 0.9760055 0.9764646 0.9763516 0.9754995 0.9754764 0.9755628 0.9762881 0.9772245 0.9780516 0.982438 0.9926453 1.004841 0.983452 0.9828303 0.9844967 0.9861579 0.9878478 0.9891527 0.9905006 1.00423 0.9928507 0.9947277 0.996922 0.9991529 1.123676 1.248467 1.050927 1.080406 1.237893 1.234914 1.222107 1.227772 1.225625 1.238511 1.259717 1.272634 1.240876 1.213023 1.212434 1.153892 1.232149 1.048058 0.9988677 0.9970538 0.9954187 0.9937107 0.9917454 0.9899152 0.9887725 0.9889032 0.989103 0.9889725 0.9884453 0.987352 0.9855053 0.9830807 0.9807804 0.9785492 0.9764801 0.9744974 0.9725736 0.970742 0.9689385 0.9673781 0.9664078 0.9653011 0.9646913 0.9641229 0.963007 0.9732059 0.9613374 0.9594158 0.9816884 1.066389 1.132908 1.134776 1.096011 1.057472 1.06325 1.103947 1.164732 1.204538 1.158199 1.117616 1.073759 1.023692 0.9770584 0.9570029 0.9582447 0.9596545 0.9607836 0.9619202 0.9746482 0.994886 1.007936 1.019994 1.004304 0.9748278 0.965576 0.9710208 0.9856886 0.9985379 0.9784043 0.9686772 0.9702407 0.9724429 1.011747 0.9766138 0.9769769 0.9788008 1.062706 1.060981 0.9801981 0.9797635 0.980079 0.9804016 1.000087 1.036633 1.05362 1.065536 1.030259 0.9863463 0.9880438 0.9895748 0.9982563 1.01104 0.9938849 0.9957943 0.9971547 0.9986649 1.001271 1.019927 1.052675 1.052801 1.003867 1.006064 1.00856 1.249411 1.009161 1.006568 1.004488 1.002609 1.001506 1.000559 0.9989623 1.049015 -9999 -9999 
-9999 -9999 0.9925062 0.9917033 0.9917156 0.9954802 0.9906704 0.9884077 0.9863047 0.9846157 0.9831637 0.9815865 0.9803411 0.9788074 0.9772594 0.9756778 0.9739008 0.9725026 0.9871761 1.010786 1.03718 1.015245 0.9686568 0.9668769 0.9876961 0.9905515 0.9767942 0.9918627 0.9946807 0.9617137 0.9601146 0.9588564 0.9575469 0.9560292 0.9548749 0.9769171 0.9921416 0.9649292 0.9545752 0.9549558 0.9554332 0.9558749 0.9566806 0.9574825 0.9583763 0.9594449 0.9605139 0.9617833 0.9634019 0.9656338 0.9680797 0.9710265 0.9729118 0.974508 1.009277 1.01922 1.021779 1.007635 0.9787425 0.9784504 0.9779421 0.9773101 0.977414 0.9778126 0.9786387 0.9794976 0.9801331 0.9808733 0.9814623 0.9824185 0.9838747 0.9857961 0.987127 0.9889989 0.9901307 0.9915536 0.9965219 1.001383 0.994665 0.9965371 0.9991042 1.067729 1.213524 1.056593 1.083548 1.24137 1.23209 1.220719 1.240262 1.243571 1.25344 1.275373 1.276085 1.226163 1.20951 1.157181 1.122528 1.256621 1.000915 0.9983003 0.9966247 0.9945856 0.9925191 0.9904308 0.9884322 0.9868816 0.9866872 0.9866363 0.9865725 0.9860806 0.9851505 0.9847475 0.9860022 0.9817477 0.9795084 0.977267 0.9753153 0.9731348 0.9709688 0.9690015 0.9671248 0.9654859 0.9901825 1.023374 0.9933088 0.9877939 0.9899678 0.9972668 1.036115 1.025543 1.003233 0.9926607 0.9847772 0.9776583 0.965305 0.9644712 0.9872752 1.03403 1.130641 1.160881 1.087396 1.023998 0.9720127 0.9572535 0.9582647 0.9593143 0.9604652 0.9618033 0.9632498 0.9639966 0.9645148 0.9648826 0.988844 1.011352 1.004503 0.9828345 0.9673571 0.9676807 0.9678028 0.9684893 0.9695027 0.9706395 0.9731157 1.068587 0.9899762 0.9766716 0.9782363 0.9848331 1.054716 1.024687 0.9817131 0.9816577 0.9824888 0.9831139 0.9834501 1.049673 1.118228 1.07339 1.011698 0.9875594 0.9893403 0.9917154 0.9934145 0.995042 1.003062 1.030929 1.036103 1.067003 1.085141 1.079037 1.049568 1.01943 1.012851 1.007058 1.049578 1.128653 1.008686 1.006154 1.004314 1.003171 1.001971 1.000665 1.002068 -9999 -9999 
-9999 -9999 0.9908393 0.9898094 0.9894016 0.9892367 0.9887248 0.9882979 1.003028 1.011823 0.9985938 0.9833069 0.981707 0.9803191 0.9787161 0.9770274 0.9755313 0.9737329 0.972145 1.007325 1.02314 1.031503 1.003412 0.9995578 1.014392 0.9928279 0.9865343 1.044733 1.101017 1.08666 1.009044 0.9602287 0.9590013 0.9575505 0.9561149 0.9833459 1.009508 0.9655724 0.9560515 0.9565535 0.9571312 0.9578304 0.9584525 0.9591011 0.9601229 0.9611122 0.9621886 0.9634449 0.9647572 0.9668072 0.9695492 0.9725624 0.9740306 1.014845 1.051792 1.054148 1.070401 1.066233 0.9996232 0.9802274 0.9807016 0.9803609 0.9801467 0.9791561 0.9801608 0.9811264 0.9815769 0.9823464 0.9829324 0.9836056 0.9848132 0.986212 0.9879019 0.989577 0.9912421 0.9926372 1.000892 0.9998692 0.9958442 0.9973797 0.9994621 1.051224 1.210528 1.051011 1.081262 1.232813 1.248517 1.236672 1.244877 1.249612 1.252917 1.272148 1.266374 1.219989 1.178048 1.113816 1.134542 1.178501 1.000879 0.9983763 0.9959649 0.9940149 0.9918464 0.989776 0.987655 0.985879 0.9978849 0.9848602 0.9844223 0.9836731 0.9828191 0.9822773 0.9821094 0.9818872 0.97993 0.9778023 0.975697 0.9735807 0.9716466 0.9694936 0.967586 0.9656083 0.9911102 1.029655 1.021784 1.096452 1.112487 1.079387 1.027085 0.9724263 0.9590278 0.9587987 0.9584357 0.9580035 0.9576288 0.9570818 0.9562277 0.9556828 1.01464 1.121428 1.037467 0.9861352 0.9572327 0.9584699 0.959648 0.9609311 0.9617929 0.963019 0.9645791 0.9657322 0.966587 0.9665529 0.9668618 0.9975018 1.04771 1.043659 1.008087 0.9750517 0.9694728 0.9699591 0.9707697 0.9725769 1.018537 1.047316 0.9750026 0.9766732 0.9779612 0.9798079 0.9951752 1.056599 1.060912 1.054116 1.066461 1.052195 1.019579 0.9955934 0.9941314 0.9990582 1.003687 0.9877881 0.9898738 0.992142 0.9991816 1.010502 1.007662 0.9972444 0.9984541 0.9995788 1.000247 1.001364 1.003462 1.023217 1.045621 1.007508 1.008975 1.165962 1.010227 1.007792 1.005991 1.004729 1.002839 1.001873 1.000539 -9999 -9999 
-9999 -9999 1.011078 1.000189 0.9875067 0.9871144 0.9863802 0.9858149 0.9850929 0.9840079 0.9832603 0.9819492 0.9801691 0.9783407 0.9772997 0.9761688 1.000079 0.9941761 1.006637 1.073923 1.065697 1.0254 0.9839699 0.9980156 1.021104 0.9910032 0.9856898 1.06259 1.160281 1.192527 1.137139 1.036146 0.9601049 0.9585732 0.9571447 0.978428 0.9761177 0.9564036 0.9575775 0.9581824 0.9588845 0.9595986 0.960174 0.961048 0.9620469 0.9628634 0.9637641 0.9649065 0.9661595 0.9681164 0.9707384 0.9728823 0.9781126 1.03846 1.044705 1.047049 1.067774 1.031217 0.9797674 0.9815436 0.9830582 0.9828066 0.9823032 0.9810941 0.9817001 0.9824892 0.9833565 0.9842924 0.9847491 0.9852118 0.9859947 0.9872527 0.9888551 0.9904175 0.9921153 0.9936215 1.013332 1.019055 0.9968872 0.9986639 1.000533 1.083348 1.237625 1.065913 1.073591 1.212029 1.270983 1.245058 1.231598 1.244412 1.24591 1.261039 1.268844 1.169921 1.09717 1.096214 1.265747 1.074657 1.000478 0.9984127 0.9962279 0.9939916 0.9919526 0.9897777 0.9876555 0.9855882 0.9951015 0.9832018 0.9827747 0.9819173 0.9810386 0.9802954 0.9798688 0.9797316 0.9795795 0.9774226 0.9751886 0.9730989 0.971122 0.9693111 0.9674578 0.9658951 0.9646717 0.9972875 1.089943 1.114451 1.040648 1.004984 0.9849769 0.9620318 0.9605271 0.9604086 0.9601457 0.9596382 0.9593561 0.9587217 0.9579328 0.9572355 0.9559985 1.002615 0.9721184 0.9569169 0.9581959 0.9596401 0.960892 0.963177 0.9650342 0.9661838 0.9671546 0.9680106 0.9685594 0.9688836 0.9688523 0.968477 0.9795931 1.040371 1.037042 1.024196 0.9884394 0.9715398 0.9728153 1.041423 1.091487 0.9748583 0.9766905 0.9783115 0.9793219 0.9804699 1.017807 1.107308 1.153569 1.100901 1.038938 1.000322 1.046328 1.169556 1.118311 1.080048 1.082204 1.013796 0.9905359 0.9934566 0.9927053 0.9938967 0.9950469 0.9960136 0.9968956 0.998269 1.015187 1.00035 1.002026 1.003574 1.004637 1.006449 1.008654 1.051529 1.093566 1.009014 1.007912 1.006269 1.004565 1.003176 1.001749 -9999 -9999 
-9999 -9999 0.989967 0.9883072 0.9946111 0.9852678 0.9843263 0.9835222 0.9826576 0.9817131 0.9810851 0.9805914 0.9793664 0.98378 1.019888 1.00467 1.012829 1.015465 1.058009 1.121169 1.131492 1.04482 0.9710491 0.9846895 1.012832 0.9827282 0.9815267 1.068237 1.164833 1.179487 1.179123 1.11591 1.006981 0.9788888 1.007621 0.9838451 0.9573734 0.9579103 0.959096 0.9598981 0.9606626 0.9614501 0.9620786 0.9627528 0.9637063 0.9644521 0.9652977 0.966417 0.9674134 0.96884 0.9708685 0.9731192 0.9750472 1.036744 1.046036 1.045531 1.068241 1.00888 0.9810897 0.9828504 0.9845825 0.984862 0.9844573 0.9837974 0.9840062 0.9844822 0.9851908 0.986285 0.9866623 0.9871354 0.9878616 0.9883928 0.9898323 0.9916297 0.9929612 0.9944168 1.025894 1.039988 0.9975886 0.9995642 1.015213 1.150184 1.269157 1.103129 1.090456 1.204022 1.243723 1.214365 1.211089 1.198473 1.13421 1.095059 1.107914 1.06559 1.04961 1.162683 1.184838 1.001256 0.9993113 0.9968367 0.9956607 0.9942716 0.9925664 0.990656 0.9881234 0.9856238 0.9837317 0.9817889 0.9808519 0.9805251 0.979664 0.9782656 0.9778379 0.9777349 0.9776787 0.976666 0.9744439 0.972406 0.9704732 0.9687084 0.9670514 0.967881 0.9849507 1.016505 1.02838 1.009401 0.9967115 0.9723743 0.9621092 0.96241 0.9620534 0.9620164 0.9618693 0.9615744 0.961235 0.960544 0.9597167 0.9587869 0.9575739 0.9566489 0.9572353 0.9581988 0.9593256 0.9614516 0.9628425 0.965546 0.9677687 0.9693869 0.9700916 0.970816 0.970821 0.9713616 0.9719825 0.9708823 0.9698285 0.9697462 0.9697633 0.9861814 0.9878306 1.009751 1.121854 1.256631 1.064692 0.975644 0.9778049 0.9973186 1.039857 1.080493 1.09515 1.043219 1.009018 1.005283 1.001877 0.9829638 0.9845394 0.9857798 1.023878 1.064363 1.050753 0.9894043 0.989691 0.9902042 0.9909958 0.9922761 0.99365 1.003196 1.022419 1.017945 1.022512 1.00262 1.001192 1.0032 1.006263 1.006378 1.008381 1.010452 1.270468 1.01383 1.009523 1.007908 1.006478 1.004372 1.00328 -9999 -9999 
-9999 -9999 0.9908789 0.9888545 0.9868755 0.9849788 0.9829762 1.000225 0.9809567 0.9799051 0.9794976 0.9787709 0.9797672 1.061453 1.049208 1.011032 1.021876 1.076813 1.1196 1.132902 1.150272 1.068976 0.9827754 0.9738276 0.9904443 0.9760026 0.9835453 1.043609 1.089246 1.098731 1.112288 1.0958 1.050278 1.065897 1.056448 0.9827394 0.9589612 0.9594147 0.9605997 0.9614955 0.9623477 0.9631778 0.9637564 0.9646062 0.9653319 0.9661728 0.9669251 0.9679699 0.9690783 0.9701223 0.9714711 0.9737579 0.9755039 1.015429 1.041529 1.042627 1.079355 1.019115 0.9815639 0.9834692 0.9854857 0.9864821 0.9865339 0.9861789 0.9864415 0.9867536 0.9875742 0.9882725 0.9890819 0.9893086 0.9897323 0.9901375 0.9910471 0.9926604 0.9941484 0.9954332 1.02127 1.052504 1.001486 1.000269 1.032699 1.214063 1.248246 1.128108 1.119646 1.208704 1.209689 1.207927 1.179322 1.0882 1.023002 1.002239 1.001881 1.019105 1.122634 1.225041 1.024055 1.000317 0.9979929 0.9958418 0.9934787 0.9925826 0.9912018 0.989536 0.9875953 0.9854269 0.9833477 0.9813429 0.9795045 0.9786252 0.9781365 0.9770243 0.9760922 0.9759225 0.9753908 0.9746616 0.9732776 0.9714199 0.9698523 0.9680091 0.9662994 1.025177 1.068087 1.028962 0.9796959 0.9688098 0.9636295 0.9637294 0.9637731 0.9637922 0.963794 0.9636688 0.9636817 0.9633514 0.9629761 0.9623275 0.9613917 0.9604214 0.9589989 0.9581515 0.9591463 0.9602894 0.961753 0.9636419 0.965451 0.9679071 0.9696161 0.9709605 0.9720443 0.9729623 0.9735831 0.9742981 0.9775968 0.9736635 0.9728269 0.9725013 0.9721165 0.9721693 1.032489 1.160212 1.484673 1.272565 1.024067 0.9759798 0.9771513 0.9784325 0.9799103 0.990423 0.9893462 0.9861982 0.9966138 1.011697 1.00987 0.9818501 0.9829766 0.9841261 0.9852404 0.9857136 0.9860182 0.9867267 0.9879683 0.988436 0.9896095 0.9912189 0.9927524 0.9988549 1.027459 1.024757 1.023692 0.9990355 1.000812 1.002745 1.005428 1.005927 1.007517 1.00977 1.077398 1.130814 1.010844 1.009378 1.007657 1.005989 1.004766 -9999 -9999 
-9999 -9999 0.9921951 0.989692 0.9874787 0.9852647 0.9835433 0.9818183 0.9864672 0.9789477 0.9775739 0.9770955 1.003705 1.025696 1.028233 1.033582 1.062033 1.109819 1.093962 1.048633 1.033377 0.999814 0.9699432 0.9686158 0.9672753 0.9659383 0.9647855 0.963921 0.9634508 0.9751073 1.003351 1.048219 1.099882 1.096719 1.029221 0.9776351 0.9605641 0.9611158 0.9621269 0.9630951 0.9639785 0.964841 0.9655342 0.9662221 0.9670556 0.9679028 0.9687547 0.9696239 0.9703841 0.9712168 0.9724874 0.9744369 0.9763979 0.9777272 0.9931896 1.034088 1.092724 1.042233 0.9817196 0.9835272 0.9857076 0.9878904 0.9884556 0.9888197 0.9886353 0.9896787 0.9902173 0.9903908 0.9911778 0.9912854 0.9916551 0.9922468 0.9925545 0.9937888 0.995277 0.9969817 1.025318 1.055258 1.019737 1.000446 1.042341 1.267751 1.215126 1.13024 1.15209 1.222364 1.216252 1.200946 1.103534 1.013584 1.044065 1.162301 1.259089 1.42193 1.331268 1.074705 1.001339 0.9992414 0.9970765 0.9949253 0.9924589 0.9906253 0.9892818 0.9881797 0.9868841 0.9850987 0.9831431 0.9811487 0.9792252 0.9774622 0.9765238 0.9756337 0.9745336 0.9740881 0.9734545 0.9727559 0.9716218 0.9699963 0.9686738 0.9673417 1.032501 1.111323 1.045389 0.9754193 0.9650279 0.9650888 0.9651117 0.9655422 0.9654405 0.9657869 0.9654744 0.9653119 0.9654838 0.9652289 0.9647276 0.964111 0.9628927 0.9616613 0.9604753 0.9598984 0.9607099 0.9622273 0.9640195 0.965853 0.967343 0.9694076 0.9709803 0.9723738 0.9738047 1.00979 1.077263 1.090069 1.047985 0.9930726 0.986803 1.014389 1.057063 1.126865 1.249337 1.415189 1.402115 1.394289 1.064799 0.9942039 0.975826 0.9772298 0.9781892 0.9787542 0.979418 0.9879065 0.9865161 0.9973671 1.005968 0.9804499 0.9815888 0.9827995 0.9836822 0.98853 0.9945043 0.9865872 1.000225 1.011536 0.9887697 0.9903889 0.9920834 0.9999903 1.035237 1.026993 1.015256 0.9983417 1.000217 1.002365 1.014015 1.037922 1.006199 1.00889 1.01141 1.219446 1.04581 1.010869 1.009029 1.007569 1.006522 -9999 -9999 
-9999 -9999 0.9921939 0.9897723 0.988113 0.9863153 0.9844404 0.9825538 0.9807971 0.9785253 0.9839553 1.043929 1.061281 1.081194 1.126443 1.173333 1.121444 1.062959 0.9998071 0.9733299 0.9728333 0.9726481 0.9715738 0.9701294 0.9687138 0.9674913 0.9665875 0.9659877 0.9653558 0.9639367 0.9627168 0.9687838 1.037177 1.033642 0.9972578 0.9642382 0.9619479 0.9626541 0.9637877 0.9647359 0.9656531 0.9665068 0.9672198 0.9678326 0.9686996 0.9694971 0.9704689 0.9711338 0.9718819 0.9727007 0.973753 0.9752561 0.9775113 0.9789628 0.9800284 1.01615 1.080127 1.083616 0.9818253 0.9841851 0.9860973 0.9881757 0.990416 0.9908472 0.9915566 0.9918901 0.9926718 0.9927336 0.9927384 0.9933738 0.9936826 0.9946378 0.9944944 0.9950027 0.9961976 1.004387 1.031017 1.042964 1.015381 1.00114 1.06567 1.27127 1.206268 1.124564 1.159882 1.252231 1.252644 1.198722 1.060874 1.016893 1.262933 1.053848 1.002851 1.002225 1.020507 1.002134 1.000316 0.998402 0.9959741 0.9936684 0.9914127 0.989243 0.9875373 0.9867235 0.9859561 0.9846523 0.9828945 0.980961 0.9788194 0.9767347 0.9751159 0.9742514 0.973264 0.972715 0.9718106 0.9710767 0.9701573 0.9689633 0.9717685 1.050522 1.161056 1.058106 0.9878328 0.966539 0.9667422 0.9667784 0.9670011 0.9672852 0.9672922 0.967624 0.9672859 0.9671565 0.9672709 0.9669623 0.9664179 0.965694 0.9644951 0.9629553 0.9615243 0.9613646 0.9622522 0.9642887 0.9657418 0.9672204 0.9688423 0.9708343 0.972125 0.9740497 0.9919047 1.007836 0.9811771 0.9753976 0.9763666 0.9762228 0.9755639 0.9747047 1.008805 1.060557 1.095169 1.147034 1.21517 1.272119 1.219443 1.099485 1.025994 0.9756376 0.9765967 0.9773968 0.9779333 0.9780766 0.9781154 0.9986503 1.029834 1.007372 0.9974791 1.02303 1.03188 1.033717 1.030284 1.023888 1.024925 1.011078 0.9972793 0.99005 0.9916403 1.015932 1.061282 1.029214 0.9963942 0.9982516 1.000328 1.002193 1.027776 1.084508 1.023479 1.007935 1.010153 1.037867 1.222996 1.012037 1.010749 1.009055 1.0083 -9999 -9999 
-9999 -9999 0.9925264 0.9906494 0.9889745 0.9870763 0.9851397 0.9830309 0.9810721 0.9787853 0.976708 1.104502 1.233443 1.196515 1.124269 1.041707 0.9826708 0.9748667 0.9751715 0.9752821 0.9746915 0.9743161 0.9734544 0.9716986 0.9703889 0.9695964 0.9685223 0.9680186 0.9670105 0.9651504 0.9637107 0.9624494 1.026022 1.02752 0.9890366 0.9624929 0.9635186 0.9644418 0.9652998 0.966141 0.9672949 0.9681187 0.9691043 0.9694709 0.9702849 0.971226 0.9720216 0.9726618 0.9735334 0.9743583 0.9752759 0.976556 0.9782076 0.9804212 0.9813765 0.9813671 0.9992545 1.103494 0.9820164 0.9844591 0.9862391 0.9883377 0.9908496 1.011597 0.9931749 0.9938149 0.9948665 0.9949061 0.9943447 0.9951905 0.9958304 0.996555 0.9964297 0.9982825 1.007708 1.012247 1.030171 1.029923 1.018669 1.012523 1.105801 1.218247 1.166143 1.103761 1.159146 1.26961 1.267706 1.204924 1.043638 1.056598 1.157566 1.002528 1.058061 1.081481 1.021166 1.004695 0.9993458 0.9979119 0.9956156 0.9931388 0.9907981 0.9885156 0.9862387 0.9850614 0.9844109 0.9837489 0.9823462 0.9805067 0.978494 0.9764163 0.9744461 0.975875 0.9753365 0.9720596 0.9703892 0.971727 0.9856231 1.010278 1.100446 1.131534 1.021368 0.9858345 0.9707202 0.9679626 0.9683617 0.9686518 0.9687573 0.9690589 0.9691901 0.9694346 0.969193 0.9689043 0.9690394 0.9686644 0.9681424 0.9670825 0.9657259 0.9639066 0.9627565 0.9628783 0.9637572 0.9656935 0.9673496 0.9694314 0.971428 0.9724878 0.9737867 0.991994 0.9916195 0.9769327 0.977622 0.9771373 0.9782891 0.9783357 0.977461 0.9765753 0.9757776 0.9752356 0.9751256 0.9747055 0.9755478 1.025779 1.100709 1.20635 1.235641 1.10263 1.0406 1.014062 1.008236 1.017483 1.019253 1.024508 1.037955 1.015799 1.01626 1.072723 1.118103 1.066969 1.014165 1.018595 1.011263 0.9940946 1.002482 1.009706 1.0056 1.030215 1.076188 1.00621 0.9966451 0.9989691 1.001038 1.003098 1.054038 1.149942 1.066322 1.007148 1.009298 1.011767 1.140756 1.128288 1.011987 1.010198 1.010157 -9999 -9999 
-9999 -9999 0.9934487 0.9914255 0.9895058 0.9873013 0.9850866 0.983059 0.9809103 0.9790158 0.9866591 1.036948 0.9938074 0.9761145 0.9761015 0.9764504 0.9768363 0.9767199 0.9770946 0.9772949 0.9768519 0.9764642 0.9751071 0.9731091 0.9720512 0.9714636 0.9704605 0.9698329 0.9680307 0.9662906 0.9646047 0.9631908 1.043649 1.029479 0.9841356 0.9638248 0.9648727 0.9659839 0.966879 0.9680197 0.9689589 0.969698 0.9706554 0.9713566 0.9720913 0.9729809 0.9736353 0.9742613 0.9752282 0.9758813 0.9768057 0.9778587 0.9795548 0.9818854 0.9826154 0.9832378 0.9833364 1.028083 1.042899 0.9839349 0.9857872 0.9879861 0.9898234 0.9919469 0.9941854 1.017906 1.040622 0.9967131 0.996736 0.9970791 0.9979013 0.998333 0.9983302 0.9980503 1.010361 1.018115 1.019237 1.024929 1.042857 1.056244 1.107623 1.135127 1.10728 1.055409 1.129116 1.202273 1.204022 1.20102 1.040635 1.090772 1.110977 1.002809 1.016308 1.139736 1.162585 1.10897 1.063907 0.9974515 0.9955001 0.9932191 0.9909385 0.9885168 0.9857959 0.9837623 0.9862296 0.9820925 0.9813102 0.9801573 0.9783825 0.9765233 0.9744964 0.9726421 0.9865817 1.013882 1.027984 1.057435 1.106339 1.20178 1.099103 0.9964321 0.9790998 0.9785165 0.9725511 0.9693099 0.9699443 0.9703121 0.9704668 0.9706562 0.9708645 0.9713091 0.9711289 0.9706925 0.9709459 0.9704676 0.969693 0.9682662 0.9665693 0.9652146 0.9646326 0.9817232 0.9649478 0.9666689 0.9684447 0.9709605 0.9760589 0.9747751 1.000062 1.029496 0.9767137 0.9781102 0.9795554 0.979116 0.97988 0.9802167 0.9792763 0.9783434 0.977675 0.9772452 0.976983 0.9767744 0.9764476 0.9757741 0.9752111 1.001789 1.098334 1.270691 1.240016 1.178388 1.169732 1.201475 1.164472 1.072613 1.013122 1.00418 1.021856 1.069822 1.069665 0.9970492 0.9839881 1.015127 1.027949 1.013674 1.021069 1.022987 1.01854 1.020172 0.9939021 0.9956924 0.997679 0.9998075 1.001587 1.008814 1.096298 1.189891 1.08766 1.007644 1.009648 1.011053 1.021245 1.191796 1.062552 1.011609 1.012087 -9999 -9999 
-9999 -9999 0.9934145 0.9911125 0.9889165 0.9869763 0.9847378 0.9828564 0.9806132 0.9787134 1.022939 0.9774526 0.9775852 0.9779476 0.978067 0.9783864 0.9787111 0.9786909 0.9791207 0.9794871 0.9790592 0.9781944 0.9766027 0.97492 0.9740219 0.9734001 0.9726108 0.9709727 0.9692992 0.967482 0.9656444 0.9697895 1.028804 1.015402 0.9814203 0.9650781 0.9662843 0.9674177 0.9685912 0.9696625 0.970531 0.9714307 0.9723696 0.9731043 0.973823 0.9746785 0.9753664 0.9759756 0.9768404 0.9777744 0.9785881 0.9796896 0.9811771 0.9830641 0.9843598 0.9853365 0.984765 0.9831331 1.023149 0.9836525 0.9857396 0.9876966 0.9892062 0.9907007 0.9926825 0.99446 0.9965991 1.063903 1.094432 1.008645 0.9996421 1.00033 1.000362 1.00002 1.009153 1.013728 1.010194 1.033853 1.08285 1.108386 1.120293 1.162253 1.128248 1.046863 1.12273 1.157238 1.154554 1.190238 1.059332 1.098387 1.150443 1.013173 1.002094 1.043065 1.133135 1.113239 1.068352 1.007689 0.9952723 0.9932891 0.9911138 0.9888489 0.9859223 0.9837584 0.9878722 0.9884735 0.9921306 0.9791203 0.9778633 0.9762372 0.9744554 0.9727177 0.9733943 1.036247 1.104712 1.164807 1.206205 1.139715 1.009905 0.9882608 0.9810221 0.9697564 0.9700519 0.9705887 0.9717228 0.9721391 0.9723102 0.9723334 0.9726253 0.9732436 0.9733745 0.9726824 0.9726353 0.9719593 0.970894 0.9693205 0.9677158 0.9666772 0.9659911 1.003628 0.9692196 0.9674624 0.9692407 0.9714618 1.000245 0.9736907 1.046079 1.054692 0.9777164 0.9795774 0.992256 0.9849749 0.9812455 0.9818746 0.9812011 0.9801755 0.9794379 0.979099 0.978802 0.9785665 0.9781359 0.9777729 0.9772228 0.9765661 0.9757187 0.9750807 1.023676 1.100975 1.187562 1.298918 1.355089 1.175719 1.022957 0.9857278 1.000603 1.00552 0.9821488 0.9835104 0.9848685 1.015864 1.055919 1.042514 1.020102 0.9968056 0.9916841 0.9933053 0.9948498 0.9970199 0.9992506 1.000941 1.002416 1.032216 1.136131 1.227657 1.144213 1.010442 1.008496 1.01013 1.010884 1.012408 1.1853 1.062186 1.080663 -9999 -9999 
-9999 -9999 0.9926329 0.9904447 0.988509 0.9865091 0.9846529 0.9824132 0.9805343 1.030477 0.9993867 0.9791669 0.9795276 0.9799137 0.9800578 0.9804322 0.9808372 0.9807683 0.9809414 0.9816678 0.9811307 0.9799231 0.9785324 0.9771721 0.9760232 0.9755276 0.9739085 0.9715598 0.9696995 0.9676259 0.9659083 0.9945617 0.9965463 0.9827224 0.9648437 0.9661134 0.9676543 0.9689996 0.9701411 0.9712089 0.9721127 0.9730657 0.9740093 0.9750193 0.9758065 0.9765533 0.977291 0.9777368 0.9785515 0.9794085 0.9805296 0.9814932 0.9826624 0.9836031 0.9853417 1.000698 0.9862787 0.9849014 0.984253 0.9854136 0.9868816 0.9884325 1.033894 1.043454 0.9991261 0.9930306 0.9947319 0.9964621 0.9980742 1.028263 1.087502 1.134039 1.089584 1.052199 1.030692 1.015393 1.024792 1.069736 1.147849 1.175535 1.135379 1.224657 1.143318 1.067478 1.187836 1.207229 1.184135 1.153123 1.06554 1.111267 1.188774 1.033439 1.0024 1.010881 1.067356 1.067679 1.051552 1.014972 0.9951335 0.9932401 0.9913047 0.9888712 0.9863252 0.9845045 0.9827484 0.9807767 0.997285 0.9885874 0.9767843 0.9755219 0.9737089 0.9724168 0.9774522 1.052185 1.156126 1.19199 1.173938 1.051982 0.9945998 0.9993504 0.9746837 0.9712508 0.9717202 0.9720666 0.973026 0.9739122 0.974061 0.9753935 0.9754875 0.9755145 0.975661 0.9755896 0.9744796 0.9736291 0.9721926 0.9705661 0.969236 0.9682241 0.9673594 0.9831811 0.9958345 0.9681811 0.9697762 0.9711441 0.9727287 0.9742658 1.086756 1.100605 0.9772836 0.9795282 0.9833416 1.041341 1.017675 1.009815 0.9826342 0.981678 0.981214 0.9810368 0.9807184 0.9804949 0.9799094 0.9797745 0.9791649 0.9782356 0.9777608 0.9775187 0.9771061 0.9766053 0.9920088 1.082926 1.225364 1.321462 1.072289 0.9776143 0.9792575 0.9810227 0.9828503 0.9844084 0.9858865 1.000939 1.025473 1.006328 0.9895144 0.9910005 0.9926131 0.9947301 0.9963025 0.9980476 0.9998448 1.021159 1.008573 1.052375 1.157397 1.206141 1.185206 1.099709 1.01526 1.008181 1.009655 1.011927 1.047747 1.239142 1.148196 -9999 -9999 
-9999 -9999 0.9916123 0.9901329 0.9879307 0.9860687 0.9841671 0.9822892 1.015042 1.018786 0.980849 0.9808564 0.9813246 0.9816983 0.981899 0.9821669 0.9824023 0.9826046 0.9831101 0.9837548 0.9830214 0.9815168 0.9802562 0.9790778 0.9773337 0.975892 0.9738021 0.9718869 0.9698707 0.9679076 0.9664863 0.9879977 0.9782698 0.9658636 0.9664018 0.9674061 0.9686558 0.9702946 0.9715995 0.9728177 0.9739054 0.9746777 0.9756766 0.9767417 0.977667 0.9786066 0.9795154 0.9800428 0.9805741 0.9812784 0.9823736 0.9833957 0.9841851 0.9847305 0.9857545 0.9884512 0.9875488 0.986419 0.9860655 0.9868178 0.9877419 0.9974695 1.028664 1.050723 1.062706 1.054881 1.013901 0.9951189 0.9967278 0.9980177 0.9994773 1.052964 1.174101 1.128711 1.078836 1.05374 1.073515 1.132583 1.206314 1.185868 1.116911 1.224465 1.108331 1.084238 1.265552 1.218696 1.160409 1.111007 1.086539 1.167242 1.178176 1.024466 1.002496 1.000707 0.9990577 1.023024 1.024882 0.9957676 0.9942639 0.9925505 0.9903552 0.9880464 0.986088 0.9845009 0.9828882 0.9810157 0.9792078 0.9775698 0.9759738 0.9745902 0.9729273 0.9905874 1.005523 1.098877 1.187789 1.180442 1.099209 1.01068 0.9991086 0.9964714 0.9720539 0.9727901 0.9735272 0.9737203 0.9745249 0.975643 0.9768106 0.9785019 0.9789152 0.9790137 0.9788562 0.9777873 0.9764622 0.9751335 0.9735177 0.9718838 0.9707207 0.9697914 0.9687557 0.9681554 1.010846 0.9921706 0.9938604 0.9845126 0.9728067 0.9745574 1.121956 1.134236 0.9769313 0.9788395 0.9811724 1.005004 1.043385 1.061554 0.9997984 1.008587 1.006385 0.9855548 0.9825118 0.9822208 0.9816818 0.9816934 0.9812868 0.9802667 0.9796824 0.9796702 0.979017 0.9785378 0.978326 0.977678 1.070133 1.209577 1.063808 0.9775538 0.9795562 0.9818088 0.9838403 0.985487 0.9871112 1.023815 1.037993 1.001339 0.9907774 0.9923682 0.9941286 0.9957736 1.018155 1.037546 1.039209 1.019983 1.005058 1.014747 1.081859 1.173071 1.188738 1.145567 1.064944 1.007975 1.010132 1.011764 1.014742 1.259903 1.014516 -9999 -9999 
-9999 -9999 0.9907198 0.9891483 0.9872744 0.9858865 0.9868167 0.998621 0.9849052 0.9817402 0.9818166 0.9824351 0.9829016 0.9833032 0.9835839 0.9838085 0.9840911 0.9844728 0.9852209 0.9855888 0.9846381 0.9831724 0.9820392 0.9801539 0.9776871 0.9753689 0.9736651 0.9718765 0.9703681 0.9690289 0.9678234 0.969438 0.9679968 0.9675227 0.9683868 0.9692693 0.9702016 0.9716208 0.9730138 0.9743734 0.9758152 0.9766412 0.9776073 0.9788117 0.9799717 0.9807266 0.9813791 0.9818624 0.9825158 0.9833825 0.9838984 0.9847063 0.9859925 0.986092 0.9874881 0.9895985 0.9895575 0.9883344 0.9878742 0.9881358 0.9888903 0.9899849 0.9981854 1.007923 1.028815 1.055827 1.069873 1.047209 1.027635 1.01093 0.9990185 1.000694 1.055798 1.133311 1.116446 1.123457 1.156177 1.182587 1.187024 1.146304 1.108364 1.259618 1.094503 1.091882 1.08524 1.081006 1.079797 1.087324 1.124303 1.269126 1.120575 1.004001 1.002239 0.9999754 0.9978912 0.9964873 0.995874 0.9946188 0.9928015 0.9910936 0.9892607 0.9872285 0.9847531 0.983489 0.9823302 0.9806883 0.9788522 0.9772559 0.9756043 0.9740314 0.9846294 1.001598 1.060793 1.19482 1.186321 1.1665 1.062336 1.017147 1.018825 0.9900871 0.973052 0.9742997 0.9752462 0.9755053 0.9758683 0.9772812 0.9793727 0.9804192 0.9882209 0.989467 0.986944 0.9799229 0.9789812 0.9773424 0.9752327 0.9731877 0.9722385 0.9710549 0.9702649 0.9697831 0.9994128 1.079568 1.027824 0.9825518 0.9729995 0.9749476 1.127007 1.06807 0.9774378 0.9791078 0.9810607 0.9830337 1.014299 1.071826 1.002437 0.9839272 1.013822 1.050333 1.040014 1.011144 1.000997 1.003339 0.9952986 0.9988297 1.054929 1.102548 1.094335 1.051559 0.9990851 0.97872 0.9822842 1.061869 0.9770468 0.9787017 0.9808342 0.9826328 0.98449 0.9866295 1.008151 1.057296 1.022892 1.003793 0.9915476 0.9931597 1.001353 1.030569 1.062321 1.080225 1.075485 1.050497 1.02752 1.011762 1.042112 1.115132 1.128071 1.102822 1.035534 1.008594 1.010658 1.012842 1.01548 1.137183 1.013365 -9999 -9999 
-9999 -9999 0.9900606 0.9882901 0.9991941 1.038216 1.029004 0.9839715 0.983719 0.9834012 0.9835096 0.9841867 0.9847481 0.9850358 0.9853721 0.9858064 0.9861456 0.9869519 0.9874123 0.9873382 0.9862894 0.9855357 0.983458 0.9810253 0.9786426 0.976223 0.9741843 0.9725162 0.9715641 0.9706975 0.9695281 0.9682926 0.9684655 0.9691328 0.9700191 0.9709411 0.9718476 0.9732642 0.9745022 0.9759666 0.9776034 0.978696 0.9796069 0.9807395 0.9814265 0.9822943 0.9830995 0.9836561 0.984113 0.9850264 0.9854892 0.9860655 0.9868897 0.9873702 0.9882681 0.990002 0.9996861 0.9904947 0.9894911 0.9898895 0.990399 0.9912735 0.992289 1.002061 1.031403 1.052467 1.067091 1.071487 1.064277 1.038792 1.010676 1.0001 1.001823 1.04723 1.105345 1.12119 1.146154 1.144781 1.16736 1.164276 1.131353 1.206373 1.080371 1.014782 1.005861 1.019524 1.064647 1.138856 1.273894 1.173523 1.049578 1.016796 1.001648 0.9994799 0.9974118 0.9952605 0.9939153 0.9928626 0.9912443 0.9896986 0.988009 0.9860041 0.9835443 0.9822655 0.9809989 0.9798701 0.9785094 0.9769536 0.9752668 0.9735976 0.991915 1.023981 1.140091 1.228793 1.169999 1.127786 1.039694 1.037019 1.02374 0.9828239 0.9741012 0.9754323 0.9768344 0.977375 0.9779118 0.9799121 0.9805677 0.987311 0.9815906 0.9819356 0.9816136 0.9803666 1.014193 0.9796904 0.9774413 0.9751934 0.9737642 0.9724047 0.9717681 0.9714265 0.9706103 1.093802 1.099311 0.9715367 0.9732374 0.9752947 1.073456 0.9766306 0.9785945 0.9805009 0.9822091 0.9839455 1.011337 1.067356 1.016531 0.9858925 0.985563 0.9923553 1.038742 1.042145 1.050453 1.072106 1.047041 1.032405 1.088039 1.133804 1.15535 1.12598 1.075199 0.980214 0.9783377 1.061594 0.9787061 0.9804697 0.9822312 0.983628 0.9880301 0.986243 0.9894381 1.02712 0.9966653 1.005977 1.033985 1.04576 1.033089 1.047105 1.077675 1.082827 1.095571 1.101002 1.072596 1.039173 1.046812 1.070099 1.069004 1.06032 1.010469 1.009464 1.01061 1.012972 1.015087 1.070648 1.012911 -9999 -9999 
-9999 -9999 0.9898615 0.9968542 1.028087 1.021501 0.9857889 0.985615 0.985463 0.9851146 0.9850634 0.9857047 0.9864202 0.9868574 0.9871749 0.988073 0.9888307 0.989961 0.9899463 0.9893471 0.9889074 0.9870287 0.9842804 0.9817001 0.97928 0.9771639 0.9752427 0.9741314 0.9733465 0.972348 0.9710307 0.970058 0.9699058 0.9706511 0.9715061 0.972541 0.9735436 0.9748508 0.9761038 0.9779503 0.9793358 0.9806091 0.9816141 0.9827667 0.9831388 0.9835754 0.9883153 0.9867867 0.9857363 0.9864554 0.9872431 0.9876878 0.9886941 0.9890853 0.9896973 0.9907421 1.019364 0.9927648 0.9917736 0.9915677 0.9919161 0.9930029 0.9936813 1.006427 1.028913 1.044024 1.037747 1.026205 1.026816 1.029198 1.013294 1.000146 1.00207 1.003879 1.083603 1.095266 1.102206 1.134133 1.154219 1.141676 1.115647 1.140976 1.116624 1.170467 1.270479 1.344332 1.283982 1.162806 1.059452 1.004792 1.003564 1.012105 1.03957 1.000536 0.9983386 0.996107 0.9938229 0.9919157 0.9898286 0.9881364 0.986526 0.9842051 0.9822789 0.9806622 0.9794328 0.9940719 0.9778878 0.9763728 0.9749718 0.9810928 1.009527 1.063107 1.187237 1.215734 1.168638 1.102732 1.048414 1.037104 1.006198 0.9866218 0.9747814 0.9763231 0.9784139 0.9800143 0.9866999 1.051051 0.9896746 0.9829274 0.9836978 0.9839274 0.9837131 0.9822868 0.9803103 1.081482 0.9898119 0.9778339 0.9760925 0.9745338 0.9737965 0.9730976 0.9720433 0.9914019 1.22167 0.970895 0.9733769 0.9756073 1.030998 0.9779393 0.9802926 0.9820068 0.9832619 0.993593 1.029958 1.040429 1.00064 0.9881434 0.9876782 0.986609 0.9858807 1.015679 1.048123 1.058024 1.04405 1.041511 1.04987 1.058603 1.114268 1.169995 1.191779 1.002566 1.003573 1.131757 0.9794694 0.9814757 0.983191 0.9997697 1.022954 0.9865397 0.9885374 1.002003 1.013884 1.058254 1.100022 1.103143 1.065848 1.054867 1.07838 1.073131 1.072371 1.062246 1.025371 1.010733 1.031582 1.028844 1.027834 1.040567 1.021855 1.009741 1.011258 1.013273 1.015614 1.059032 1.015747 -9999 -9999 
-9999 -9999 1.003124 0.996836 0.9879507 0.9876742 0.9875906 0.9873057 0.9870543 0.9867851 0.9865875 0.9872122 0.9881054 0.9887628 0.9893138 0.9901966 0.99134 0.9926993 0.9930585 0.9921259 0.9897602 0.9870012 0.9843604 0.9820065 0.9800196 0.9781721 0.9766325 0.9757467 0.9750377 0.9742243 0.9728346 0.9716001 0.979413 0.9719595 0.9729888 0.9741562 0.9752563 0.9765556 0.9781584 0.9798921 0.9812321 0.9822172 0.9834016 0.984468 0.9847862 0.9905491 1.00046 1.001163 1.000638 1.013318 1.025451 1.015307 1.016016 1.028007 1.040974 1.012501 0.9926669 0.9946724 0.9940839 0.9934301 0.9936714 0.994283 1.001224 1.011239 1.029174 1.032265 1.003538 0.9976067 0.9982545 0.9988851 0.9997988 1.001203 1.002749 1.004426 1.059651 1.106692 1.120001 1.156874 1.087442 1.043321 1.083798 1.291605 1.1979 1.09509 1.066284 1.061898 1.030951 1.004819 1.004313 1.003132 1.002064 1.000884 1.000366 1.017661 0.9987307 0.996338 0.9941726 0.9919676 0.9895434 0.9873478 0.9852005 0.9829782 0.9810389 1.004272 1.041347 1.038822 0.9945154 0.9776565 0.984628 1.001927 1.042115 1.115377 1.224081 1.173332 1.131385 1.099714 1.049458 1.020105 1.003462 0.9890399 0.9754521 0.9771308 0.9797074 1.044363 1.126257 1.033793 0.982466 0.9838484 0.9853067 0.9858317 0.9854052 0.9836227 0.9812085 1.018675 1.091828 1.031117 0.9786711 0.9776267 0.976196 0.9748696 0.9734575 0.9720069 1.07976 0.9756994 0.9734783 0.9758844 1.039998 0.978142 0.9808879 0.983234 1.004501 1.028467 1.009779 0.9896329 0.9888143 0.9898276 0.9898537 0.9886497 0.9877533 0.9905779 1.01055 1.012356 1.017409 1.012831 1.003285 1.014944 1.06721 1.144629 1.175999 0.9977696 1.023652 1.095028 0.9804161 0.9821577 0.9836175 1.005483 0.9988239 0.9874891 0.9888511 1.00994 1.029675 1.074466 1.103448 1.081056 1.040711 1.027102 1.043675 1.052994 1.052192 1.048755 1.037877 1.053439 1.085729 1.048063 1.03809 1.069806 1.049125 1.01009 1.012403 1.014452 1.016527 1.146418 1.017587 -9999 -9999 
-9999 -9999 1.005159 0.9904442 0.9900975 0.9896564 0.989524 0.989033 0.9887302 0.98838 0.9880976 0.9886377 0.9897217 0.9907314 0.9912571 0.9927797 0.9941705 0.9952774 0.9944054 0.9918554 0.9891524 0.9866691 0.9846177 0.9826503 0.9809899 0.9797204 0.97848 0.9776585 0.9766995 0.9758893 0.974551 0.9730945 0.9858736 0.9731885 0.9741846 0.9753454 0.976588 0.9779247 0.9797833 0.9813076 0.9826916 0.9839427 0.9852541 0.9859722 0.9862229 1.000186 1.019527 1.019369 1.029809 1.06061 1.08204 1.074037 1.074947 1.090016 1.087875 1.021372 0.9941744 0.9959074 0.9958799 0.9956126 0.9956187 0.9956953 1.008946 1.032461 1.034245 1.007325 0.9981452 0.9993084 0.9998798 1.000332 1.001351 1.002739 1.004079 1.005518 1.05775 1.121136 1.118756 1.073803 1.032429 1.090353 1.182099 1.105547 1.078082 1.078676 1.096149 1.095344 1.028208 1.00335 1.002115 1.001095 0.9999473 0.9987181 0.9980711 0.9979707 1.031916 0.9967642 0.9941935 0.99152 0.9894245 0.9872153 0.9849002 0.9824893 0.9996468 1.004167 1.013108 1.021583 1.016163 0.9994314 0.9988374 1.032533 1.073382 1.141674 1.235849 1.16188 1.13747 1.088243 1.020548 1.008251 0.9927638 0.9752171 0.9764237 0.9785417 0.981359 1.047231 0.9818911 0.9827407 0.9836545 0.9853869 0.9869802 0.9948397 0.9863953 0.9841982 0.9824424 0.9812447 1.014515 1.061486 1.047096 1.013436 0.9784979 0.9764679 0.9744511 0.9728875 1.004951 0.9804431 0.9738743 0.9762005 1.10014 0.9776363 0.9801392 0.9821642 0.9836878 0.988135 0.9987241 1.009785 0.9953281 0.9911904 0.992057 0.9905697 0.9892555 0.9885004 1.002243 1.023249 1.019528 1.011791 1.02179 1.031409 1.085572 1.157576 1.122273 0.9864151 1.070143 1.077934 0.987175 1.007344 0.9834256 0.9852318 0.9869449 0.988403 1.013982 1.023529 1.021041 1.056546 1.069081 1.04176 1.01234 1.016231 1.052249 1.091131 1.109367 1.088696 1.063213 1.057692 1.063743 1.034107 1.023709 1.03576 1.015068 1.010364 1.012582 1.014924 1.017181 1.124875 1.055515 -9999 -9999 
-9999 -9999 0.9924347 0.9924026 0.9922294 0.9917529 0.9916081 0.9910767 0.9904772 0.9901807 0.9897159 0.9900483 0.991155 0.992289 0.9933134 0.9948989 0.9965546 1.004685 0.9945669 0.9915456 0.9892356 0.9871224 0.9854617 0.9838151 0.9825079 0.9811307 0.9802542 0.9793006 0.9784733 0.9774475 0.9758642 0.9744058 0.9740672 0.9746293 0.9752895 0.9764013 0.9777284 0.9793494 0.9810123 0.9829695 0.9842869 0.985737 0.9869407 0.9877635 0.9879267 0.9879085 1.023087 1.046911 1.084594 1.144898 1.170401 1.134212 1.111017 1.112901 1.102612 1.02974 0.9943157 0.9974406 0.9981093 0.9978423 0.9975158 0.9976976 0.9976566 1.02038 1.018866 0.9991204 1.000034 1.001181 1.001704 1.002436 1.0033 1.004595 1.005758 1.047186 1.060169 1.063917 1.05144 1.042671 1.123728 1.258767 1.040403 1.015832 1.076057 1.081102 1.068528 1.04026 1.003211 1.001667 1.000533 0.9992911 0.9979349 0.9967597 0.9959156 0.9956963 0.9963307 1.044791 0.9949098 0.9918729 0.9892934 0.9868937 0.9847414 0.9829822 0.9821066 0.9808276 0.9795774 0.9780614 0.9964392 0.9851395 0.9744281 1.007694 1.050229 1.115441 1.254884 1.220787 1.167927 1.076205 1.019501 1.004547 0.9750924 0.9763896 0.9780217 0.9805245 0.988708 0.9823462 0.9837793 0.9849882 0.985629 0.9864773 0.9890028 0.9913363 0.9868475 0.9852144 0.9839095 0.9824065 0.9811844 0.9807436 0.9804462 0.9796017 1.004431 0.9783015 0.975784 0.9739685 0.9729846 0.9723517 0.9747076 1.005691 1.132447 0.9934409 0.9794839 0.9812738 0.9831753 0.9850373 0.9865552 1.000693 0.9894735 0.9917361 1.029733 0.9931067 0.9912094 0.9893988 0.9876265 1.00005 1.043222 1.061417 1.03757 1.055983 1.15508 1.187645 1.036694 0.9871022 1.144978 1.07634 1.013787 1.054585 0.982777 0.9848703 0.986797 0.9883237 1.007491 1.019454 1.01361 1.059256 1.08843 1.048962 1.022465 1.058513 1.128316 1.180005 1.160534 1.12295 1.104274 1.086216 1.080089 1.060095 1.040805 1.029251 1.008299 1.01051 1.012699 1.014181 1.016231 1.018402 1.25747 -9999 -9999 
-9999 -9999 0.9944696 0.9945806 0.9943681 0.9941003 0.9938283 0.9931865 0.9925626 0.9920677 0.9917442 0.9918594 0.992999 0.9941444 0.9953763 0.9967993 0.9983585 0.9976499 0.9947244 0.9922093 0.99001 0.9885929 0.9867108 0.985465 0.983995 0.9828528 0.9819149 0.9811887 0.9799131 0.9787093 0.9772101 0.97605 0.9758558 0.9762967 0.9771004 0.9780684 0.9789029 0.9803494 0.9821687 0.9838964 0.9855804 0.9874288 0.988757 0.9896199 0.9898148 0.9894658 1.019949 1.074863 1.129355 1.176578 1.193669 1.149948 1.117444 1.097047 1.08892 1.041243 0.995581 0.9973506 1.044677 1.023641 0.999742 1.000231 0.9997762 0.9992876 1.00255 1.000574 1.001708 1.003131 1.003691 1.004082 1.005109 1.006015 1.037697 1.057683 1.015902 1.050759 1.141573 1.339123 1.086567 1.008651 1.006962 1.005578 1.004893 1.010737 1.018986 1.005117 1.001727 1.000251 0.9987845 0.9974664 0.996116 0.9950219 0.9936631 0.9936943 0.9942303 0.9952648 0.9949962 0.9919147 0.9893892 0.9873418 0.9852626 0.9840902 0.9833848 0.981911 0.9804982 0.979023 0.9830345 0.9811925 0.9751599 0.9952392 1.03334 1.097069 1.239842 1.290309 1.139176 1.070235 1.042697 1.014626 0.9926516 0.9772483 0.9789546 0.9815965 0.9820369 0.9841027 0.9856327 0.9873698 0.9877347 0.9882368 0.990118 0.9901083 0.9884236 0.9867157 0.98513 0.9838282 0.9833864 0.9828876 0.9826192 0.9814106 0.9794839 0.9899617 0.9778689 0.9754722 0.9741881 0.9738511 0.9762521 1.070646 1.11935 1.003931 0.9798592 0.9817259 0.9834465 0.9850572 0.9866279 0.9879869 0.9896041 0.99157 0.9955436 1.020234 0.9920428 0.9903103 0.9896705 0.9883118 1.007899 1.028207 1.01513 1.050219 1.122081 1.092058 0.9885154 1.016804 1.257436 1.071841 1.006413 1.066708 1.016166 0.9840176 0.985944 0.9882348 0.99016 1.00458 1.023214 1.06185 1.089268 1.043718 1.023242 1.067809 1.154895 1.19404 1.141977 1.106966 1.089588 1.077719 1.094316 1.095914 1.069621 1.043964 1.009257 1.009324 1.010902 1.013232 1.015071 1.016515 1.02514 -9999 -9999 
-9999 -9999 0.9962201 0.9965385 0.9962958 0.9960248 0.9962121 0.9954991 0.9945846 0.9941846 0.9937362 0.9942964 0.9951168 0.9960457 0.997594 0.999074 1.019249 0.9982449 0.9952465 0.9931108 0.9913688 0.9899158 0.987888 0.9863304 0.9856378 0.9845291 0.9837097 0.9827206 0.9813389 0.9801106 0.9788722 0.977729 0.9818046 0.9781592 0.9790651 0.9797273 0.9805292 0.9813452 0.982897 0.9848636 0.9871511 0.9891571 0.9904062 0.9915918 0.9912541 0.9910992 0.990446 1.037646 1.099042 1.135415 1.134403 1.105579 1.081356 1.063322 1.071018 1.07339 1.031216 0.996408 0.9985132 1.017478 1.047898 1.001908 1.001972 1.001097 1.001253 1.001956 1.003373 1.004719 1.006753 1.005723 1.006771 1.042704 1.054818 1.021567 1.051757 1.318779 1.076911 1.00863 1.007045 1.006054 1.005071 1.003891 1.002839 1.002617 1.002273 1.001534 1.000329 0.998766 0.9970076 0.9956578 0.9944355 0.9930148 0.9917706 0.9911568 0.9920624 0.993045 0.9942436 0.9924564 0.9899742 0.9879423 0.9866405 0.9853907 0.9952713 0.995149 0.9870628 0.9851537 0.9960545 0.9915019 0.9757562 0.9946753 1.031673 1.092858 1.202591 1.323327 1.154592 1.073487 1.038942 1.000225 0.9890453 0.9776279 0.9796138 0.9852718 0.9828576 0.9855081 0.9874532 0.9896426 0.990237 0.9903966 0.991649 0.9925801 0.9896065 0.9881966 0.9866621 0.9856046 0.9854996 0.985556 0.9848748 0.982918 0.9809591 0.9792689 0.9817433 0.9775947 0.9759997 0.9762061 1.045512 1.179844 1.080013 0.9910944 0.9804581 0.9826278 0.9843711 0.9862297 0.9882318 0.9896081 0.9906687 0.992389 0.9947509 1.054426 0.9930953 0.9917963 0.9914674 0.9898784 0.9881728 0.9914302 0.9856572 0.9874398 1.010897 0.9940625 0.9811875 1.048593 1.45323 1.043544 0.9813166 1.008287 0.9915788 0.9846464 0.9860317 0.9876005 0.9897598 0.9916663 1.014776 1.045261 1.059601 1.032481 1.030253 1.0826 1.153413 1.175598 1.128726 1.081787 1.064101 1.075458 1.107256 1.123965 1.108623 1.056403 1.03266 1.051837 1.010044 1.012428 1.01449 1.016219 1.017372 -9999 -9999 
-9999 -9999 0.9986832 0.9984769 0.998269 0.9981332 0.9979728 0.9974046 0.9964374 0.9962003 0.9956989 0.9961917 0.9969397 0.998055 0.9996665 1.001294 1.001029 0.9984088 0.9962087 0.9945822 0.992501 0.9909162 0.9890885 0.987891 0.9872674 0.986218 0.9853548 0.9843243 0.9827991 0.9814332 0.9802999 0.9793315 1.006892 0.9792483 0.9806111 0.9812537 0.9818109 0.9826422 0.9841121 0.9859583 0.988088 0.9900815 0.9922791 0.9932824 0.992909 0.9931459 0.9921977 0.9977416 1.041372 1.071314 1.072399 1.057716 1.035099 1.023852 1.038903 1.069892 1.09536 1.055191 0.9972794 0.9994863 1.001512 1.058004 1.05551 1.003366 1.003017 1.003776 1.004558 1.017675 1.046892 1.05389 1.076823 1.107899 1.051699 1.055355 1.253827 1.121112 1.008609 1.006405 1.00479 1.003165 1.002586 1.002123 1.001178 1.000621 1.000265 0.9998256 0.9992175 0.9974783 0.9953355 0.9936167 0.9922187 0.9908649 0.9900013 0.9894733 0.9896883 0.9907075 0.9911798 0.991366 0.9905207 1.001239 1.000872 0.9857538 0.9835821 0.9917476 1.004013 1.012756 1.017858 1.004633 0.9761779 0.9952019 1.052469 1.122099 1.209033 1.263573 1.182765 1.126483 1.053591 0.9902928 0.9760352 0.9774972 0.9799533 1.021079 0.9992083 0.9840521 0.9857817 0.9885204 0.9909506 1.011005 1.049197 0.9938286 0.990729 0.9894336 0.9878808 0.9875784 0.9879836 0.988055 0.9862906 0.9843907 0.9826008 0.9807665 0.9790314 1.054416 1.131733 1.183758 1.374954 1.196066 1.015404 0.9797159 0.9810054 0.9830839 0.9852511 0.9872553 0.9895581 0.9913321 0.9924704 0.9939525 0.9953769 1.035167 0.9942589 1.0036 1.006387 0.9912891 1.003522 1.004956 0.9956836 1.006497 0.999935 0.9833124 0.98116 1.052877 1.276231 1.001649 0.9817472 0.9833729 0.9844601 0.9855512 0.9863734 0.9879125 0.9898385 0.9917123 1.002542 1.033526 1.052898 1.040453 1.040887 1.09844 1.164507 1.15713 1.105446 1.048864 1.045651 1.084764 1.126785 1.174156 1.164267 1.065894 1.033262 1.078885 1.05423 1.01108 1.013639 1.015356 1.016422 -9999 -9999 
-9999 -9999 1.000718 1.000217 1.000172 1.000275 0.9999881 0.9993341 0.9986368 0.9982446 0.9979972 0.9984892 0.9993608 1.000108 1.001779 1.003788 1.001337 0.9988132 0.9973807 0.9955201 0.9936246 0.9919347 0.9903158 0.9895725 0.9889663 0.9879906 0.9869549 0.9858655 0.9844629 0.9831287 0.9819602 0.9807007 1.010861 0.9805751 0.981938 0.9830874 0.9839929 0.9847424 0.9854429 0.9870377 0.9889627 0.9908904 0.9928991 0.9958667 0.994607 0.9947691 0.9939654 0.9929183 0.9988949 1.012554 1.029097 1.039119 1.017188 1.007383 1.024757 1.045916 1.0596 1.054813 1.021498 1.002105 1.000119 1.002266 1.039248 1.08854 1.036343 1.021146 1.033556 1.050865 1.08099 1.116154 1.156364 1.121907 1.053405 1.185142 1.173906 1.038413 1.007985 1.005416 1.003373 1.033911 1.085307 1.062159 1.024714 1.002536 0.9983833 0.9979705 0.9975362 0.9961083 0.994133 0.9921535 0.9904953 0.9888123 0.9877985 0.9874606 0.9879039 0.9887486 0.9888105 0.9887881 0.988301 0.987571 0.9868676 0.9854321 0.9833121 0.9815459 0.987774 1.001565 1.012922 0.9936169 0.9758186 0.9919722 1.086562 1.18984 1.23731 1.187756 1.125756 1.124337 1.076982 1.013124 0.9912471 0.9769374 0.9795001 1.014968 1.06164 0.9830878 0.9855886 0.9879359 0.9903314 0.9928837 1.068099 0.9936798 0.9921823 0.9907526 0.9898539 0.9901108 0.990195 0.9897755 0.9874701 0.9860228 0.984177 0.9818565 0.9796779 1.021644 1.209684 1.212835 1.268863 1.102276 0.9786526 0.9803209 0.9817379 0.9836752 0.9856883 0.9876802 0.9901745 0.9922458 0.9939036 0.9952648 1.003223 1.040691 0.9953427 0.9936215 0.9919492 1.019828 1.050817 1.068053 1.044585 1.02386 1.003021 0.9836155 0.9816141 1.035046 1.116946 0.9805932 0.9823464 0.984184 0.9858134 0.9870899 0.9881697 0.988818 0.9900598 1.000612 1.016468 1.014912 1.0291 1.045101 1.048645 1.100933 1.147394 1.113737 1.07569 1.038059 1.055771 1.121516 1.184763 1.234285 1.201351 1.091505 1.035087 1.067912 1.095401 1.041856 1.012015 1.013768 1.015996 -9999 -9999 
-9999 -9999 1.002636 1.0023 1.0023 1.001982 1.001762 1.001371 1.000775 1.000247 1.000006 1.000557 1.001695 1.003445 1.005346 1.005319 1.002369 0.9999974 0.998187 0.9962972 0.9946092 0.9928926 0.9920102 0.9913434 0.9905659 0.9894895 0.9884542 0.9872726 0.9859792 0.9846076 0.9834562 0.9820373 1.020829 1.007924 0.9828542 0.9845855 0.9861097 0.9868678 0.9873393 0.9882941 0.9897309 0.9915555 0.9934376 0.9956099 1.017733 0.996384 0.9955333 0.9945911 0.9940363 0.9938683 0.993787 0.9960251 0.9944447 1.003371 1.030269 1.041035 1.037413 1.022298 1.006768 0.9994933 1.000899 1.002163 1.003975 1.098248 1.118907 1.093238 1.085972 1.083506 1.116661 1.169579 1.1878 1.098284 1.081794 1.330947 1.054388 1.008857 1.007048 1.004938 1.002778 1.048699 1.086012 1.05253 1.006095 0.9980757 0.9970471 0.99597 0.9952762 0.9942258 0.9924726 0.9901817 0.9887338 0.9870803 0.9861312 0.9859067 0.9860083 0.9867691 0.9869969 0.9865751 0.9861646 0.9858919 0.9849064 0.9839964 0.9825262 0.9809117 0.983324 0.9922588 0.991716 0.9814991 0.9784206 1.024767 1.164215 1.253518 1.246896 1.147494 1.098754 1.053388 1.008137 0.989994 0.9880092 0.976921 0.9790561 0.9819323 1.001451 0.9846074 0.9867261 0.9886897 0.9909219 0.993062 1.018982 0.9984673 0.9941711 0.9924749 0.9920378 0.9927278 0.9921507 0.9910765 0.9893209 0.9873141 0.9849681 0.98254 0.9804909 0.9785331 1.07458 1.275066 1.28161 1.027023 0.9790494 0.9810398 0.9826351 0.9844074 0.9862572 0.9883943 0.9905918 0.9927387 0.9945742 0.9961087 1.03997 1.069907 0.9962778 0.9942134 0.9921446 0.9978427 1.020429 1.043757 1.046439 1.019832 0.9952524 0.9836992 0.9819006 1.02175 1.051113 0.981566 0.9827511 0.9846085 0.9867028 0.9884494 0.9895104 0.9958014 1.010348 1.028572 1.048869 1.031514 1.014755 1.041148 1.066725 1.083404 1.099324 1.090192 1.064698 1.047808 1.071651 1.140294 1.202664 1.219044 1.187474 1.103189 1.039275 1.047163 1.080844 1.084883 1.026577 1.014269 1.015886 -9999 -9999 
-9999 -9999 1.004724 1.004537 1.004448 1.004058 1.003827 1.003281 1.002747 1.002153 1.001965 1.002586 1.003792 1.005614 1.029506 1.005734 1.003361 1.000941 0.9985456 0.9967476 0.9954254 0.9943338 0.9937294 0.9929282 0.9919407 0.9908973 0.9898148 0.9886359 0.9873829 0.9859903 0.9847445 0.983503 1.01578 1.048607 0.9835493 0.985293 0.9871523 0.9890138 0.989647 0.9902707 0.9910213 0.9922556 0.9939654 0.9957315 1.020056 1.031179 0.9970436 0.9963436 0.9959254 0.9955881 0.9956121 0.9956641 0.9989307 1.026235 1.057861 1.063071 1.050469 1.035084 1.02187 1.006773 1.001933 1.003078 1.004559 1.024059 1.091375 1.121633 1.099988 1.114962 1.151845 1.192092 1.208239 1.105773 1.14429 1.144001 1.009446 1.007846 1.006073 1.004256 1.002268 1.013941 1.033322 1.005549 0.9982022 0.9969156 0.9958055 0.994445 0.9932203 0.9919934 0.9907959 0.9887983 0.9871741 0.9858736 1.008732 1.029372 1.007158 0.9849277 0.985167 0.9846656 0.9844771 0.9843537 0.9834742 0.9823799 0.9813899 0.9800839 0.9788694 0.987394 0.9960715 1.006922 1.03873 1.10313 1.213577 1.222485 1.169604 1.103826 1.041811 0.9875088 0.9752815 0.9761963 0.9770463 0.9781875 0.9800884 1.014796 0.9828501 0.9851968 0.9875917 0.989545 0.991621 0.993681 0.9954618 1.080138 0.9959829 0.9942891 0.9942662 0.9945338 0.9938681 0.99227 0.9899738 0.9877197 0.9853681 0.983349 0.9815528 0.9796391 0.9778431 1.04825 1.068775 0.9894385 0.9796984 0.9822186 0.9846135 0.9862442 0.9877619 0.9893841 0.9910842 0.9930243 0.994599 0.9970019 1.052275 1.104138 0.9970806 0.9950733 0.9934086 0.9920733 0.9906926 0.9983599 1.01263 0.999433 0.9945367 0.9917978 0.9824666 0.9896847 1.041332 0.9823527 0.9835517 0.9850399 0.98699 0.989116 1.005216 1.032826 1.043231 1.078097 1.110528 1.071749 1.018703 1.023505 1.082784 1.108879 1.055747 1.050043 1.066579 1.057336 1.085222 1.14748 1.201067 1.210649 1.177819 1.101013 1.064365 1.064795 1.076477 1.10345 1.054029 1.013577 1.015521 -9999 -9999 
-9999 -9999 1.006814 1.006557 1.006409 1.00624 1.005828 1.005628 1.00491 1.004278 1.00394 1.004372 1.005729 1.007829 1.05232 1.00582 1.003287 1.000843 0.9988759 0.9975446 0.996716 0.9964013 0.9959611 0.9948694 0.9936341 0.9923658 0.9910715 0.9897855 0.9887674 0.9872215 0.9859205 0.9847547 1.017491 1.117565 0.9895852 0.9857573 0.9875558 0.989876 0.9914278 0.9923799 0.9929693 0.9934782 0.9943725 0.9960361 0.9976228 1.06754 0.998543 0.9977181 0.9977397 1.014752 1.03083 1.03266 1.043837 1.073411 1.102132 1.100675 1.084402 1.063663 1.049544 1.035448 1.014992 1.005263 1.007301 1.006772 1.085585 1.094907 1.093071 1.118847 1.160541 1.193944 1.178891 1.10598 1.262375 1.052711 1.00931 1.006893 1.005098 1.002925 1.001278 0.999886 0.9986204 0.997831 0.996669 0.9953704 0.9943981 0.9931611 0.9916804 0.9902786 0.9889323 0.9874386 0.9860259 0.9888849 1.052144 1.094487 1.073251 1.033351 1.01774 1.021799 1.019251 1.008872 0.9939108 0.9813403 0.9802203 0.9792094 0.9835437 1.002254 1.024488 1.063952 1.141947 1.195877 1.233026 1.161467 1.061205 1.019351 0.9840811 0.9757932 0.9767884 0.9775671 0.9788702 0.9806843 0.9997349 1.141178 0.9952722 0.9848755 0.9871112 0.9890825 0.9908299 0.9926907 0.9947478 1.030709 1.0638 0.9961975 1.00996 1.007524 0.993774 0.991745 0.9896446 0.987479 0.985556 0.9836355 0.9816879 0.9804524 0.9793601 0.983124 1.01228 0.9972991 0.9802656 0.982758 0.9854271 0.987277 0.9888119 0.9904543 0.9981689 0.999101 0.9944645 0.9963136 1.008258 1.138954 0.9981675 0.9966866 0.9947374 0.9929128 0.9910942 0.9897959 0.988753 0.9870554 0.9855355 0.9849554 0.9839533 0.9826105 1.057949 1.024531 0.9844472 0.9858329 0.9877602 0.9892723 1.013596 1.067161 1.082619 1.130961 1.166914 1.098854 1.035456 1.024838 1.065852 1.100705 1.077932 1.058524 1.034647 1.038255 1.09698 1.1829 1.246871 1.25393 1.202822 1.124846 1.094877 1.085191 1.071616 1.096235 1.07712 1.013588 1.015922 -9999 -9999 
-9999 -9999 1.00888 1.00865 1.008563 1.008457 1.008093 1.00751 1.007067 1.006431 1.005936 1.006188 1.007746 1.05473 1.008279 1.006006 1.003823 1.001594 0.9998615 0.9991906 0.9988835 0.9985223 0.9979787 0.9966067 0.9948871 0.9934088 0.9922627 0.9908116 0.9896284 0.9883959 0.986918 0.985464 1.002476 1.225027 1.018502 0.9858044 0.9878166 0.9896378 0.9916579 0.9938559 0.9949237 0.9952939 0.9958675 1.010507 0.9978092 1.011615 1.006305 0.9994656 0.9990082 1.040907 1.099429 1.109179 1.108401 1.129748 1.148944 1.140168 1.111654 1.080198 1.070953 1.053095 1.029718 1.021559 1.03144 1.012889 1.110373 1.110183 1.092694 1.129312 1.148172 1.105987 1.075499 1.127446 1.241588 1.010514 1.008124 1.005813 1.00395 1.001741 0.9999482 0.9984143 0.9973127 0.9962876 0.9951342 0.9941442 0.9930136 0.991671 0.9902987 0.9888996 0.9875669 0.9862317 0.9848235 1.009166 1.06856 1.093275 1.087625 1.081762 1.07604 1.057703 1.032453 1.009979 0.9907015 0.9802713 0.9805495 0.9926125 1.010598 1.031386 1.057099 1.127613 1.225558 1.261416 1.239091 1.06627 0.9907453 0.9753264 0.975816 0.9768618 0.9777838 0.9796652 0.9816357 1.027741 1.152838 1.133109 1.03638 0.9843517 0.9864323 0.9882804 0.9903288 0.9921529 0.9943047 0.996666 1.121814 1.070473 1.0503 0.9956018 0.9932278 0.99112 0.9890857 0.9874344 0.9857967 0.9841467 0.9826002 0.9813765 0.9954919 1.008577 1.037272 1.026928 0.9808657 0.9834684 0.9861507 0.9884252 0.9900556 1.013305 1.036227 1.020421 0.9946229 0.9967262 0.9990894 1.174439 0.9986581 0.9967417 0.9951637 0.9933863 0.992449 0.9912342 0.9895293 0.9879103 0.9877102 0.9874719 0.98591 0.984143 1.018041 1.114868 0.9861839 0.986132 0.9883041 0.9896139 1.022213 1.052947 1.079819 1.148483 1.119035 1.077312 1.059051 1.069457 1.068413 1.062243 1.089579 1.099639 1.054856 1.015284 1.021082 1.102287 1.219427 1.244205 1.176548 1.088596 1.038146 1.037466 1.056963 1.07628 1.080517 1.034933 1.014882 -9999 -9999 
-9999 -9999 1.011083 1.011003 1.010911 1.010971 1.010582 1.009668 1.00916 1.008482 1.008082 1.008273 1.009339 1.080095 1.008488 1.006227 1.004558 1.002779 1.001263 1.001013 1.001245 1.001157 1.000084 0.9982065 0.9959278 0.9945275 0.9931865 0.991693 0.9905172 0.9893722 0.9879555 0.986567 0.9849198 1.197359 1.050579 0.9856367 0.9876564 0.9895122 0.9915549 0.9937541 0.9961317 1.003085 0.9976712 0.9979756 1.013705 1.000163 1.063941 1.001572 1.000612 1.0232 1.114674 1.150319 1.157522 1.160964 1.151175 1.135862 1.108225 1.0724 1.058581 1.038431 1.036541 1.040392 1.043417 1.036061 1.086641 1.171459 1.123929 1.101028 1.067125 1.068495 1.172034 1.290006 1.030378 1.009103 1.006562 1.004742 1.002725 1.000568 0.9986787 0.9968747 0.9955748 0.9945466 0.9938985 0.9926313 0.9915238 0.9903066 0.9888018 0.9873418 0.9862952 0.9848189 0.9837318 1.006628 1.041305 1.050856 1.056492 1.061679 1.052358 1.023281 0.9964979 0.9857488 0.9838108 0.9850219 0.9920895 1.012679 1.038999 1.05786 1.092338 1.191867 1.297664 1.302298 1.113289 0.999371 0.9758531 0.976921 0.9774413 0.9780459 0.979663 0.9819577 1.056957 1.130253 1.030996 0.9833816 0.9837582 0.9844958 0.9859313 0.9877577 0.9896179 0.9915189 0.9939159 0.9963543 1.049779 1.132247 0.9984671 0.995659 0.9934773 0.991549 0.9897813 0.9879971 0.9865888 0.9851098 0.9838418 0.9824783 1.012758 1.030669 1.054161 1.05147 0.9817499 0.9842038 0.9868865 0.9890963 0.9929184 1.067782 1.074082 1.012213 0.9950796 0.9967945 0.9993061 1.206235 0.9989685 0.9970918 0.9955356 0.9949981 0.9943876 0.9929755 0.9915621 0.9908003 0.9902125 0.9893284 0.9880036 0.9859902 0.984218 1.100383 1.035521 0.9857577 0.9878861 0.9897977 1.023984 1.05361 1.068825 1.096411 1.08709 1.088025 1.126892 1.14603 1.105641 1.053339 1.067068 1.107435 1.100161 1.057537 1.021131 1.065463 1.174282 1.174417 1.086863 1.026231 1.009598 1.016562 1.034892 1.060906 1.068388 1.020865 1.01557 -9999 -9999 
-9999 -9999 1.013512 1.01377 1.013831 1.013455 1.01328 1.012059 1.011351 1.010733 1.010337 1.010426 1.011327 1.029841 1.009019 1.007208 1.005446 1.003873 1.003105 1.003254 1.003254 1.002633 1.001653 0.9993622 0.9972115 0.9958375 0.9944184 0.9929149 0.9915692 0.9900861 0.9885562 0.9870512 0.9852489 1.134587 1.087911 0.9856764 0.9876584 0.9892988 0.9916556 0.9933586 0.9959392 1.001766 1.036606 1.020658 1.011564 1.000749 1.040331 1.072276 1.002098 1.005097 1.111376 1.141021 1.143329 1.136252 1.106725 1.078895 1.053047 1.034944 1.025979 1.019746 1.029722 1.043019 1.043911 1.044086 1.088369 1.145863 1.131744 1.057264 1.074319 1.251471 1.194383 1.037787 1.01015 1.007842 1.005475 1.003284 1.001156 0.9992169 0.9971288 0.9955201 0.9940457 0.9932 0.9921384 0.9908693 0.9897789 0.9885726 0.9873319 0.9861175 0.9847981 0.9835193 0.982444 1.006285 1.026766 1.030438 1.023656 1.007924 0.994758 0.9802037 0.9794813 0.9823462 0.9862443 0.9878836 0.9945161 1.013558 1.053548 1.099524 1.14914 1.278111 1.391282 1.149287 1.021501 0.9757209 0.9769974 0.9783065 0.979304 0.9808097 0.9824677 1.078537 1.182434 1.036342 0.9843162 0.9857245 0.9861676 0.9864923 0.9870636 0.9948251 0.9895212 0.9917578 0.9940482 0.9964815 0.9989089 1.135265 0.9989065 0.9971514 0.9947 0.992754 0.991058 0.989386 0.9876359 0.9859627 0.9848863 0.9834164 1.013934 1.026667 1.04011 1.053576 0.9822109 0.9844111 0.9871683 0.9896303 1.009963 1.096329 1.073019 0.9998205 0.9960089 0.9973502 0.9995981 1.156496 0.9998345 0.9986984 0.9976904 0.9969334 0.996497 0.9954349 0.9945385 0.9935549 0.9922706 0.9912654 0.9896159 0.9872457 0.9854404 1.040778 1.078499 0.991846 0.9878981 0.989914 1.001125 1.050633 1.07185 1.067128 1.083745 1.148856 1.190669 1.194299 1.146555 1.08571 1.076973 1.100724 1.118397 1.099329 1.042145 1.055688 1.173677 1.183092 1.041105 1.008257 1.023299 1.050491 1.069773 1.047617 1.013873 1.014924 1.01705 -9999 -9999 
-9999 -9999 1.01586 1.016176 1.01619 1.015779 1.01548 1.014259 1.013619 1.012836 1.012305 1.012499 1.05665 1.011441 1.008942 1.007705 1.006398 1.005338 1.005357 1.00544 1.005334 1.004234 1.003378 1.001103 0.9988163 0.9969224 0.995458 0.9937237 0.9922339 0.990786 0.9891422 0.9873933 0.9857396 1.101561 1.122688 0.9855532 0.9871523 0.9891897 0.9910578 0.9931476 0.9948858 0.9967785 0.9989297 1.041496 1.039369 1.001792 1.008954 1.087126 1.003135 1.001182 1.071789 1.125834 1.136138 1.127229 1.080714 1.016806 1.002236 1.002972 1.008524 1.012143 1.019446 1.041687 1.043262 1.036611 1.071327 1.118875 1.073385 1.068033 1.216003 1.145634 1.04471 1.010079 1.008175 1.005976 1.004116 1.00187 0.9997084 0.9978722 0.9957874 0.9940115 0.9924809 0.9914248 0.9904832 0.9893716 0.9883082 0.9870301 0.9858702 0.9845788 0.9834344 0.9822015 0.9998413 1.021968 1.028927 1.018762 1.002371 0.9911726 0.979607 0.978643 0.9779198 0.981513 0.9862221 0.9943153 1.008713 1.04826 1.117982 1.176197 1.212387 1.47046 1.208908 1.055978 0.983929 0.9768293 0.9779187 0.979719 0.9818383 0.9834073 1.076061 1.146986 1.093578 0.9839756 0.9861634 0.987347 0.9881118 0.9884492 0.9889114 0.9892395 0.9900718 0.9921479 0.9944753 0.9966549 0.9989893 1.077364 1.00012 0.9979371 0.9958704 0.9939249 0.9921351 0.9903982 0.9886135 0.9869766 0.9859963 0.9844407 0.9886044 1.02377 1.033752 1.036681 0.9965888 0.9848275 0.9872131 0.9896224 1.009726 1.084481 1.067052 1.017165 1.022069 0.9970591 0.9996486 1.07462 1.059525 1.000748 0.9993688 1.001814 1.003226 0.997306 0.9964479 0.9952227 0.9942367 0.9929426 0.9911764 0.9888778 0.9867942 0.9991766 1.059433 1.066308 0.9972915 0.9888756 0.9907665 1.022344 1.049212 1.046938 1.069999 1.145337 1.221534 1.197755 1.130318 1.101983 1.095876 1.078339 1.103415 1.121916 1.07091 1.044779 1.082726 1.109207 1.0415 1.008791 1.034199 1.06944 1.055217 1.05547 1.042194 1.058431 1.031326 -9999 -9999 
-9999 -9999 1.145491 1.183491 1.164528 1.112215 1.046979 1.016278 1.015877 1.014884 1.014061 1.017808 1.01988 1.011775 1.010238 1.009074 1.007955 1.00757 1.007543 1.007421 1.006543 1.006157 1.003986 1.002634 1.000498 0.9980584 0.9962803 0.9945275 0.992944 0.9912205 0.9897391 0.9878641 0.9860265 1.090231 1.083169 1.01162 0.9871266 0.9889227 0.9907218 0.9925684 0.9945403 0.9964021 0.9981332 1.000106 1.002066 1.045165 1.043204 1.09298 1.00431 1.002585 1.01871 1.07856 1.099063 1.088576 1.029549 1.002882 1.004245 1.004782 1.013891 1.016401 1.008931 1.027719 1.033815 1.031574 1.072657 1.098178 1.046975 1.138342 1.151749 1.017814 1.01024 1.008751 1.006827 1.00477 1.002707 1.000692 0.9984283 0.996427 0.9943829 0.9925432 0.9908814 0.9896224 0.9888479 0.9876788 0.9865594 0.9852453 0.9842509 0.9830377 0.9819299 0.9827832 1.021665 1.03885 1.049345 1.044032 1.02656 1.013586 0.9934257 0.982622 0.9916651 1.000948 1.014536 1.032374 1.064085 1.134098 1.206755 1.252691 1.390924 1.225552 1.088412 1.007676 0.9767221 0.9779555 0.9792461 0.9818318 0.983813 1.024605 0.9928359 0.9838593 0.984262 0.985184 0.9871659 0.9890769 0.9897624 0.9904927 0.9907007 0.9909633 0.9915499 0.9924337 0.9948728 0.9970119 0.999418 1.052547 1.001449 0.9988537 0.9971935 0.9951797 0.9931417 0.991208 0.9895926 0.9887159 0.988062 0.9865229 0.9847961 1.018701 1.027156 1.038011 1.042767 0.9854313 0.9876505 0.9899607 1.004757 1.077485 1.072828 1.029169 1.038851 0.9969366 0.9989248 1.002196 1.196934 1.036687 1.000834 0.9994448 1.024371 1.023197 1.001221 1.013429 1.006721 0.9943713 0.9922597 0.9903447 0.9884304 0.9871795 1.034847 1.071845 1.090235 0.9898411 0.9905661 1.02316 1.026443 1.011947 1.033757 1.106369 1.194555 1.168918 1.102995 1.09914 1.089696 1.051898 1.047567 1.040773 1.023589 1.025743 1.047396 1.088907 1.073462 1.00868 1.013006 1.060666 1.062624 1.040976 1.045784 1.076104 1.070471 -9999 -9999 
-9999 -9999 1.229601 1.276629 1.273294 1.233454 1.179085 1.112395 1.06473 1.023826 1.042471 1.067788 1.014245 1.012966 1.011877 1.010524 1.009687 1.009696 1.009715 1.009252 1.008312 1.006952 1.006004 1.004777 1.00219 0.9992944 0.9972315 0.9952868 0.9931982 0.9914694 0.9897721 0.9879247 1.007006 1.055844 1.005468 1.00183 1.015455 0.9980595 0.9904519 0.992263 0.9938011 0.9952931 0.9969042 0.9985892 1.000626 1.002879 1.013096 1.126267 1.027454 1.004086 1.00279 1.055006 1.064002 1.042866 1.003133 1.005887 1.027323 1.024467 1.015913 1.00696 1.008082 1.0174 1.020192 1.011372 1.036121 1.047912 1.085962 1.281306 1.012428 1.01067 1.0091 1.007703 1.006246 1.004381 1.002279 1.000347 0.9982278 0.9959496 0.9937277 0.9915484 0.9899054 0.9882985 0.9870461 0.9859551 0.9848092 0.9838175 0.9826463 0.9815251 0.9805937 1.025044 1.058836 1.06341 1.07059 1.069588 1.053098 1.030003 1.018617 1.032094 1.048558 1.049677 1.04784 1.069565 1.121665 1.175991 1.234426 1.388913 1.135597 1.028338 0.9792695 0.9763001 0.9775041 0.9793476 0.9808757 0.9834977 1.027934 0.9850917 0.986339 0.9864926 0.9864264 0.9870879 0.987831 0.9896785 0.9909174 0.9920749 0.9925709 0.9927168 0.9929152 0.9934382 0.9957752 0.9980525 1.000277 1.051677 1.011828 0.9998662 0.9980771 0.9955702 0.9938056 0.991813 0.9908031 0.9910576 0.9905902 0.9886032 0.9861107 0.9852862 1.005068 1.02693 1.099634 0.9944674 0.9875653 0.9895383 0.9912088 1.041823 1.049822 1.026969 1.033134 0.9971653 0.9992082 1.001037 1.103221 1.108011 1.002083 1.001372 1.000445 1.009184 1.000464 1.018113 1.009169 0.9948474 0.9932156 0.9914276 0.9897797 0.9884818 1.030204 1.068607 1.101803 1.050987 0.9923838 1.046989 1.054025 1.00605 1.001091 1.049982 1.11737 1.093959 1.063737 1.064576 1.053724 1.034929 1.027229 1.022953 1.014984 1.017672 1.037009 1.060384 1.06636 1.025102 1.010667 1.023389 1.033504 1.014604 1.01608 1.064776 1.14163 -9999 -9999 
-9999 -9999 1.160351 1.155848 1.176721 1.21269 1.240982 1.242618 1.200596 1.16219 1.127563 1.062169 1.040954 1.026183 1.013412 1.012479 1.011814 1.011748 1.013934 1.042681 1.036806 1.019879 1.00759 1.005414 1.003207 1.000632 0.9976434 0.9954848 0.9935913 0.9916867 0.9899355 0.988184 1.022662 1.022594 0.9872371 0.9880552 0.9995123 1.022964 1.028765 1.01132 0.9989604 0.9943961 0.9961909 0.9979087 0.9997964 1.001703 1.003484 1.008709 1.162464 1.005669 1.004118 1.052977 1.042384 1.007739 1.004396 1.014653 1.047178 1.017469 1.008401 1.008645 1.009534 1.010493 1.011209 1.012245 1.01663 1.106621 1.335592 1.027147 1.010648 1.009645 1.008426 1.006904 1.013149 1.007966 1.002643 1.000587 0.9983917 0.9962178 0.9938354 0.9913186 0.9895629 0.9878781 0.986243 0.9848951 0.9834571 0.9820477 0.9811747 0.9890258 1.028923 1.07742 1.091302 1.081582 1.072634 1.061479 1.058647 1.05972 1.072274 1.092347 1.092171 1.092916 1.112124 1.124186 1.127891 1.157007 1.214324 1.103834 1.003149 0.9762238 0.9768912 0.9781889 0.9797878 0.9809934 0.9826501 1.034639 1.000459 0.9864359 0.9878839 0.9885976 0.9888411 0.9890198 0.9891346 0.995756 0.9919593 1.003039 1.008136 0.9968738 0.9943147 0.9946177 0.9965171 0.9988385 1.000981 1.063653 1.021271 1.000874 0.9986157 0.996357 0.994139 0.9927338 0.9929236 0.9930292 0.992054 0.9907805 0.9886305 0.9870871 0.9865048 1.008156 1.05625 1.049032 0.987671 0.9892383 0.9911703 1.001831 1.026742 1.029005 1.011912 0.9978041 0.9997846 1.003331 1.082185 1.15817 1.059952 1.003536 1.001704 1.0009 0.9993401 0.9984104 0.997208 0.9954048 0.9942893 0.9929826 0.9913009 0.9897915 1.024283 1.07483 1.079547 1.053143 1.029167 1.051144 1.064232 1.02572 1.006367 1.039466 1.062862 1.039231 1.028259 1.028153 1.028043 1.027675 1.023238 1.007673 1.005626 1.008142 1.021089 1.035995 1.030145 1.010147 1.011573 1.013176 1.017984 1.0162 1.026795 1.10821 1.16186 -9999 -9999 
-9999 -9999 1.284818 1.224357 1.195887 1.212694 1.253489 1.260192 1.206452 1.220126 1.151554 1.042548 1.022079 1.038646 1.024209 1.014406 1.013854 1.050083 1.063271 1.05499 1.068009 1.037872 1.007432 1.005217 1.002966 1.000499 0.9976349 0.9956101 0.993889 0.9924722 0.9908077 0.9891403 1.03584 1.014645 0.9887526 0.9896518 0.9900718 0.990463 1.016956 1.043173 1.013757 0.9942927 0.9960383 0.9978544 0.9996598 1.001621 1.003252 1.005006 1.104441 1.025462 1.005347 1.05781 1.025862 1.005504 1.006011 1.028516 1.051397 1.010949 1.009683 1.010706 1.011343 1.012479 1.014015 1.072294 1.262396 1.170057 1.050104 1.011394 1.010327 1.008577 1.006906 1.005273 1.0044 1.009557 1.003978 1.000732 0.9984075 0.996207 0.9937886 0.9911957 0.9892396 0.9873612 0.985945 0.9843674 0.9825953 0.9811342 0.9983224 1.033521 1.079629 1.108781 1.109118 1.09375 1.074512 1.073874 1.095061 1.11061 1.130333 1.142256 1.133107 1.140978 1.143067 1.095894 1.076651 1.105023 1.063929 0.9978452 0.9761643 0.97736 0.9787703 0.9803865 0.9823136 0.9835193 1.017574 1.044778 0.985087 0.9873269 0.989803 0.9905267 0.9908482 0.991088 0.9909647 0.9908752 0.9920053 0.9939314 1.01847 1.016955 0.9961087 0.9961038 0.9974722 0.9995716 1.001807 1.121821 1.022094 1.001054 0.9984162 0.9961454 0.9950281 0.9946622 0.9952145 0.995018 0.9945489 0.993248 0.9906089 0.9891921 0.9880962 0.9877223 1.022112 1.081891 0.9878104 0.9896072 0.9912465 0.9928278 1.013539 1.023399 1.002084 1.003187 1.007956 1.026 1.060874 1.063252 1.124788 1.033437 1.003492 1.00234 1.00098 0.9995246 0.9980898 0.9970232 0.9960047 0.9943338 0.9926113 0.9913299 1.016928 1.056929 1.025555 0.9904475 0.9988613 1.014779 1.011055 0.9941748 0.9955446 1.000048 1.041917 1.021101 1.012816 1.026296 1.032899 1.033515 1.012005 1.005447 1.006999 1.008329 1.029717 1.043875 1.010371 1.011593 1.013002 1.013963 1.015409 1.016713 1.070418 1.162412 1.123722 -9999 -9999 
-9999 -9999 1.213067 1.265544 1.382464 1.353799 1.295736 1.273044 1.214292 1.188676 1.158833 1.077366 1.023961 1.059543 1.075274 1.067561 1.091273 1.04444 1.01303 1.047627 1.055719 1.008586 1.006583 1.004446 1.002123 0.9996967 0.9979848 0.9965479 0.9950668 0.9935806 0.9918717 0.990193 1.033845 0.9892405 0.990375 0.9912547 0.9918662 0.9921214 0.9925759 0.9928113 0.9936929 0.9951307 0.9967716 0.9983619 1.000089 1.001962 1.003721 1.005557 1.047281 1.071336 1.014586 1.091538 1.04187 1.026558 1.048954 1.069589 1.068707 1.022948 1.010455 1.011996 1.013067 1.028047 1.247383 1.171951 1.075164 1.055457 1.057005 1.023337 1.00947 1.007613 1.005749 1.00385 1.002602 1.001954 1.001482 1.000114 0.9979033 0.9955889 0.9933229 0.9910324 0.9891745 0.9872193 0.9855208 0.9837133 0.9819788 0.9804917 1.0276 1.108646 1.139786 1.144688 1.142347 1.114665 1.09627 1.122445 1.156737 1.157919 1.168969 1.173133 1.141911 1.101311 1.054941 1.028386 1.083614 1.036368 0.978892 0.9755395 0.9770584 0.9786299 0.9806889 0.9830098 0.9842653 1.035617 1.014975 0.9853739 0.9866123 0.9879153 0.9899893 0.992127 0.9926813 0.9933067 0.9932628 0.9933571 0.9937953 0.9946309 0.9959472 0.9970906 0.9978228 0.9978539 0.9986762 1.000752 1.0031 1.157919 1.003147 1.000949 0.9985213 0.997331 0.9966559 0.9969878 0.9974402 0.9969561 0.9965356 0.9948482 0.99262 0.9913325 0.9905031 0.9889655 0.9880714 1.069475 0.9880762 0.9904022 0.9918656 0.9947618 1.014975 1.032623 1.018075 1.028574 1.043088 1.026831 1.021512 1.037682 1.091327 1.07655 1.005261 1.003799 1.002276 1.000598 0.999589 0.9986401 0.997138 0.9954983 0.9939801 0.9924803 1.007051 1.027726 0.9911441 0.9921706 0.9927298 1.01174 1.027524 1.004888 0.9965007 0.9982126 1.010602 1.025662 1.024188 1.03438 1.078601 1.092776 1.046947 1.024646 1.027389 1.042121 1.1076 1.090248 1.011556 1.013384 1.01448 1.015368 1.01653 1.017864 1.086097 1.145508 1.085352 -9999 -9999 
-9999 -9999 1.19504 1.177347 1.239845 1.341457 1.364972 1.318547 1.240047 1.179074 1.157485 1.133352 1.040399 1.031373 1.090403 1.127892 1.080655 1.019967 1.013131 1.018935 1.009933 1.007798 1.005952 1.004336 1.002266 1.00043 0.9991441 0.9980211 0.9964734 0.9948334 0.9931207 0.9913558 0.9897895 0.9912795 0.99213 0.9928695 0.9934501 0.9940123 0.994294 0.9945953 0.9951587 0.9964719 0.9977994 0.9993919 1.000981 1.002719 1.004416 1.006559 1.059487 1.105749 1.035322 1.122414 1.059114 1.054285 1.082469 1.084659 1.062959 1.012176 1.011345 1.012687 1.036239 1.235256 1.125886 1.048849 1.05869 1.082918 1.065343 1.010232 1.008458 1.006713 1.004807 1.00266 1.000969 1.000096 0.9995514 0.9989221 0.9969777 0.9950654 0.9928388 0.9908628 0.9886971 0.9870925 0.9851074 0.9831812 0.9814652 0.9807089 1.067052 1.166015 1.186379 1.200171 1.175314 1.134937 1.146167 1.177258 1.189894 1.176879 1.180075 1.155956 1.086267 1.051191 1.048946 1.107249 1.133581 0.9822207 0.9743217 0.9759442 0.9779027 0.9795601 0.9822901 0.9846837 1.071909 0.9880546 0.98642 0.9872301 0.9884738 0.9898881 0.9913466 0.9931852 1.013171 1.01256 0.9954555 0.9956865 0.9960918 0.9969285 0.9983407 0.9991872 0.9996294 0.9996979 1.000129 1.001706 1.003987 1.076601 1.004121 1.00188 1.000336 0.9994121 0.9989893 0.9991188 0.999454 0.9989542 0.9981716 0.9963562 0.9949757 0.9939466 0.9925888 0.990953 0.9895008 1.031438 0.9896372 0.9914935 1.000152 1.025309 1.044513 1.058773 1.03474 1.038155 1.065256 1.023107 1.002519 1.025625 1.027936 1.098352 1.006567 1.004243 1.002659 1.015316 1.001082 0.9997441 0.9983158 0.9972884 0.9955679 0.9936761 1.004275 1.002707 0.9925733 0.9938999 0.9947097 0.9944642 1.03984 1.027833 0.9970236 1.00286 1.048035 1.040478 1.038302 1.071205 1.112262 1.100509 1.047514 1.042557 1.050935 1.042989 1.085333 1.067309 1.012484 1.019732 1.058688 1.064761 1.075654 1.092946 1.098331 1.093856 1.084319 -9999 -9999 
-9999 -9999 1.268333 1.172616 1.173651 1.232221 1.222764 1.295201 1.403097 1.302105 1.269353 1.262121 1.143126 1.043318 1.029679 1.078755 1.063188 1.015024 1.0136 1.01205 1.010041 1.008141 1.006466 1.004924 1.003204 1.001818 1.000689 0.9994658 0.9977754 0.995975 0.9944481 0.9930713 0.9921811 0.9929713 0.9938018 0.9946311 0.9953509 0.9958257 0.9961989 0.9964007 0.9968057 0.9979666 0.9991558 1.000375 1.001943 1.003506 1.005063 1.007112 1.075955 1.121962 1.063879 1.113508 1.044577 1.043616 1.067696 1.053351 1.017964 1.011456 1.01287 1.013789 1.156693 1.179884 1.041571 1.074634 1.119546 1.094609 1.030559 1.009117 1.007283 1.00563 1.003708 1.002139 1.00018 0.9986261 0.9978732 0.9970915 0.9960082 0.9942852 0.9923837 0.9902329 0.9883569 0.9864552 0.9845316 0.9827922 0.9809278 0.9939419 1.085797 1.187929 1.222715 1.241226 1.193266 1.154559 1.176014 1.176754 1.176041 1.166061 1.165265 1.146538 1.083255 1.116278 1.195384 1.167173 1.085706 0.9966336 0.9742878 0.976001 0.9776437 0.9797956 0.9824534 1.013799 1.06928 0.9868565 0.988318 0.9890895 0.9902107 0.9913625 0.9929609 0.9948193 1.042864 1.049684 1.038187 1.000996 0.9983712 0.999367 1.000443 1.001662 1.002081 1.002023 1.001788 1.002698 1.00473 1.060201 1.005307 1.003301 1.002216 1.001484 1.001026 1.002254 1.001682 1.000771 0.999553 0.99795 0.996748 0.9954733 0.9939017 0.9920808 0.9908421 1.018608 0.9911033 0.9929433 1.046552 1.049784 1.047591 1.04424 1.041128 1.067046 1.087404 1.027559 1.002261 1.004974 1.005624 1.049641 1.026278 1.005423 1.003742 1.012278 1.002557 1.001232 1.000076 0.9995666 0.9970307 0.9946675 1.010846 0.99382 0.9942552 0.9953804 0.9964823 0.9963664 1.010814 1.080799 1.041094 1.012742 1.025146 1.059424 1.080472 1.124814 1.14121 1.084801 1.048107 1.043385 1.063544 1.054609 1.035205 1.023277 1.015627 1.066778 1.125624 1.110216 1.094405 1.073354 1.044232 1.074558 1.069298 -9999 -9999 
-9999 -9999 1.05526 1.028452 1.024108 1.086698 1.134942 1.163788 1.238148 1.293304 1.388705 1.426759 1.340788 1.155215 1.027731 1.017859 1.017312 1.016421 1.014295 1.012328 1.010533 1.009048 1.007668 1.006367 1.004768 1.003422 1.00202 1.000754 0.9990382 0.9970863 0.9957519 0.9946807 0.9939753 0.9946957 0.995571 0.9963666 0.9970971 0.9976441 0.9980878 0.9982142 0.9985806 0.9993629 1.000529 1.001656 1.002905 1.004379 1.006041 1.007895 1.077481 1.098385 1.079425 1.075506 1.033878 1.041175 1.064821 1.043654 1.012273 1.012731 1.014195 1.099635 1.191471 1.043702 1.065335 1.138083 1.120606 1.050109 1.009369 1.007928 1.006172 1.004315 1.002514 1.001116 0.9996107 0.9980425 0.9961976 0.9952224 0.9942276 0.9930285 0.9914583 0.9894229 0.9875687 0.9861014 0.9839099 0.9822178 0.9806339 1.001064 1.077338 1.185374 1.258967 1.272541 1.198518 1.160404 1.170594 1.180655 1.175128 1.16134 1.17793 1.212066 1.115275 1.057302 1.002483 0.9809067 1.011573 1.053287 1.006462 0.9755306 0.977769 0.9803484 0.9826328 0.999296 1.04888 0.9871575 0.9986841 1.029361 0.9991188 0.9928137 0.9941149 1.053303 1.145932 1.136806 1.108815 1.081197 1.090922 1.114102 1.093487 1.049348 1.040009 1.01452 1.004329 1.004541 1.005632 1.126911 1.006337 1.011672 1.028431 1.021409 1.033464 1.024357 1.022994 1.002036 1.000793 0.9995478 0.9980634 0.9965011 0.9947293 0.992897 0.9919016 1.020876 0.9923807 1.01947 1.085215 1.06041 1.037988 1.030131 1.061017 1.099152 1.093998 1.032189 1.002409 1.00403 1.005691 1.008046 1.071614 1.00685 1.005097 1.019239 1.035557 1.013856 1.00131 0.9992043 0.9970806 1.013704 1.003922 0.9953727 0.9956219 0.9966512 0.998015 0.9985095 0.9974717 1.086926 1.106457 1.057327 1.019438 1.008957 1.052912 1.123155 1.088965 1.055676 1.054232 1.067202 1.06489 1.0533 1.036611 1.011888 1.022795 1.088296 1.147173 1.146949 1.130079 1.088018 1.022037 1.03356 1.133343 -9999 -9999 
-9999 -9999 1.014974 1.014871 1.015524 1.017172 1.052116 1.066252 1.100001 1.134435 1.175718 1.244839 1.3366 1.394021 1.157716 1.052952 1.019162 1.017422 1.015184 1.013492 1.011851 1.010607 1.009079 1.007639 1.006284 1.004976 1.003427 1.001928 1.00019 0.9984061 0.9973725 0.9962422 0.9955034 0.9962574 0.997079 0.99795 0.9989979 0.9994882 0.9998409 1.000188 1.000386 1.001193 1.002121 1.00321 1.004178 1.00562 1.007192 1.008618 1.07109 1.079796 1.084249 1.048692 1.032813 1.049623 1.067702 1.031001 1.013029 1.014467 1.03442 1.209263 1.016378 1.037252 1.145065 1.137518 1.044558 1.009993 1.008353 1.006654 1.004934 1.003231 1.00132 0.9997529 0.9984717 0.9971563 0.9952992 0.9937342 0.9926841 0.9914355 0.9901514 0.9887572 0.9868953 0.9852406 0.9832854 0.9816523 0.9800935 1.017081 1.084907 1.20741 1.304552 1.304221 1.190527 1.162815 1.182351 1.212089 1.187623 1.157144 1.134378 1.086051 1.015607 0.9737314 0.9739552 0.9740502 0.9739993 1.048335 1.124547 0.9748785 0.9773189 0.9796584 0.9818799 0.9844553 1.033485 0.9865416 0.9886299 1.011981 0.9956743 0.9929618 1.016396 1.037078 1.044359 1.048807 1.038354 1.022736 1.00512 0.9989291 1.000588 1.000536 1.002619 1.011855 1.073813 1.030753 1.017109 1.137182 1.015908 1.07004 1.072336 1.028485 1.003469 1.003512 1.004249 1.003083 1.001885 1.000451 0.998912 0.9969651 0.9951853 1.01546 1.0165 1.029804 0.993064 1.033114 1.117797 1.091867 1.041648 1.049651 1.108642 1.132372 1.105667 1.038518 1.00251 1.004152 1.005886 1.008174 1.123175 1.008321 1.00663 1.019513 1.020633 1.005458 1.000599 0.9987155 1.002915 0.9987705 0.9968559 0.9970471 0.9972931 0.9979804 0.9991112 1.003598 0.9988716 1.028684 1.086335 1.083143 1.056999 1.017555 1.016315 1.054811 1.059973 1.0273 1.043506 1.110818 1.092242 1.045722 1.05588 1.025321 1.014401 1.051156 1.109047 1.143697 1.138854 1.114184 1.0643 1.042542 1.074424 -9999 -9999 
-9999 -9999 1.018677 1.036503 1.014269 1.015629 1.016451 1.016914 1.017854 1.057255 1.091598 1.151856 1.232077 1.303888 1.37835 1.245246 1.084581 1.018635 1.016524 1.014931 1.013523 1.012156 1.010705 1.00919 1.007869 1.006342 1.004673 1.003187 1.001527 1.000271 0.999118 0.9979607 0.9976675 0.9979424 0.9988163 0.9996467 1.000618 1.001306 1.001824 1.002139 1.002241 1.00267 1.003871 1.004534 1.005614 1.007018 1.008125 1.009565 1.082744 1.091846 1.125029 1.052739 1.046261 1.066139 1.065971 1.013226 1.014892 1.0404 1.211342 1.10692 1.014814 1.051039 1.153287 1.065864 1.010245 1.008334 1.006894 1.005219 1.003316 1.001792 1.000314 0.9984637 0.997089 0.995777 0.9944597 0.9929407 0.9912966 0.9900112 0.9889038 0.9876567 0.9860091 0.9844214 0.9826002 0.9811435 0.9900446 1.045538 1.123859 1.267304 1.445716 1.311906 1.19077 1.193941 1.215937 1.229878 1.165224 1.082378 1.015201 0.9749415 0.9752159 0.975597 0.9757584 0.9758317 0.9756859 0.9749584 1.075964 0.9985313 0.976921 0.9791763 0.9814808 0.9835266 0.9906594 1.00236 0.9878432 0.9891958 0.9905772 0.9920329 0.9930521 0.9936331 0.9938344 0.9945592 0.995231 1.004359 1.034935 1.03367 1.011158 0.9999144 1.001916 1.004211 1.005757 1.052348 1.101486 1.16984 1.006898 1.006005 1.020584 1.016861 1.005589 1.005569 1.006571 1.004945 1.003079 1.001115 0.9991412 0.9971499 1.012578 1.045158 1.049677 1.053558 1.000956 1.032441 1.112904 1.112119 1.03925 1.052068 1.088888 1.104484 1.095279 1.034139 1.002923 1.004576 1.006092 1.008476 1.110055 1.010057 1.00788 1.005896 1.004446 1.002757 1.001462 1.000019 0.999194 0.9986058 0.9984958 0.9986672 1.010868 1.003322 1.000558 1.025184 1.000509 0.9994537 1.019136 1.024612 1.024394 1.034019 1.040377 1.020959 1.027884 1.057357 1.074139 1.104303 1.125639 1.079862 1.067639 1.038396 1.013319 1.019305 1.073052 1.119782 1.089852 1.040889 1.032974 1.049443 1.090337 -9999 -9999 
-9999 -9999 1.012183 1.012234 1.012267 1.013501 1.014316 1.014788 1.016268 1.016903 1.041842 1.107439 1.190274 1.230561 1.438298 1.367991 1.188862 1.028524 1.017847 1.016319 1.014997 1.013737 1.012115 1.010914 1.00939 1.007736 1.00624 1.004678 1.003244 1.001816 1.000648 0.9993333 1.01839 0.9995571 1.000712 1.001502 1.002483 1.00301 1.003497 1.003926 1.003865 1.004288 1.005377 1.006294 1.007211 1.00859 1.009584 1.010909 1.093409 1.073174 1.062288 1.012084 1.012527 1.012853 1.013229 1.01439 1.024271 1.275536 1.08469 1.014814 1.013409 1.058193 1.074184 1.012457 1.008946 1.007229 1.005379 1.003778 1.001985 1.000345 0.9988744 0.9973035 0.9958532 0.9944314 0.9932259 0.9920297 0.9904993 0.9888185 0.9876141 0.9863859 0.9849344 0.9835206 0.9818722 0.9803378 1.013767 1.078994 1.198351 1.339747 1.336432 1.250055 1.228469 1.245969 1.179794 1.117136 1.056199 1.002971 0.9763683 0.9767179 0.977131 0.9774339 0.9776077 0.9776345 0.9773711 0.9768223 0.9755857 1.004752 0.9897078 0.9784819 0.9803276 0.982372 0.9844369 0.9910567 1.003158 0.9873843 0.9887949 0.9899588 0.9907148 0.9915205 0.9918227 0.9927831 0.9940918 1.034401 1.090035 1.069994 1.003055 0.9995464 1.001348 1.002832 1.004178 1.005881 1.007304 1.127385 1.043559 1.007999 1.00735 1.006913 1.006584 1.007204 1.01651 1.005787 1.004239 1.001651 0.9994441 0.9977308 1.008402 1.032638 1.050905 1.062093 1.037477 1.051011 1.100627 1.077075 1.014991 1.022382 1.031 1.024435 1.018847 1.001874 1.003422 1.005101 1.006835 1.009057 1.101103 1.022523 1.008266 1.00649 1.00524 1.003744 1.002602 1.001562 1.001026 1.000314 1.000066 1.008437 1.023811 1.031353 1.001515 1.047019 1.002184 1.001303 1.000808 1.000948 1.001718 1.002408 1.030086 1.049272 1.040242 1.045266 1.07967 1.13117 1.094781 1.058926 1.058946 1.05895 1.020837 1.01482 1.037611 1.069598 1.041085 1.02063 1.022009 1.022524 1.023444 -9999 -9999 
-9999 -9999 1.009798 1.009767 1.009943 1.011407 1.012036 1.013006 1.014009 1.015632 1.017216 1.031094 1.110287 1.19148 1.434129 1.355858 1.279976 1.107967 1.035977 1.017995 1.01638 1.015261 1.013907 1.012387 1.010852 1.009429 1.007697 1.006082 1.00484 1.00365 1.002244 1.000705 1.014837 1.001009 1.002232 1.003246 1.004201 1.004884 1.005331 1.005872 1.005758 1.00616 1.007104 1.007935 1.008746 1.010167 1.011158 1.012652 1.069111 1.024576 1.012538 1.014204 1.014766 1.015068 1.015381 1.035689 1.571767 1.04316 1.014647 1.013427 1.034451 1.033094 1.010536 1.009281 1.007786 1.006005 1.004108 1.002474 1.000734 0.9988064 0.9973232 0.995832 0.9944826 0.9929737 0.991624 0.9905772 0.9894779 0.9878387 0.9862912 0.9852253 0.9837467 0.9826197 0.9810872 0.9828109 1.050163 1.142272 1.307998 1.388387 1.302286 1.234558 1.227072 1.174216 1.083506 1.027846 0.9960706 0.9774066 0.9779202 0.9784456 0.978816 0.9790725 0.9795302 0.9794341 0.9792072 0.9784299 0.9773853 0.9771934 1.043347 1.07921 0.9794053 0.9805323 0.982415 0.9851264 1.031013 1.040266 0.9916973 0.9880854 0.9888033 0.9896001 0.9905285 0.991567 0.9933184 1.032035 1.081716 1.045698 0.9976903 0.9994252 1.015481 1.031587 1.031219 1.005118 1.006093 1.008201 1.112698 1.088401 1.00981 1.009287 1.00882 1.023094 1.008512 1.006375 1.00441 1.002453 1.000136 0.998538 0.997596 0.9965724 1.008416 1.025714 1.049814 1.053882 1.099821 1.049455 0.9986522 1.002523 1.000675 1.002105 1.002923 1.003538 1.004935 1.005996 1.007081 1.009234 1.101914 1.033107 1.008855 1.007473 1.016709 1.023202 1.004098 1.003281 1.002663 1.002062 1.00169 1.00166 1.010673 1.028153 1.002183 1.005582 1.004111 1.003354 1.002844 1.002733 1.003509 1.004118 1.004551 1.015792 1.07872 1.074269 1.04569 1.069006 1.060035 1.016817 1.01175 1.012752 1.013463 1.039901 1.039526 1.045129 1.025244 1.021183 1.023318 1.032256 1.025826 -9999 -9999 
-9999 -9999 1.007734 1.007237 1.00799 1.008842 1.009229 1.011461 1.01219 1.014267 1.015831 1.0178 1.062319 1.109889 1.299158 1.326727 1.290733 1.154345 1.067762 1.047015 1.017825 1.016676 1.015309 1.013897 1.01231 1.01097 1.00927 1.007936 1.006582 1.005081 1.003537 1.001933 1.009999 1.00266 1.003949 1.00506 1.00585 1.006874 1.007302 1.007721 1.007663 1.007767 1.008626 1.009422 1.010411 1.011644 1.012959 1.014433 1.028352 1.01419 1.014762 1.015862 1.016554 1.032333 1.167605 1.11711 1.015867 1.014411 1.013421 1.017841 1.011341 1.010477 1.009213 1.007869 1.006599 1.004795 1.003163 1.001302 0.999776 0.9978219 0.9961028 0.9943299 0.993054 0.9917357 0.9902171 0.9891535 0.9879919 0.986505 0.984955 0.9836491 0.9824856 0.9812872 0.9798616 1.018057 1.107457 1.282295 1.325406 1.235369 1.198928 1.155668 1.111215 1.072666 1.031202 1.000716 0.9784216 0.9790995 0.9794806 0.9799895 0.9805308 0.9809093 0.9811296 0.9813859 0.9810632 0.9802815 0.9793302 0.9790831 0.9789655 1.093401 1.16477 0.996431 0.9809439 0.982949 0.9849649 0.9996638 1.093987 1.086293 1.00726 0.9880151 0.9892442 0.9907546 0.9928257 1.035378 1.055085 0.9960842 0.9980181 1.024525 1.04451 1.055554 1.061201 1.041626 1.013911 1.006583 1.00881 1.047124 1.190621 1.117106 1.062039 1.056845 1.008358 1.006896 1.005194 1.00319 1.00129 0.9998233 0.9992144 0.9984401 0.9978136 0.9974988 1.00305 1.031442 1.039742 1.015068 0.9996709 1.002136 1.00191 1.003562 1.004845 1.005198 1.006222 1.007307 1.008242 1.010107 1.108405 1.02564 1.009236 1.025963 1.029117 1.063749 1.047177 1.012815 1.004152 1.003664 1.003425 1.003363 1.003276 1.004099 1.013722 1.005072 1.006282 1.005565 1.004903 1.004548 1.004992 1.006048 1.006669 1.006909 1.006786 1.025907 1.0371 1.041928 1.031412 1.036815 1.013429 1.014718 1.015496 1.016906 1.052127 1.065401 1.034976 1.021047 1.022961 1.02477 1.058491 -9999 -9999 
-9999 -9999 1.005219 1.005413 1.005788 1.006213 1.007877 1.010551 1.012583 1.01413 1.015648 1.02944 1.076007 1.069533 1.147075 1.322946 1.219575 1.158954 1.058401 1.022494 1.019033 1.017918 1.016825 1.015644 1.014121 1.012841 1.011473 1.009718 1.008271 1.006464 1.004503 1.002968 1.003067 1.004246 1.005599 1.006688 1.007698 1.008472 1.008972 1.009347 1.009578 1.0097 1.010269 1.011238 1.012088 1.012846 1.014785 1.028871 1.040517 1.026866 1.025643 1.047089 1.161477 1.234811 1.017417 1.014844 1.014087 1.023773 1.013274 1.01125 1.010031 1.008927 1.00774 1.006211 1.004902 1.003503 1.002018 1.000399 0.9988869 0.9972008 0.9953769 0.9934347 0.9917763 0.9900466 0.988695 0.9873075 0.9863216 0.985182 0.9837089 0.9822529 0.9808089 0.9797897 1.000317 1.077269 1.238253 1.312878 1.180863 1.161573 1.13154 1.090231 1.053743 1.027112 1.005604 0.9935135 0.9799656 0.9806152 0.9811426 0.9816603 0.9821382 0.9827137 0.9828212 0.9832287 0.9829136 0.9821298 0.981358 0.9809585 0.9806166 0.9797627 1.062666 1.284227 0.9840873 0.9809559 0.9825144 0.9843155 0.9997632 1.203712 1.243708 1.050759 0.9880628 0.9902483 0.9922233 0.9971449 0.9952467 0.9970949 1.029454 1.069048 1.055717 1.049366 1.059723 1.065032 1.055106 1.025037 1.007256 1.008076 1.00949 1.075417 1.207074 1.040301 1.010014 1.008328 1.006398 1.004627 1.003021 1.001606 1.000996 1.000826 1.000162 0.999609 0.9992177 1.005836 1.01184 1.009354 1.013076 1.001952 1.003203 1.004889 1.00606 1.007277 1.008045 1.009259 1.010237 1.01142 1.079412 1.011918 1.012803 1.053651 1.04433 1.092001 1.073455 1.030073 1.005792 1.005588 1.005301 1.005167 1.004974 1.016309 1.059293 1.010486 1.015205 1.008047 1.006626 1.006322 1.006733 1.007664 1.008539 1.008851 1.008792 1.008833 1.009302 1.026068 1.036182 1.047422 1.02652 1.02659 1.051304 1.055162 1.076572 1.093684 1.080627 1.025741 1.02245 1.024518 1.026749 -9999 -9999 
-9999 -9999 1.046526 1.055287 1.055889 1.00475 1.007791 1.010251 1.01224 1.014119 1.015729 1.044282 1.080513 1.065702 1.078853 1.180882 1.305466 1.277856 1.168383 1.069115 1.020579 1.019099 1.018001 1.016941 1.015748 1.01445 1.013304 1.011393 1.009519 1.007606 1.005813 1.004625 1.004781 1.005847 1.007164 1.008215 1.009249 1.010183 1.010732 1.011114 1.01153 1.011742 1.012055 1.012757 1.039551 1.013789 1.016001 1.021975 1.040147 1.054616 1.094741 1.26689 1.12962 1.016693 1.01502 1.043861 1.085815 1.027418 1.010869 1.00993 1.008604 1.00727 1.00602 1.004503 1.003194 1.001901 1.000363 0.9989656 0.9974427 0.9959684 0.9944701 0.9927031 0.9907461 0.9888021 0.9870217 0.985474 0.9843061 0.9836284 0.9825704 0.9809663 0.9797096 0.9979727 1.097694 1.371311 1.189213 1.096446 1.077487 1.074423 1.054435 1.04687 1.045402 1.027581 1.003674 0.992011 0.9811702 0.9821183 0.9826317 0.9834224 0.9839857 0.9844379 0.9847969 0.9848812 0.9849096 0.9838685 0.9831856 0.9830827 0.9823943 0.9817384 0.9804752 1.027097 1.325106 1.006484 0.9810277 0.9824449 0.9843523 1.000466 1.262532 1.138547 0.9876686 0.9897724 0.992061 0.9941704 1.006681 1.046412 1.048134 1.052131 1.046773 1.033452 1.038143 1.074084 1.075595 1.057363 1.068745 1.083647 1.008119 1.010434 1.120483 1.107907 1.01164 1.009795 1.008024 1.006506 1.00506 1.003403 1.00251 1.002803 1.002394 1.001769 1.001168 1.008686 1.052787 1.074338 1.064174 1.010533 1.004351 1.005709 1.007083 1.008623 1.010256 1.011172 1.012145 1.012854 1.073361 1.012135 1.026952 1.0689 1.057483 1.100384 1.068254 1.02494 1.00734 1.007321 1.007027 1.012711 1.027983 1.047147 1.073897 1.030902 1.007869 1.086438 1.012882 1.02058 1.008282 1.009463 1.013062 1.020679 1.01072 1.010696 1.011072 1.014422 1.031092 1.062162 1.047458 1.027712 1.042906 1.090897 1.087097 1.078698 1.08713 1.037255 1.022668 1.024976 1.027451 -9999 -9999 
-9999 -9999 1.116076 1.170122 1.116929 1.004743 1.007209 1.00934 1.011345 1.013259 1.01486 1.016487 1.049093 1.05552 1.063367 1.064264 1.129061 1.316066 1.360624 1.231722 1.086017 1.028741 1.044622 1.03812 1.017202 1.015865 1.01466 1.012754 1.010973 1.00872 1.006962 1.011392 1.006612 1.007666 1.008963 1.010096 1.011052 1.012091 1.012549 1.013023 1.013558 1.01369 1.018744 1.054328 1.053126 1.01535 1.016908 1.057542 1.174234 1.340663 1.237596 1.084036 1.016704 1.029696 1.083205 1.088964 1.058226 1.011495 1.009981 1.008734 1.007214 1.0057 1.004141 1.002757 1.001332 1.000052 0.9986227 0.9972668 0.9958051 0.9941854 0.9930885 0.9915409 0.9898977 0.9881034 0.9859963 0.9840167 0.9828467 0.9821324 0.9810648 0.9795846 0.9979153 1.160948 1.243365 1.075305 1.027111 1.012606 1.002639 0.9973847 1.006363 1.032287 1.044738 1.026436 0.9990082 0.9817532 0.9825749 0.9835914 0.9843497 0.9850423 0.985833 0.9865214 0.9874578 0.9878944 0.9872399 0.9858432 0.985247 0.9852716 0.9844815 0.9836419 0.9821951 0.9805809 1.046474 1.314378 1.016672 0.9807468 0.9825519 0.9847154 1.054255 1.11772 0.9880804 0.9903142 0.992368 0.9941435 1.022342 1.061997 1.075717 1.051166 1.042001 1.034956 1.018962 1.053838 1.077957 1.050911 1.053417 1.081207 1.008396 1.010215 1.052094 1.184842 1.05254 1.011619 1.009289 1.00804 1.00684 1.005285 1.004055 1.018779 1.00432 1.003706 1.002764 1.019375 1.079696 1.094998 1.063414 1.008825 1.005431 1.00685 1.008755 1.009727 1.01198 1.013072 1.014563 1.015136 1.028807 1.012688 1.033477 1.077915 1.092128 1.113941 1.066457 1.033179 1.009041 1.010929 1.029213 1.060851 1.073057 1.062735 1.054506 1.03692 1.008371 1.081546 1.033167 1.033603 1.019037 1.027376 1.06598 1.086542 1.067867 1.04494 1.039729 1.04602 1.058814 1.090631 1.096476 1.055616 1.030542 1.055559 1.114497 1.071484 1.020992 1.021831 1.023353 1.025434 1.027556 -9999 -9999 
-9999 -9999 1.10396 1.149273 1.106452 1.003542 1.005942 1.008003 1.009854 1.0114 1.013319 1.015243 1.042768 1.071034 1.108248 1.101059 1.069672 1.140175 1.323395 1.357058 1.166103 1.069617 1.074084 1.087591 1.050185 1.017491 1.015804 1.013914 1.011887 1.009936 1.008294 1.013942 1.00835 1.009353 1.010476 1.011946 1.01269 1.013539 1.014126 1.022577 1.046077 1.069212 1.105852 1.153659 1.093892 1.016735 1.018008 1.232389 1.114921 1.057918 1.026436 1.031334 1.044 1.065438 1.05667 1.017189 1.011672 1.010357 1.008874 1.007316 1.005923 1.004409 1.002473 1.00109 0.9996234 0.9980935 0.996649 0.9953617 0.9940035 0.9925537 0.9914486 0.9901727 0.9886485 0.9870225 0.9851304 0.9832057 0.9814454 0.9803741 0.9792449 1.014513 1.283802 1.119378 1.02051 1.00346 1.006086 0.9997955 0.9807554 0.9814237 0.9812833 1.006747 1.038014 1.031798 0.9956344 0.9831077 0.9841196 0.985136 0.9859285 0.9867452 0.9878486 0.9890857 0.9900142 1.012323 0.9898838 0.988874 0.9881911 0.9877739 0.9866636 0.9853703 0.9835127 0.9820138 0.9805956 1.091153 1.177622 0.9858978 0.9808295 0.9837087 0.9857615 1.031048 0.9879616 0.9906164 0.9925196 1.007321 1.052099 1.082958 1.094294 1.074573 1.064977 1.05647 1.031758 1.043061 1.062549 1.031765 1.020013 1.013799 1.008694 1.011616 1.058866 1.19712 1.148556 1.013322 1.011213 1.00931 1.008132 1.006739 1.020392 1.069666 1.049324 1.005326 1.004328 1.003383 1.045647 1.066329 1.035632 1.004754 1.00647 1.007636 1.009875 1.011958 1.013399 1.015225 1.016472 1.039182 1.01543 1.012932 1.031727 1.06782 1.129509 1.110541 1.032584 1.016593 1.026666 1.040367 1.050382 1.055202 1.03627 1.016508 1.008324 1.008772 1.00934 1.010793 1.018665 1.048136 1.05447 1.060013 1.076363 1.099653 1.10551 1.101208 1.095994 1.092863 1.109141 1.140024 1.140789 1.093944 1.062093 1.047435 1.081853 1.094178 1.060507 1.038063 1.024936 1.0264 1.02835 -9999 -9999 
-9999 -9999 1.085798 1.131133 1.131813 1.012878 1.005129 1.007121 1.008946 1.011148 1.013234 1.01483 1.036879 1.080681 1.122571 1.139567 1.103049 1.093465 1.160369 1.348778 1.205684 1.118503 1.082138 1.05957 1.053614 1.018235 1.016859 1.014925 1.012964 1.011057 1.009558 1.009383 1.010064 1.010875 1.011958 1.013422 1.014322 1.015437 1.037983 1.078576 1.126083 1.164827 1.182643 1.20271 1.093574 1.026288 1.057728 1.264866 1.018124 1.04231 1.066727 1.065124 1.03054 1.013541 1.01264 1.011243 1.009981 1.008634 1.007076 1.005599 1.004446 1.002847 1.001122 0.9997469 0.9979918 0.9962339 0.9948097 0.993351 0.9922835 0.991058 0.9898122 0.9882445 0.9870145 0.9856153 0.9843057 0.9823275 0.9802412 0.9788831 1.057061 1.378939 1.055754 0.9907482 0.9856713 0.9965061 1.003999 0.997304 0.982147 0.9830347 0.9830832 0.982486 1.013705 1.028994 0.9916973 0.9843089 0.9854237 0.9864923 0.987449 0.988726 0.9906499 1.020825 1.035872 1.05147 1.059716 1.055455 1.047311 1.013002 0.988874 0.9866046 0.9848753 0.9831409 0.9815245 0.9800037 1.107671 1.130587 0.9797523 0.9823266 0.9844143 0.9871665 0.9957563 0.9899516 0.9920945 0.9942331 1.051604 1.100662 1.102926 1.087489 1.085446 1.081255 1.072139 1.063426 1.055348 1.012349 1.005635 1.007909 1.010501 1.012722 1.128883 1.256023 1.161528 1.047826 1.012713 1.010569 1.009505 1.008097 1.030751 1.10834 1.070307 1.026572 1.005932 1.004933 1.030748 1.045854 1.024956 1.00605 1.00786 1.009535 1.010572 1.012813 1.015466 1.016438 1.018256 1.0183 1.016094 1.013528 1.012407 1.01091 1.065389 1.10741 1.018699 1.031325 1.042637 1.018196 1.010898 1.010347 1.010578 1.009984 1.010378 1.011715 1.012406 1.012861 1.013036 1.01632 1.074671 1.092409 1.106806 1.123467 1.124026 1.126889 1.127537 1.136295 1.159675 1.19095 1.178112 1.11325 1.084913 1.088964 1.121558 1.082423 1.021593 1.023714 1.025822 1.027555 1.029307 -9999 -9999 
-9999 -9999 1.109425 1.133602 1.117632 1.044898 1.004911 1.006991 1.009391 1.010673 1.012479 1.014364 1.025331 1.081164 1.091936 1.083837 1.079383 1.085955 1.105953 1.21139 1.258323 1.165618 1.15092 1.080785 1.026175 1.019523 1.017962 1.016279 1.01396 1.01249 1.011387 1.011007 1.011919 1.012811 1.01368 1.015138 1.024732 1.080233 1.148533 1.186943 1.214028 1.213505 1.188451 1.172092 1.062373 1.018099 1.126306 1.081178 1.016924 1.06835 1.101905 1.057904 1.013399 1.01199 1.010645 1.009377 1.008188 1.00695 1.005539 1.004072 1.002685 1.001087 0.9996356 0.9979498 0.996062 0.9944507 0.992862 0.9914278 0.9907842 0.9896905 0.98805 0.9863555 0.9851649 0.9839046 0.982887 0.9812864 0.9794579 1.05255 1.307713 1.022651 0.979299 0.980276 0.9810459 0.983011 0.992264 0.9918659 0.9834589 0.9847662 0.9848874 0.9839942 0.9836074 0.9992248 0.9863789 0.9854634 0.9865707 0.9877371 0.9896243 1.030809 1.038924 0.9910839 0.9924933 0.9922752 0.9916049 0.9907598 1.047587 1.102354 1.037215 0.9885305 0.985942 0.9844605 0.9827788 0.9811893 0.9793284 1.141505 0.9792112 0.9816068 0.984539 0.9872084 1.026367 0.9894093 0.991468 0.9936015 1.013911 1.094979 1.12899 1.086886 1.078686 1.100981 1.107539 1.075083 1.039823 1.004142 1.006707 1.00913 1.010857 1.037968 1.128086 1.182508 1.07519 1.073345 1.014071 1.011832 1.010781 1.009308 1.024241 1.093252 1.060548 1.061353 1.017776 1.018026 1.038246 1.043942 1.042005 1.006839 1.00928 1.011084 1.012778 1.014181 1.015986 1.018472 1.019836 1.020265 1.01739 1.015672 1.014434 1.013267 1.0114 1.048552 1.012147 1.027838 1.013185 1.013347 1.013689 1.013669 1.013831 1.013879 1.013514 1.01443 1.015259 1.016044 1.015029 1.013516 1.050325 1.106509 1.120627 1.153137 1.152152 1.14694 1.154584 1.188391 1.229014 1.273156 1.236504 1.134614 1.093052 1.097752 1.126566 1.127902 1.060233 1.0225 1.025152 1.027424 1.029009 -9999 -9999 
-9999 -9999 1.080185 1.089389 1.130393 1.110575 1.004247 1.006253 1.007197 1.008773 1.011208 1.013543 1.029295 1.08001 1.081958 1.075895 1.051892 1.04411 1.073189 1.146845 1.385658 1.207288 1.253822 1.232912 1.119463 1.021314 1.0189 1.017193 1.015364 1.013541 1.055323 1.012831 1.013924 1.014832 1.015692 1.031465 1.105918 1.186339 1.257808 1.261112 1.233078 1.196921 1.171975 1.128959 1.017379 1.031192 1.331229 1.019153 1.016424 1.089129 1.082982 1.034379 1.012121 1.010918 1.009253 1.007715 1.006481 1.005428 1.003803 1.002368 1.000814 0.9991786 0.9975573 0.9962648 0.9942609 0.9929829 0.9911991 0.9898993 0.9891849 0.9879235 0.986548 0.9852269 0.9834251 0.9819368 0.9808804 0.9799539 0.9983181 1.372244 1.029508 0.979282 0.9806938 0.9819095 0.9826904 0.9829295 0.9835635 0.9838207 0.9848264 0.9862393 0.9866285 0.985651 0.9851336 0.9850427 0.9854115 0.9863087 0.9877028 0.9896422 1.057217 1.053442 0.9915982 0.9930251 0.9942018 0.9940379 0.9937637 0.9929582 0.9920043 1.018377 1.099866 1.023473 0.987882 0.9865487 0.9849504 0.983317 0.9815686 0.979629 1.065405 0.9814968 0.9843796 0.9890712 1.04415 0.9889563 0.9911629 0.9931722 0.994762 1.053263 1.150238 1.096767 1.074736 1.107124 1.109306 1.059562 1.026426 1.004322 1.007077 1.00935 1.029076 1.048338 1.090239 1.094866 1.030116 1.123304 1.015532 1.013276 1.011653 1.010251 1.023105 1.062582 1.058061 1.080028 1.036368 1.034793 1.05171 1.049207 1.044567 1.007691 1.010332 1.012583 1.013988 1.016249 1.018103 1.019394 1.021531 1.021821 1.019629 1.018193 1.016656 1.014682 1.013279 1.012461 1.013561 1.015159 1.015197 1.016162 1.016492 1.016089 1.016136 1.016475 1.016667 1.016882 1.017404 1.018419 1.016726 1.015718 1.035604 1.159732 1.141164 1.178567 1.184927 1.192231 1.208807 1.247972 1.295379 1.333608 1.282601 1.143656 1.083132 1.081304 1.09149 1.046448 1.022086 1.023939 1.026109 1.028174 1.029635 -9999 -9999 
-9999 -9999 1.063859 1.119867 1.120597 1.072626 1.005159 1.004179 1.006081 1.008347 1.010625 1.013375 1.049699 1.077575 1.099281 1.115731 1.080842 1.047653 1.057934 1.086439 1.313034 1.252272 1.259706 1.305742 1.269835 1.043039 1.019614 1.018006 1.016279 1.0154 1.083738 1.014432 1.01575 1.016618 1.060428 1.143791 1.22151 1.261096 1.264842 1.229673 1.172683 1.136574 1.10024 1.033453 1.019279 1.226748 1.068795 1.017906 1.027462 1.061497 1.026152 1.012568 1.010877 1.009486 1.007862 1.006093 1.004508 1.003207 1.001553 1.000237 0.9990695 0.9974566 0.9959372 0.9948016 0.9926402 0.9912965 0.9897331 0.9881737 0.9873135 0.9861416 0.9847435 0.9830663 0.9814568 0.979876 0.978872 1.016045 1.396537 1.04357 0.979144 0.9807274 0.9822665 0.9834571 0.9843101 0.9845166 0.9851158 0.9857528 0.9865759 0.9879635 0.9883611 0.987443 0.9870034 0.9867359 0.9871393 0.9874039 0.989639 1.064464 1.072904 0.991739 0.9931168 0.994823 0.9958836 0.9964568 0.9957448 0.9945872 0.9931842 0.9917131 1.04633 1.164938 1.055273 0.9880526 0.9866757 0.9850525 0.9835776 0.9815381 1.052334 0.980958 0.9843679 0.9864921 1.047084 0.9886863 0.9907021 0.9924802 0.994295 1.017544 1.139918 1.128191 1.090547 1.08847 1.068197 1.025124 1.017456 1.004321 1.006524 1.008947 1.010876 1.028766 1.038291 1.053386 1.015288 1.154157 1.016751 1.014901 1.012613 1.011234 1.049152 1.05847 1.06624 1.075034 1.03866 1.03445 1.04973 1.032389 1.017722 1.008871 1.010773 1.013665 1.015595 1.016913 1.019008 1.02161 1.023245 1.022737 1.020514 1.020226 1.0183 1.016523 1.01637 1.014688 1.01511 1.016596 1.018641 1.01859 1.018659 1.018108 1.018406 1.018926 1.01901 1.019139 1.019981 1.020196 1.018355 1.017069 1.043737 1.228008 1.156691 1.2045 1.212044 1.222813 1.24746 1.292964 1.347661 1.400478 1.289917 1.141529 1.073953 1.065539 1.073542 1.02209 1.024444 1.025949 1.027891 1.02943 1.030534 -9999 -9999 
-9999 -9999 1.064214 1.104092 1.082393 1.088685 1.030835 1.003852 1.005916 1.008455 1.010963 1.029274 1.038015 1.040522 1.060067 1.073741 1.075036 1.085562 1.098835 1.063399 1.189642 1.313605 1.285656 1.278363 1.278328 1.081014 1.020441 1.018643 1.017122 1.033346 1.061727 1.015987 1.022195 1.092991 1.190158 1.280295 1.297643 1.263727 1.220535 1.16255 1.100234 1.067724 1.038232 1.06014 1.366035 1.082912 1.018841 1.016867 1.017393 1.014618 1.012936 1.011313 1.009782 1.008009 1.006554 1.004772 1.00297 1.001589 0.999481 0.9979527 0.9971231 0.9955855 0.9940928 0.9928089 0.9909682 0.9892531 0.9878118 0.9866022 0.9855638 0.9843733 0.9827261 0.9812585 0.9797968 0.9780051 1.065941 1.192557 1.039404 0.9795184 0.980563 0.9821179 0.9834822 0.9847263 1.005499 0.9859301 0.9866281 0.9875428 0.988341 0.9895684 0.9906858 0.9900829 0.9894542 0.9895695 0.9900381 0.9905552 1.052447 1.075985 1.001267 0.9929885 0.9945301 0.9963126 0.9979607 1.001029 0.9974802 0.9958752 0.9941983 0.9925094 0.9905973 1.127074 1.226336 1.057931 0.9876636 0.9864339 0.9849032 0.9828747 1.00362 0.9818606 0.9841768 0.9861455 1.035058 1.001189 0.9903222 0.9921446 0.9941572 0.9986426 1.105702 1.147598 1.113209 1.060805 1.030171 1.012496 1.012541 1.03121 1.031953 1.007624 1.009448 1.010775 1.012674 1.014372 1.016242 1.13732 1.034602 1.01553 1.013309 1.020359 1.108628 1.084075 1.08115 1.06873 1.035383 1.026074 1.046142 1.031761 1.012854 1.010306 1.011851 1.014498 1.016829 1.018576 1.019647 1.022602 1.024518 1.025079 1.022944 1.021552 1.019528 1.01872 1.018411 1.016974 1.016686 1.018468 1.019908 1.026826 1.027592 1.020014 1.020156 1.021032 1.021181 1.02112 1.022342 1.022261 1.019637 1.017563 1.061711 1.224475 1.149483 1.204463 1.227933 1.221851 1.266056 1.337911 1.37238 1.433458 1.261235 1.127152 1.063986 1.053587 1.072172 1.021939 1.024527 1.027411 1.029269 1.035186 1.031834 -9999 -9999 
-9999 -9999 1.040847 1.078878 1.122629 1.094726 1.001993 1.004003 1.006346 1.009105 1.011377 1.011675 1.012421 1.013985 1.015648 1.016845 1.033402 1.089609 1.134898 1.063209 1.126974 1.39879 1.355033 1.326697 1.265135 1.108308 1.032061 1.019482 1.017738 1.07042 1.065607 1.027122 1.095302 1.201132 1.259844 1.2785 1.188084 1.116575 1.066476 1.04214 1.051435 1.077847 1.143989 1.199064 1.019389 1.018343 1.017163 1.015685 1.014368 1.013061 1.011174 1.009761 1.008192 1.006305 1.00512 1.003692 1.001602 0.9995306 0.9976325 0.9959549 0.9949501 0.9936345 0.992226 0.9908327 0.9891071 0.9872377 0.9861 0.9848981 0.9838296 0.9827117 0.9811665 0.9794594 0.9781803 1.074311 1.220312 1.01341 0.9793135 0.9804165 0.9816151 0.9830033 0.9845119 0.9943588 0.98654 0.9873169 0.9883938 0.9895132 0.9908416 1.028915 1.067381 1.015432 0.9911321 1.005868 1.056146 1.106702 1.084856 1.008149 0.9929723 0.9941486 0.9954822 0.997445 1.011969 1.062521 1.002663 0.9973961 0.9956996 0.9935693 0.9917335 1.032715 1.185975 1.159137 1.043922 0.9872774 0.9863414 0.9843963 0.9826282 1.066748 0.9837449 0.9852849 1.022272 1.047797 0.9898546 0.9918844 0.9939857 0.9958469 1.05408 1.124965 1.109463 1.043915 1.018645 1.016132 1.018377 1.06714 1.106622 1.05065 1.008095 1.009914 1.011965 1.014 1.015946 1.067461 1.095353 1.016431 1.014091 1.012216 1.168399 1.124081 1.104318 1.070563 1.031405 1.015924 1.02749 1.024071 1.024066 1.023351 1.012878 1.015491 1.017908 1.019591 1.02132 1.022647 1.024702 1.027221 1.025665 1.023794 1.022191 1.021231 1.019616 1.018911 1.019231 1.020059 1.022212 1.021723 1.021547 1.021861 1.022097 1.022216 1.023188 1.023094 1.024417 1.023299 1.020638 1.017716 1.11159 1.144111 1.092784 1.133325 1.116714 1.069135 1.072573 1.14225 1.291678 1.390751 1.208492 1.094668 1.048998 1.046615 1.059491 1.022708 1.02558 1.028187 1.029889 1.031165 1.03292 -9999 -9999 
-9999 -9999 1.054529 1.100651 1.11661 1.004662 1.002779 1.004854 1.007518 1.008682 1.00855 1.009318 1.010667 1.01227 1.014102 1.016026 1.017785 1.045449 1.117346 1.06456 1.090004 1.47081 1.365278 1.443835 1.249757 1.121901 1.07784 1.028468 1.018492 1.062404 1.064399 1.086479 1.186523 1.287406 1.207576 1.071735 1.019378 1.01987 1.022563 1.053957 1.115346 1.29619 1.092522 1.019707 1.017604 1.016586 1.015571 1.014073 1.012718 1.01138 1.009622 1.008061 1.006106 1.004372 1.003176 1.002042 0.9998489 0.9976861 0.9960288 0.9945486 0.9934854 0.992169 0.9907176 0.9892874 0.9876043 0.985818 0.984472 0.9833939 0.9823653 0.9812195 0.9798492 0.9777662 1.059594 1.315849 1.036294 0.9787666 0.9801314 0.9813811 0.9826071 0.9839925 0.9854114 0.991084 0.9878018 0.9894438 0.9910294 0.9987895 1.058564 1.080268 1.030359 0.9929434 0.9928564 0.9924072 0.9921923 0.9937714 0.9921024 0.9929286 0.9943014 0.9954201 0.9969107 0.9987046 1.033725 1.096806 1.042849 0.9981852 0.9965671 0.9942818 0.99237 0.9908512 1.050864 1.151002 1.150336 1.055804 0.9877683 0.9859341 0.9840982 1.049186 1.002376 0.9853922 1.048498 1.136827 0.9889921 0.9909293 0.9928972 0.9948214 0.9964043 1.053124 1.071063 1.036568 1.018152 1.011938 1.004181 1.029061 1.061415 1.050249 1.024292 1.009634 1.011325 1.01301 1.014936 1.017532 1.220957 1.017588 1.01528 1.013101 1.14297 1.12086 1.099381 1.07876 1.036714 1.014538 1.025355 1.03679 1.044667 1.038856 1.013988 1.016065 1.018575 1.020568 1.021737 1.024064 1.026026 1.046072 1.027527 1.025453 1.024076 1.022661 1.030057 1.020663 1.021271 1.02185 1.023134 1.024676 1.023964 1.025262 1.023576 1.023811 1.025053 1.025304 1.026731 1.023435 1.020094 1.017476 1.088327 1.017774 1.017796 1.025461 1.017879 1.019041 1.019702 1.018015 1.186989 1.37012 1.181636 1.074162 1.042156 1.044364 1.025135 1.023441 1.026312 1.029019 1.030933 1.032591 1.034239 -9999 -9999 
-9999 -9999 1.034676 1.06416 1.044531 1.001231 1.003468 1.00543 1.00591 1.006175 1.006217 1.007412 1.009132 1.010956 1.012976 1.015069 1.016915 1.018944 1.086474 1.069404 1.046469 1.248418 1.309749 1.510281 1.29221 1.152413 1.113555 1.052205 1.024852 1.059265 1.091896 1.16384 1.259553 1.261454 1.095896 1.020774 1.039253 1.1427 1.422654 1.198437 1.085568 1.021444 1.018844 1.017434 1.016535 1.014881 1.013289 1.012165 1.010816 1.009498 1.007921 1.006265 1.004222 1.002339 1.000824 0.9999809 0.9983665 0.9965858 0.9947708 0.993214 0.9921716 0.990819 0.9888227 0.9873887 0.9857307 0.9842246 0.9829399 1.002355 0.9888903 0.9800767 0.9785634 1.027233 1.423899 1.075978 0.9782922 0.9795768 0.9809834 0.9822663 0.9837142 0.9850608 1.000098 1.000367 0.9887623 0.9909708 1.056454 1.057008 1.008835 0.9930598 0.993801 0.9944842 0.9945542 0.9946961 0.9941681 0.9937326 0.99396 0.9946996 0.9957045 0.9971667 0.9986031 1.00024 1.086677 1.120245 1.036549 0.9984798 0.9965022 0.994796 0.9936665 0.992468 0.9907538 1.025141 1.13156 1.19176 1.053264 0.9875795 0.9849366 0.9846371 0.9850568 0.9865749 1.123385 1.244851 1.04094 0.9896621 0.9916756 0.9937134 0.9954152 1.011464 1.03928 1.03334 1.021309 1.013621 1.003782 1.022354 1.037836 1.035176 1.03971 1.030133 1.010236 1.011855 1.014218 1.017221 1.126578 1.018896 1.0163 1.014175 1.097701 1.102411 1.070425 1.080946 1.048942 1.024536 1.044293 1.060069 1.049834 1.038349 1.015339 1.017026 1.019511 1.021833 1.02344 1.024875 1.027015 1.030164 1.029409 1.026942 1.025449 1.023795 1.063134 1.022611 1.024153 1.024436 1.025541 1.02699 1.026765 1.026934 1.025177 1.025424 1.027671 1.028276 1.028232 1.025283 1.02208 1.019185 1.017615 1.018811 1.020075 1.019357 1.019844 1.022333 1.021505 1.018697 1.08847 1.364643 1.155553 1.053437 1.026462 1.021352 1.022668 1.025218 1.027445 1.029958 1.03228 1.034203 1.064005 -9999 -9999 
-9999 -9999 0.9967863 0.9977482 0.9996257 1.000651 1.002495 1.003535 1.004509 1.003864 1.004146 1.006102 1.008093 1.009937 1.012211 1.01444 1.016355 1.018168 1.068286 1.081617 1.021769 1.114823 1.354329 1.378198 1.371893 1.221252 1.167367 1.085438 1.071354 1.136629 1.186739 1.247325 1.246185 1.12738 1.030591 1.088433 1.320956 1.127794 1.065189 1.019987 1.019119 1.017916 1.01708 1.023809 1.015282 1.013224 1.011645 1.010347 1.008829 1.007534 1.005991 1.004412 1.002774 1.000754 0.9990361 0.9977238 0.9966463 0.9949051 0.993172 0.9919377 0.9907983 0.9892445 0.9873075 0.9856025 0.9840934 0.9983302 1.044016 1.036395 1.001596 0.9792804 0.9778814 1.152553 1.167704 1.015814 0.9791688 0.9907534 0.9942257 0.9854357 0.9897028 0.9971926 1.014249 0.9892799 0.9895313 0.9920364 1.040172 0.9933476 0.9946352 0.9949161 0.9952935 0.9962929 0.9964785 0.9963776 0.9960034 1.002712 1.011768 0.9960135 0.9971274 0.9989061 1.000258 1.007118 1.144244 1.081203 1.012005 1.01263 1.026185 1.002659 0.9950505 0.9939772 0.9925735 0.9912406 0.989853 1.066044 1.08616 1.003897 0.9882022 0.9867122 0.9868602 1.059101 1.155317 1.059163 0.9889611 0.9901034 1.006554 1.002657 0.9944473 1.00617 1.026128 1.035788 1.039537 1.036674 1.017276 1.021251 1.030956 1.040581 1.057994 1.047527 1.009943 1.012331 1.014402 1.016816 1.023884 1.033908 1.017209 1.014815 1.064257 1.072983 1.039734 1.063702 1.080023 1.05554 1.066801 1.064615 1.050032 1.052779 1.030328 1.018077 1.02055 1.022702 1.024824 1.026657 1.028579 1.042092 1.048709 1.028948 1.026464 1.024159 1.052472 1.025149 1.026727 1.02701 1.027685 1.028668 1.029425 1.027992 1.027027 1.029852 1.028511 1.058303 1.02959 1.026649 1.022648 1.01951 1.020653 1.022359 1.023993 1.022531 1.023632 1.024838 1.02273 1.020243 1.017697 1.249848 1.122068 1.020179 1.020444 1.022175 1.024234 1.026429 1.028678 1.031471 1.033651 1.066359 1.097774 -9999 -9999 
-9999 -9999 0.9950424 0.9968324 0.9979111 0.9994581 1.001204 1.002585 1.002601 1.022466 1.003494 1.005487 1.007744 1.009685 1.011697 1.013609 1.015696 1.017564 1.059289 1.104167 1.029813 1.053395 1.396264 1.275049 1.300983 1.309195 1.302138 1.1212 1.091861 1.203943 1.260386 1.243565 1.122294 1.040653 1.070145 1.39203 1.106882 1.102279 1.109374 1.084907 1.073229 1.066184 1.072932 1.030645 1.013829 1.011822 1.010126 1.008487 1.00683 1.00556 1.004251 1.002704 1.001099 0.9992761 0.9975248 0.9958726 0.9944518 0.9929031 0.9916551 0.9901457 0.9891587 0.9876754 0.9857838 0.9842168 1.021742 1.045022 1.051251 1.027067 0.9969054 0.9785189 1.003455 1.270387 1.09171 1.0177 0.979535 0.9987715 1.004148 1.005157 1.004023 1.000859 1.000426 0.988881 0.9905989 1.012448 0.9966438 0.9950961 0.9967323 0.9971532 0.9972465 0.9975668 0.9980794 0.998072 0.9974935 1.016075 1.013638 0.9975737 0.9991451 1.000638 1.002099 1.086552 1.124442 1.056139 1.016198 1.03625 1.074786 1.097651 1.078418 1.00605 0.9943486 0.9931241 0.9917898 0.9906614 0.9902529 0.9893856 1.010757 1.046939 1.134087 1.144486 1.037466 0.9894773 0.9908181 0.9916885 1.026092 1.044776 1.039423 1.03886 1.037042 1.040747 1.042594 1.028462 1.012739 1.022693 1.032924 1.046295 1.049704 1.014716 1.010489 1.013091 1.014938 1.017035 1.01967 1.106336 1.018015 1.015811 1.014498 1.020484 1.015571 1.046461 1.087975 1.062253 1.050679 1.032533 1.017118 1.029652 1.03216 1.0188 1.021345 1.023458 1.025746 1.027799 1.029876 1.085453 1.069895 1.029343 1.027016 1.035361 1.024174 1.027362 1.028856 1.029535 1.030089 1.030182 1.032052 1.030075 1.028647 1.028297 1.029959 1.06029 1.030532 1.027207 1.023982 1.022847 1.024293 1.025735 1.026539 1.025388 1.024981 1.027345 1.024115 1.021381 1.018912 1.070348 1.100979 1.019379 1.02153 1.023539 1.025888 1.027927 1.030302 1.032394 1.034055 1.057313 1.143454 -9999 -9999 
-9999 -9999 0.9936357 0.9950526 0.9966465 0.9985875 1.000063 1.000934 1.02031 1.03495 1.002804 1.005352 1.007636 1.009304 1.011385 1.013445 1.015267 1.01707 1.037127 1.089305 1.069403 1.049536 1.267388 1.236336 1.315101 1.407306 1.487554 1.184654 1.100296 1.19619 1.211144 1.10366 1.038048 1.07044 1.299049 1.141766 1.099645 1.141452 1.129172 1.119483 1.096521 1.051753 1.041548 1.039635 1.012989 1.0106 1.008844 1.0072 1.005671 1.004401 1.003053 1.001533 0.9998699 0.9982529 0.996563 0.9949645 0.9934653 0.9920102 0.990514 0.9891058 0.9875731 0.9862581 0.9852749 1.021817 1.033511 1.023242 1.022827 1.020894 1.000907 0.9837001 1.045206 1.199113 1.056496 1.016202 0.9796085 0.9883859 1.004495 1.015446 1.012178 1.001832 0.9877177 0.989228 0.9916155 1.059078 0.9937551 0.9957176 0.9976022 0.9990554 0.9997957 0.9997461 0.9996376 0.9997187 0.9989377 1.027438 1.019857 0.9991947 1.000864 1.002334 1.016062 1.106246 1.0866 1.05837 1.031097 1.036416 1.065822 1.135358 1.23527 1.14524 1.029471 0.9949076 0.9937261 0.9928038 0.9925312 0.9913144 0.9900994 0.9993429 1.095146 1.016576 0.989965 0.9910966 0.992256 0.9931884 0.9996738 1.028775 1.036447 1.040417 1.029147 1.03186 1.047638 1.041244 1.025062 1.034966 1.039565 1.044371 1.0383 1.008544 1.010826 1.012949 1.015028 1.017186 1.019735 1.232755 1.019333 1.017316 1.016467 1.0165 1.016895 1.051248 1.074692 1.0458 1.036116 1.025332 1.018418 1.018797 1.027951 1.020031 1.022692 1.024353 1.026678 1.028642 1.031282 1.103046 1.035179 1.029874 1.027549 1.063954 1.025973 1.028107 1.030378 1.031664 1.032199 1.032134 1.035514 1.031808 1.03052 1.029951 1.031996 1.051392 1.031203 1.028234 1.02553 1.026009 1.027486 1.028707 1.028816 1.02712 1.027403 1.028601 1.025987 1.022914 1.021034 1.019037 1.046696 1.020127 1.022318 1.02442 1.026478 1.028026 1.03014 1.032655 1.035115 1.061308 1.294868 -9999 -9999 
-9999 -9999 0.9921983 0.9933713 0.9949008 0.9964832 0.9979627 0.9989603 1.037505 1.00097 1.002909 1.00532 1.007662 1.010039 1.01119 1.012712 1.014657 1.016679 1.018401 1.053735 1.087917 1.085515 1.165078 1.249012 1.199527 1.441362 1.576338 1.286673 1.128992 1.078317 1.039142 1.03573 1.107462 1.443823 1.158968 1.093477 1.108588 1.106048 1.090194 1.083273 1.028644 1.015877 1.014237 1.013088 1.015522 1.010473 1.008202 1.006323 1.004759 1.003533 1.003374 1.001044 0.9996792 0.9978943 0.9961118 0.9945117 0.9928185 0.9912388 0.9896669 0.988317 0.9868925 0.9911816 1.004972 1.015213 1.01376 1.005623 1.009668 1.015334 0.9921731 0.9983823 1.114131 1.100622 1.014608 1.009196 0.9798862 0.9888248 1.006784 1.009787 1.007483 1.010633 0.9877108 0.9896235 0.9922334 1.053919 0.9934471 0.9954547 0.9976124 0.9999192 1.001806 1.002321 1.001538 1.001069 1.000233 1.027071 1.031056 1.000525 1.002319 1.003887 1.097053 1.046602 1.076192 1.064579 1.042203 1.030255 1.048413 1.119524 1.199787 1.218774 1.149671 1.041795 0.9954863 0.9948441 0.994091 0.9933333 0.9920879 0.9906731 1.015387 0.9901696 0.9915845 0.9926168 0.9940117 0.9950823 0.995275 0.9952106 1.002479 1.025442 1.030031 1.030946 1.051062 1.056414 1.040832 1.048598 1.035472 1.0164 1.025193 1.037817 1.009703 1.01193 1.01375 1.016461 1.019251 1.077991 1.021649 1.019835 1.018669 1.018437 1.018526 1.06543 1.103987 1.100636 1.119865 1.104544 1.045916 1.041508 1.050293 1.020903 1.023555 1.025726 1.02791 1.029539 1.03265 1.140478 1.032967 1.0306 1.028237 1.079421 1.027673 1.029086 1.031417 1.04896 1.061869 1.034235 1.05549 1.033838 1.032174 1.031517 1.034006 1.047294 1.032432 1.029572 1.028871 1.029534 1.031073 1.031095 1.030819 1.028718 1.030111 1.02977 1.027359 1.024978 1.023464 1.021624 1.019774 1.02141 1.023661 1.026078 1.02783 1.029412 1.031178 1.033504 1.036047 1.196249 1.141287 -9999 -9999 
-9999 -9999 1.02894 0.9961546 0.9932401 0.9947845 0.9961311 0.9974286 0.9993129 1.00142 1.003214 1.004822 1.006656 1.008382 1.009854 1.011771 1.013861 1.015986 1.018041 1.01984 1.060876 1.124687 1.126812 1.322137 1.146842 1.252987 1.313424 1.251546 1.14663 1.084898 1.093782 1.215838 1.277375 1.09221 1.042244 1.052201 1.065804 1.049225 1.029651 1.017319 1.015856 1.014194 1.012624 1.011112 1.010582 1.010349 1.008521 1.006011 1.004268 1.002259 1.001225 0.9999869 0.9986506 0.9972039 0.9953824 0.9936454 0.9919425 0.9902346 0.9888842 0.9874991 0.9861826 0.984861 0.9949025 1.006027 1.009565 1.004852 1.004789 1.005444 0.9947633 1.054854 1.360216 1.029274 0.9877708 1.012825 0.9803429 0.9923508 1.000957 0.9913948 0.9940205 0.9997804 0.9880968 0.990357 1.00733 0.9930741 0.9956503 0.9977564 0.9978215 1.000006 1.002225 1.059954 1.004272 1.00273 1.001309 1.000034 1.006287 1.001182 1.003391 1.005433 1.073253 1.005407 1.054191 1.048248 1.034573 1.038666 1.057249 1.090112 1.109865 1.123251 1.120519 1.087992 1.04138 1.038148 1.018723 1.006093 0.9933296 0.991506 1.036195 0.9917253 0.9933969 0.9944586 0.995757 0.9968808 0.9972086 0.9971002 0.9973842 0.9978836 0.9984416 1.00878 1.039231 1.051352 1.04022 1.047049 1.029469 1.006509 1.026084 1.052192 1.045096 1.011499 1.01335 1.015405 1.018056 1.020697 1.050318 1.023056 1.021896 1.02089 1.020441 1.053867 1.152428 1.173859 1.190709 1.129926 1.058092 1.083516 1.077158 1.045925 1.023863 1.026542 1.029238 1.031292 1.033469 1.170918 1.033972 1.031655 1.029415 1.107212 1.029396 1.030249 1.031764 1.053661 1.087365 1.073634 1.086759 1.034767 1.05109 1.033857 1.035499 1.053776 1.033313 1.032843 1.032602 1.032648 1.033358 1.033103 1.032699 1.031644 1.031934 1.030627 1.029029 1.027173 1.025236 1.02313 1.046734 1.022961 1.025763 1.027741 1.029267 1.030971 1.032479 1.034864 1.040082 1.249434 1.041859 -9999 -9999 
-9999 -9999 1.08105 1.05678 1.02596 0.9937853 0.9952217 0.99667 0.9988469 1.001486 1.002535 1.003451 1.005218 1.007187 1.00884 1.010731 1.01303 1.015189 1.017482 1.019399 1.030267 1.143062 1.120112 1.272759 1.16405 1.140306 1.165355 1.256567 1.522385 1.313013 1.198192 1.098228 1.036602 1.021254 1.02009 1.019266 1.018805 1.017969 1.016736 1.015275 1.013846 1.012408 1.010851 1.009331 1.008394 1.008014 1.007977 1.006355 1.004006 1.001646 1.000271 0.9986822 0.9971467 0.9957874 0.9944999 0.9927267 0.9911927 0.989657 0.9882122 0.9867706 0.9851902 0.983813 0.9860249 0.9999436 1.012154 1.012922 1.008617 1.0131 1.044288 1.20362 1.154693 0.9914708 0.9953384 1.016352 0.9814978 0.9825868 0.9833749 0.9848707 0.9887642 0.9874805 0.9893868 0.9921957 1.034419 0.9939447 0.9965861 0.9993219 0.9999025 1.000329 1.001874 1.01028 1.060904 1.004316 1.00298 1.002229 1.001687 1.00233 1.004597 1.007042 1.024228 1.005105 1.003839 1.002849 1.001382 1.042369 1.068437 1.051876 1.049231 1.047083 1.061586 1.088689 1.066783 1.05802 1.017265 0.9955193 1.003996 1.026972 1.041651 0.9928499 0.9945206 0.9961595 0.9974343 0.9987344 0.9992261 0.9993117 0.9995335 0.9998775 1.000139 1.00095 1.03466 1.04268 1.035007 1.055264 1.047362 1.022769 1.025237 1.04107 1.051907 1.029309 1.013424 1.015164 1.017474 1.019948 1.02318 1.049742 1.02563 1.024156 1.023448 1.021192 1.131262 1.164922 1.163595 1.094993 1.062229 1.07849 1.068194 1.034298 1.02417 1.025915 1.028853 1.031388 1.034114 1.21422 1.072504 1.03291 1.030462 1.132313 1.030788 1.032173 1.033139 1.048478 1.06458 1.069442 1.08329 1.035895 1.087294 1.071466 1.072113 1.074261 1.035485 1.035666 1.035315 1.03504 1.040395 1.055759 1.050156 1.060502 1.05782 1.031673 1.030109 1.027709 1.024919 1.062014 1.07057 1.024991 1.027104 1.028796 1.030475 1.032016 1.033417 1.036788 1.211458 1.091993 1.035835 -9999 -9999 
-9999 -9999 1.108976 1.083691 1.048638 0.9980718 0.9945976 0.9962088 0.9983045 0.999955 1.000953 1.001817 1.00409 1.006199 1.007848 1.009908 1.012051 1.01457 1.01679 1.018922 1.021872 1.145159 1.10892 1.236788 1.258253 1.217767 1.256393 1.224362 1.189678 1.153552 1.077949 1.021674 1.020478 1.019587 1.01805 1.016919 1.016208 1.015441 1.014393 1.013418 1.012054 1.010326 1.008945 1.007317 1.006209 1.005734 1.005741 1.005791 1.004374 1.001956 0.9998808 0.9979488 0.9959048 0.9945691 0.9933258 0.9916766 0.9922621 0.9891204 0.9876087 0.9859038 0.9841495 0.9827472 0.9994711 1.01561 1.023157 1.010848 1.0004 1.019419 1.108075 1.400366 1.030116 0.9840195 1.015561 1.003045 0.9810731 0.9827223 0.9840544 0.9856567 0.9869658 0.9883049 0.9908391 0.9940209 1.01496 0.9949712 0.9970714 0.9992668 1.002035 1.002527 1.002399 1.00397 1.028011 1.006312 1.005015 1.004376 1.003782 1.003976 1.005232 1.007513 1.022688 1.006737 1.005524 1.003974 1.002073 1.020908 1.01837 1.01156 1.029112 1.044497 1.065198 1.091583 1.087375 1.067902 1.009774 0.9957793 1.015511 1.063248 1.032219 0.9941375 0.9956708 0.9976648 0.9994987 1.001103 1.001533 1.001689 1.001798 1.00208 1.002217 1.002598 1.024286 1.037017 1.040639 1.053056 1.037665 1.038992 1.032308 1.029082 1.039007 1.022369 1.013987 1.015799 1.017668 1.019736 1.022461 1.02493 1.04017 1.02799 1.025506 1.022799 1.073394 1.083383 1.077008 1.05361 1.064395 1.053176 1.042393 1.025227 1.02595 1.027175 1.028469 1.031303 1.033909 1.161017 1.110022 1.034062 1.031023 1.048878 1.032107 1.033897 1.044823 1.052129 1.038794 1.042453 1.08752 1.037192 1.067165 1.062912 1.068869 1.079551 1.0369 1.037736 1.037515 1.037052 1.065676 1.072023 1.079226 1.093486 1.07062 1.032642 1.030838 1.027895 1.026489 1.096481 1.023897 1.026181 1.028447 1.029911 1.031676 1.032964 1.034714 1.037587 1.311609 1.041589 1.03525 -9999 -9999 
-9999 -9999 1.127734 1.071846 1.042617 0.9975117 0.99395 0.9954425 0.9971542 0.9985372 1.013229 1.00101 1.003024 1.005203 1.006962 1.009118 1.011456 1.013736 1.016309 1.018604 1.022129 1.151024 1.090656 1.20734 1.362697 1.183339 1.12917 1.15682 1.170452 1.088309 1.021408 1.020032 1.018807 1.017494 1.01603 1.015185 1.01446 1.013529 1.012413 1.011475 1.010157 1.008602 1.007167 1.005406 1.004178 1.00351 1.003401 1.003269 1.003374 1.002315 1.000056 0.9976339 0.995207 0.9936353 0.9922597 0.990978 0.992135 0.9885098 0.9867897 0.9850782 0.9835566 0.9831593 1.017869 1.025252 1.011074 0.9909008 0.9901071 1.039988 1.208759 1.144621 0.9793831 0.9953073 1.036814 0.9875073 0.9817767 0.9832826 0.9848742 0.9863047 0.987696 0.9890879 0.991692 1.000487 0.9944481 0.9963143 0.9979121 0.9998336 1.001634 1.004049 1.007308 1.005256 1.007724 1.041482 1.006807 1.006613 1.005828 1.005718 1.006265 1.008277 1.038656 1.00887 1.007163 1.005273 1.002901 1.002141 1.001925 1.001459 1.000721 1.030788 1.059467 1.076765 1.08519 1.071164 1.000475 0.9961683 1.041997 1.071769 1.044924 1.011333 0.9966886 0.998628 1.000901 1.002938 1.004061 1.003932 1.003902 1.004178 1.004302 1.004283 1.004236 1.032769 1.046814 1.037024 1.02066 1.029138 1.02553 1.021482 1.022733 1.01298 1.014604 1.016496 1.017968 1.019946 1.022614 1.025465 1.027816 1.057239 1.026528 1.023231 1.023155 1.022473 1.026068 1.023085 1.033531 1.02391 1.025426 1.026649 1.027648 1.028707 1.030079 1.032054 1.034768 1.127569 1.16103 1.035656 1.033046 1.03151 1.033991 1.035234 1.056738 1.044714 1.037892 1.047873 1.103736 1.044458 1.038142 1.038363 1.046874 1.068911 1.039466 1.039527 1.044114 1.051722 1.077538 1.093613 1.087174 1.062083 1.0405 1.033262 1.030862 1.028975 1.025982 1.144876 1.025143 1.027678 1.0296 1.03098 1.038059 1.033809 1.036264 1.064686 1.165551 1.036619 1.035039 -9999 -9999 
-9999 -9999 1.167829 1.134646 1.073528 1.016474 0.9933374 0.9946537 0.9960659 0.9978586 0.9994503 1.00106 1.002955 1.00488 1.0068 1.009255 1.011433 1.014073 1.016325 1.018797 1.022297 1.149008 1.068635 1.255243 1.216025 1.11714 1.126425 1.226682 1.125905 1.020583 1.019115 1.017946 1.016531 1.017444 1.051061 1.041327 1.013069 1.01164 1.010399 1.009445 1.008317 1.006912 1.005485 1.00383 1.002547 1.001512 1.001255 1.001149 1.00091 1.00088 0.9995534 0.9966825 0.9945931 0.9930083 0.9916839 0.9901926 0.988883 0.9874999 0.9858536 0.9843545 0.98275 0.9813201 1.004916 1.002669 0.9894946 0.9892856 1.016087 1.124753 1.221869 1.038573 0.9772294 1.002919 1.028003 0.9809397 0.9825745 0.9839061 0.985585 0.9869278 0.9887148 0.9903717 0.9930666 1.000842 0.9956456 0.9970323 0.9985446 1.000528 1.002515 1.044651 1.117623 1.070846 1.051707 1.112044 1.035828 1.008412 1.007464 1.014247 1.014542 1.009091 1.071711 1.010835 1.008508 1.00618 1.004399 1.003643 1.00336 1.003086 1.002767 1.001925 1.034659 1.063844 1.082861 1.052811 0.9985186 0.996474 1.053985 1.058514 1.054129 1.048447 0.9970076 0.9989531 1.001241 1.003403 1.005571 1.006308 1.005749 1.005968 1.005997 1.006149 1.00597 1.02586 1.043141 1.023135 1.017138 1.02094 1.015218 1.016014 1.01236 1.013733 1.0151 1.017402 1.019372 1.021443 1.024147 1.026748 1.028761 1.039263 1.028275 1.026226 1.025543 1.024292 1.023775 1.024956 1.025046 1.025665 1.02697 1.028178 1.029236 1.030439 1.032007 1.033472 1.035538 1.134296 1.197204 1.036659 1.033248 1.033439 1.035507 1.03688 1.049158 1.037947 1.039661 1.079542 1.095554 1.040261 1.040213 1.045733 1.098324 1.125168 1.121894 1.121992 1.095787 1.082772 1.108105 1.119842 1.114006 1.068277 1.035693 1.033455 1.031042 1.028787 1.026508 1.07851 1.026503 1.028653 1.030681 1.032437 1.054019 1.034546 1.03793 1.198389 1.103434 1.036681 1.035144 -9999 -9999 
-9999 -9999 1.107243 1.054512 1.045236 1.025783 1.00749 1.004226 0.9959751 0.9981304 1.000046 1.001918 1.00397 1.005746 1.007756 1.009628 1.011788 1.014022 1.016184 1.01921 1.043417 1.114492 1.049258 1.558773 1.124377 1.141083 1.153243 1.231375 1.072136 1.019571 1.017674 1.016365 1.052483 1.096791 1.079777 1.034147 1.011905 1.010327 1.008959 1.007671 1.006273 1.00491 1.003501 1.002102 1.000595 0.9996082 0.9993783 0.9991001 0.9989003 0.9984326 0.9976268 0.9958757 0.9937896 0.9922714 0.9908631 0.9893254 0.9877087 0.9863403 0.9845698 0.9830955 0.9817308 0.9802646 0.9896551 0.9883558 0.9846621 1.001131 1.05988 1.261971 1.064954 0.9766475 0.9780975 0.9937575 0.980378 0.9820087 0.9833573 0.9847335 0.9861728 0.9878849 0.9894422 0.9919208 1.027777 1.002666 0.9962725 0.9976548 0.9992366 1.001124 1.033884 1.02968 1.003917 1.005042 1.006153 1.007948 1.05967 1.040271 1.009417 1.008651 1.050907 1.026867 1.040048 1.038507 1.009642 1.007448 1.006334 1.005736 1.005477 1.005179 1.004538 1.00329 1.002356 1.035919 1.057351 1.016069 0.9990849 0.9978278 1.048269 1.048119 1.049536 1.048395 1.007406 0.9993114 1.001438 1.003532 1.005968 1.06544 1.040186 1.024637 1.007711 1.007927 1.007872 1.007194 1.020416 1.008062 1.009093 1.010053 1.011242 1.01222 1.013283 1.014654 1.01617 1.018494 1.020508 1.022378 1.024638 1.027596 1.030166 1.032611 1.031469 1.029849 1.028245 1.026112 1.025622 1.026554 1.026586 1.027601 1.029159 1.03066 1.031185 1.032163 1.033411 1.035213 1.040371 1.135677 1.163016 1.037582 1.034428 1.035079 1.037225 1.03866 1.038916 1.039974 1.048768 1.14593 1.149326 1.101626 1.089482 1.113172 1.159284 1.216077 1.256669 1.287645 1.184438 1.142026 1.136754 1.121451 1.125077 1.070615 1.036194 1.033858 1.031609 1.029441 1.045726 1.031143 1.028303 1.030136 1.031963 1.033849 1.089844 1.035335 1.038593 1.381036 1.080745 1.037036 1.03507 -9999 -9999 
-9999 -9999 0.9901498 0.991421 0.9921864 0.99273 0.9939386 0.9952552 0.9965473 0.9984791 1.000621 1.002787 1.005159 1.006916 1.008631 1.01035 1.012386 1.014412 1.016841 1.020284 1.106199 1.083139 1.039304 1.363197 1.108863 1.153302 1.146981 1.191201 1.030247 1.018785 1.017413 1.015629 1.052693 1.064988 1.046317 1.013435 1.010787 1.009207 1.00742 1.005857 1.004597 1.003009 1.001868 1.000723 0.9995415 0.9984053 0.9977044 0.9971088 0.9968835 0.9964305 0.9953503 0.994253 0.9924415 0.9910684 0.9897947 0.9882991 0.9866104 0.9851501 0.9835351 0.9821512 0.9807374 0.9793766 0.9825662 0.9869586 0.9915322 1.028515 1.161269 1.142509 0.9845205 0.9774939 0.9795981 0.9800963 0.981696 0.9832188 0.984651 0.9858685 0.9871415 0.9886295 0.9902852 0.9929885 1.059968 0.9947608 0.9966708 1.024315 1.039894 1.015953 1.001809 1.001833 1.002076 1.003081 1.005017 1.007432 1.010064 1.157875 1.058807 1.01057 1.010075 1.014075 1.012181 1.038655 1.011065 1.009164 1.008257 1.007704 1.007135 1.006692 1.006132 1.004908 1.003806 1.002766 1.002499 1.00191 0.9997288 1.00867 1.045088 1.050397 1.054104 1.042149 1.012838 0.9999772 1.001929 1.00383 1.005889 1.019828 1.06968 1.05853 1.019355 1.01031 1.009629 1.008764 1.008713 1.009561 1.010671 1.011619 1.012603 1.013534 1.014908 1.019166 1.016919 1.019381 1.021673 1.02352 1.025655 1.028023 1.031097 1.033212 1.035078 1.032483 1.030321 1.028103 1.027857 1.028382 1.028744 1.029466 1.03126 1.032785 1.033996 1.034278 1.034966 1.036729 1.103843 1.216236 1.195313 1.060025 1.036546 1.037193 1.038739 1.052 1.058294 1.066653 1.152415 1.220553 1.24928 1.294181 1.264874 1.173368 1.146199 1.192011 1.253198 1.315773 1.24559 1.195574 1.166428 1.144149 1.126992 1.053444 1.036773 1.034459 1.032172 1.029759 1.118019 1.02839 1.030334 1.032004 1.033847 1.058337 1.155374 1.035804 1.039093 1.271249 1.057277 1.036611 1.034173 -9999 -9999 
-9999 -9999 0.9915057 0.992981 0.9939563 0.9945509 0.9955606 0.9964868 0.997543 0.9989704 1.001196 1.003468 1.006003 1.008309 1.010076 1.011868 1.013412 1.015293 1.017812 1.020805 1.168812 1.086169 1.024002 1.190976 1.03675 1.066911 1.142481 1.149258 1.020717 1.01796 1.015723 1.014113 1.016293 1.021315 1.015559 1.011085 1.009665 1.008212 1.006473 1.004705 1.003375 1.001835 1.000429 0.9992781 0.9979936 1.000111 0.9962327 0.9952921 0.994787 0.9945503 0.993515 0.9924516 0.9910147 0.9895818 0.9884876 0.987128 0.9854839 0.9840443 0.9823769 0.9808854 0.9796152 0.9783684 0.9771308 0.9900954 1.020293 1.116547 1.268423 1.021874 0.9765038 0.9782715 0.9804088 0.9810904 0.9830056 0.9846147 0.9859156 0.9871008 0.9885298 0.9899509 0.9916288 1.017051 1.086125 0.9956641 1.029551 1.070063 0.9996611 0.9992502 0.9991533 0.9998114 1.001278 1.003175 1.005011 1.00709 1.009287 1.073955 1.121211 1.060505 1.012421 1.012143 1.013342 1.043472 1.012511 1.010963 1.010189 1.009957 1.009073 1.008649 1.00835 1.006422 1.005274 1.005025 1.004514 1.003103 1.000753 0.9993174 1.027105 1.038069 1.034468 1.018719 0.9997647 1.000967 1.002646 1.004433 1.006441 1.008795 1.059544 1.081875 1.059756 1.055871 1.011299 1.010793 1.010453 1.011072 1.011952 1.013041 1.013862 1.015018 1.02922 1.044634 1.01788 1.020021 1.022575 1.02446 1.026826 1.02925 1.031672 1.034575 1.106024 1.033678 1.031415 1.030564 1.03005 1.030725 1.031055 1.031827 1.033294 1.034574 1.036503 1.037024 1.037449 1.038094 1.141415 1.23995 1.198055 1.182539 1.097693 1.074485 1.104097 1.147624 1.174883 1.224582 1.347719 1.301909 1.298179 1.346236 1.32353 1.286555 1.20001 1.195813 1.220281 1.243555 1.238229 1.215595 1.187491 1.169948 1.113439 1.039075 1.036997 1.034722 1.0324 1.030086 1.126594 1.029721 1.031787 1.033734 1.03549 1.161536 1.205447 1.036587 1.040209 1.198165 1.038636 1.036157 1.033421 -9999 -9999 
-9999 -9999 0.9933606 0.9947264 0.9958122 0.9965418 0.9973072 0.9984035 0.999301 1.000358 1.001704 1.003985 1.006339 1.008539 1.01102 1.013314 1.015083 1.01663 1.018359 1.021088 1.162499 1.022372 1.024163 1.056899 1.025045 1.022215 1.189201 1.096979 1.019222 1.016641 1.014614 1.036701 1.061249 1.03876 1.010479 1.009614 1.008562 1.007123 1.005563 1.004149 1.002567 1.000991 0.9999831 1.014245 1.029543 1.018348 0.9949021 0.9936477 0.9931178 0.992926 0.9921943 0.9909291 0.9895407 0.9881791 0.9871282 0.9857665 0.9841649 0.9827111 0.9812412 0.979567 0.9782922 0.9771117 0.9779753 1.023593 1.113522 1.345247 1.105006 0.9756962 0.9773865 0.9794569 0.9808046 0.982216 0.9840031 0.9858176 0.9870889 0.988421 0.9897562 0.9909923 0.9925294 1.091933 1.141582 1.020226 1.026153 0.9968888 0.9968529 0.996679 0.9971084 0.9988309 1.00098 1.003575 1.005827 1.008094 1.045639 1.048458 1.018066 1.042904 1.17296 1.082861 1.039923 1.050666 1.014256 1.013038 1.012347 1.012293 1.011213 1.011248 1.009018 1.006874 1.014906 1.007109 1.005996 1.004319 1.002457 1.00098 1.000311 1.010181 1.00887 1.000694 1.001361 1.002433 1.003874 1.005476 1.007371 1.009524 1.081321 1.097031 1.089791 1.048715 1.033326 1.013132 1.012513 1.0128 1.013551 1.014528 1.030159 1.051244 1.072857 1.070908 1.026746 1.020808 1.022938 1.025001 1.026921 1.029594 1.032001 1.035219 1.138539 1.035642 1.034657 1.032929 1.032406 1.032668 1.033687 1.034493 1.03522 1.036257 1.03761 1.038974 1.039745 1.079283 1.145888 1.201957 1.194909 1.316275 1.353276 1.220776 1.23772 1.199997 1.223919 1.290053 1.300439 1.349647 1.366792 1.341691 1.315125 1.368187 1.308407 1.272702 1.244736 1.220128 1.227002 1.228258 1.210354 1.18621 1.107219 1.039593 1.037679 1.035302 1.033149 1.031013 1.135556 1.030805 1.032827 1.035113 1.117076 1.26952 1.2132 1.039691 1.065891 1.256838 1.039405 1.036503 1.034005 -9999 -9999 
-9999 -9999 0.9951602 0.9966189 0.9978328 0.9989714 0.9996236 1.000656 1.001422 1.00214 1.008371 1.003902 1.005915 1.007862 1.009867 1.012374 1.014678 1.017205 1.019199 1.051231 1.11887 1.023525 1.027293 1.137385 1.026861 1.022793 1.099879 1.058894 1.018523 1.016216 1.015275 1.078684 1.066407 1.045537 1.025936 1.008109 1.006921 1.005752 1.004424 1.003116 1.001819 1.000273 0.9988028 1.009046 1.017603 1.005732 0.9942546 0.9926627 1.029115 1.028175 1.006163 0.9898106 0.9884042 0.9870571 0.9858925 0.9844022 0.9828826 0.9814698 0.9801068 0.9785136 0.9775605 0.9872651 1.034155 1.153425 1.338017 1.257309 1.030461 0.9763652 0.9780844 0.9804273 0.9814483 0.9835997 0.9850755 0.9868363 1.002866 1.019341 1.030736 1.057441 1.041174 1.087711 1.151211 1.089556 1.064879 1.052375 1.063337 1.041566 0.9971015 0.9992697 1.001397 1.003683 1.006168 1.033295 1.008556 1.009127 1.010036 1.010979 1.012777 1.014408 1.05858 1.225382 1.075442 1.015334 1.014719 1.014078 1.013248 1.012716 1.010453 1.00891 1.007967 1.009323 1.007669 1.00583 1.004036 1.002633 1.00205 1.001744 1.002114 1.002358 1.003227 1.004218 1.005193 1.006498 1.007863 1.009711 1.045569 1.081318 1.090411 1.049142 1.052405 1.057888 1.014548 1.018292 1.033608 1.059465 1.086622 1.103755 1.112451 1.073774 1.03666 1.02842 1.022672 1.024994 1.028085 1.030245 1.032426 1.034881 1.092851 1.074597 1.036653 1.035159 1.034769 1.034982 1.036081 1.036957 1.037111 1.038021 1.03931 1.044256 1.107985 1.16567 1.151789 1.173026 1.197742 1.277721 1.306843 1.203552 1.249551 1.216369 1.238162 1.307241 1.281249 1.306357 1.350914 1.34704 1.341351 1.393108 1.364869 1.327581 1.286978 1.228527 1.209185 1.219118 1.22334 1.189269 1.10638 1.041628 1.038179 1.036091 1.03384 1.0315 1.164904 1.031664 1.033748 1.036101 1.210588 1.309051 1.171318 1.056544 1.084235 1.296337 1.039333 1.036772 1.034514 -9999 -9999 
-9999 -9999 0.9969299 0.9988332 0.9999935 1.001149 1.001884 1.00301 1.003913 1.004298 1.004337 1.019925 1.005735 1.007788 1.009567 1.012247 1.014257 1.016696 1.019184 1.067891 1.128344 1.024038 1.027011 1.234415 1.027534 1.024708 1.022321 1.040651 1.019224 1.016119 1.014451 1.044187 1.033841 1.010649 1.009103 1.012068 1.006296 1.004305 1.003318 1.002048 1.00052 0.9994906 0.9978877 0.9964764 0.9954405 0.9944056 0.993182 1.016467 1.106753 1.146626 1.075136 1.012586 0.9876728 0.986222 0.9848798 0.9833281 0.9818102 0.9805287 0.9790814 0.9917642 1.020149 1.057677 1.136463 1.216603 1.208489 1.112574 1.009661 0.976923 0.9786774 0.9810186 0.9821171 0.9839444 0.9855612 0.9942885 1.028527 1.049423 1.040323 1.032785 1.000626 0.9928355 1.006153 1.060405 1.157517 1.369428 1.393875 1.010401 0.9976091 1.000016 1.002409 1.004195 1.031768 1.00652 1.006301 1.007178 1.008833 1.009581 1.010934 1.011954 1.013567 1.015056 1.106398 1.151596 1.02664 1.016116 1.015776 1.013594 1.012201 1.010609 1.00972 1.011083 1.009223 1.007264 1.005566 1.004143 1.003953 1.003596 1.005247 1.011546 1.004693 1.005908 1.007121 1.007963 1.008972 1.010273 1.012201 1.055601 1.07571 1.068633 1.057178 1.084653 1.057633 1.039276 1.079054 1.118208 1.132927 1.133463 1.137032 1.06832 1.020612 1.026772 1.024044 1.025162 1.027558 1.029615 1.031949 1.034948 1.03767 1.136938 1.039105 1.038196 1.037155 1.037141 1.038076 1.03915 1.039322 1.039957 1.041562 1.084958 1.167423 1.190992 1.172767 1.16337 1.194984 1.224456 1.229324 1.197985 1.237492 1.221967 1.252504 1.304983 1.282545 1.301449 1.333812 1.371476 1.361715 1.368423 1.353204 1.333582 1.309788 1.253233 1.207332 1.195047 1.197172 1.169624 1.099921 1.040678 1.038604 1.036373 1.03408 1.039064 1.151379 1.032326 1.034258 1.050052 1.242811 1.2324 1.112256 1.069858 1.115035 1.215648 1.03914 1.039042 1.064912 -9999 -9999 
-9999 -9999 0.9982643 1.000392 1.058751 1.074828 1.055041 1.024954 1.006413 1.006774 1.006923 1.006399 1.006812 1.00833 1.009774 1.012184 1.01444 1.016609 1.019007 1.07536 1.190497 1.022284 1.024588 1.080478 1.028187 1.025636 1.022981 1.043741 1.02049 1.017812 1.015968 1.014293 1.012907 1.011258 1.009768 1.007988 1.005907 1.003584 1.002066 1.000762 0.9994931 0.998017 0.9965003 1.006379 1.035963 1.047765 1.061359 1.089008 1.172559 1.205106 1.089578 1.01981 0.98976 0.9857112 0.9839234 0.9822886 0.9896037 1.008806 1.023961 1.046357 1.058024 1.074092 1.064419 1.052557 1.038956 1.015229 1.017298 0.9963459 0.9786751 0.9808769 0.9888943 0.9865034 0.9852659 0.9863692 0.9875692 0.9884658 0.9892066 0.9898136 0.9902967 0.9908717 0.9916666 0.9927617 1.024585 1.169107 1.27116 1.026907 0.9977273 1.000144 1.002681 1.00502 1.004637 1.004024 1.004245 1.005776 1.007077 1.008108 1.008774 1.009909 1.011405 1.013191 1.01555 1.12228 1.214331 1.111946 1.016801 1.015051 1.01394 1.012496 1.021944 1.01942 1.010808 1.008949 1.006989 1.005763 1.005664 1.005519 1.004779 1.01804 1.005929 1.007524 1.008885 1.009745 1.010405 1.011608 1.013375 1.075287 1.084584 1.090948 1.07148 1.066827 1.119618 1.120192 1.147005 1.173109 1.159714 1.144388 1.170577 1.079538 1.021326 1.023265 1.038117 1.044866 1.026099 1.028121 1.031061 1.033849 1.036732 1.043905 1.160739 1.063127 1.03958 1.039465 1.040228 1.040742 1.041423 1.049956 1.119588 1.202243 1.234934 1.22797 1.241152 1.205619 1.205809 1.245408 1.236165 1.223856 1.22862 1.225443 1.266976 1.305824 1.304542 1.322353 1.333964 1.363222 1.371117 1.367739 1.356076 1.333006 1.311714 1.289549 1.255166 1.199514 1.152808 1.134592 1.093717 1.041257 1.039158 1.037109 1.034895 1.059467 1.169145 1.033143 1.035032 1.07775 1.248329 1.178335 1.110768 1.098941 1.175714 1.122893 1.038701 1.175244 1.126765 -9999 -9999 
-9999 -9999 0.9973661 0.9995213 1.000605 1.001112 1.002268 1.003898 1.006133 1.025519 1.022203 1.00876 1.009035 1.010136 1.01139 1.012897 1.015192 1.017341 1.019573 1.111297 1.171082 1.022887 1.026448 1.060463 1.060113 1.026418 1.023617 1.023575 1.089334 1.019746 1.017758 1.016165 1.014215 1.011962 1.010332 1.008132 1.006346 1.0035 1.001415 1.002001 1.003244 1.012297 1.025959 1.0627 1.101969 1.111872 1.108541 1.124104 1.160045 1.139604 1.067106 1.018304 0.9943538 0.9855804 0.9839551 0.9821799 0.9986042 1.032155 1.059346 1.067042 1.05553 1.050621 1.037481 1.01283 0.9914406 0.9882208 1.007086 1.017091 0.9981899 0.9801257 0.9925003 1.024296 1.001898 0.9851289 0.9859347 0.9868186 0.9875889 0.987956 0.9886789 0.9927061 1.000021 0.9911171 0.9928342 0.9940025 1.07294 1.055202 0.9969567 0.9996792 1.00141 1.001877 1.00169 1.001795 1.002327 1.003542 1.005291 1.006268 1.007048 1.00864 1.010854 1.012874 1.0149 1.022715 1.235405 1.294688 1.097517 1.016917 1.016089 1.013852 1.051274 1.047276 1.012264 1.009929 1.008078 1.029871 1.00751 1.007489 1.00651 1.011796 1.007228 1.008807 1.010127 1.011453 1.012058 1.012905 1.014754 1.080252 1.087978 1.101915 1.089067 1.093033 1.140719 1.189521 1.163335 1.196998 1.174602 1.153477 1.20814 1.083675 1.021469 1.02399 1.025486 1.026474 1.027767 1.029289 1.031199 1.03336 1.035689 1.038017 1.103142 1.228526 1.131658 1.077433 1.073884 1.100413 1.143194 1.218053 1.349513 1.40216 1.291596 1.260753 1.258735 1.250113 1.208718 1.258846 1.255087 1.231283 1.218065 1.259245 1.298266 1.30604 1.323642 1.337218 1.340874 1.330554 1.357823 1.37921 1.377148 1.363108 1.347819 1.339688 1.314926 1.256684 1.176648 1.108589 1.078333 1.041919 1.039881 1.037852 1.035439 1.062509 1.159093 1.034174 1.036201 1.129513 1.223848 1.144066 1.116149 1.114036 1.30627 1.054822 1.051125 1.350232 1.224435 -9999 -9999 
-9999 -9999 0.9960979 0.9976558 0.9985071 0.9992946 1.000864 1.002834 1.00511 1.007171 1.014243 1.056009 1.011399 1.012371 1.013732 1.014835 1.016607 1.018993 1.038358 1.147729 1.0732 1.023586 1.027073 1.076017 1.113666 1.026558 1.024318 1.022185 1.100486 1.138489 1.020565 1.017153 1.015705 1.013696 1.011482 1.009612 1.007278 1.00546 1.002921 1.000865 0.9984913 1.033572 1.022916 1.029526 1.062106 1.085401 1.098263 1.12177 1.135181 1.10252 1.057411 1.023497 1.005289 1.001405 0.9951704 0.9829071 0.9813657 0.995067 1.028674 1.054944 1.063963 1.063693 1.045907 1.020482 1.005492 0.9999398 1.001049 1.001665 1.003189 1.004593 1.026806 1.102917 1.101025 1.056415 1.021526 0.9936311 1.006579 1.033578 1.027299 1.017891 1.023609 1.022587 1.005459 0.9920346 0.9937351 1.003905 0.995905 0.9980341 0.9988463 0.9994909 0.9996158 0.9999704 1.013295 1.001855 1.003749 1.031555 1.007927 1.00864 1.010433 1.011936 1.014097 1.016116 1.124706 1.25602 1.176292 1.056183 1.016946 1.01515 1.039998 1.063728 1.013112 1.010758 1.009155 1.041601 1.024629 1.010498 1.008315 1.007801 1.008377 1.009596 1.011172 1.012608 1.013556 1.014644 1.016485 1.079912 1.078037 1.111652 1.115835 1.130326 1.107505 1.14569 1.116235 1.144765 1.158929 1.148687 1.200086 1.069164 1.022254 1.024431 1.026588 1.028236 1.029348 1.031381 1.033226 1.034855 1.036888 1.038909 1.092082 1.243762 1.279758 1.275322 1.286469 1.327645 1.365622 1.410899 1.513907 1.502573 1.37528 1.287594 1.26699 1.277288 1.223447 1.230474 1.247011 1.223333 1.23464 1.282837 1.292528 1.297992 1.319206 1.318291 1.31495 1.313048 1.34736 1.368953 1.370973 1.373974 1.373244 1.36804 1.341063 1.315 1.286795 1.140073 1.067436 1.042831 1.040697 1.038469 1.035926 1.050736 1.157672 1.034751 1.038116 1.158427 1.188193 1.115606 1.078396 1.142182 1.274852 1.040407 1.099462 1.355876 1.281315 -9999 -9999 
-9999 -9999 0.9947533 0.9961332 0.9973813 0.9985134 1.000257 1.002398 1.004619 1.006883 1.009128 1.010893 1.049345 1.072989 1.049977 1.021991 1.016414 1.01842 1.031255 1.133755 1.035685 1.024961 1.026739 1.038699 1.161874 1.027609 1.024933 1.02263 1.052982 1.177881 1.11979 1.018306 1.016133 1.014456 1.013347 1.011676 1.009522 1.007197 1.004399 1.001424 0.9992718 0.9983374 0.9974161 0.9960967 0.9949311 1.022246 1.054517 1.087085 1.105346 1.087798 1.052102 1.021972 1.000383 0.999283 1.012407 1.003595 0.9881138 0.9816657 0.9982209 1.024158 1.036507 1.048904 1.043683 1.025555 1.017344 1.008281 1.001425 0.9921962 0.9807466 0.9833287 1.037267 1.144887 1.220007 1.219478 1.1822 1.101825 1.048659 1.062568 1.081242 1.066146 1.046474 1.049667 1.047276 0.9928998 0.9917444 0.9945298 0.9956965 1.007309 0.9969065 0.9970605 1.002197 1.00508 1.000643 1.002248 1.004161 1.005765 1.007449 1.009106 1.010962 1.012275 1.013963 1.016087 1.094246 1.181188 1.162852 1.107835 1.018357 1.016597 1.01581 1.040169 1.013824 1.011781 1.010431 1.042841 1.038085 1.027452 1.009979 1.009559 1.010176 1.011235 1.012664 1.013967 1.018004 1.015937 1.024663 1.092088 1.092288 1.128262 1.121626 1.129581 1.099101 1.109278 1.101061 1.088514 1.135943 1.12951 1.167072 1.086711 1.022758 1.024643 1.027079 1.029366 1.031087 1.032824 1.034892 1.036752 1.038575 1.040475 1.13856 1.237523 1.291001 1.350454 1.356593 1.344403 1.310926 1.384533 1.336681 1.282827 1.252847 1.251447 1.272577 1.279391 1.269584 1.256948 1.304886 1.268388 1.307314 1.317263 1.290488 1.305277 1.328418 1.315232 1.318372 1.336786 1.347361 1.348173 1.366137 1.382476 1.376 1.359601 1.346246 1.348793 1.365356 1.214454 1.078865 1.043252 1.041031 1.038986 1.036669 1.050326 1.158653 1.035053 1.043661 1.15058 1.184963 1.094672 1.068255 1.235713 1.131853 1.040326 1.155263 1.281147 1.196561 -9999 -9999 
-9999 -9999 0.9934631 0.9949564 0.9963939 0.9981484 1.000043 1.00205 1.003739 1.005425 1.007208 1.008841 1.010141 1.010932 1.011821 1.013306 1.015175 1.017261 1.019977 1.127524 1.036452 1.024004 1.026677 1.029769 1.21883 1.028849 1.026376 1.02335 1.021734 1.03542 1.111318 1.054912 1.01832 1.01645 1.01425 1.011917 1.009471 1.007085 1.004332 1.001909 1.001121 1.000123 0.9990949 0.9978355 0.9963787 0.994814 1.008989 1.036208 1.062856 1.06177 1.041509 1.015555 0.9878793 0.9863991 0.9910004 0.9990647 0.9992459 0.9822026 0.9811002 1.003199 1.010798 1.013372 1.015263 1.014504 1.014139 0.9994642 0.9877508 0.981419 0.9820562 0.9842441 1.033886 1.097737 1.150062 1.183263 1.191269 1.225559 1.119767 1.050772 1.070909 1.093573 1.10693 1.10886 1.095226 1.05763 0.9903411 0.9920778 0.9941653 0.9956409 1.074562 1.132633 1.011306 0.999134 1.001198 1.003488 1.005278 1.008285 1.008445 1.010491 1.022498 1.045996 1.021045 1.035975 1.063492 1.084613 1.12157 1.202192 1.054402 1.018844 1.018224 1.016338 1.014467 1.013105 1.01194 1.024219 1.030086 1.027035 1.011719 1.011663 1.012331 1.013096 1.014403 1.015369 1.042927 1.017113 1.057654 1.079619 1.095737 1.130759 1.109462 1.104695 1.111204 1.108426 1.157271 1.112827 1.167623 1.143741 1.192945 1.150739 1.022599 1.024913 1.027088 1.029463 1.032037 1.033938 1.036019 1.037861 1.064545 1.102743 1.173476 1.261741 1.259322 1.258667 1.26459 1.277874 1.293655 1.314436 1.276325 1.234419 1.246397 1.277294 1.280518 1.258033 1.277784 1.256709 1.289563 1.290311 1.326971 1.322183 1.317228 1.327975 1.335155 1.332693 1.3632 1.369855 1.339818 1.339799 1.37092 1.395613 1.392378 1.37595 1.378355 1.393308 1.423119 1.233707 1.077337 1.043425 1.041345 1.038631 1.036145 1.060982 1.136275 1.035647 1.038396 1.137577 1.175961 1.074033 1.103865 1.307077 1.054098 1.056732 1.282161 1.217088 1.098983 -9999 -9999 
-9999 -9999 0.994163 0.9941941 0.9958858 0.9977427 0.9994289 1.000844 1.002509 1.003995 1.005288 1.006851 1.008152 1.009092 1.010106 1.01235 1.014584 1.017103 1.019978 1.155102 1.072355 1.023614 1.027172 1.029542 1.291986 1.029607 1.026885 1.025188 1.024175 1.022178 1.020999 1.052137 1.042922 1.017206 1.013778 1.011144 1.008594 1.006242 1.00457 1.003537 1.002915 1.002014 1.000693 0.999243 0.9975698 0.9959394 0.9946704 0.9966002 1.012347 1.006454 0.9914582 0.9899811 0.9889911 0.9875515 0.9862977 0.9851279 0.9904885 0.9834827 0.9824541 0.9814859 0.9954116 0.9996791 1.005337 1.007725 1.005058 0.9906352 0.9824296 0.9828957 0.983615 0.9936672 1.024441 1.048969 1.081865 1.095551 1.124859 1.186911 1.158677 1.057812 1.049485 1.070754 1.109957 1.181491 1.253997 1.204919 1.110939 1.008872 0.9920788 0.9932225 1.005635 1.099041 0.9971968 0.9996152 1.001902 1.003707 1.008116 1.01352 1.007918 1.00974 1.011245 1.012372 1.013637 1.01484 1.023112 1.035627 1.050519 1.133795 1.242556 1.07868 1.019645 1.017561 1.015816 1.014667 1.013528 1.01286 1.018967 1.027523 1.013465 1.013683 1.014221 1.015104 1.016304 1.049572 1.071241 1.018094 1.079619 1.074096 1.068441 1.132102 1.122833 1.098063 1.117535 1.142514 1.154393 1.16709 1.161158 1.132874 1.182548 1.195688 1.022815 1.025172 1.027301 1.029567 1.03209 1.034164 1.036299 1.055834 1.077015 1.108003 1.137143 1.206786 1.277149 1.2728 1.267214 1.268562 1.300372 1.298398 1.275689 1.327817 1.334243 1.340914 1.30178 1.256801 1.272373 1.256695 1.259999 1.295816 1.320688 1.330847 1.340942 1.350855 1.33637 1.334116 1.359184 1.349946 1.327485 1.338104 1.374622 1.402343 1.406548 1.401585 1.413967 1.423224 1.524602 1.196065 1.05502 1.042809 1.040755 1.038227 1.036104 1.090565 1.133524 1.035365 1.037692 1.127919 1.150918 1.063977 1.191648 1.166788 1.045813 1.134248 1.239844 1.163594 1.051127 -9999 -9999 
-9999 -9999 1.025241 0.9936329 0.9953876 0.9970252 0.9984232 0.9998186 1.001099 1.00218 1.003797 1.005235 1.006407 1.00797 1.010093 1.012327 1.01443 1.017001 1.020003 1.172004 1.109019 1.023026 1.026217 1.028791 1.113957 1.104453 1.029294 1.027857 1.025952 1.024333 1.022838 1.020824 1.044531 1.018352 1.0149 1.011424 1.009047 1.007315 1.006201 1.005813 1.005222 1.003707 1.002057 1.000342 0.9985871 0.996819 0.995828 0.9948057 0.9937292 0.9933193 0.9924328 0.9913914 0.9900928 0.9888856 0.9874983 0.9864345 0.9853349 0.9846484 0.9839244 0.9830191 0.9878555 0.9968248 1.009142 1.012547 1.00729 0.9925804 0.9837083 0.9860096 0.9954608 1.014129 1.040118 1.050896 1.078408 1.105902 1.155082 1.164869 1.07621 1.003249 0.9873141 0.9883665 0.989468 0.9899682 0.9897951 1.007402 1.038495 1.072209 1.074478 1.004628 0.9943214 1.073903 1.026972 0.9987861 1.000837 1.002584 1.004172 1.005527 1.006974 1.008498 1.009911 1.01141 1.025447 1.03742 1.021919 1.020499 1.018554 1.06318 1.222434 1.230708 1.038935 1.018938 1.017602 1.016282 1.015252 1.014606 1.029112 1.045097 1.039937 1.024084 1.01605 1.020511 1.052126 1.086707 1.093194 1.041232 1.08163 1.106667 1.054579 1.110741 1.144086 1.107096 1.118595 1.103034 1.091034 1.135078 1.11109 1.084491 1.103262 1.123551 1.058199 1.025135 1.027383 1.029655 1.031504 1.033896 1.035601 1.037145 1.047279 1.075705 1.110536 1.166792 1.249597 1.264971 1.253087 1.251734 1.287468 1.350226 1.282551 1.410785 1.360588 1.358434 1.374831 1.323297 1.31528 1.300648 1.288283 1.311023 1.327363 1.340557 1.33981 1.349638 1.345136 1.349304 1.359676 1.351273 1.339065 1.350089 1.397335 1.428163 1.425612 1.42602 1.42941 1.448081 1.440609 1.14976 1.04444 1.042407 1.040313 1.037906 1.035362 1.15199 1.111184 1.035479 1.037953 1.120756 1.108267 1.068918 1.359429 1.102983 1.096563 1.215038 1.16942 1.132038 1.040861 -9999 -9999 
-9999 -9999 1.041121 1.01482 0.9997097 1.008902 1.029547 1.052965 1.036399 1.011142 1.00958 1.011947 1.006082 1.007959 1.009938 1.012556 1.014699 1.01702 1.020216 1.199951 1.144557 1.022632 1.025 1.027739 1.029623 1.080337 1.130049 1.030062 1.027858 1.025841 1.024056 1.021748 1.019348 1.018398 1.015427 1.012326 1.010354 1.009084 1.00852 1.008285 1.007417 1.005244 1.003246 1.00123 0.9994108 0.9982071 0.9970737 0.9959676 0.9953088 0.9950206 0.9939577 0.9925513 0.9913571 0.9900255 0.9892396 0.9886345 0.9869896 0.9858756 0.9851778 0.98858 0.9975426 1.002909 1.011154 1.019762 1.011259 0.9870391 0.9851158 0.9908584 1.004021 1.044486 1.091843 1.098 1.147462 1.217618 1.240222 1.113542 1.011264 0.9873121 0.9886471 0.9898102 0.9917436 0.9923072 0.9919605 0.991841 0.9917307 0.9940135 0.9924161 0.9930251 0.9947433 1.145651 1.122326 0.9978431 0.9997401 1.001213 1.002974 1.004141 1.005531 1.007248 1.009002 1.010652 1.012308 1.03277 1.018805 1.016151 1.017799 1.019964 1.14581 1.297929 1.106091 1.029281 1.052087 1.02631 1.022879 1.038819 1.056521 1.072958 1.07955 1.075791 1.069578 1.084977 1.102969 1.109885 1.100024 1.066842 1.083681 1.152488 1.073252 1.096884 1.171315 1.150457 1.144506 1.120173 1.079138 1.096708 1.075674 1.056323 1.075641 1.078408 1.093155 1.024519 1.02707 1.029352 1.031067 1.032816 1.034583 1.036164 1.037984 1.03997 1.071664 1.144831 1.225349 1.23742 1.227987 1.245949 1.283884 1.304679 1.311912 1.346492 1.364381 1.359574 1.411418 1.369466 1.348081 1.323454 1.286247 1.27573 1.28998 1.316591 1.33772 1.363406 1.363829 1.374361 1.379419 1.368028 1.359447 1.377932 1.42098 1.451156 1.448351 1.435587 1.440575 1.515828 1.338078 1.110525 1.043968 1.041948 1.039393 1.037095 1.034533 1.304962 1.051991 1.036761 1.038649 1.112413 1.081399 1.1188 1.318202 1.094998 1.151555 1.335286 1.246729 1.133935 1.041828 -9999 -9999 
-9999 -9999 1.060082 1.033754 1.009446 1.007783 1.037051 1.059867 1.025786 1.012008 1.016404 1.004538 1.006309 1.008303 1.010452 1.012692 1.01492 1.017649 1.020842 1.226089 1.161652 1.10448 1.026774 1.024765 1.026232 1.028549 1.124676 1.031753 1.028927 1.027466 1.024712 1.022608 1.019718 1.025054 1.017298 1.013304 1.011782 1.011785 1.011379 1.009962 1.00862 1.006564 1.004342 1.002302 1.000778 0.9995596 0.9986452 0.9975252 0.9969927 0.9968089 0.995427 0.9938328 0.9929349 0.9928299 0.991838 0.9910992 0.9898525 0.988053 0.9864088 1.000695 1.003748 1.006849 1.010324 1.01205 0.9992273 0.9856897 0.9864586 0.9953321 1.046922 1.135977 1.174233 1.174729 1.208604 1.252168 1.207553 1.062017 0.997915 0.9887043 0.9902018 0.992223 0.9937568 0.9947842 0.9948722 0.9936528 0.9935806 0.9936057 0.9942905 0.9951797 1.047505 1.333584 1.280102 1.02641 0.9981975 0.9999616 1.001557 1.003054 1.004385 1.006281 1.008005 1.009747 1.011358 1.028825 1.033157 1.015033 1.01704 1.019737 1.08297 1.213278 1.092591 1.053119 1.08055 1.049863 1.049389 1.080658 1.110299 1.119167 1.123591 1.128123 1.123546 1.129042 1.152144 1.193503 1.181021 1.115943 1.112502 1.17538 1.104197 1.088454 1.183283 1.216251 1.142322 1.081522 1.07534 1.099107 1.080538 1.065092 1.076707 1.061682 1.024982 1.025605 1.027337 1.080916 1.130038 1.031274 1.032777 1.033465 1.03636 1.039285 1.0417 1.114628 1.18251 1.199872 1.239037 1.275968 1.281801 1.277895 1.286016 1.273683 1.308359 1.288836 1.337233 1.345612 1.328426 1.319025 1.30046 1.284869 1.296435 1.329174 1.352163 1.37791 1.38385 1.390632 1.418132 1.390842 1.37545 1.398876 1.428654 1.463006 1.45391 1.44755 1.495422 1.593158 1.305048 1.085294 1.043361 1.040914 1.038383 1.036042 1.080395 1.347636 1.034679 1.037429 1.03969 1.115351 1.089127 1.211254 1.238188 1.109246 1.172743 1.34352 1.31774 1.179069 1.065706 -9999 -9999 
-9999 -9999 1.071368 1.037506 1.008077 0.9998221 1.026747 1.019217 1.000965 1.002456 1.003676 1.005105 1.006966 1.009012 1.011165 1.013501 1.015473 1.018072 1.03716 1.196367 1.150616 1.128875 1.032404 1.025191 1.026861 1.030725 1.097501 1.035867 1.029534 1.028422 1.025775 1.023002 1.020748 1.018824 1.017656 1.015948 1.013904 1.029945 1.046442 1.023041 1.009524 1.007782 1.005516 1.00387 1.002788 1.00158 1.000699 0.9998139 0.9989223 0.9983193 0.9968472 0.9953555 0.9954455 0.9952076 0.9942331 0.9931097 0.9916494 0.9895569 0.9875205 0.9869294 0.9864857 0.9862 0.9927442 0.9893729 0.9863276 0.9869519 0.9927502 1.053848 1.122675 1.154038 1.161059 1.149632 1.172585 1.185072 1.107789 1.043984 1.003521 0.9896964 0.9915327 0.9940389 0.9956484 0.9969021 0.9975864 0.9973089 0.9972211 0.9970773 1.003304 1.040471 1.109763 1.144645 1.176708 1.102363 1.054497 1.008336 1.000213 1.001549 1.003069 1.005071 1.007129 1.008721 1.010561 1.027844 1.037036 1.014589 1.017074 1.019888 1.033808 1.152359 1.054551 1.024693 1.066419 1.06115 1.058845 1.099011 1.154166 1.174809 1.185232 1.187566 1.179272 1.158804 1.182256 1.253262 1.258843 1.17277 1.157281 1.147915 1.163752 1.06804 1.149701 1.161133 1.0814 1.043927 1.046998 1.146979 1.140137 1.095735 1.065659 1.026172 1.027324 1.029194 1.030916 1.031675 1.052274 1.088011 1.03179 1.034632 1.037812 1.040219 1.041934 1.062838 1.129263 1.191693 1.264706 1.293287 1.280647 1.296308 1.304398 1.277784 1.293172 1.255806 1.310952 1.372257 1.35389 1.345457 1.34516 1.350814 1.360711 1.377466 1.381187 1.382055 1.390326 1.403099 1.437444 1.415581 1.404489 1.435967 1.458623 1.481613 1.494563 1.532809 1.62951 1.644899 1.32113 1.088387 1.043417 1.04092 1.038691 1.036393 1.051085 1.264463 1.035305 1.037938 1.040572 1.114089 1.103278 1.275541 1.187931 1.111999 1.20437 1.375032 1.346803 1.222679 1.077143 -9999 -9999 
-9999 -9999 1.042011 1.030912 1.015283 0.9983506 1.018337 1.01069 1.001912 1.003483 1.004635 1.006055 1.007946 1.009862 1.012124 1.014208 1.016144 1.018836 1.069821 1.144115 1.133503 1.113156 1.024349 1.027142 1.029556 1.032553 1.273451 1.079437 1.030616 1.029304 1.026331 1.023432 1.021697 1.019839 1.040744 1.047837 1.015567 1.023843 1.071188 1.037487 1.010819 1.009146 1.00745 1.00588 1.00489 1.003784 1.002955 1.002076 1.001354 1.011784 0.9977785 0.9978265 0.9979516 0.9973123 0.9962397 0.9948208 0.9929541 0.9905246 0.9889529 0.9887886 0.9881851 0.9878326 0.9874666 0.9874835 0.9880394 1.001775 1.074077 1.126486 1.099779 1.068295 1.081325 1.073623 1.078218 1.07122 1.060765 1.046091 1.010454 0.9902254 0.992548 0.9947715 0.9964734 1.088572 1.168643 1.109574 1.074798 1.074303 1.057017 1.022882 1.016088 1.012913 1.011098 1.011797 1.070661 1.119267 1.069883 1.019424 1.002071 1.004038 1.006264 1.008132 1.009861 1.011449 1.012981 1.014816 1.017095 1.01937 1.02161 1.077784 1.096234 1.022611 1.076901 1.089022 1.063311 1.091478 1.165192 1.216177 1.233773 1.217952 1.192376 1.159796 1.158662 1.199769 1.247891 1.199082 1.161258 1.0789 1.190848 1.071213 1.092224 1.069136 1.027777 1.04027 1.051453 1.18008 1.1416 1.025852 1.02753 1.028076 1.030124 1.031803 1.033407 1.034133 1.032017 1.031254 1.03409 1.036463 1.03927 1.041641 1.043216 1.04817 1.16093 1.25304 1.298058 1.302787 1.285507 1.282664 1.302629 1.283295 1.282086 1.242605 1.287229 1.401407 1.393074 1.377888 1.365382 1.363441 1.367754 1.378004 1.378816 1.373351 1.378352 1.40114 1.425088 1.405968 1.409754 1.45741 1.474674 1.488807 1.552697 1.615322 1.721339 1.607303 1.395873 1.140041 1.044435 1.042334 1.040269 1.038046 1.035479 1.169824 1.035427 1.038168 1.040595 1.078125 1.13016 1.30296 1.136342 1.114665 1.27842 1.359051 1.361806 1.253422 1.086427 -9999 -9999 
-9999 -9999 0.9950418 1.009316 1.016353 1.003398 1.024613 1.033458 1.001831 1.003623 1.005539 1.007051 1.008957 1.01096 1.01304 1.015143 1.017142 1.019808 1.106761 1.11895 1.107849 1.09953 1.024842 1.027984 1.031141 1.052438 1.1962 1.127077 1.052442 1.029224 1.026275 1.023957 1.022044 1.020154 1.01945 1.111976 1.05905 1.01431 1.019866 1.013186 1.011853 1.010539 1.008921 1.007744 1.006939 1.005726 1.004397 1.002431 1.042279 1.02077 1.000187 1.00008 1.000006 0.9990318 0.9976833 0.9958178 0.9933035 1.003893 1.048424 1.027794 1.013828 0.9983581 0.9997245 1.01633 1.057509 1.13332 1.1743 1.153352 1.121154 1.071387 1.059251 1.045774 1.033722 1.035261 1.054664 1.065816 1.035522 0.9909102 0.9932029 0.9947342 0.9968384 1.108727 1.103039 1.006458 0.9993168 0.9990337 0.9990982 0.9995232 1.012 1.001037 0.9989052 0.9994683 1.011838 1.026663 1.029924 1.007391 1.002316 1.003654 1.005515 1.007438 1.009276 1.011272 1.01322 1.015491 1.017431 1.019351 1.021159 1.023123 1.188002 1.023973 1.057009 1.120008 1.080419 1.092257 1.16987 1.249059 1.243116 1.221895 1.191477 1.156746 1.120537 1.162203 1.15555 1.155325 1.128348 1.052613 1.123469 1.081837 1.058289 1.03352 1.032921 1.076928 1.089331 1.181964 1.106926 1.028253 1.029979 1.030836 1.033021 1.034252 1.035818 1.036654 1.035903 1.034453 1.035518 1.038173 1.040908 1.042887 1.044761 1.121837 1.277502 1.292072 1.308757 1.3451 1.343004 1.305142 1.288341 1.277846 1.34347 1.252378 1.300466 1.364026 1.371858 1.369246 1.36425 1.366664 1.369695 1.370526 1.370769 1.376179 1.390963 1.404983 1.418536 1.412622 1.421235 1.448729 1.459049 1.503519 1.582018 1.62925 1.668617 1.509084 1.469452 1.2635 1.070607 1.043561 1.041162 1.038883 1.03656 1.128029 1.036244 1.038002 1.040354 1.0422 1.150082 1.255663 1.107831 1.147175 1.274385 1.270408 1.303037 1.28307 1.102694 -9999 -9999 
-9999 -9999 0.9968333 0.9971431 1.005305 1.02378 1.045497 1.047941 1.004543 1.003744 1.00556 1.007506 1.009733 1.011801 1.013759 1.015945 1.017783 1.020523 1.149839 1.117455 1.099214 1.103008 1.025136 1.028128 1.030558 1.048598 1.169927 1.135904 1.062836 1.029935 1.026975 1.024781 1.022885 1.02092 1.018869 1.081118 1.155806 1.092503 1.064147 1.017964 1.01322 1.0118 1.010479 1.009609 1.008308 1.006327 1.004215 1.004074 1.001573 1.001878 1.002278 1.002206 1.006121 1.000339 0.9982664 0.9959559 0.9933107 1.068877 1.197884 1.196953 1.221556 1.183782 1.129698 1.126042 1.1392 1.137781 1.124384 1.096957 1.09298 1.075333 1.057083 1.042816 1.04347 1.052103 1.069499 1.088222 1.069044 0.9910183 0.9932616 0.9949688 0.9971648 1.056816 1.002484 1.000613 1.001554 1.001046 1.005452 1.008644 1.005533 1.006225 1.024225 1.028966 1.013262 1.001089 1.001287 1.002188 1.003363 1.004856 1.006113 1.00766 1.009355 1.011499 1.013653 1.015503 1.017623 1.019343 1.021155 1.022774 1.075583 1.059437 1.023032 1.11793 1.095474 1.105633 1.192023 1.29342 1.268543 1.23482 1.178893 1.124985 1.092148 1.136942 1.117145 1.095985 1.09159 1.034037 1.05497 1.081465 1.100993 1.097394 1.1208 1.176015 1.14555 1.227695 1.109113 1.029305 1.031921 1.033737 1.035688 1.03598 1.037542 1.038941 1.038276 1.036562 1.038615 1.040378 1.042402 1.043905 1.083476 1.189956 1.331619 1.316349 1.327762 1.351798 1.372234 1.37616 1.345423 1.325741 1.442232 1.288038 1.343039 1.327236 1.332744 1.333375 1.347609 1.358612 1.368482 1.37915 1.387676 1.394244 1.407894 1.419559 1.42457 1.416949 1.423324 1.457399 1.502806 1.564396 1.586029 1.606985 1.618275 1.464749 1.471429 1.45479 1.149221 1.044461 1.042152 1.040102 1.037547 1.146682 1.037638 1.048036 1.062034 1.042464 1.137653 1.209865 1.10629 1.215976 1.239477 1.244983 1.233301 1.20675 1.146161 -9999 -9999 
-9999 -9999 0.9987187 0.9989583 0.9991829 1.040701 1.063558 1.044903 1.004115 1.004204 1.005829 1.007939 1.010297 1.011989 1.01426 1.016423 1.018574 1.062958 1.165212 1.119126 1.103081 1.10054 1.05329 1.02726 1.030347 1.034155 1.377115 1.127003 1.068646 1.031328 1.028796 1.024849 1.023126 1.021408 1.019503 1.034157 1.13031 1.17072 1.172731 1.106178 1.022948 1.01305 1.021326 1.017602 1.008595 1.006668 1.00493 1.004268 1.00373 1.004071 1.020941 1.044813 1.025719 1.000649 0.998371 0.996101 0.9936327 1.053995 1.147996 1.129027 1.123533 1.147278 1.121947 1.087858 1.073701 1.063797 1.04746 1.0396 1.058607 1.064279 1.06695 1.055468 1.055909 1.072226 1.089761 1.091833 1.057065 1.000759 0.9930261 0.9953252 0.9977779 1.03478 1.000598 1.002198 1.026636 1.008134 1.012013 1.002634 1.002417 1.002127 1.023536 1.035563 1.017939 1.002632 1.002907 1.0036 1.004925 1.006312 1.007477 1.008618 1.010161 1.01202 1.013628 1.015703 1.017476 1.019295 1.020966 1.023253 1.025188 1.177433 1.024045 1.07344 1.072303 1.103181 1.217474 1.324524 1.267522 1.199461 1.130054 1.079814 1.069932 1.097586 1.081969 1.053811 1.043434 1.024573 1.026484 1.05065 1.109574 1.187867 1.233711 1.226308 1.156273 1.329419 1.123976 1.030636 1.033103 1.035613 1.037087 1.038595 1.038977 1.040537 1.040354 1.040918 1.042046 1.042714 1.043684 1.045149 1.088673 1.188518 1.309928 1.355579 1.367071 1.354345 1.372229 1.416822 1.400434 1.41946 1.344005 1.338515 1.339217 1.327537 1.32423 1.33616 1.362201 1.371608 1.38803 1.397328 1.403008 1.402579 1.407581 1.414642 1.416848 1.410049 1.425297 1.478485 1.546721 1.587775 1.577063 1.587434 1.640178 1.443741 1.431104 1.545233 1.211521 1.044996 1.042765 1.040439 1.053372 1.114352 1.038913 1.10141 1.110862 1.042461 1.127699 1.173259 1.121461 1.295483 1.23857 1.19251 1.102443 1.042655 1.04321 -9999 -9999 
-9999 -9999 1.0024 1.000868 1.000919 1.032335 1.078535 1.055683 1.010478 1.004696 1.006547 1.008424 1.010534 1.012621 1.01487 1.017006 1.019019 1.091754 1.143512 1.128061 1.11922 1.098235 1.085688 1.026583 1.029828 1.032129 1.154709 1.175098 1.041077 1.0315 1.02835 1.025842 1.023771 1.02868 1.03873 1.021287 1.046569 1.070979 1.079242 1.097597 1.086162 1.023339 1.012178 1.010628 1.019623 1.007881 1.006773 1.006297 1.005906 1.005674 1.048871 1.037161 1.013234 1.000883 0.9985253 0.9961128 0.9943437 1.003242 1.085085 1.116384 1.066893 1.054239 1.053136 1.049284 1.055277 1.051963 1.041601 1.067318 1.109773 1.111437 1.110386 1.094864 1.088393 1.096001 1.102041 1.077951 1.004222 0.9926634 0.9940165 0.9957069 1.009983 1.049263 1.000573 1.002469 1.004454 1.004166 1.003668 1.004294 1.004233 1.003854 1.003203 1.019969 1.012468 1.004357 1.004731 1.005157 1.006378 1.007922 1.009105 1.009921 1.011289 1.012719 1.014999 1.015857 1.019594 1.019095 1.020949 1.022575 1.024659 1.281086 1.025084 1.023784 1.041679 1.094359 1.231365 1.286412 1.192909 1.128418 1.08566 1.05552 1.053022 1.07639 1.085319 1.088978 1.069482 1.026096 1.02851 1.028635 1.026379 1.141361 1.212795 1.133424 1.162228 1.29016 1.145542 1.02977 1.033085 1.035922 1.038423 1.03923 1.040178 1.042432 1.042819 1.043556 1.044629 1.045203 1.046046 1.063931 1.150461 1.260574 1.363533 1.389653 1.391044 1.378018 1.382743 1.40839 1.396566 1.424357 1.333166 1.302698 1.31643 1.347098 1.370143 1.398269 1.416184 1.403278 1.421659 1.427679 1.465097 1.515027 1.445624 1.478515 1.445107 1.451232 1.479718 1.513262 1.53401 1.580567 1.627589 1.617023 1.49743 1.382643 1.419384 1.423231 1.171753 1.044608 1.04248 1.040239 1.163692 1.093183 1.057429 1.127715 1.149852 1.056561 1.127399 1.155865 1.137259 1.299847 1.210309 1.06808 1.043729 1.045683 1.046584 -9999 -9999 
-9999 -9999 1.001338 1.002814 1.002829 1.002161 1.036846 1.065164 1.038572 1.00513 1.006994 1.00871 1.010931 1.012974 1.015176 1.017179 1.019395 1.115399 1.123493 1.139274 1.143076 1.092527 1.086143 1.027006 1.029277 1.032147 1.067165 1.319884 1.034715 1.031446 1.028325 1.02591 1.023104 1.074117 1.09237 1.047331 1.038653 1.049093 1.031549 1.023809 1.083668 1.0676 1.01281 1.010893 1.01071 1.009089 1.008678 1.008598 1.008107 1.007338 1.010432 1.014101 1.002453 1.000844 0.9987999 0.9964229 0.9973916 0.9945675 1.028577 1.106796 1.112908 1.092289 1.084724 1.080297 1.069062 1.072418 1.101942 1.147211 1.161277 1.168406 1.162451 1.143128 1.122608 1.110526 1.09416 1.026704 0.9929308 0.9946702 0.9962866 0.9980248 1.037275 1.018141 1.000935 1.002783 1.005045 1.007161 1.006222 1.006785 1.006166 1.005656 1.005099 1.02455 1.019691 1.00584 1.006534 1.006792 1.007942 1.009459 1.010861 1.011508 1.012619 1.032544 1.044403 1.050565 1.049845 1.036661 1.020283 1.022097 1.023922 1.074721 1.062156 1.024203 1.0225 1.077776 1.240832 1.193157 1.107481 1.068408 1.050068 1.034789 1.040209 1.085682 1.131999 1.166873 1.149896 1.033801 1.029342 1.031076 1.029278 1.052443 1.148128 1.066562 1.176045 1.176167 1.105765 1.029114 1.032274 1.035281 1.037508 1.040677 1.042915 1.051528 1.108521 1.105664 1.106483 1.119938 1.147776 1.233383 1.396808 1.417295 1.392358 1.402175 1.406465 1.402745 1.396223 1.41181 1.393113 1.417754 1.387938 1.316753 1.282701 1.328464 1.388578 1.41176 1.419313 1.412933 1.425378 1.442707 1.275197 1.224193 1.215994 1.288252 1.496663 1.51016 1.532367 1.568596 1.581742 1.567901 1.641764 1.49978 1.367379 1.377896 1.464698 1.270152 1.09045 1.043821 1.042149 1.039657 1.389663 1.074128 1.087996 1.163341 1.237763 1.080074 1.108178 1.161107 1.068989 1.065299 1.043059 1.045111 1.046929 1.153639 1.326234 -9999 -9999 
-9999 -9999 1.001745 1.023402 1.050432 1.004018 1.003773 1.049119 1.092919 1.029722 1.006908 1.008608 1.010678 1.012848 1.015117 1.01747 1.024712 1.154508 1.117191 1.139431 1.167719 1.088647 1.088387 1.045401 1.027877 1.031725 1.048461 1.225816 1.07821 1.032494 1.029695 1.026426 1.023648 1.094853 1.140608 1.081867 1.048416 1.068212 1.050264 1.017435 1.031597 1.099086 1.066244 1.012543 1.011381 1.01155 1.010682 1.055704 1.042961 1.007473 1.005634 1.003802 1.002101 1.003849 1.002467 1.002994 1.016977 1.011388 1.014885 1.039905 1.07073 1.081546 1.069972 1.067504 1.087509 1.124858 1.188407 1.23151 1.243531 1.275577 1.229741 1.193784 1.157473 1.130807 1.074432 0.9932091 0.994993 0.9973154 0.9986222 1.042312 1.028918 1.0007 1.002275 1.003994 1.005728 1.00796 1.009016 1.009209 1.00788 1.007538 1.006792 1.049747 1.031306 1.007209 1.008818 1.008408 1.009357 1.011007 1.012235 1.016882 1.040566 1.060344 1.068676 1.091506 1.101155 1.063284 1.019966 1.022039 1.023862 1.026446 1.178509 1.025184 1.023018 1.059492 1.213273 1.116619 1.065049 1.042257 1.032336 1.031315 1.055995 1.1208 1.167788 1.197431 1.195217 1.041223 1.029532 1.069846 1.030787 1.028389 1.027691 1.029338 1.084678 1.11025 1.02904 1.031113 1.03305 1.03589 1.04178 1.044033 1.047362 1.120408 1.151184 1.136078 1.120106 1.158873 1.25385 1.411852 1.456782 1.433306 1.398556 1.385028 1.405465 1.409041 1.396032 1.407813 1.385896 1.410763 1.429656 1.384528 1.329815 1.291856 1.334581 1.380559 1.409482 1.424558 1.339406 1.171041 1.113642 1.140684 1.150043 1.16445 1.357499 1.522849 1.560137 1.651402 1.590977 1.592196 1.57169 1.383734 1.353901 1.489454 1.387154 1.143572 1.044231 1.042559 1.040779 1.087747 1.213329 1.068293 1.121088 1.246722 1.409563 1.118397 1.082933 1.349311 1.158125 1.051391 1.046059 1.096347 1.323478 1.369024 1.209058 -9999 -9999 
-9999 -9999 1.001533 1.003492 1.048991 1.038429 1.005568 1.023994 1.072462 1.066846 1.007844 1.008463 1.010694 1.012977 1.015526 1.017611 1.037464 1.187692 1.118268 1.131299 1.183025 1.094623 1.099791 1.044063 1.028623 1.031626 1.046091 1.16108 1.169628 1.033673 1.029888 1.027102 1.02418 1.062501 1.16477 1.142843 1.087865 1.071617 1.040413 1.017964 1.016443 1.036526 1.106295 1.10125 1.109386 1.104559 1.042068 1.013956 1.008732 1.006811 1.005029 1.010092 1.040304 1.034736 1.013205 1.010193 1.035463 1.04716 1.031553 1.020709 1.009526 1.004701 1.009774 1.020077 1.049914 1.116908 1.174416 1.165618 1.313276 1.422844 1.307518 1.254673 1.2107 1.151171 1.020274 0.9949296 0.9975496 0.9993103 1.123338 1.120857 1.022326 1.002151 1.00351 1.01929 1.015239 1.007771 1.031608 1.081699 1.009849 1.009215 1.007843 1.021396 1.039695 1.016004 1.009366 1.010156 1.010834 1.01204 1.014066 1.05585 1.093618 1.116093 1.105314 1.099267 1.109289 1.080823 1.021582 1.021767 1.023323 1.025653 1.249816 1.025686 1.023612 1.066704 1.151892 1.059146 1.042051 1.037026 1.04441 1.067637 1.116554 1.194808 1.227532 1.243417 1.224424 1.050223 1.030443 1.033193 1.033652 1.031224 1.029949 1.031552 1.030846 1.028782 1.031795 1.036814 1.042449 1.04288 1.043833 1.053433 1.138558 1.172564 1.157286 1.11618 1.124857 1.212225 1.336275 1.430303 1.441881 1.439081 1.429163 1.420384 1.414588 1.384648 1.362161 1.370342 1.39214 1.446739 1.460403 1.427911 1.449577 1.331701 1.291876 1.296267 1.349066 1.428525 1.179668 1.086502 1.150516 1.268602 1.16898 1.129531 1.310268 1.539556 1.570727 1.555377 1.532041 1.571549 1.44736 1.333063 1.414033 1.456123 1.191309 1.051671 1.04316 1.040831 1.039086 1.106967 1.084549 1.057176 1.121703 1.278657 1.542607 1.211382 1.091385 1.084006 1.121661 1.187285 1.239605 1.452716 1.300915 1.162977 1.07388 -9999 -9999 
-9999 -9999 1.0177 1.003279 1.005298 1.056908 1.028928 1.009026 1.026763 1.040004 1.015808 1.008925 1.010668 1.012689 1.015338 1.017627 1.04175 1.207417 1.107308 1.118575 1.152101 1.082267 1.102419 1.048267 1.028758 1.031816 1.034138 1.122573 1.198663 1.033827 1.030646 1.027415 1.025713 1.023858 1.146709 1.183221 1.132318 1.092693 1.033208 1.019054 1.017733 1.016277 1.01491 1.035557 1.103531 1.223457 1.059832 1.01035 1.008284 1.006181 1.021444 1.082143 1.050372 1.030043 1.007652 1.000687 1.038606 1.0465 1.029274 1.012406 0.9965265 0.9965636 1.001573 1.025357 1.0367 1.068603 1.085806 1.114264 1.445004 1.359981 1.299451 1.269864 1.246108 1.099732 0.9947939 0.9969257 0.999179 1.128736 1.232252 1.113005 1.038894 1.034884 1.038169 1.058734 1.041625 1.014391 1.009163 1.071033 1.07431 1.010979 1.009667 1.008891 1.022871 1.009194 1.010713 1.011934 1.012468 1.01333 1.036996 1.097854 1.138919 1.1461 1.098349 1.057479 1.048584 1.038456 1.020353 1.022104 1.023643 1.026091 1.18256 1.027231 1.023836 1.109143 1.096716 1.033619 1.035537 1.046441 1.0863 1.152094 1.221226 1.300253 1.313804 1.295989 1.290845 1.104345 1.02984 1.033424 1.079857 1.034493 1.033622 1.034364 1.032075 1.03139 1.033348 1.041372 1.043992 1.044773 1.052035 1.130706 1.194364 1.202116 1.170294 1.165256 1.265288 1.482414 1.589761 1.538754 1.476111 1.45782 1.451226 1.454196 1.4598 1.431293 1.402644 1.409853 1.444909 1.473079 1.486031 1.455209 1.45482 1.431071 1.345525 1.278967 1.292542 1.377296 1.120033 1.091616 1.330514 1.220204 1.103011 1.137053 1.356197 1.556964 1.560647 1.509919 1.500293 1.506494 1.369548 1.3394 1.477476 1.348277 1.102789 1.043262 1.041843 1.039049 1.040272 1.155808 1.049657 1.039746 1.065886 1.157406 1.302214 1.307578 1.190731 1.123957 1.049258 1.12565 1.490718 1.335871 1.183552 1.076707 1.04445 -9999 -9999 
-9999 -9999 1.02149 1.010774 1.005688 1.009252 1.074287 1.015824 1.020255 1.031751 1.017826 1.009487 1.011092 1.012735 1.014843 1.017532 1.050388 1.237151 1.089923 1.103842 1.128757 1.08718 1.109739 1.078108 1.028094 1.03078 1.033642 1.081315 1.152274 1.033446 1.031836 1.029284 1.027109 1.024617 1.111947 1.144666 1.140654 1.124975 1.057831 1.031034 1.019363 1.018611 1.017116 1.016331 1.014292 1.147301 1.077555 1.010467 1.008082 1.005777 1.032573 1.026131 1.019174 1.007494 1.001398 0.9999354 1.023185 1.03259 1.012416 0.9980449 0.9983035 0.9999182 1.01907 1.066639 1.061972 1.060558 1.044441 1.094465 1.341183 1.293815 1.272457 1.260105 1.246623 1.023306 0.9966171 0.998307 1.040378 1.172552 1.135628 1.09376 1.070661 1.067373 1.061763 1.052642 1.025795 1.023852 1.016032 1.015915 1.140828 1.082142 1.01208 1.011204 1.010036 1.01847 1.012327 1.024488 1.042863 1.042453 1.07317 1.114566 1.111764 1.089732 1.053002 1.018546 1.020023 1.021092 1.021751 1.023493 1.024398 1.027372 1.209839 1.027226 1.024028 1.136238 1.065949 1.044099 1.065562 1.106614 1.188521 1.28841 1.344335 1.383314 1.41058 1.363918 1.264779 1.110178 1.028946 1.033342 1.044358 1.054204 1.036877 1.035319 1.033903 1.035483 1.037016 1.042013 1.044665 1.087667 1.156369 1.238631 1.246925 1.226797 1.219376 1.318547 1.637887 1.692936 1.537619 1.502823 1.483506 1.47084 1.45072 1.442969 1.469786 1.497917 1.479337 1.500165 1.471156 1.445536 1.444251 1.4368 1.43558 1.44252 1.42275 1.313595 1.261238 1.301712 1.134104 1.078928 1.099092 1.098097 1.112476 1.24023 1.50114 1.610013 1.554594 1.47054 1.447975 1.436957 1.365865 1.400006 1.611179 1.303276 1.075876 1.042855 1.040999 1.038016 1.142864 1.305837 1.107045 1.038366 1.039968 1.083979 1.17887 1.310756 1.116866 1.043867 1.045396 1.166741 1.536338 1.227278 1.113057 1.05494 1.042832 -9999 -9999 
-9999 -9999 1.00412 1.053578 1.009504 1.007735 1.083401 1.064943 1.011494 1.0159 1.009614 1.010782 1.012253 1.013661 1.015602 1.017984 1.07314 1.279548 1.084282 1.076365 1.104421 1.097724 1.107247 1.080419 1.028315 1.030499 1.033031 1.063025 1.162803 1.034343 1.03216 1.029864 1.027606 1.042215 1.159585 1.167852 1.174971 1.185701 1.146854 1.127221 1.111339 1.083776 1.051413 1.01755 1.014722 1.07123 1.118473 1.010639 1.00803 1.006926 1.006203 1.007532 1.007621 1.003897 1.002545 1.001036 1.031686 1.02687 1.002184 0.9997014 0.9997749 1.005712 1.053673 1.073581 1.041476 1.060056 1.060633 1.109664 1.20452 1.233038 1.25386 1.239373 1.196888 0.9948368 0.9978876 0.9998592 1.107143 1.131628 1.128766 1.159086 1.126217 1.092492 1.080696 1.041331 1.006383 1.008335 1.033393 1.050323 1.087543 1.112571 1.06536 1.013201 1.011824 1.050086 1.037765 1.052878 1.089535 1.059799 1.073617 1.090923 1.078535 1.071819 1.052823 1.019838 1.02144 1.026945 1.047985 1.059953 1.025077 1.0278 1.248311 1.027331 1.024369 1.131212 1.076763 1.089992 1.149855 1.241019 1.327944 1.366984 1.36992 1.372173 1.398816 1.378972 1.243269 1.071548 1.031172 1.033434 1.0354 1.038088 1.039082 1.03645 1.036732 1.038187 1.040493 1.042744 1.045093 1.109663 1.225973 1.297711 1.318895 1.311126 1.328252 1.529046 1.596906 1.478838 1.473858 1.491965 1.483997 1.476491 1.454144 1.426998 1.43854 1.464118 1.468449 1.492187 1.477306 1.472123 1.458355 1.430842 1.432645 1.443466 1.452119 1.373561 1.275874 1.265675 1.2111 1.149399 1.134948 1.164113 1.244644 1.432247 1.62082 1.613145 1.465689 1.371886 1.38281 1.459766 1.388046 1.417203 1.5613 1.27873 1.060031 1.042703 1.040383 1.037429 1.272548 1.359716 1.225862 1.107853 1.080626 1.087902 1.11381 1.080598 1.043879 1.04658 1.126131 1.325357 1.439623 1.147682 1.085325 1.091144 1.061749 -9999 -9999 
-9999 -9999 1.006088 1.030985 1.086394 1.028483 1.008954 1.086401 1.039732 1.010852 1.011243 1.012396 1.013851 1.015104 1.016577 1.018182 1.096606 1.340923 1.097782 1.049571 1.061654 1.092923 1.120027 1.06173 1.028793 1.031357 1.033884 1.044076 1.308438 1.035062 1.032924 1.030455 1.027358 1.037863 1.132276 1.181255 1.175234 1.165022 1.18834 1.18621 1.154721 1.130908 1.050978 1.017014 1.014949 1.031773 1.166848 1.040673 1.009554 1.008459 1.007898 1.007885 1.008038 1.004845 1.003263 1.014699 1.023917 1.010975 1.001265 1.001465 1.002062 1.020169 1.054488 1.018607 1.031967 1.087204 1.108119 1.13359 1.157758 1.189766 1.208853 1.203524 1.107832 0.9956602 0.9987598 1.076334 1.175638 1.162329 1.292725 1.312425 1.162547 1.092099 1.065927 1.016757 1.00675 1.00906 1.062319 1.116504 1.074847 1.018759 1.025691 1.015478 1.014548 1.013059 1.091491 1.029146 1.037092 1.061092 1.089032 1.096856 1.091685 1.091597 1.064189 1.024106 1.022743 1.064948 1.074869 1.048617 1.025854 1.028433 1.218534 1.027485 1.037929 1.159974 1.1511 1.195248 1.274034 1.353474 1.366593 1.375452 1.374899 1.344555 1.37221 1.382318 1.27509 1.079098 1.031036 1.033691 1.035871 1.038007 1.04112 1.039979 1.039338 1.039569 1.041293 1.043938 1.046068 1.146157 1.264911 1.38844 1.415723 1.379502 1.421181 1.543156 1.478325 1.469139 1.527032 1.531801 1.492907 1.464887 1.456509 1.462303 1.478004 1.480986 1.469054 1.470493 1.469008 1.471059 1.472764 1.470566 1.496348 1.504274 1.527995 1.477709 1.358549 1.27723 1.276134 1.345969 1.500306 1.44705 1.499845 1.70381 1.623317 1.569589 1.377164 1.336217 1.411114 1.466123 1.393008 1.395082 1.505863 1.251174 1.044749 1.042225 1.039297 1.090069 1.157435 1.124829 1.127575 1.117854 1.099222 1.055817 1.04186 1.043699 1.046449 1.150655 1.399469 1.521356 1.31198 1.098684 1.09814 1.147169 1.074809 -9999 -9999 
-9999 -9999 -9999 -9999 -9999 -9999 -9999 -9999 -9999 -9999 -9999 -9999 -9999 -9999 -9999 -9999 -9999 -9999 -9999 -9999 -9999 -9999 -9999 -9999 -9999 -9999 -9999 -9999 -9999 -9999 -9999 -9999 -9999 -9999 -9999 -9999 -9999 -9999 -9999 -9999 -9999 -9999 -9999 -9999 -9999 -9999 -9999 -9999 -9999 -9999 -9999 -9999 -9999 -9999 -9999 -9999 -9999 -9999 -9999 -9999 -9999 -9999 -9999 -9999 -9999 -9999 -9999 -9999 -9999 -9999 -9999 -9999 -9999 -9999 -9999 -9999 -9999 -9999 -9999 -9999 -9999 -9999 -9999 -9999 -9999 -9999 -9999 -9999 -9999 -9999 -9999 -9999 -9999 -9999 -9999 -9999 -9999 -9999 -9999 -9999 -9999 -9999 -9999 -9999 -9999 -9999 -9999 -9999 -9999 -9999 -9999 -9999 -9999 -9999 -9999 -9999 -9999 -9999 -9999 -9999 -9999 -9999 -9999 -9999 -9999 -9999 -9999 -9999 -9999 -9999 -9999 -9999 -9999 -9999 -9999 -9999 -9999 -9999 -9999 -9999 -9999 -9999 -9999 -9999 -9999 -9999 -9999 -9999 -9999 -9999 -9999 -9999 -9999 -9999 -9999 -9999 -9999 -9999 -9999 -9999 -9999 -9999 -9999 -9999 -9999 -9999 -9999 -9999 -9999 -9999 -9999 -9999 -9999 -9999 -9999 -9999 -9999 -9999 -9999 -9999 -9999 -9999 -9999 -9999 -9999 -9999 -9999 -9999 -9999 -9999 -9999 -9999 -9999 -9999 -9999 -9999 -9999 -9999 -9999 -9999 -9999 -9999 -9999 -9999 -9999 
